(1040_sq_2mm_bit_finish)
(T1  D=2 CR=0 - ZMIN=-12.34 - flat end mill)
G90 G94
G17
G21
(When using Fusion 360 for Personal Use, the feedrate of)
(rapid moves is reduced to match the feedrate of cutting)
(moves, which can increase machining time. Unrestricted rapid)
(moves are available with a Fusion 360 Subscription.)

(2D Contour5)
T1
S5000 M3
G54
G0 X0 Y-1.18
Z10
G1 Z5 F1000
Z2 F333.3
Z-1
G2 X-1.18 Y0 I0 J1.18 F1000
G1 Y50
G2 X0 Y51.18 I1.18 J0
G1 X20
G2 X21.18 Y50 I0 J-1.18
G1 Y35
G2 X20 Y33.82 I-1.18 J0
G1 X9.18
Y16.18
X20
G2 X21.18 Y15 I0 J-1.18
G1 Y0
G2 X20 Y-1.18 I-1.18 J0
G1 X0
Z-2 F333.3
G2 X-1.18 Y0 I0 J1.18 F1000
G1 Y50
G2 X0 Y51.18 I1.18 J0
G1 X20
G2 X21.18 Y50 I0 J-1.18
G1 Y35
G2 X20 Y33.82 I-1.18 J0
G1 X9.18
Y16.18
X20
G2 X21.18 Y15 I0 J-1.18
G1 Y0
G2 X20 Y-1.18 I-1.18 J0
G1 X0
Z-3 F333.3
G2 X-1.18 Y0 I0 J1.18 F1000
G1 Y50
G2 X0 Y51.18 I1.18 J0
G1 X20
G2 X21.18 Y50 I0 J-1.18
G1 Y35
G2 X20 Y33.82 I-1.18 J0
G1 X9.18
Y16.18
X20
G2 X21.18 Y15 I0 J-1.18
G1 Y0
G2 X20 Y-1.18 I-1.18 J0
G1 X0
Z-4 F333.3
G2 X-1.18 Y0 I0 J1.18 F1000
G1 Y50
G2 X0 Y51.18 I1.18 J0
G1 X20
G2 X21.18 Y50 I0 J-1.18
G1 Y35
G2 X20 Y33.82 I-1.18 J0
G1 X9.18
Y16.18
X20
G2 X21.18 Y15 I0 J-1.18
G1 Y0
G2 X20 Y-1.18 I-1.18 J0
G1 X0
Z-5 F333.3
G2 X-1.18 Y0 I0 J1.18 F1000
G1 Y50
G2 X0 Y51.18 I1.18 J0
G1 X20
G2 X21.18 Y50 I0 J-1.18
G1 Y35
G2 X20 Y33.82 I-1.18 J0
G1 X9.18
Y16.18
X20
G2 X21.18 Y15 I0 J-1.18
G1 Y0
G2 X20 Y-1.18 I-1.18 J0
G1 X0
Z-6 F333.3
G2 X-1.18 Y0 I0 J1.18 F1000
G1 Y50
G2 X0 Y51.18 I1.18 J0
G1 X20
G2 X21.18 Y50 I0 J-1.18
G1 Y35
G2 X20 Y33.82 I-1.18 J0
G1 X9.18
Y16.18
X20
G2 X21.18 Y15 I0 J-1.18
G1 Y0
G2 X20 Y-1.18 I-1.18 J0
G1 X0
Z-7 F333.3
G2 X-1.18 Y0 I0 J1.18 F1000
G1 Y50
G2 X0 Y51.18 I1.18 J0
G1 X20
G2 X21.18 Y50 I0 J-1.18
G1 Y35
G2 X20 Y33.82 I-1.18 J0
G1 X9.18
Y16.18
X20
G2 X21.18 Y15 I0 J-1.18
G1 Y0
G2 X20 Y-1.18 I-1.18 J0
G1 X0
Z-8 F333.3
G2 X-1.18 Y0 I0 J1.18 F1000
G1 Y50
G2 X0 Y51.18 I1.18 J0
G1 X20
G2 X21.18 Y50 I0 J-1.18
G1 Y35
G2 X20 Y33.82 I-1.18 J0
G1 X9.18
Y16.18
X20
G2 X21.18 Y15 I0 J-1.18
G1 Y0
G2 X20 Y-1.18 I-1.18 J0
G1 X0
Z-9 F333.3
G2 X-1.18 Y0 I0 J1.18 F1000
G1 Y50
G2 X0 Y51.18 I1.18 J0
G1 X20
G2 X21.18 Y50 I0 J-1.18
G1 Y35
G2 X20 Y33.82 I-1.18 J0
G1 X9.18
Y16.18
X20
G2 X21.18 Y15 I0 J-1.18
G1 Y0
G2 X20 Y-1.18 I-1.18 J0
G1 X0
Z-10 F333.3
G2 X-1.18 Y0 I0 J1.18 F1000
G1 Y50
G2 X0 Y51.18 I1.18 J0
G1 X20
G2 X21.18 Y50 I0 J-1.18
G1 Y35
G2 X20 Y33.82 I-1.18 J0
G1 X9.18
Y16.18
X20
G2 X21.18 Y15 I0 J-1.18
G1 Y0
G2 X20 Y-1.18 I-1.18 J0
G1 X0
Z-11 F333.3
G2 X-1.18 Y0 I0 J1.18 F1000
G1 Y11.335
Y11.5 Z-10.34
Y13.5
Y13.665 Z-11 F333.3
Y36.335 F1000
Y36.5 Z-10.34
Y38.5
Y38.665 Z-11 F333.3
Y50 F1000
G2 X0 Y51.18 I1.18 J0
G1 X20
G2 X21.18 Y50 I0 J-1.18
G1 Y35
G2 X20 Y33.82 I-1.18 J0
G1 X9.18
Y16.18
X20
G2 X21.18 Y15 I0 J-1.18
G1 Y0
G2 X20 Y-1.18 I-1.18 J0
G1 X0
Z-12 F333.3
G2 X-1.18 Y0 I0 J1.18 F1000
G1 Y11.085
Y11.5 Z-10.34
Y13.5
Y13.915 Z-12 F333.3
Y36.085 F1000
Y36.5 Z-10.34
Y38.5
Y38.915 Z-12 F333.3
Y50 F1000
G2 X0 Y51.18 I1.18 J0
G1 X20
G2 X21.18 Y50 I0 J-1.18
G1 Y35
G2 X20 Y33.82 I-1.18 J0
G1 X9.18
Y16.18
X20
G2 X21.18 Y15 I0 J-1.18
G1 Y0
G2 X20 Y-1.18 I-1.18 J0
G1 X0
Z5
X-1.18 Y0
Z-10 F333.3
Z-12.34
Y11 F1000
Y11.5 Z-10.34
Y13.5
Y14 Z-12.34 F333.3
Y36 F1000
Y36.5 Z-10.34
Y38.5
Y39 Z-12.34 F333.3
Y50 F1000
G2 X0 Y51.18 I1.18 J0
G1 X20
G2 X21.18 Y50 I0 J-1.18
G1 Y35
G2 X20 Y33.82 I-1.18 J0
G1 X9.18
Y16.18
X20
G2 X21.18 Y15 I0 J-1.18
G1 Y0
G2 X20 Y-1.18 I-1.18 J0
G1 X0
G2 X-1.18 Y0 I0 J1.18
G1 X-1.174 Y0.042
X-1.155 Y0.081
X-1.127 Y0.113
X-1.09 Y0.135
X-1.053 Y0.157
X-1.025 Y0.189
X-1.006 Y0.228
X-1 Y0.27
Y11
Y11.5 Z-10.34
Y13.5
Y14 Z-12.34 F333.3
Y36 F1000
Y36.5 Z-10.34
Y38.5
Y39 Z-12.34 F333.3
Y50 F1000
G2 X0 Y51 I1 J0
G1 X20
G2 X21 Y50 I0 J-1
G1 Y35
G2 X20 Y34 I-1 J0
G1 X9
Y16
X20
G2 X21 Y15 I0 J-1
G1 Y0
G2 X20 Y-1 I-1 J0
G1 X0
G2 X-1 Y0 I0 J1
G1 Y11
Y11.5 Z-10.34
Y13.5
Y14 Z-12.34 F333.3
Y36 F1000
Y36.5 Z-10.34
Y38.5
Y39 Z-12.34 F333.3
Y50 F1000
G2 X0 Y51 I1 J0
G1 X20
G2 X21 Y50 I0 J-1
G1 Y35
G2 X20 Y34 I-1 J0
G1 X9
Y16
X20
G2 X21 Y15 I0 J-1
G1 Y0
G2 X20 Y-1 I-1 J0
G1 X0
G2 X-1 Y0 I0 J1
G1 Y0.27
Z5
X40 Y-1.18
Z2 F333.3
Z-1
G2 X38.82 Y0 I0 J1.18 F1000
G1 Y13.82
X29
G2 X26.82 Y16 I0 J2.18
G1 Y34
G2 X29 Y36.18 I2.18 J0
G1 X38.82
Y50
G2 X40 Y51.18 I1.18 J0
G1 X50
G2 X51.18 Y50 I0 J-1.18
G1 Y0
G2 X50 Y-1.18 I-1.18 J0
G1 X40
Z-2 F333.3
G2 X38.82 Y0 I0 J1.18 F1000
G1 Y13.82
X29
G2 X26.82 Y16 I0 J2.18
G1 Y34
G2 X29 Y36.18 I2.18 J0
G1 X38.82
Y50
G2 X40 Y51.18 I1.18 J0
G1 X50
G2 X51.18 Y50 I0 J-1.18
G1 Y0
G2 X50 Y-1.18 I-1.18 J0
G1 X40
Z-3 F333.3
G2 X38.82 Y0 I0 J1.18 F1000
G1 Y13.82
X29
G2 X26.82 Y16 I0 J2.18
G1 Y34
G2 X29 Y36.18 I2.18 J0
G1 X38.82
Y50
G2 X40 Y51.18 I1.18 J0
G1 X50
G2 X51.18 Y50 I0 J-1.18
G1 Y0
G2 X50 Y-1.18 I-1.18 J0
G1 X40
Z-4 F333.3
G2 X38.82 Y0 I0 J1.18 F1000
G1 Y13.82
X29
G2 X26.82 Y16 I0 J2.18
G1 Y34
G2 X29 Y36.18 I2.18 J0
G1 X38.82
Y50
G2 X40 Y51.18 I1.18 J0
G1 X50
G2 X51.18 Y50 I0 J-1.18
G1 Y0
G2 X50 Y-1.18 I-1.18 J0
G1 X40
Z-5 F333.3
G2 X38.82 Y0 I0 J1.18 F1000
G1 Y13.82
X29
G2 X26.82 Y16 I0 J2.18
G1 Y34
G2 X29 Y36.18 I2.18 J0
G1 X38.82
Y50
G2 X40 Y51.18 I1.18 J0
G1 X50
G2 X51.18 Y50 I0 J-1.18
G1 Y0
G2 X50 Y-1.18 I-1.18 J0
G1 X40
Z-6 F333.3
G2 X38.82 Y0 I0 J1.18 F1000
G1 Y13.82
X29
G2 X26.82 Y16 I0 J2.18
G1 Y34
G2 X29 Y36.18 I2.18 J0
G1 X38.82
Y50
G2 X40 Y51.18 I1.18 J0
G1 X50
G2 X51.18 Y50 I0 J-1.18
G1 Y0
G2 X50 Y-1.18 I-1.18 J0
G1 X40
Z-7 F333.3
G2 X38.82 Y0 I0 J1.18 F1000
G1 Y13.82
X29
G2 X26.82 Y16 I0 J2.18
G1 Y34
G2 X29 Y36.18 I2.18 J0
G1 X38.82
Y50
G2 X40 Y51.18 I1.18 J0
G1 X50
G2 X51.18 Y50 I0 J-1.18
G1 Y0
G2 X50 Y-1.18 I-1.18 J0
G1 X40
Z-8 F333.3
G2 X38.82 Y0 I0 J1.18 F1000
G1 Y13.82
X29
G2 X26.82 Y16 I0 J2.18
G1 Y34
G2 X29 Y36.18 I2.18 J0
G1 X38.82
Y50
G2 X40 Y51.18 I1.18 J0
G1 X50
G2 X51.18 Y50 I0 J-1.18
G1 Y0
G2 X50 Y-1.18 I-1.18 J0
G1 X40
Z-9 F333.3
G2 X38.82 Y0 I0 J1.18 F1000
G1 Y13.82
X29
G2 X26.82 Y16 I0 J2.18
G1 Y34
G2 X29 Y36.18 I2.18 J0
G1 X38.82
Y50
G2 X40 Y51.18 I1.18 J0
G1 X50
G2 X51.18 Y50 I0 J-1.18
G1 Y0
G2 X50 Y-1.18 I-1.18 J0
G1 X40
Z-10 F333.3
G2 X38.82 Y0 I0 J1.18 F1000
G1 Y13.82
X29
G2 X26.82 Y16 I0 J2.18
G1 Y34
G2 X29 Y36.18 I2.18 J0
G1 X38.82
Y50
G2 X40 Y51.18 I1.18 J0
G1 X50
G2 X51.18 Y50 I0 J-1.18
G1 Y0
G2 X50 Y-1.18 I-1.18 J0
G1 X40
Z-11 F333.3
G2 X38.82 Y0 I0 J1.18 F1000
G1 Y13.82
X29
G2 X26.82 Y16 I0 J2.18
G1 Y34
G2 X29 Y36.18 I2.18 J0
G1 X38.82
Y50
G2 X40 Y51.18 I1.18 J0
G1 X50
G2 X51.18 Y50 I0 J-1.18
G1 Y38.665
Y38.5 Z-10.34
Y36.5
Y36.335 Z-11 F333.3
Y13.665 F1000
Y13.5 Z-10.34
Y11.5
Y11.335 Z-11 F333.3
Y0 F1000
G2 X50 Y-1.18 I-1.18 J0
G1 X40
Z-12 F333.3
G2 X38.82 Y0 I0 J1.18 F1000
G1 Y13.82
X29
G2 X26.82 Y16 I0 J2.18
G1 Y34
G2 X29 Y36.18 I2.18 J0
G1 X38.82
Y50
G2 X40 Y51.18 I1.18 J0
G1 X50
G2 X51.18 Y50 I0 J-1.18
G1 Y38.915
Y38.5 Z-10.34
Y36.5
Y36.085 Z-12 F333.3
Y13.915 F1000
Y13.5 Z-10.34
Y11.5
Y11.085 Z-12 F333.3
Y0 F1000
G2 X50 Y-1.18 I-1.18 J0
G1 X40
Z-12.34 F333.3
G2 X38.82 Y0 I0 J1.18 F1000
G1 Y13.82
X29
G2 X26.82 Y16 I0 J2.18
G1 Y34
G2 X29 Y36.18 I2.18 J0
G1 X38.82
Y50
G2 X40 Y51.18 I1.18 J0
G1 X50
G2 X51.18 Y50 I0 J-1.18
G1 Y39
Y38.5 Z-10.34
Y36.5
Y36 Z-12.34 F333.3
Y14 F1000
Y13.5 Z-10.34
Y11.5
Y11 Z-12.34 F333.3
Y0 F1000
G2 X50 Y-1.18 I-1.18 J0
G1 X40
X39.955 Y-1.173
X39.914 Y-1.153
X39.881 Y-1.121
X39.859 Y-1.081
X39.839 Y-1.041
X39.811 Y-1.007
X39.775 Y-0.981
X39.733 Y-0.964
G2 X39 Y0 I0.267 J0.964
G1 Y14
X29
G2 X27 Y16 I0 J2
G1 Y34
G2 X29 Y36 I2 J0
G1 X39
Y50
G2 X40 Y51 I1 J0
G1 X50
G2 X51 Y50 I0 J-1
G1 Y39
Y38.5 Z-10.34
Y36.5
Y36 Z-12.34 F333.3
Y14 F1000
Y13.5 Z-10.34
Y11.5
Y11 Z-12.34 F333.3
Y0 F1000
G2 X50 Y-1 I-1 J0
G1 X40
G2 X39 Y0 I0 J1
G1 Y14
X29
G2 X27 Y16 I0 J2
G1 Y34
G2 X29 Y36 I2 J0
G1 X39
Y50
G2 X40 Y51 I1 J0
G1 X50
G2 X51 Y50 I0 J-1
G1 Y39
Y38.5 Z-10.34
Y36.5
Y36 Z-12.34 F333.3
Y14 F1000
Y13.5 Z-10.34
Y11.5
Y11 Z-12.34 F333.3
Y0 F1000
G2 X50 Y-1 I-1 J0
G1 X40
G2 X39.733 Y-0.964 I0 J1
G1 Z10
M5
M30
