(1041_sq_18_bit)
(T1  D=1.8 CR=0 - ZMIN=-12.34 - flat end mill)
G90 G94
G17
G21
(When using Fusion 360 for Personal Use, the feedrate of)
(rapid moves is reduced to match the feedrate of cutting)
(moves, which can increase machining time. Unrestricted rapid)
(moves are available with a Fusion 360 Subscription.)

(2D Contour5)
T1
S5000 M3
G54
G0 X0 Y-1.08
Z10
G1 Z5 F1000
Z2 F333.3
Z-1
G2 X-1.08 Y0 I0 J1.08 F1000
G1 Y50
G2 X0 Y51.08 I1.08 J0
G1 X20
G2 X21.08 Y50 I0 J-1.08
G1 Y35
G2 X20 Y33.92 I-1.08 J0
G1 X9.08
Y16.08
X20
G2 X21.08 Y15 I0 J-1.08
G1 Y0
G2 X20 Y-1.08 I-1.08 J0
G1 X0
Z-2 F333.3
G2 X-1.08 Y0 I0 J1.08 F1000
G1 Y50
G2 X0 Y51.08 I1.08 J0
G1 X20
G2 X21.08 Y50 I0 J-1.08
G1 Y35
G2 X20 Y33.92 I-1.08 J0
G1 X9.08
Y16.08
X20
G2 X21.08 Y15 I0 J-1.08
G1 Y0
G2 X20 Y-1.08 I-1.08 J0
G1 X0
Z-3 F333.3
G2 X-1.08 Y0 I0 J1.08 F1000
G1 Y50
G2 X0 Y51.08 I1.08 J0
G1 X20
G2 X21.08 Y50 I0 J-1.08
G1 Y35
G2 X20 Y33.92 I-1.08 J0
G1 X9.08
Y16.08
X20
G2 X21.08 Y15 I0 J-1.08
G1 Y0
G2 X20 Y-1.08 I-1.08 J0
G1 X0
Z-4 F333.3
G2 X-1.08 Y0 I0 J1.08 F1000
G1 Y50
G2 X0 Y51.08 I1.08 J0
G1 X20
G2 X21.08 Y50 I0 J-1.08
G1 Y35
G2 X20 Y33.92 I-1.08 J0
G1 X9.08
Y16.08
X20
G2 X21.08 Y15 I0 J-1.08
G1 Y0
G2 X20 Y-1.08 I-1.08 J0
G1 X0
Z-5 F333.3
G2 X-1.08 Y0 I0 J1.08 F1000
G1 Y50
G2 X0 Y51.08 I1.08 J0
G1 X20
G2 X21.08 Y50 I0 J-1.08
G1 Y35
G2 X20 Y33.92 I-1.08 J0
G1 X9.08
Y16.08
X20
G2 X21.08 Y15 I0 J-1.08
G1 Y0
G2 X20 Y-1.08 I-1.08 J0
G1 X0
Z-6 F333.3
G2 X-1.08 Y0 I0 J1.08 F1000
G1 Y50
G2 X0 Y51.08 I1.08 J0
G1 X20
G2 X21.08 Y50 I0 J-1.08
G1 Y35
G2 X20 Y33.92 I-1.08 J0
G1 X9.08
Y16.08
X20
G2 X21.08 Y15 I0 J-1.08
G1 Y0
G2 X20 Y-1.08 I-1.08 J0
G1 X0
Z-7 F333.3
G2 X-1.08 Y0 I0 J1.08 F1000
G1 Y50
G2 X0 Y51.08 I1.08 J0
G1 X20
G2 X21.08 Y50 I0 J-1.08
G1 Y35
G2 X20 Y33.92 I-1.08 J0
G1 X9.08
Y16.08
X20
G2 X21.08 Y15 I0 J-1.08
G1 Y0
G2 X20 Y-1.08 I-1.08 J0
G1 X0
Z-8 F333.3
G2 X-1.08 Y0 I0 J1.08 F1000
G1 Y50
G2 X0 Y51.08 I1.08 J0
G1 X20
G2 X21.08 Y50 I0 J-1.08
G1 Y35
G2 X20 Y33.92 I-1.08 J0
G1 X9.08
Y16.08
X20
G2 X21.08 Y15 I0 J-1.08
G1 Y0
G2 X20 Y-1.08 I-1.08 J0
G1 X0
Z-9 F333.3
G2 X-1.08 Y0 I0 J1.08 F1000
G1 Y50
G2 X0 Y51.08 I1.08 J0
G1 X20
G2 X21.08 Y50 I0 J-1.08
G1 Y35
G2 X20 Y33.92 I-1.08 J0
G1 X9.08
Y16.08
X20
G2 X21.08 Y15 I0 J-1.08
G1 Y0
G2 X20 Y-1.08 I-1.08 J0
G1 X0
Z-10 F333.3
G2 X-1.08 Y0 I0 J1.08 F1000
G1 Y50
G2 X0 Y51.08 I1.08 J0
G1 X20
G2 X21.08 Y50 I0 J-1.08
G1 Y35
G2 X20 Y33.92 I-1.08 J0
G1 X9.08
Y16.08
X20
G2 X21.08 Y15 I0 J-1.08
G1 Y0
G2 X20 Y-1.08 I-1.08 J0
G1 X0
Z-11 F333.3
G2 X-1.08 Y0 I0 J1.08 F1000
G1 Y11.435
Y11.6 Z-10.34
Y13.4
Y13.565 Z-11 F333.3
Y36.435 F1000
Y36.6 Z-10.34
Y38.4
Y38.565 Z-11 F333.3
Y50 F1000
G2 X0 Y51.08 I1.08 J0
G1 X20
G2 X21.08 Y50 I0 J-1.08
G1 Y35
G2 X20 Y33.92 I-1.08 J0
G1 X9.08
Y16.08
X20
G2 X21.08 Y15 I0 J-1.08
G1 Y0
G2 X20 Y-1.08 I-1.08 J0
G1 X0
Z-12 F333.3
G2 X-1.08 Y0 I0 J1.08 F1000
G1 Y11.185
Y11.6 Z-10.34
Y13.4
Y13.815 Z-12 F333.3
Y36.185 F1000
Y36.6 Z-10.34
Y38.4
Y38.815 Z-12 F333.3
Y50 F1000
G2 X0 Y51.08 I1.08 J0
G1 X20
G2 X21.08 Y50 I0 J-1.08
G1 Y35
G2 X20 Y33.92 I-1.08 J0
G1 X9.08
Y16.08
X20
G2 X21.08 Y15 I0 J-1.08
G1 Y0
G2 X20 Y-1.08 I-1.08 J0
G1 X0
Z5
X-1.08 Y0
Z-10 F333.3
Z-12.34
Y11.1 F1000
Y11.6 Z-10.34
Y13.4
Y13.9 Z-12.34 F333.3
Y36.1 F1000
Y36.6 Z-10.34
Y38.4
Y38.9 Z-12.34 F333.3
Y50 F1000
G2 X0 Y51.08 I1.08 J0
G1 X20
G2 X21.08 Y50 I0 J-1.08
G1 Y35
G2 X20 Y33.92 I-1.08 J0
G1 X9.08
Y16.08
X20
G2 X21.08 Y15 I0 J-1.08
G1 Y0
G2 X20 Y-1.08 I-1.08 J0
G1 X0
G2 X-1.08 Y0 I0 J1.08
G1 X-1.074 Y0.042
X-1.055 Y0.081
X-1.027 Y0.113
X-0.99 Y0.135
X-0.953 Y0.157
X-0.925 Y0.189
X-0.906 Y0.228
X-0.9 Y0.27
Y11.1
Y11.6 Z-10.34
Y13.4
Y13.9 Z-12.34 F333.3
Y36.1 F1000
Y36.6 Z-10.34
Y38.4
Y38.9 Z-12.34 F333.3
Y50 F1000
G2 X0 Y50.9 I0.9 J0
G1 X20
G2 X20.9 Y50 I0 J-0.9
G1 Y35
G2 X20 Y34.1 I-0.9 J0
G1 X9
X8.962 Y34.092
X8.929 Y34.071
X8.908 Y34.038
X8.9 Y34
Y16
X8.908 Y15.962
X8.929 Y15.929
X8.962 Y15.908
X9 Y15.9
X20
G2 X20.9 Y15 I0 J-0.9
G1 Y0
G2 X20 Y-0.9 I-0.9 J0
G1 X0
G2 X-0.9 Y0 I0 J0.9
G1 Y11.1
Y11.6 Z-10.34
Y13.4
Y13.9 Z-12.34 F333.3
Y36.1 F1000
Y36.6 Z-10.34
Y38.4
Y38.9 Z-12.34 F333.3
Y50 F1000
G2 X0 Y50.9 I0.9 J0
G1 X20
G2 X20.9 Y50 I0 J-0.9
G1 Y35
G2 X20 Y34.1 I-0.9 J0
G1 X9
X8.962 Y34.092
X8.929 Y34.071
X8.908 Y34.038
X8.9 Y34
Y16
X8.908 Y15.962
X8.929 Y15.929
X8.962 Y15.908
X9 Y15.9
X20
G2 X20.9 Y15 I0 J-0.9
G1 Y0
G2 X20 Y-0.9 I-0.9 J0
G1 X0
G2 X-0.9 Y0 I0 J0.9
G1 Y0.27
Z5
X38.92 Y0
Z2 F333.3
Z-1
Y13.92 F1000
X29
G2 X26.92 Y16 I0 J2.08
G1 Y34
G2 X29 Y36.08 I2.08 J0
G1 X38.92
Y50
G2 X40 Y51.08 I1.08 J0
G1 X50
G2 X51.08 Y50 I0 J-1.08
G1 Y0
G2 X50 Y-1.08 I-1.08 J0
G1 X40
G2 X38.92 Y0 I0 J1.08
G1 Z-2 F333.3
Y13.92 F1000
X29
G2 X26.92 Y16 I0 J2.08
G1 Y34
G2 X29 Y36.08 I2.08 J0
G1 X38.92
Y50
G2 X40 Y51.08 I1.08 J0
G1 X50
G2 X51.08 Y50 I0 J-1.08
G1 Y0
G2 X50 Y-1.08 I-1.08 J0
G1 X40
G2 X38.92 Y0 I0 J1.08
G1 Z-3 F333.3
Y13.92 F1000
X29
G2 X26.92 Y16 I0 J2.08
G1 Y34
G2 X29 Y36.08 I2.08 J0
G1 X38.92
Y50
G2 X40 Y51.08 I1.08 J0
G1 X50
G2 X51.08 Y50 I0 J-1.08
G1 Y0
G2 X50 Y-1.08 I-1.08 J0
G1 X40
G2 X38.92 Y0 I0 J1.08
G1 Z-4 F333.3
Y13.92 F1000
X29
G2 X26.92 Y16 I0 J2.08
G1 Y34
G2 X29 Y36.08 I2.08 J0
G1 X38.92
Y50
G2 X40 Y51.08 I1.08 J0
G1 X50
G2 X51.08 Y50 I0 J-1.08
G1 Y0
G2 X50 Y-1.08 I-1.08 J0
G1 X40
G2 X38.92 Y0 I0 J1.08
G1 Z-5 F333.3
Y13.92 F1000
X29
G2 X26.92 Y16 I0 J2.08
G1 Y34
G2 X29 Y36.08 I2.08 J0
G1 X38.92
Y50
G2 X40 Y51.08 I1.08 J0
G1 X50
G2 X51.08 Y50 I0 J-1.08
G1 Y0
G2 X50 Y-1.08 I-1.08 J0
G1 X40
G2 X38.92 Y0 I0 J1.08
G1 Z-6 F333.3
Y13.92 F1000
X29
G2 X26.92 Y16 I0 J2.08
G1 Y34
G2 X29 Y36.08 I2.08 J0
G1 X38.92
Y50
G2 X40 Y51.08 I1.08 J0
G1 X50
G2 X51.08 Y50 I0 J-1.08
G1 Y0
G2 X50 Y-1.08 I-1.08 J0
G1 X40
G2 X38.92 Y0 I0 J1.08
G1 Z-7 F333.3
Y13.92 F1000
X29
G2 X26.92 Y16 I0 J2.08
G1 Y34
G2 X29 Y36.08 I2.08 J0
G1 X38.92
Y50
G2 X40 Y51.08 I1.08 J0
G1 X50
G2 X51.08 Y50 I0 J-1.08
G1 Y0
G2 X50 Y-1.08 I-1.08 J0
G1 X40
G2 X38.92 Y0 I0 J1.08
G1 Z-8 F333.3
Y13.92 F1000
X29
G2 X26.92 Y16 I0 J2.08
G1 Y34
G2 X29 Y36.08 I2.08 J0
G1 X38.92
Y50
G2 X40 Y51.08 I1.08 J0
G1 X50
G2 X51.08 Y50 I0 J-1.08
G1 Y0
G2 X50 Y-1.08 I-1.08 J0
G1 X40
G2 X38.92 Y0 I0 J1.08
G1 Z-9 F333.3
Y13.92 F1000
X29
G2 X26.92 Y16 I0 J2.08
G1 Y34
G2 X29 Y36.08 I2.08 J0
G1 X38.92
Y50
G2 X40 Y51.08 I1.08 J0
G1 X50
G2 X51.08 Y50 I0 J-1.08
G1 Y0
G2 X50 Y-1.08 I-1.08 J0
G1 X40
G2 X38.92 Y0 I0 J1.08
G1 Z-10 F333.3
Y13.92 F1000
X29
G2 X26.92 Y16 I0 J2.08
G1 Y34
G2 X29 Y36.08 I2.08 J0
G1 X38.92
Y50
G2 X40 Y51.08 I1.08 J0
G1 X50
G2 X51.08 Y50 I0 J-1.08
G1 Y0
G2 X50 Y-1.08 I-1.08 J0
G1 X40
G2 X38.92 Y0 I0 J1.08
G1 Z-11 F333.3
Y13.92 F1000
X29
G2 X26.92 Y16 I0 J2.08
G1 Y34
G2 X29 Y36.08 I2.08 J0
G1 X38.92
Y50
G2 X40 Y51.08 I1.08 J0
G1 X50
G2 X51.08 Y50 I0 J-1.08
G1 Y38.565
Y38.4 Z-10.34
Y36.6
Y36.435 Z-11 F333.3
Y13.565 F1000
Y13.4 Z-10.34
Y11.6
Y11.435 Z-11 F333.3
Y0 F1000
G2 X50 Y-1.08 I-1.08 J0
G1 X40
G2 X38.92 Y0 I0 J1.08
G1 Z-12 F333.3
Y13.92 F1000
X29
G2 X26.92 Y16 I0 J2.08
G1 Y34
G2 X29 Y36.08 I2.08 J0
G1 X38.92
Y50
G2 X40 Y51.08 I1.08 J0
G1 X50
G2 X51.08 Y50 I0 J-1.08
G1 Y38.815
Y38.4 Z-10.34
Y36.6
Y36.185 Z-12 F333.3
Y13.815 F1000
Y13.4 Z-10.34
Y11.6
Y11.185 Z-12 F333.3
Y0 F1000
G2 X50 Y-1.08 I-1.08 J0
G1 X40
G2 X38.92 Y0 I0 J1.08
G1 Z-12.34 F333.3
Y13.92 F1000
X29
G2 X26.92 Y16 I0 J2.08
G1 Y34
G2 X29 Y36.08 I2.08 J0
G1 X38.92
Y50
G2 X40 Y51.08 I1.08 J0
G1 X50
G2 X51.08 Y50 I0 J-1.08
G1 Y38.9
Y38.4 Z-10.34
Y36.6
Y36.1 Z-12.34 F333.3
Y13.9 F1000
Y13.4 Z-10.34
Y11.6
Y11.1 Z-12.34 F333.3
Y0 F1000
G2 X50 Y-1.08 I-1.08 J0
G1 X40
G2 X38.92 Y0 I0 J1.08
G1 X38.926 Y0.042
X38.945 Y0.081
X38.973 Y0.113
X39.01 Y0.135
X39.047 Y0.157
X39.075 Y0.189
X39.094 Y0.228
X39.1 Y0.27
Y14.1
X29
G2 X27.1 Y16 I0 J1.9
G1 Y34
G2 X29 Y35.9 I1.9 J0
G1 X39.1
Y50
G2 X40 Y50.9 I0.9 J0
G1 X50
G2 X50.9 Y50 I0 J-0.9
G1 Y38.9
Y38.4 Z-10.34
Y36.6
Y36.1 Z-12.34 F333.3
Y13.9 F1000
Y13.4 Z-10.34
Y11.6
Y11.1 Z-12.34 F333.3
Y0 F1000
G2 X50 Y-0.9 I-0.9 J0
G1 X40
G2 X39.1 Y0 I0 J0.9
G1 Y14.1
X29
G2 X27.1 Y16 I0 J1.9
G1 Y34
G2 X29 Y35.9 I1.9 J0
G1 X39.1
Y50
G2 X40 Y50.9 I0.9 J0
G1 X50
G2 X50.9 Y50 I0 J-0.9
G1 Y38.9
Y38.4 Z-10.34
Y36.6
Y36.1 Z-12.34 F333.3
Y13.9 F1000
Y13.4 Z-10.34
Y11.6
Y11.1 Z-12.34 F333.3
Y0 F1000
G2 X50 Y-0.9 I-0.9 J0
G1 X40
G2 X39.1 Y0 I0 J0.9
G1 Y0.27
Z10
M5
M30
