(1042_sq_3175_bit)
(T1  D=3.175 CR=0 - ZMIN=-12.34 - flat end mill)
G90 G94
G17
G21
(When using Fusion 360 for Personal Use, the feedrate of)
(rapid moves is reduced to match the feedrate of cutting)
(moves, which can increase machining time. Unrestricted rapid)
(moves are available with a Fusion 360 Subscription.)

(2D Contour5)
T1
S5000 M3
G54
G0 X0 Y-1.768
Z10
G1 Z5 F1000
Z2 F333.3
Z-1
G2 X-1.768 Y0 I0 J1.768 F1000
G1 Y50
G2 X0 Y51.768 I1.768 J0
G1 X20
G2 X21.767 Y50 I0 J-1.768
G1 Y35
G2 X20 Y33.232 I-1.767 J0
G1 X9.767
Y16.767
X20
G2 X21.767 Y15 I0 J-1.767
G1 Y0
G2 X20 Y-1.768 I-1.767 J0
G1 X0
Z-2 F333.3
G2 X-1.768 Y0 I0 J1.768 F1000
G1 Y50
G2 X0 Y51.768 I1.768 J0
G1 X20
G2 X21.767 Y50 I0 J-1.768
G1 Y35
G2 X20 Y33.232 I-1.767 J0
G1 X9.767
Y16.767
X20
G2 X21.767 Y15 I0 J-1.767
G1 Y0
G2 X20 Y-1.768 I-1.767 J0
G1 X0
Z-3 F333.3
G2 X-1.768 Y0 I0 J1.768 F1000
G1 Y50
G2 X0 Y51.768 I1.768 J0
G1 X20
G2 X21.767 Y50 I0 J-1.768
G1 Y35
G2 X20 Y33.232 I-1.767 J0
G1 X9.767
Y16.767
X20
G2 X21.767 Y15 I0 J-1.767
G1 Y0
G2 X20 Y-1.768 I-1.767 J0
G1 X0
Z-4 F333.3
G2 X-1.768 Y0 I0 J1.768 F1000
G1 Y50
G2 X0 Y51.768 I1.768 J0
G1 X20
G2 X21.767 Y50 I0 J-1.768
G1 Y35
G2 X20 Y33.232 I-1.767 J0
G1 X9.767
Y16.767
X20
G2 X21.767 Y15 I0 J-1.767
G1 Y0
G2 X20 Y-1.768 I-1.767 J0
G1 X0
Z-5 F333.3
G2 X-1.768 Y0 I0 J1.768 F1000
G1 Y50
G2 X0 Y51.768 I1.768 J0
G1 X20
G2 X21.767 Y50 I0 J-1.768
G1 Y35
G2 X20 Y33.232 I-1.767 J0
G1 X9.767
Y16.767
X20
G2 X21.767 Y15 I0 J-1.767
G1 Y0
G2 X20 Y-1.768 I-1.767 J0
G1 X0
Z-6 F333.3
G2 X-1.768 Y0 I0 J1.768 F1000
G1 Y50
G2 X0 Y51.768 I1.768 J0
G1 X20
G2 X21.767 Y50 I0 J-1.768
G1 Y35
G2 X20 Y33.232 I-1.767 J0
G1 X9.767
Y16.767
X20
G2 X21.767 Y15 I0 J-1.767
G1 Y0
G2 X20 Y-1.768 I-1.767 J0
G1 X0
Z-7 F333.3
G2 X-1.768 Y0 I0 J1.768 F1000
G1 Y50
G2 X0 Y51.768 I1.768 J0
G1 X20
G2 X21.767 Y50 I0 J-1.768
G1 Y35
G2 X20 Y33.232 I-1.767 J0
G1 X9.767
Y16.767
X20
G2 X21.767 Y15 I0 J-1.767
G1 Y0
G2 X20 Y-1.768 I-1.767 J0
G1 X0
Z-8 F333.3
G2 X-1.768 Y0 I0 J1.768 F1000
G1 Y50
G2 X0 Y51.768 I1.768 J0
G1 X20
G2 X21.767 Y50 I0 J-1.768
G1 Y35
G2 X20 Y33.232 I-1.767 J0
G1 X9.767
Y16.767
X20
G2 X21.767 Y15 I0 J-1.767
G1 Y0
G2 X20 Y-1.768 I-1.767 J0
G1 X0
Z-9 F333.3
G2 X-1.768 Y0 I0 J1.768 F1000
G1 Y50
G2 X0 Y51.768 I1.768 J0
G1 X20
G2 X21.767 Y50 I0 J-1.768
G1 Y35
G2 X20 Y33.232 I-1.767 J0
G1 X9.767
Y16.767
X20
G2 X21.767 Y15 I0 J-1.767
G1 Y0
G2 X20 Y-1.768 I-1.767 J0
G1 X0
Z-10 F333.3
G2 X-1.768 Y0 I0 J1.768 F1000
G1 Y50
G2 X0 Y51.768 I1.768 J0
G1 X20
G2 X21.767 Y50 I0 J-1.768
G1 Y35
G2 X20 Y33.232 I-1.767 J0
G1 X9.767
Y16.767
X20
G2 X21.767 Y15 I0 J-1.767
G1 Y0
G2 X20 Y-1.768 I-1.767 J0
G1 X0
Z-11 F333.3
G2 X-1.768 Y0 I0 J1.768 F1000
G1 Y10.748
Y10.913 Z-10.34
Y14.087
Y14.252 Z-11 F333.3
Y35.748 F1000
Y35.912 Z-10.34
Y39.088
Y39.252 Z-11 F333.3
Y50 F1000
G2 X0 Y51.768 I1.768 J0
G1 X20
G2 X21.767 Y50 I0 J-1.768
G1 Y35
G2 X20 Y33.232 I-1.767 J0
G1 X9.767
Y16.767
X20
G2 X21.767 Y15 I0 J-1.767
G1 Y0
G2 X20 Y-1.768 I-1.767 J0
G1 X0
Z-12 F333.3
G2 X-1.768 Y0 I0 J1.768 F1000
G1 Y10.498
Y10.913 Z-10.34
Y14.087
Y14.502 Z-12 F333.3
Y35.498 F1000
Y35.912 Z-10.34
Y39.088
Y39.502 Z-12 F333.3
Y50 F1000
G2 X0 Y51.768 I1.768 J0
G1 X20
G2 X21.767 Y50 I0 J-1.768
G1 Y35
G2 X20 Y33.232 I-1.767 J0
G1 X9.767
Y16.767
X20
G2 X21.767 Y15 I0 J-1.767
G1 Y0
G2 X20 Y-1.768 I-1.767 J0
G1 X0
Z5
X-0.662 Y-1.639
Z-10 F333.3
Z-12.34
G2 X-1.768 Y0 I0.662 J1.639 F1000
G1 Y10.413
Y10.913 Z-10.34
Y14.087
Y14.587 Z-12.34 F333.3
Y35.412 F1000
Y35.912 Z-10.34
Y39.088
Y39.588 Z-12.34 F333.3
Y50 F1000
G2 X0 Y51.768 I1.768 J0
G1 X20
G2 X21.767 Y50 I0 J-1.768
G1 Y35
G2 X20 Y33.232 I-1.767 J0
G1 X9.767
Y16.767
X20
G2 X21.767 Y15 I0 J-1.767
G1 Y0
G2 X20 Y-1.768 I-1.767 J0
G1 X0
G2 X-0.662 Y-1.639 I0 J1.768
G1 X-0.7 Y-1.616
X-0.73 Y-1.583
X-0.749 Y-1.543
X-0.754 Y-1.498
X-0.759 Y-1.455
X-0.775 Y-1.414
X-0.801 Y-1.378
X-0.835 Y-1.35
G2 X-1.587 Y0 I0.835 J1.35
G1 Y10.413
Y10.913 Z-10.34
Y14.087
Y14.587 Z-12.34 F333.3
Y35.412 F1000
Y35.912 Z-10.34
Y39.088
Y39.588 Z-12.34 F333.3
Y50 F1000
G2 X0 Y51.588 I1.587 J0
G1 X20
G2 X21.587 Y50 I0 J-1.588
G1 Y35
G2 X20 Y33.412 I-1.587 J0
G1 X9.587
Y16.587
X20
G2 X21.587 Y15 I0 J-1.587
G1 Y0
G2 X20 Y-1.587 I-1.587 J0
G1 X0
G2 X-1.587 Y0 I0 J1.587
G1 Y10.413
Y10.913 Z-10.34
Y14.087
Y14.587 Z-12.34 F333.3
Y35.412 F1000
Y35.912 Z-10.34
Y39.088
Y39.588 Z-12.34 F333.3
Y50 F1000
G2 X0 Y51.588 I1.587 J0
G1 X20
G2 X21.587 Y50 I0 J-1.588
G1 Y35
G2 X20 Y33.412 I-1.587 J0
G1 X9.587
Y16.587
X20
G2 X21.587 Y15 I0 J-1.587
G1 Y0
G2 X20 Y-1.587 I-1.587 J0
G1 X0
G2 X-0.835 Y-1.35 I0 J1.587
G1 Z5
X40 Y-1.768
Z2 F333.3
Z-1
G2 X38.232 Y0 I0 J1.768 F1000
G1 Y13.233
X29
G2 X26.233 Y16 I0 J2.767
G1 Y34
G2 X29 Y36.768 I2.767 J0
G1 X38.232
Y50
G2 X40 Y51.768 I1.768 J0
G1 X50
G2 X51.768 Y50 I0 J-1.768
G1 Y0
G2 X50 Y-1.767 I-1.768 J0
G1 X40 Y-1.768
Z-2 F333.3
G2 X38.232 Y0 I0 J1.768 F1000
G1 Y13.233
X29
G2 X26.233 Y16 I0 J2.767
G1 Y34
G2 X29 Y36.768 I2.767 J0
G1 X38.232
Y50
G2 X40 Y51.768 I1.768 J0
G1 X50
G2 X51.768 Y50 I0 J-1.768
G1 Y0
G2 X50 Y-1.767 I-1.768 J0
G1 X40 Y-1.768
Z-3 F333.3
G2 X38.232 Y0 I0 J1.768 F1000
G1 Y13.233
X29
G2 X26.233 Y16 I0 J2.767
G1 Y34
G2 X29 Y36.768 I2.767 J0
G1 X38.232
Y50
G2 X40 Y51.768 I1.768 J0
G1 X50
G2 X51.768 Y50 I0 J-1.768
G1 Y0
G2 X50 Y-1.767 I-1.768 J0
G1 X40 Y-1.768
Z-4 F333.3
G2 X38.232 Y0 I0 J1.768 F1000
G1 Y13.233
X29
G2 X26.233 Y16 I0 J2.767
G1 Y34
G2 X29 Y36.768 I2.767 J0
G1 X38.232
Y50
G2 X40 Y51.768 I1.768 J0
G1 X50
G2 X51.768 Y50 I0 J-1.768
G1 Y0
G2 X50 Y-1.767 I-1.768 J0
G1 X40 Y-1.768
Z-5 F333.3
G2 X38.232 Y0 I0 J1.768 F1000
G1 Y13.233
X29
G2 X26.233 Y16 I0 J2.767
G1 Y34
G2 X29 Y36.768 I2.767 J0
G1 X38.232
Y50
G2 X40 Y51.768 I1.768 J0
G1 X50
G2 X51.768 Y50 I0 J-1.768
G1 Y0
G2 X50 Y-1.767 I-1.768 J0
G1 X40 Y-1.768
Z-6 F333.3
G2 X38.232 Y0 I0 J1.768 F1000
G1 Y13.233
X29
G2 X26.233 Y16 I0 J2.767
G1 Y34
G2 X29 Y36.768 I2.767 J0
G1 X38.232
Y50
G2 X40 Y51.768 I1.768 J0
G1 X50
G2 X51.768 Y50 I0 J-1.768
G1 Y0
G2 X50 Y-1.767 I-1.768 J0
G1 X40 Y-1.768
Z-7 F333.3
G2 X38.232 Y0 I0 J1.768 F1000
G1 Y13.233
X29
G2 X26.233 Y16 I0 J2.767
G1 Y34
G2 X29 Y36.768 I2.767 J0
G1 X38.232
Y50
G2 X40 Y51.768 I1.768 J0
G1 X50
G2 X51.768 Y50 I0 J-1.768
G1 Y0
G2 X50 Y-1.767 I-1.768 J0
G1 X40 Y-1.768
Z-8 F333.3
G2 X38.232 Y0 I0 J1.768 F1000
G1 Y13.233
X29
G2 X26.233 Y16 I0 J2.767
G1 Y34
G2 X29 Y36.768 I2.767 J0
G1 X38.232
Y50
G2 X40 Y51.768 I1.768 J0
G1 X50
G2 X51.768 Y50 I0 J-1.768
G1 Y0
G2 X50 Y-1.767 I-1.768 J0
G1 X40 Y-1.768
Z-9 F333.3
G2 X38.232 Y0 I0 J1.768 F1000
G1 Y13.233
X29
G2 X26.233 Y16 I0 J2.767
G1 Y34
G2 X29 Y36.768 I2.767 J0
G1 X38.232
Y50
G2 X40 Y51.768 I1.768 J0
G1 X50
G2 X51.768 Y50 I0 J-1.768
G1 Y0
G2 X50 Y-1.767 I-1.768 J0
G1 X40 Y-1.768
Z-10 F333.3
G2 X38.232 Y0 I0 J1.768 F1000
G1 Y13.233
X29
G2 X26.233 Y16 I0 J2.767
G1 Y34
G2 X29 Y36.768 I2.767 J0
G1 X38.232
Y50
G2 X40 Y51.768 I1.768 J0
G1 X50
G2 X51.768 Y50 I0 J-1.768
G1 Y0
G2 X50 Y-1.767 I-1.768 J0
G1 X40 Y-1.768
Z-11 F333.3
G2 X38.232 Y0 I0 J1.768 F1000
G1 Y13.233
X29
G2 X26.233 Y16 I0 J2.767
G1 Y34
G2 X29 Y36.768 I2.767 J0
G1 X38.232
Y50
G2 X40 Y51.768 I1.768 J0
G1 X50
G2 X51.768 Y50 I0 J-1.768
G1 Y39.252
Y39.088 Z-10.34
Y35.912
Y35.748 Z-11 F333.3
Y14.252 F1000
Y14.087 Z-10.34
Y10.913
Y10.748 Z-11 F333.3
Y0 F1000
G2 X50 Y-1.767 I-1.768 J0
G1 X40 Y-1.768
Z-12 F333.3
G2 X38.232 Y0 I0 J1.768 F1000
G1 Y13.233
X29
G2 X26.233 Y16 I0 J2.767
G1 Y34
G2 X29 Y36.768 I2.767 J0
G1 X38.232
Y50
G2 X40 Y51.768 I1.768 J0
G1 X50
G2 X51.768 Y50 I0 J-1.768
G1 Y39.502
Y39.088 Z-10.34
Y35.912
Y35.498 Z-12 F333.3
Y14.502 F1000
Y14.087 Z-10.34
Y10.913
Y10.498 Z-12 F333.3
Y0 F1000
G2 X50 Y-1.767 I-1.768 J0
G1 X40 Y-1.768
Z-12.34 F333.3
G2 X38.232 Y0 I0 J1.768 F1000
G1 Y13.233
X29
G2 X26.233 Y16 I0 J2.767
G1 Y34
G2 X29 Y36.768 I2.767 J0
G1 X38.232
Y50
G2 X40 Y51.768 I1.768 J0
G1 X50
G2 X51.768 Y50 I0 J-1.768
G1 Y39.588
Y39.088 Z-10.34
Y35.912
Y35.412 Z-12.34 F333.3
Y14.587 F1000
Y14.087 Z-10.34
Y10.913
Y10.413 Z-12.34 F333.3
Y0 F1000
G2 X50 Y-1.767 I-1.768 J0
G1 X40 Y-1.768
X39.956 Y-1.761
X39.916 Y-1.741
X39.883 Y-1.711
X39.861 Y-1.672
X39.841 Y-1.633
X39.811 Y-1.601
X39.773 Y-1.578
X39.731 Y-1.565
G2 X38.412 Y0 I0.269 J1.565
G1 Y13.413
X29
G2 X26.413 Y16 I0 J2.587
G1 Y34
G2 X29 Y36.588 I2.587 J0
G1 X38.412
Y50
G2 X40 Y51.588 I1.588 J0
G1 X50
G2 X51.588 Y50 I0 J-1.588
G1 Y39.588
Y39.088 Z-10.34
Y35.912
Y35.412 Z-12.34 F333.3
Y14.587 F1000
Y14.087 Z-10.34
Y10.913
Y10.413 Z-12.34 F333.3
Y0 F1000
G2 X50 Y-1.587 I-1.588 J0
G1 X40 Y-1.588
G2 X38.412 Y0 I0 J1.587
G1 Y13.413
X29
G2 X26.413 Y16 I0 J2.587
G1 Y34
G2 X29 Y36.588 I2.587 J0
G1 X38.412
Y50
G2 X40 Y51.588 I1.588 J0
G1 X50
G2 X51.588 Y50 I0 J-1.588
G1 Y39.588
Y39.088 Z-10.34
Y35.912
Y35.412 Z-12.34 F333.3
Y14.587 F1000
Y14.087 Z-10.34
Y10.913
Y10.413 Z-12.34 F333.3
Y0 F1000
G2 X50 Y-1.587 I-1.588 J0
G1 X40 Y-1.588
G2 X39.731 Y-1.565 I0 J1.587
G1 Z10
M5
M30
