(1043_sq_3175bit_2mm_step_25_finish)
(T1  D=3.175 CR=0 - ZMIN=-12.34 - flat end mill)
G90 G94
G17
G21
(When using Fusion 360 for Personal Use, the feedrate of)
(rapid moves is reduced to match the feedrate of cutting)
(moves, which can increase machining time. Unrestricted rapid)
(moves are available with a Fusion 360 Subscription.)

(2D Contour5)
T1
S5000 M3
G54
G0 X0 Y-1.837
Z10
G1 Z5 F1000
Z3 F333.3
Z-1.763
G2 X-1.837 Y0 I0 J1.837 F1000
G1 Y50
G2 X0 Y51.838 I1.837 J0
G1 X20
G2 X21.837 Y50 I0 J-1.838
G1 Y35
G2 X20 Y33.162 I-1.837 J0
G1 X9.837
Y16.837
X20
G2 X21.837 Y15 I0 J-1.837
G1 Y0
G2 X20 Y-1.837 I-1.837 J0
G1 X0
Z-3.526 F333.3
G2 X-1.837 Y0 I0 J1.837 F1000
G1 Y50
G2 X0 Y51.838 I1.837 J0
G1 X20
G2 X21.837 Y50 I0 J-1.838
G1 Y35
G2 X20 Y33.162 I-1.837 J0
G1 X9.837
Y16.837
X20
G2 X21.837 Y15 I0 J-1.837
G1 Y0
G2 X20 Y-1.837 I-1.837 J0
G1 X0
Z-5.289 F333.3
G2 X-1.837 Y0 I0 J1.837 F1000
G1 Y50
G2 X0 Y51.838 I1.837 J0
G1 X20
G2 X21.837 Y50 I0 J-1.838
G1 Y35
G2 X20 Y33.162 I-1.837 J0
G1 X9.837
Y16.837
X20
G2 X21.837 Y15 I0 J-1.837
G1 Y0
G2 X20 Y-1.837 I-1.837 J0
G1 X0
Z-7.051 F333.3
G2 X-1.837 Y0 I0 J1.837 F1000
G1 Y50
G2 X0 Y51.838 I1.837 J0
G1 X20
G2 X21.837 Y50 I0 J-1.838
G1 Y35
G2 X20 Y33.162 I-1.837 J0
G1 X9.837
Y16.837
X20
G2 X21.837 Y15 I0 J-1.837
G1 Y0
G2 X20 Y-1.837 I-1.837 J0
G1 X0
Z-8.814 F333.3
G2 X-1.837 Y0 I0 J1.837 F1000
G1 Y50
G2 X0 Y51.838 I1.837 J0
G1 X20
G2 X21.837 Y50 I0 J-1.838
G1 Y35
G2 X20 Y33.162 I-1.837 J0
G1 X9.837
Y16.837
X20
G2 X21.837 Y15 I0 J-1.837
G1 Y0
G2 X20 Y-1.837 I-1.837 J0
G1 X0
Z-10.577 F333.3
G2 X-1.837 Y0 I0 J1.837 F1000
G1 Y6.264
Z-9.34
Y11.439
Z-10.577 F333.3
Y39.683 F1000
Z-9.34
Y44.858
Z-10.577 F333.3
Y50 F1000
G2 X0 Y51.838 I1.837 J0
G1 X20
G2 X21.837 Y50 I0 J-1.838
G1 Y35
G2 X20 Y33.162 I-1.837 J0
G1 X9.837
Y27.15
Z-9.34
Y21.975
Z-10.577 F333.3
Y16.837 F1000
X20
G2 X21.837 Y15 I0 J-1.837
G1 Y0
G2 X20 Y-1.837 I-1.837 J0
G1 X0
Z5
X-1.837 Y0
Z-7.577 F333.3
Z-12.34
Y6.264 F1000
Z-9.34
Y11.439
Z-12.34 F333.3
Y39.683 F1000
Z-9.34
Y44.858
Z-12.34 F333.3
Y50 F1000
G2 X0 Y51.838 I1.837 J0
G1 X20
G2 X21.837 Y50 I0 J-1.838
G1 Y35
G2 X20 Y33.162 I-1.837 J0
G1 X9.837
Y27.15
Z-9.34
Y21.975
Z-12.34 F333.3
Y16.837 F1000
X20
G2 X21.837 Y15 I0 J-1.837
G1 Y0
G2 X20 Y-1.837 I-1.837 J0
G1 X0
G2 X-1.837 Y0 I0 J1.837
G1 X-1.832 Y0.047
X-1.815 Y0.092
X-1.789 Y0.132
X-1.754 Y0.164
X-1.712 Y0.188
X-1.671 Y0.211
X-1.636 Y0.243
X-1.61 Y0.283
X-1.593 Y0.328
X-1.587 Y0.375
Y6.264
Z-9.34
Y11.439
Z-12.34 F333.3
Y39.683 F1000
Z-9.34
Y44.858
Z-12.34 F333.3
Y50 F1000
G2 X0 Y51.588 I1.587 J0
G1 X20
G2 X21.587 Y50 I0 J-1.588
G1 Y35
G2 X20 Y33.412 I-1.587 J0
G1 X9.587
Y27.15
Z-9.34
Y21.975
Z-12.34 F333.3
Y16.587 F1000
X20
G2 X21.587 Y15 I0 J-1.587
G1 Y0
G2 X20 Y-1.587 I-1.587 J0
G1 X0
G2 X-1.587 Y0 I0 J1.587
G1 Y6.264
Z-9.34
Y11.439
Z-12.34 F333.3
Y39.683 F1000
Z-9.34
Y44.858
Z-12.34 F333.3
Y50 F1000
G2 X0 Y51.588 I1.587 J0
G1 X20
G2 X21.587 Y50 I0 J-1.588
G1 Y35
G2 X20 Y33.412 I-1.587 J0
G1 X9.587
Y27.15
Z-9.34
Y21.975
Z-12.34 F333.3
Y16.587 F1000
X20
G2 X21.587 Y15 I0 J-1.587
G1 Y0
G2 X20 Y-1.587 I-1.587 J0
G1 X0
G2 X-1.587 Y0 I0 J1.587
G1 Y0.375
Z5
X40 Y-1.838
Z3 F333.3
Z-1.763
G2 X38.162 Y0 I0 J1.837 F1000
G1 Y13.163
X29
G2 X26.163 Y16 I0 J2.837
G1 Y34
G2 X29 Y36.838 I2.837 J0
G1 X38.162
Y50
G2 X40 Y51.838 I1.838 J0
G1 X50
G2 X51.838 Y50 I0 J-1.838
G1 Y0
G2 X50 Y-1.837 I-1.838 J0
G1 X40 Y-1.838
Z-3.526 F333.3
G2 X38.162 Y0 I0 J1.837 F1000
G1 Y13.163
X29
G2 X26.163 Y16 I0 J2.837
G1 Y34
G2 X29 Y36.838 I2.837 J0
G1 X38.162
Y50
G2 X40 Y51.838 I1.838 J0
G1 X50
G2 X51.838 Y50 I0 J-1.838
G1 Y0
G2 X50 Y-1.837 I-1.838 J0
G1 X40 Y-1.838
Z-5.289 F333.3
G2 X38.162 Y0 I0 J1.837 F1000
G1 Y13.163
X29
G2 X26.163 Y16 I0 J2.837
G1 Y34
G2 X29 Y36.838 I2.837 J0
G1 X38.162
Y50
G2 X40 Y51.838 I1.838 J0
G1 X50
G2 X51.838 Y50 I0 J-1.838
G1 Y0
G2 X50 Y-1.837 I-1.838 J0
G1 X40 Y-1.838
Z-7.051 F333.3
G2 X38.162 Y0 I0 J1.837 F1000
G1 Y13.163
X29
G2 X26.163 Y16 I0 J2.837
G1 Y34
G2 X29 Y36.838 I2.837 J0
G1 X38.162
Y50
G2 X40 Y51.838 I1.838 J0
G1 X50
G2 X51.838 Y50 I0 J-1.838
G1 Y0
G2 X50 Y-1.837 I-1.838 J0
G1 X40 Y-1.838
Z-8.814 F333.3
G2 X38.162 Y0 I0 J1.837 F1000
G1 Y13.163
X29
G2 X26.163 Y16 I0 J2.837
G1 Y34
G2 X29 Y36.838 I2.837 J0
G1 X38.162
Y50
G2 X40 Y51.838 I1.838 J0
G1 X50
G2 X51.838 Y50 I0 J-1.838
G1 Y0
G2 X50 Y-1.837 I-1.838 J0
G1 X40 Y-1.838
Z-10.577 F333.3
G2 X38.162 Y0 I0 J1.837 F1000
G1 Y13.163
X29
G2 X26.163 Y16 I0 J2.837
G1 Y21.248
Z-9.34
Y26.423
Z-10.577 F333.3
Y34 F1000
G2 X29 Y36.838 I2.837 J0
G1 X38.162
Y50
G2 X40 Y51.838 I1.838 J0
G1 X50
G2 X51.838 Y50 I0 J-1.838
G1 Y44.563
Z-9.34
Y39.388
Z-10.577 F333.3
Y10.382 F1000
Z-9.34
Y5.207
Z-10.577 F333.3
Y0 F1000
G2 X50 Y-1.837 I-1.838 J0
G1 X40 Y-1.838
Z-12.34 F333.3
G2 X38.162 Y0 I0 J1.837 F1000
G1 Y13.163
X29
G2 X26.163 Y16 I0 J2.837
G1 Y21.248
Z-9.34
Y26.423
Z-12.34 F333.3
Y34 F1000
G2 X29 Y36.838 I2.837 J0
G1 X38.162
Y50
G2 X40 Y51.838 I1.838 J0
G1 X50
G2 X51.838 Y50 I0 J-1.838
G1 Y44.563
Z-9.34
Y39.388
Z-12.34 F333.3
Y10.382 F1000
Z-9.34
Y5.207
Z-12.34 F333.3
Y0 F1000
G2 X50 Y-1.837 I-1.838 J0
G1 X40 Y-1.838
X39.95 Y-1.831
X39.903 Y-1.813
X39.862 Y-1.784
X39.828 Y-1.746
X39.806 Y-1.701
X39.777 Y-1.647
X39.737 Y-1.6
X39.686 Y-1.565
X39.628 Y-1.543
G2 X38.412 Y0 I0.372 J1.543
G1 Y13.413
X29
G2 X26.413 Y16 I0 J2.587
G1 Y21.248
Z-9.34
Y26.423
Z-12.34 F333.3
Y34 F1000
G2 X29 Y36.588 I2.587 J0
G1 X38.412
Y50
G2 X40 Y51.588 I1.588 J0
G1 X50
G2 X51.588 Y50 I0 J-1.588
G1 Y44.563
Z-9.34
Y39.388
Z-12.34 F333.3
Y10.382 F1000
Z-9.34
Y5.207
Z-12.34 F333.3
Y0 F1000
G2 X50 Y-1.587 I-1.588 J0
G1 X40 Y-1.588
G2 X38.412 Y0 I0 J1.587
G1 Y13.413
X29
G2 X26.413 Y16 I0 J2.587
G1 Y21.248
Z-9.34
Y26.423
Z-12.34 F333.3
Y34 F1000
G2 X29 Y36.588 I2.587 J0
G1 X38.412
Y50
G2 X40 Y51.588 I1.588 J0
G1 X50
G2 X51.588 Y50 I0 J-1.588
G1 Y44.563
Z-9.34
Y39.388
Z-12.34 F333.3
Y10.382 F1000
Z-9.34
Y5.207
Z-12.34 F333.3
Y0 F1000
G2 X50 Y-1.587 I-1.588 J0
G1 X40 Y-1.588
G2 X39.628 Y-1.543 I0 J1.587
G1 Z10
M5
M30
