(1044_2975bit_25_finish)
(T1  D=2.975 CR=0 - ZMIN=-12.34 - flat end mill)
G90 G94
G17
G21
(When using Fusion 360 for Personal Use, the feedrate of)
(rapid moves is reduced to match the feedrate of cutting)
(moves, which can increase machining time. Unrestricted rapid)
(moves are available with a Fusion 360 Subscription.)

(2D Contour5)
T1
S5000 M3
G54
G0 X0 Y-1.688
Z10
G1 Z5 F1000
Z3 F333.3
Z-1.763
G2 X-1.688 Y0 I0 J1.688 F1000
G1 Y50
G2 X0 Y51.688 I1.687 J0
G1 X20
G2 X21.688 Y50 I0 J-1.688
G1 Y35
G2 X20 Y33.313 I-1.688 J0
G1 X9.688
Y16.688
X20
G2 X21.688 Y15 I0 J-1.688
G1 Y0
G2 X20 Y-1.688 I-1.688 J0
G1 X0
Z-3.526 F333.3
G2 X-1.688 Y0 I0 J1.688 F1000
G1 Y50
G2 X0 Y51.688 I1.687 J0
G1 X20
G2 X21.688 Y50 I0 J-1.688
G1 Y35
G2 X20 Y33.313 I-1.688 J0
G1 X9.688
Y16.688
X20
G2 X21.688 Y15 I0 J-1.688
G1 Y0
G2 X20 Y-1.688 I-1.688 J0
G1 X0
Z-5.289 F333.3
G2 X-1.688 Y0 I0 J1.688 F1000
G1 Y50
G2 X0 Y51.688 I1.687 J0
G1 X20
G2 X21.688 Y50 I0 J-1.688
G1 Y35
G2 X20 Y33.313 I-1.688 J0
G1 X9.688
Y16.688
X20
G2 X21.688 Y15 I0 J-1.688
G1 Y0
G2 X20 Y-1.688 I-1.688 J0
G1 X0
Z-7.051 F333.3
G2 X-1.688 Y0 I0 J1.688 F1000
G1 Y50
G2 X0 Y51.688 I1.687 J0
G1 X20
G2 X21.688 Y50 I0 J-1.688
G1 Y35
G2 X20 Y33.313 I-1.688 J0
G1 X9.688
Y16.688
X20
G2 X21.688 Y15 I0 J-1.688
G1 Y0
G2 X20 Y-1.688 I-1.688 J0
G1 X0
Z-8.814 F333.3
G2 X-1.688 Y0 I0 J1.688 F1000
G1 Y50
G2 X0 Y51.688 I1.687 J0
G1 X20
G2 X21.688 Y50 I0 J-1.688
G1 Y35
G2 X20 Y33.313 I-1.688 J0
G1 X9.688
Y16.688
X20
G2 X21.688 Y15 I0 J-1.688
G1 Y0
G2 X20 Y-1.688 I-1.688 J0
G1 X0
Z-10.577 F333.3
G2 X-1.688 Y0 I0 J1.688 F1000
G1 Y6.364
Z-9.34
Y11.339
Z-10.577 F333.3
Y39.783 F1000
Z-9.34
Y44.758
Z-10.577 F333.3
Y50 F1000
G2 X0 Y51.688 I1.687 J0
G1 X20
G2 X21.688 Y50 I0 J-1.688
G1 Y35
G2 X20 Y33.313 I-1.688 J0
G1 X9.688
Y27.05
Z-9.34
Y22.075
Z-10.577 F333.3
Y16.688 F1000
X20
G2 X21.688 Y15 I0 J-1.688
G1 Y0
G2 X20 Y-1.688 I-1.688 J0
G1 X0
Z5
X-0.658 Y-1.554
Z-7.577 F333.3
Z-12.34
G2 X-1.688 Y0 I0.658 J1.554 F1000
G1 Y6.364
Z-9.34
Y11.339
Z-12.34 F333.3
Y39.783 F1000
Z-9.34
Y44.758
Z-12.34 F333.3
Y50 F1000
G2 X0 Y51.688 I1.687 J0
G1 X20
G2 X21.688 Y50 I0 J-1.688
G1 Y35
G2 X20 Y33.313 I-1.688 J0
G1 X9.688
Y27.05
Z-9.34
Y22.075
Z-12.34 F333.3
Y16.688 F1000
X20
G2 X21.688 Y15 I0 J-1.688
G1 Y0
G2 X20 Y-1.688 I-1.688 J0
G1 X0
G2 X-0.658 Y-1.554 I0 J1.688
G1 X-0.701 Y-1.528
X-0.734 Y-1.49
X-0.754 Y-1.444
X-0.759 Y-1.394
X-0.763 Y-1.345
X-0.779 Y-1.299
X-0.806 Y-1.258
X-0.843 Y-1.226
G2 X-1.487 Y0 I0.843 J1.226
G1 Y6.364
Z-9.34
Y11.339
Z-12.34 F333.3
Y39.783 F1000
Z-9.34
Y44.758
Z-12.34 F333.3
Y50 F1000
G2 X0 Y51.487 I1.487 J0
G1 X20
G2 X21.487 Y50 I0 J-1.487
G1 Y35
G2 X20 Y33.513 I-1.487 J0
G1 X9.488
Y27.05
Z-9.34
Y22.075
Z-12.34 F333.3
Y16.487 F1000
X20
G2 X21.487 Y15 I0 J-1.487
G1 Y0
G2 X20 Y-1.487 I-1.487 J0
G1 X0
G2 X-1.487 Y0 I0 J1.487
G1 Y6.364
Z-9.34
Y11.339
Z-12.34 F333.3
Y39.783 F1000
Z-9.34
Y44.758
Z-12.34 F333.3
Y50 F1000
G2 X0 Y51.487 I1.487 J0
G1 X20
G2 X21.487 Y50 I0 J-1.487
G1 Y35
G2 X20 Y33.513 I-1.487 J0
G1 X9.488
Y27.05
Z-9.34
Y22.075
Z-12.34 F333.3
Y16.487 F1000
X20
G2 X21.487 Y15 I0 J-1.487
G1 Y0
G2 X20 Y-1.487 I-1.487 J0
G1 X0
G2 X-0.843 Y-1.226 I0 J1.487
G1 Z5
X40 Y-1.688
Z3 F333.3
Z-1.763
G2 X38.313 Y0 I0 J1.688 F1000
G1 Y13.313
X29
G2 X26.313 Y16 I0 J2.688
G1 Y34
G2 X29 Y36.688 I2.688 J0
G1 X38.313
Y50
G2 X40 Y51.688 I1.688 J0
G1 X50
G2 X51.688 Y50 I0 J-1.688
G1 Y0
G2 X50 Y-1.687 I-1.688 J0
G1 X40 Y-1.688
Z-3.526 F333.3
G2 X38.313 Y0 I0 J1.688 F1000
G1 Y13.313
X29
G2 X26.313 Y16 I0 J2.688
G1 Y34
G2 X29 Y36.688 I2.688 J0
G1 X38.313
Y50
G2 X40 Y51.688 I1.688 J0
G1 X50
G2 X51.688 Y50 I0 J-1.688
G1 Y0
G2 X50 Y-1.687 I-1.688 J0
G1 X40 Y-1.688
Z-5.289 F333.3
G2 X38.313 Y0 I0 J1.688 F1000
G1 Y13.313
X29
G2 X26.313 Y16 I0 J2.688
G1 Y34
G2 X29 Y36.688 I2.688 J0
G1 X38.313
Y50
G2 X40 Y51.688 I1.688 J0
G1 X50
G2 X51.688 Y50 I0 J-1.688
G1 Y0
G2 X50 Y-1.687 I-1.688 J0
G1 X40 Y-1.688
Z-7.051 F333.3
G2 X38.313 Y0 I0 J1.688 F1000
G1 Y13.313
X29
G2 X26.313 Y16 I0 J2.688
G1 Y34
G2 X29 Y36.688 I2.688 J0
G1 X38.313
Y50
G2 X40 Y51.688 I1.688 J0
G1 X50
G2 X51.688 Y50 I0 J-1.688
G1 Y0
G2 X50 Y-1.687 I-1.688 J0
G1 X40 Y-1.688
Z-8.814 F333.3
G2 X38.313 Y0 I0 J1.688 F1000
G1 Y13.313
X29
G2 X26.313 Y16 I0 J2.688
G1 Y34
G2 X29 Y36.688 I2.688 J0
G1 X38.313
Y50
G2 X40 Y51.688 I1.688 J0
G1 X50
G2 X51.688 Y50 I0 J-1.688
G1 Y0
G2 X50 Y-1.687 I-1.688 J0
G1 X40 Y-1.688
Z-10.577 F333.3
G2 X38.313 Y0 I0 J1.688 F1000
G1 Y13.313
X29
G2 X26.313 Y16 I0 J2.688
G1 Y21.348
Z-9.34
Y26.323
Z-10.577 F333.3
Y34 F1000
G2 X29 Y36.688 I2.688 J0
G1 X38.313
Y50
G2 X40 Y51.688 I1.688 J0
G1 X50
G2 X51.688 Y50 I0 J-1.688
G1 Y44.463
Z-9.34
Y39.488
Z-10.577 F333.3
Y10.282 F1000
Z-9.34
Y5.307
Z-10.577 F333.3
Y0 F1000
G2 X50 Y-1.687 I-1.688 J0
G1 X40 Y-1.688
Z-12.34 F333.3
G2 X38.313 Y0 I0 J1.688 F1000
G1 Y13.313
X29
G2 X26.313 Y16 I0 J2.688
G1 Y21.348
Z-9.34
Y26.323
Z-12.34 F333.3
Y34 F1000
G2 X29 Y36.688 I2.688 J0
G1 X38.313
Y50
G2 X40 Y51.688 I1.688 J0
G1 X50
G2 X51.688 Y50 I0 J-1.688
G1 Y44.463
Z-9.34
Y39.488
Z-12.34 F333.3
Y10.282 F1000
Z-9.34
Y5.307
Z-12.34 F333.3
Y0 F1000
G2 X50 Y-1.687 I-1.688 J0
G1 X40 Y-1.688
X39.951 Y-1.68
X39.906 Y-1.658
X39.87 Y-1.624
X39.845 Y-1.58
X39.822 Y-1.536
X39.789 Y-1.5
X39.748 Y-1.473
X39.702 Y-1.457
G2 X38.513 Y0 I0.298 J1.457
G1 Y13.512
X29
G2 X26.513 Y16 I0 J2.488
G1 Y21.348
Z-9.34
Y26.323
Z-12.34 F333.3
Y34 F1000
G2 X29 Y36.487 I2.487 J0
G1 X38.513
Y50
G2 X40 Y51.487 I1.487 J0
G1 X50
G2 X51.487 Y50 I0 J-1.487
G1 Y44.463
Z-9.34
Y39.488
Z-12.34 F333.3
Y10.282 F1000
Z-9.34
Y5.307
Z-12.34 F333.3
Y0 F1000
G2 X50 Y-1.487 I-1.487 J0
G1 X40 Y-1.488
G2 X38.513 Y0 I0 J1.487
G1 Y13.512
X29
G2 X26.513 Y16 I0 J2.488
G1 Y21.348
Z-9.34
Y26.323
Z-12.34 F333.3
Y34 F1000
G2 X29 Y36.487 I2.487 J0
G1 X38.513
Y50
G2 X40 Y51.487 I1.487 J0
G1 X50
G2 X51.487 Y50 I0 J-1.487
G1 Y44.463
Z-9.34
Y39.488
Z-12.34 F333.3
Y10.282 F1000
Z-9.34
Y5.307
Z-12.34 F333.3
Y0 F1000
G2 X50 Y-1.487 I-1.487 J0
G1 X40 Y-1.488
G2 X39.702 Y-1.457 I0 J1.487
G1 Z10
M5
M30
