(1046_sq_2875bit_500_finish_feed_at_02)
(T1  D=2.875 CR=0 - ZMIN=-12.55 - flat end mill)
G90 G94
G17
G21
(When using Fusion 360 for Personal Use, the feedrate of)
(rapid moves is reduced to match the feedrate of cutting)
(moves, which can increase machining time. Unrestricted rapid)
(moves are available with a Fusion 360 Subscription.)

(2D Contour5)
T1
S5000 M3
G54
G0 X0 Y-1.638
Z10
G1 Z5 F1000
Z3 F333.3
Z-1.758
G2 X-1.638 Y0 I0 J1.638 F500
G1 Y50
G2 X0 Y51.638 I1.638 J0
G1 X20
G2 X21.638 Y50 I0 J-1.638
G1 Y37
G2 X18 Y33.362 I-3.638 J0
G1 X10
G3 X9.637 Y33 I0 J-0.362
G1 Y17
G3 X10 Y16.638 I0.363 J0
G1 X18
G2 X21.638 Y13 I0 J-3.638
G1 Y0
G2 X20 Y-1.638 I-1.638 J0
G1 X0
Z-3.517 F333.3
G2 X-1.638 Y0 I0 J1.638 F500
G1 Y50
G2 X0 Y51.638 I1.638 J0
G1 X20
G2 X21.638 Y50 I0 J-1.638
G1 Y37
G2 X18 Y33.362 I-3.638 J0
G1 X10
G3 X9.637 Y33 I0 J-0.362
G1 Y17
G3 X10 Y16.638 I0.363 J0
G1 X18
G2 X21.638 Y13 I0 J-3.638
G1 Y0
G2 X20 Y-1.638 I-1.638 J0
G1 X0
Z-5.275 F333.3
G2 X-1.638 Y0 I0 J1.638 F500
G1 Y50
G2 X0 Y51.638 I1.638 J0
G1 X20
G2 X21.638 Y50 I0 J-1.638
G1 Y37
G2 X18 Y33.362 I-3.638 J0
G1 X10
G3 X9.637 Y33 I0 J-0.362
G1 Y17
G3 X10 Y16.638 I0.363 J0
G1 X18
G2 X21.638 Y13 I0 J-3.638
G1 Y0
G2 X20 Y-1.638 I-1.638 J0
G1 X0
Z-7.033 F333.3
G2 X-1.638 Y0 I0 J1.638 F500
G1 Y50
G2 X0 Y51.638 I1.638 J0
G1 X20
G2 X21.638 Y50 I0 J-1.638
G1 Y37
G2 X18 Y33.362 I-3.638 J0
G1 X10
G3 X9.637 Y33 I0 J-0.362
G1 Y17
G3 X10 Y16.638 I0.363 J0
G1 X18
G2 X21.638 Y13 I0 J-3.638
G1 Y0
G2 X20 Y-1.638 I-1.638 J0
G1 X0
Z-8.792 F333.3
G2 X-1.638 Y0 I0 J1.638 F500
G1 Y6.414
Z-7.55
Y11.289
Z-8.792 F333.3
Y39.833 F500
Z-7.55
Y44.708
Z-8.792 F333.3
Y50 F500
G2 X0 Y51.638 I1.638 J0
G1 X20
G2 X21.638 Y50 I0 J-1.638
G1 Y37
G2 X18 Y33.362 I-3.638 J0
G1 X10
G3 X9.637 Y33 I0 J-0.362
G1 Y27.049
Z-7.55
Y22.174
Z-8.792 F333.3
Y17 F500
G3 X10 Y16.638 I0.363 J0
G1 X18
G2 X21.638 Y13 I0 J-3.638
G1 Y0
G2 X20 Y-1.638 I-1.638 J0
G1 X0
Z-10.55 F333.3
G2 X-1.638 Y0 I0 J1.638 F500
G1 Y6.414
Z-7.55
Y11.289
Z-10.55 F333.3
Y39.833 F500
Z-7.55
Y44.708
Z-10.55 F333.3
Y50 F500
G2 X0 Y51.638 I1.638 J0
G1 X20
G2 X21.638 Y50 I0 J-1.638
G1 Y37
G2 X18 Y33.362 I-3.638 J0
G1 X10
G3 X9.637 Y33 I0 J-0.362
G1 Y27.049
Z-7.55
Y22.174
Z-10.55 F333.3
Y17 F500
G3 X10 Y16.638 I0.363 J0
G1 X18
G2 X21.638 Y13 I0 J-3.638
G1 Y0
G2 X20 Y-1.638 I-1.638 J0
G1 X0
Z5 F1000
X-0.649 Y-1.503
Z-7.55 F333.3
Z-12.55
G2 X-1.638 Y0 I0.649 J1.503 F1000
G1 Y6.414
Z-7.55
Y11.289
Z-12.55 F333.3
Y39.833 F1000
Z-7.55
Y44.708
Z-12.55 F333.3
Y50 F1000
G2 X0 Y51.638 I1.638 J0
G1 X20
G2 X21.638 Y50 I0 J-1.638
G1 Y37
G2 X18 Y33.362 I-3.638 J0
G1 X10
G3 X9.637 Y33 I0 J-0.362
G1 Y27.049
Z-7.55
Y22.174
Z-12.55 F333.3
Y17 F1000
G3 X10 Y16.638 I0.363 J0
G1 X18
G2 X21.638 Y13 I0 J-3.638
G1 Y0
G2 X20 Y-1.638 I-1.638 J0
G1 X0
G2 X-0.649 Y-1.503 I0 J1.638
G1 X-0.691 Y-1.477
X-0.724 Y-1.439
X-0.744 Y-1.393
X-0.749 Y-1.343
X-0.752 Y-1.294
X-0.768 Y-1.247
X-0.795 Y-1.206
X-0.831 Y-1.173
G2 X-1.438 Y0 I0.831 J1.173 F500
G1 Y6.414
Z-7.55
Y11.289
Z-12.55 F333.3
Y39.833 F500
Z-7.55
Y44.708
Z-12.55 F333.3
Y50 F500
G2 X0 Y51.438 I1.438 J0
G1 X20
G2 X21.438 Y50 I0 J-1.438
G1 Y37
G2 X18 Y33.563 I-3.438 J0
G1 X10
G3 X9.438 Y33 I0 J-0.563
G1 Y27.049
Z-7.55
Y22.174
Z-12.55 F333.3
Y17 F500
G3 X10 Y16.438 I0.563 J0
G1 X18
G2 X21.438 Y13 I0 J-3.438
G1 Y0
G2 X20 Y-1.438 I-1.438 J0
G1 X0
G2 X-1.438 Y0 I0 J1.437
G1 Y6.414
Z-7.55
Y11.289
Z-12.55 F333.3
Y39.833 F500
Z-7.55
Y44.708
Z-12.55 F333.3
Y50 F500
G2 X0 Y51.438 I1.438 J0
G1 X20
G2 X21.438 Y50 I0 J-1.438
G1 Y37
G2 X18 Y33.563 I-3.438 J0
G1 X10
G3 X9.438 Y33 I0 J-0.563
G1 Y27.049
Z-7.55
Y22.174
Z-12.55 F333.3
Y17 F500
G3 X10 Y16.438 I0.563 J0
G1 X18
G2 X21.438 Y13 I0 J-3.438
G1 Y0
G2 X20 Y-1.438 I-1.438 J0
G1 X0
G2 X-0.831 Y-1.173 I0 J1.438
G1 Z5 F1000
X40 Y-1.638
Z3 F333.3
Z-1.758
G2 X38.362 Y0 I0 J1.637 F500
G1 Y13
G3 X38 Y13.363 I-0.362 J0
G1 X30
G2 X26.362 Y17 I0 J3.637
G1 Y33
G2 X30 Y36.638 I3.638 J0
G1 X38
G3 X38.362 Y37 I0 J0.362
G1 Y50
G2 X40 Y51.638 I1.638 J0
G1 X50
G2 X51.638 Y50 I0 J-1.638
G1 Y0
G2 X50 Y-1.637 I-1.638 J0
G1 X40 Y-1.638
Z-3.517 F333.3
G2 X38.362 Y0 I0 J1.637 F500
G1 Y13
G3 X38 Y13.363 I-0.362 J0
G1 X30
G2 X26.362 Y17 I0 J3.637
G1 Y33
G2 X30 Y36.638 I3.638 J0
G1 X38
G3 X38.362 Y37 I0 J0.362
G1 Y50
G2 X40 Y51.638 I1.638 J0
G1 X50
G2 X51.638 Y50 I0 J-1.638
G1 Y0
G2 X50 Y-1.637 I-1.638 J0
G1 X40 Y-1.638
Z-5.275 F333.3
G2 X38.362 Y0 I0 J1.637 F500
G1 Y13
G3 X38 Y13.363 I-0.362 J0
G1 X30
G2 X26.362 Y17 I0 J3.637
G1 Y33
G2 X30 Y36.638 I3.638 J0
G1 X38
G3 X38.362 Y37 I0 J0.362
G1 Y50
G2 X40 Y51.638 I1.638 J0
G1 X50
G2 X51.638 Y50 I0 J-1.638
G1 Y0
G2 X50 Y-1.637 I-1.638 J0
G1 X40 Y-1.638
Z-7.033 F333.3
G2 X38.362 Y0 I0 J1.637 F500
G1 Y13
G3 X38 Y13.363 I-0.362 J0
G1 X30
G2 X26.362 Y17 I0 J3.637
G1 Y33
G2 X30 Y36.638 I3.638 J0
G1 X38
G3 X38.362 Y37 I0 J0.362
G1 Y50
G2 X40 Y51.638 I1.638 J0
G1 X50
G2 X51.638 Y50 I0 J-1.638
G1 Y0
G2 X50 Y-1.637 I-1.638 J0
G1 X40 Y-1.638
Z-8.792 F333.3
G2 X38.362 Y0 I0 J1.637 F500
G1 Y13
G3 X38 Y13.363 I-0.362 J0
G1 X30
G2 X26.362 Y17 I0 J3.637
G1 Y21.527
Z-7.55
Y26.402
Z-8.792 F333.3
Y33 F500
G2 X30 Y36.638 I3.638 J0
G1 X38
G3 X38.362 Y37 I0 J0.362
G1 Y50
G2 X40 Y51.638 I1.638 J0
G1 X50
G2 X51.638 Y50 I0 J-1.638
G1 Y44.413
Z-7.55
Y39.538
Z-8.792 F333.3
Y10.232 F500
Z-7.55
Y5.357
Z-8.792 F333.3
Y0 F500
G2 X50 Y-1.637 I-1.638 J0
G1 X40 Y-1.638
Z-10.55 F333.3
G2 X38.362 Y0 I0 J1.637 F500
G1 Y13
G3 X38 Y13.363 I-0.362 J0
G1 X30
G2 X26.362 Y17 I0 J3.637
G1 Y21.527
Z-7.55
Y26.402
Z-10.55 F333.3
Y33 F500
G2 X30 Y36.638 I3.638 J0
G1 X38
G3 X38.362 Y37 I0 J0.362
G1 Y50
G2 X40 Y51.638 I1.638 J0
G1 X50
G2 X51.638 Y50 I0 J-1.638
G1 Y44.413
Z-7.55
Y39.538
Z-10.55 F333.3
Y10.232 F500
Z-7.55
Y5.357
Z-10.55 F333.3
Y0 F500
G2 X50 Y-1.637 I-1.638 J0
G1 X40 Y-1.638
Z-12.55 F333.3
G2 X38.362 Y0 I0 J1.637 F1000
G1 Y13
G3 X38 Y13.363 I-0.362 J0
G1 X30
G2 X26.362 Y17 I0 J3.637
G1 Y21.527
Z-7.55
Y26.402
Z-12.55 F333.3
Y33 F1000
G2 X30 Y36.638 I3.638 J0
G1 X38
G3 X38.362 Y37 I0 J0.362
G1 Y50
G2 X40 Y51.638 I1.638 J0
G1 X50
G2 X51.638 Y50 I0 J-1.638
G1 Y44.413
Z-7.55
Y39.538
Z-12.55 F333.3
Y10.232 F1000
Z-7.55
Y5.357
Z-12.55 F333.3
Y0 F1000
G2 X50 Y-1.637 I-1.638 J0
G1 X40 Y-1.638
X39.951 Y-1.63
X39.906 Y-1.608
X39.869 Y-1.573
X39.845 Y-1.53
X39.822 Y-1.486
X39.789 Y-1.45
X39.749 Y-1.422
X39.702 Y-1.406
G2 X38.563 Y0 I0.298 J1.406 F500
G1 Y13
G3 X38 Y13.563 I-0.563 J0
G1 X30
G2 X26.563 Y17 I0 J3.438
G1 Y21.527
Z-7.55
Y26.402
Z-12.55 F333.3
Y33 F500
G2 X30 Y36.438 I3.438 J0
G1 X38
G3 X38.563 Y37 I0 J0.563
G1 Y50
G2 X40 Y51.438 I1.438 J0
G1 X50
G2 X51.438 Y50 I0 J-1.438
G1 Y44.413
Z-7.55
Y39.538
Z-12.55 F333.3
Y10.232 F500
Z-7.55
Y5.357
Z-12.55 F333.3
Y0 F500
G2 X50 Y-1.437 I-1.438 J0
G1 X40 Y-1.438
G2 X38.563 Y0 I0 J1.438
G1 Y13
G3 X38 Y13.563 I-0.563 J0
G1 X30
G2 X26.563 Y17 I0 J3.438
G1 Y21.527
Z-7.55
Y26.402
Z-12.55 F333.3
Y33 F500
G2 X30 Y36.438 I3.438 J0
G1 X38
G3 X38.563 Y37 I0 J0.563
G1 Y50
G2 X40 Y51.438 I1.438 J0
G1 X50
G2 X51.438 Y50 I0 J-1.438
G1 Y44.413
Z-7.55
Y39.538
Z-12.55 F333.3
Y10.232 F500
Z-7.55
Y5.357
Z-12.55 F333.3
Y0 F500
G2 X50 Y-1.437 I-1.438 J0
G1 X40 Y-1.438
G2 X39.702 Y-1.406 I0 J1.438
G1 Z10 F1000
M5
M30
