(1047_tab_29bit_2)
(T1  D=2.9 CR=0 - ZMIN=-12.55 - flat end mill)
G90 G94
G17
G21
(When using Fusion 360 for Personal Use, the feedrate of)
(rapid moves is reduced to match the feedrate of cutting)
(moves, which can increase machining time. Unrestricted rapid)
(moves are available with a Fusion 360 Subscription.)

(2D Contour5)
T1
S5000 M3
G54
G0 X0 Y-1.65
Z10
G1 Z5 F1000
Z3 F333.3
Z-1.758
G2 X-1.65 Y0 I0 J1.65 F500
G1 Y50
G2 X0 Y51.65 I1.65 J0
G1 X20
G2 X21.65 Y50 I0 J-1.65
G1 Y37.856
G2 X16.752 Y34.426 I-3.65 J0
G1 X10.12 Y36.84
G3 X9.65 Y36.511 I-0.12 J-0.329
G1 Y13.489
G3 X10.12 Y13.16 I0.35 J0
G1 X16.752 Y15.574
G2 X21.65 Y12.144 I1.248 J-3.43
G1 Y0
G2 X20 Y-1.65 I-1.65 J0
G1 X0
Z-3.517 F333.3
G2 X-1.65 Y0 I0 J1.65 F500
G1 Y50
G2 X0 Y51.65 I1.65 J0
G1 X20
G2 X21.65 Y50 I0 J-1.65
G1 Y37.856
G2 X16.752 Y34.426 I-3.65 J0
G1 X10.12 Y36.84
G3 X9.65 Y36.511 I-0.12 J-0.329
G1 Y13.489
G3 X10.12 Y13.16 I0.35 J0
G1 X16.752 Y15.574
G2 X21.65 Y12.144 I1.248 J-3.43
G1 Y0
G2 X20 Y-1.65 I-1.65 J0
G1 X0
Z-5.275 F333.3
G2 X-1.65 Y0 I0 J1.65 F500
G1 Y50
G2 X0 Y51.65 I1.65 J0
G1 X20
G2 X21.65 Y50 I0 J-1.65
G1 Y37.856
G2 X16.752 Y34.426 I-3.65 J0
G1 X10.12 Y36.84
G3 X9.65 Y36.511 I-0.12 J-0.329
G1 Y13.489
G3 X10.12 Y13.16 I0.35 J0
G1 X16.752 Y15.574
G2 X21.65 Y12.144 I1.248 J-3.43
G1 Y0
G2 X20 Y-1.65 I-1.65 J0
G1 X0
Z-7.033 F333.3
G2 X-1.65 Y0 I0 J1.65 F500
G1 Y50
G2 X0 Y51.65 I1.65 J0
G1 X20
G2 X21.65 Y50 I0 J-1.65
G1 Y37.856
G2 X16.752 Y34.426 I-3.65 J0
G1 X10.12 Y36.84
G3 X9.65 Y36.511 I-0.12 J-0.329
G1 Y13.489
G3 X10.12 Y13.16 I0.35 J0
G1 X16.752 Y15.574
G2 X21.65 Y12.144 I1.248 J-3.43
G1 Y0
G2 X20 Y-1.65 I-1.65 J0
G1 X0
Z-8.792 F333.3
G2 X-1.65 Y0 I0 J1.65 F500
G1 Y50
G2 X0 Y51.65 I1.65 J0
G1 X20
G2 X21.65 Y50 I0 J-1.65
G1 Y37.856
G2 X16.752 Y34.426 I-3.65 J0
G1 X10.12 Y36.84
G3 X9.65 Y36.511 I-0.12 J-0.329
G1 Y13.489
G3 X10.12 Y13.16 I0.35 J0
G1 X16.752 Y15.574
G2 X21.65 Y12.144 I1.248 J-3.43
G1 Y0
G2 X20 Y-1.65 I-1.65 J0
G1 X0
Z-10.55 F333.3
G2 X-1.65 Y0 I0 J1.65 F500
G1 Y6.401
Z-8.85
Y11.301
Z-10.55 F333.3
Y39.821 F500
Z-8.85
Y44.721
Z-10.55 F333.3
Y50 F500
G2 X0 Y51.65 I1.65 J0
G1 X20
G2 X21.65 Y50 I0 J-1.65
G1 Y37.856
G2 X16.752 Y34.426 I-3.65 J0
G1 X10.12 Y36.84
G3 X9.65 Y36.511 I-0.12 J-0.329
G1 Y27.061
Z-8.85
Y22.161
Z-10.55 F333.3
Y13.489 F500
G3 X10.12 Y13.16 I0.35 J0
G1 X16.752 Y15.574
G2 X21.65 Y12.144 I1.248 J-3.43
G1 Y0
G2 X20 Y-1.65 I-1.65 J0
G1 X0
Z-12.55 F333.3
G2 X-1.65 Y0 I0 J1.65 F1000
G1 Y6.401
Z-8.85
Y11.301
Z-12.55 F333.3
Y39.821 F1000
Z-8.85
Y44.721
Z-12.55 F333.3
Y50 F1000
G2 X0 Y51.65 I1.65 J0
G1 X20
G2 X21.65 Y50 I0 J-1.65
G1 Y37.856
G2 X16.752 Y34.426 I-3.65 J0
G1 X10.12 Y36.84
G3 X9.65 Y36.511 I-0.12 J-0.329
G1 Y27.061
Z-8.85
Y22.161
Z-12.55 F333.3
Y13.489 F1000
G3 X10.12 Y13.16 I0.35 J0
G1 X16.752 Y15.574
G2 X21.65 Y12.144 I1.248 J-3.43
G1 Y0
G2 X20 Y-1.65 I-1.65 J0
G1 X0
X-0.049 Y-1.642
X-0.094 Y-1.62
X-0.131 Y-1.586
X-0.155 Y-1.542
X-0.178 Y-1.499
X-0.211 Y-1.462
X-0.251 Y-1.435
X-0.298 Y-1.419
G2 X-1.45 Y0 I0.298 J1.419 F500
G1 Y6.401
Z-8.85
Y11.301
Z-12.55 F333.3
Y39.821 F500
Z-8.85
Y44.721
Z-12.55 F333.3
Y50 F500
G2 X0 Y51.45 I1.45 J0
G1 X20
G2 X21.45 Y50 I0 J-1.45
G1 Y37.856
G2 X16.82 Y34.614 I-3.45 J0
G1 X10.188 Y37.028
G3 X9.45 Y36.511 I-0.188 J-0.517
G1 Y27.061
Z-8.85
Y22.161
Z-12.55 F333.3
Y13.489 F500
G3 X10.188 Y12.972 I0.55 J0
G1 X16.82 Y15.386
G2 X21.45 Y12.144 I1.18 J-3.242
G1 Y0
G2 X20 Y-1.45 I-1.45 J0
G1 X0
G2 X-1.45 Y0 I0 J1.45
G1 Y6.401
Z-8.85
Y11.301
Z-12.55 F333.3
Y39.821 F500
Z-8.85
Y44.721
Z-12.55 F333.3
Y50 F500
G2 X0 Y51.45 I1.45 J0
G1 X20
G2 X21.45 Y50 I0 J-1.45
G1 Y37.856
G2 X16.82 Y34.614 I-3.45 J0
G1 X10.188 Y37.028
G3 X9.45 Y36.511 I-0.188 J-0.517
G1 Y27.061
Z-8.85
Y22.161
Z-12.55 F333.3
Y13.489 F500
G3 X10.188 Y12.972 I0.55 J0
G1 X16.82 Y15.386
G2 X21.45 Y12.144 I1.18 J-3.242
G1 Y0
G2 X20 Y-1.45 I-1.45 J0
G1 X0
G2 X-0.298 Y-1.419 I0 J1.45
G1 Z5 F1000
X39.35 Y0
Z3 F333.3
Z-1.758
Y12.144 F500
G3 X38.88 Y12.473 I-0.35 J0
G1 X32.248 Y10.059
G2 X27.35 Y13.489 I-1.248 J3.43
G1 Y36.511
G2 X32.248 Y39.941 I3.65 J0
G1 X38.88 Y37.527
G3 X39.35 Y37.856 I0.12 J0.329
G1 Y50
G2 X41 Y51.65 I1.65 J0
G1 X51
G2 X52.65 Y50 I0 J-1.65
G1 Y0
G2 X51 Y-1.65 I-1.65 J0
G1 X41
G2 X39.35 Y0 I0 J1.65
G1 Z-3.517 F333.3
Y12.144 F500
G3 X38.88 Y12.473 I-0.35 J0
G1 X32.248 Y10.059
G2 X27.35 Y13.489 I-1.248 J3.43
G1 Y36.511
G2 X32.248 Y39.941 I3.65 J0
G1 X38.88 Y37.527
G3 X39.35 Y37.856 I0.12 J0.329
G1 Y50
G2 X41 Y51.65 I1.65 J0
G1 X51
G2 X52.65 Y50 I0 J-1.65
G1 Y0
G2 X51 Y-1.65 I-1.65 J0
G1 X41
G2 X39.35 Y0 I0 J1.65
G1 Z-5.275 F333.3
Y12.144 F500
G3 X38.88 Y12.473 I-0.35 J0
G1 X32.248 Y10.059
G2 X27.35 Y13.489 I-1.248 J3.43
G1 Y36.511
G2 X32.248 Y39.941 I3.65 J0
G1 X38.88 Y37.527
G3 X39.35 Y37.856 I0.12 J0.329
G1 Y50
G2 X41 Y51.65 I1.65 J0
G1 X51
G2 X52.65 Y50 I0 J-1.65
G1 Y0
G2 X51 Y-1.65 I-1.65 J0
G1 X41
G2 X39.35 Y0 I0 J1.65
G1 Z-7.033 F333.3
Y12.144 F500
G3 X38.88 Y12.473 I-0.35 J0
G1 X32.248 Y10.059
G2 X27.35 Y13.489 I-1.248 J3.43
G1 Y36.511
G2 X32.248 Y39.941 I3.65 J0
G1 X38.88 Y37.527
G3 X39.35 Y37.856 I0.12 J0.329
G1 Y50
G2 X41 Y51.65 I1.65 J0
G1 X51
G2 X52.65 Y50 I0 J-1.65
G1 Y0
G2 X51 Y-1.65 I-1.65 J0
G1 X41
G2 X39.35 Y0 I0 J1.65
G1 Z-8.792 F333.3
Y12.144 F500
G3 X38.88 Y12.473 I-0.35 J0
G1 X32.248 Y10.059
G2 X27.35 Y13.489 I-1.248 J3.43
G1 Y36.511
G2 X32.248 Y39.941 I3.65 J0
G1 X38.88 Y37.527
G3 X39.35 Y37.856 I0.12 J0.329
G1 Y50
G2 X41 Y51.65 I1.65 J0
G1 X51
G2 X52.65 Y50 I0 J-1.65
G1 Y0
G2 X51 Y-1.65 I-1.65 J0
G1 X41
G2 X39.35 Y0 I0 J1.65
G1 Z-10.55 F333.3
Y12.144 F500
G3 X38.88 Y12.473 I-0.35 J0
G1 X32.248 Y10.059
G2 X27.35 Y13.489 I-1.248 J3.43
G1 Y21.514
Z-8.85
Y26.414
Z-10.55 F333.3
Y36.511 F500
G2 X32.248 Y39.941 I3.65 J0
G1 X38.88 Y37.527
G3 X39.35 Y37.856 I0.12 J0.329
G1 Y50
G2 X41 Y51.65 I1.65 J0
G1 X51
G2 X52.65 Y50 I0 J-1.65
G1 Y44.425
Z-8.85
Y39.525
Z-10.55 F333.3
Y10.245 F500
Z-8.85
Y5.345
Z-10.55 F333.3
Y0 F500
G2 X51 Y-1.65 I-1.65 J0
G1 X41
G2 X39.35 Y0 I0 J1.65
G1 Z-12.55 F333.3
Y12.144 F1000
G3 X38.88 Y12.473 I-0.35 J0
G1 X32.248 Y10.059
G2 X27.35 Y13.489 I-1.248 J3.43
G1 Y21.514
Z-8.85
Y26.414
Z-12.55 F333.3
Y36.511 F1000
G2 X32.248 Y39.941 I3.65 J0
G1 X38.88 Y37.527
G3 X39.35 Y37.856 I0.12 J0.329
G1 Y50
G2 X41 Y51.65 I1.65 J0
G1 X51
G2 X52.65 Y50 I0 J-1.65
G1 Y44.425
Z-8.85
Y39.525
Z-12.55 F333.3
Y10.245 F1000
Z-8.85
Y5.345
Z-12.55 F333.3
Y0 F1000
G2 X51 Y-1.65 I-1.65 J0
G1 X41
G2 X39.35 Y0 I0 J1.65
G1 X39.357 Y0.047
X39.377 Y0.09
X39.409 Y0.125
X39.45 Y0.15
X39.491 Y0.175
X39.523 Y0.21
X39.543 Y0.253
X39.55 Y0.3
Y12.144 F500
G3 X38.812 Y12.661 I-0.55 J0
G1 X32.18 Y10.247
G2 X27.55 Y13.489 I-1.18 J3.242
G1 Y21.514
Z-8.85
Y26.414
Z-12.55 F333.3
Y36.511 F500
G2 X32.18 Y39.753 I3.45 J0
G1 X38.812 Y37.339
G3 X39.55 Y37.856 I0.188 J0.517
G1 Y50
G2 X41 Y51.45 I1.45 J0
G1 X51
G2 X52.45 Y50 I0 J-1.45
G1 Y44.425
Z-8.85
Y39.525
Z-12.55 F333.3
Y10.245 F500
Z-8.85
Y5.345
Z-12.55 F333.3
Y0 F500
G2 X51 Y-1.45 I-1.45 J0
G1 X41
G2 X39.55 Y0 I0 J1.45
G1 Y12.144
G3 X38.812 Y12.661 I-0.55 J0
G1 X32.18 Y10.247
G2 X27.55 Y13.489 I-1.18 J3.242
G1 Y21.514
Z-8.85
Y26.414
Z-12.55 F333.3
Y36.511 F500
G2 X32.18 Y39.753 I3.45 J0
G1 X38.812 Y37.339
G3 X39.55 Y37.856 I0.188 J0.517
G1 Y50
G2 X41 Y51.45 I1.45 J0
G1 X51
G2 X52.45 Y50 I0 J-1.45
G1 Y44.425
Z-8.85
Y39.525
Z-12.55 F333.3
Y10.245 F500
Z-8.85
Y5.345
Z-12.55 F333.3
Y0 F500
G2 X51 Y-1.45 I-1.45 J0
G1 X41
G2 X39.55 Y0 I0 J1.45
G1 Y0.3
Z10 F1000
M5
M30
