(1048_tab_28bit)
(T1  D=2.8 CR=0 - ZMIN=-12.55 - flat end mill)
G90 G94
G17
G21
(When using Fusion 360 for Personal Use, the feedrate of)
(rapid moves is reduced to match the feedrate of cutting)
(moves, which can increase machining time. Unrestricted rapid)
(moves are available with a Fusion 360 Subscription.)

(2D Contour5)
T1
S5000 M3
G54
G0 X0 Y-1.6
Z10
G1 Z5 F1000
Z3 F333.3
Z-1.758
G2 X-1.6 Y0 I0 J1.6 F500
G1 Y50
G2 X0 Y51.6 I1.6 J0
G1 X20
G2 X21.6 Y50 I0 J-1.6
G1 Y37.856
G2 X16.769 Y34.473 I-3.6 J0
G1 X10.137 Y36.887
G3 X9.6 Y36.511 I-0.137 J-0.376
G1 Y13.489
G3 X10.137 Y13.113 I0.4 J0
G1 X16.769 Y15.527
G2 X21.6 Y12.144 I1.231 J-3.383
G1 Y0
G2 X20 Y-1.6 I-1.6 J0
G1 X0
Z-3.517 F333.3
G2 X-1.6 Y0 I0 J1.6 F500
G1 Y50
G2 X0 Y51.6 I1.6 J0
G1 X20
G2 X21.6 Y50 I0 J-1.6
G1 Y37.856
G2 X16.769 Y34.473 I-3.6 J0
G1 X10.137 Y36.887
G3 X9.6 Y36.511 I-0.137 J-0.376
G1 Y13.489
G3 X10.137 Y13.113 I0.4 J0
G1 X16.769 Y15.527
G2 X21.6 Y12.144 I1.231 J-3.383
G1 Y0
G2 X20 Y-1.6 I-1.6 J0
G1 X0
Z-5.275 F333.3
G2 X-1.6 Y0 I0 J1.6 F500
G1 Y50
G2 X0 Y51.6 I1.6 J0
G1 X20
G2 X21.6 Y50 I0 J-1.6
G1 Y37.856
G2 X16.769 Y34.473 I-3.6 J0
G1 X10.137 Y36.887
G3 X9.6 Y36.511 I-0.137 J-0.376
G1 Y13.489
G3 X10.137 Y13.113 I0.4 J0
G1 X16.769 Y15.527
G2 X21.6 Y12.144 I1.231 J-3.383
G1 Y0
G2 X20 Y-1.6 I-1.6 J0
G1 X0
Z-7.033 F333.3
G2 X-1.6 Y0 I0 J1.6 F500
G1 Y50
G2 X0 Y51.6 I1.6 J0
G1 X20
G2 X21.6 Y50 I0 J-1.6
G1 Y37.856
G2 X16.769 Y34.473 I-3.6 J0
G1 X10.137 Y36.887
G3 X9.6 Y36.511 I-0.137 J-0.376
G1 Y13.489
G3 X10.137 Y13.113 I0.4 J0
G1 X16.769 Y15.527
G2 X21.6 Y12.144 I1.231 J-3.383
G1 Y0
G2 X20 Y-1.6 I-1.6 J0
G1 X0
Z-8.792 F333.3
G2 X-1.6 Y0 I0 J1.6 F500
G1 Y50
G2 X0 Y51.6 I1.6 J0
G1 X20
G2 X21.6 Y50 I0 J-1.6
G1 Y37.856
G2 X16.769 Y34.473 I-3.6 J0
G1 X10.137 Y36.887
G3 X9.6 Y36.511 I-0.137 J-0.376
G1 Y13.489
G3 X10.137 Y13.113 I0.4 J0
G1 X16.769 Y15.527
G2 X21.6 Y12.144 I1.231 J-3.383
G1 Y0
G2 X20 Y-1.6 I-1.6 J0
G1 X0
Z-10.55 F333.3
G2 X-1.6 Y0 I0 J1.6 F500
G1 Y6.451
Z-9.05
Y11.251
Z-10.55 F333.3
Y39.871 F500
Z-9.05
Y44.671
Z-10.55 F333.3
Y50 F500
G2 X0 Y51.6 I1.6 J0
G1 X20
G2 X21.6 Y50 I0 J-1.6
G1 Y37.856
G2 X16.769 Y34.473 I-3.6 J0
G1 X10.137 Y36.887
G3 X9.6 Y36.511 I-0.137 J-0.376
G1 Y27.011
Z-9.05
Y22.211
Z-10.55 F333.3
Y13.489 F500
G3 X10.137 Y13.113 I0.4 J0
G1 X16.769 Y15.527
G2 X21.6 Y12.144 I1.231 J-3.383
G1 Y0
G2 X20 Y-1.6 I-1.6 J0
G1 X0
Z-12.55 F333.3
G2 X-1.6 Y0 I0 J1.6 F1000
G1 Y6.451
Z-9.05
Y11.251
Z-12.55 F333.3
Y39.871 F1000
Z-9.05
Y44.671
Z-12.55 F333.3
Y50 F1000
G2 X0 Y51.6 I1.6 J0
G1 X20
G2 X21.6 Y50 I0 J-1.6
G1 Y37.856
G2 X16.769 Y34.473 I-3.6 J0
G1 X10.137 Y36.887
G3 X9.6 Y36.511 I-0.137 J-0.376
G1 Y27.011
Z-9.05
Y22.211
Z-12.55 F333.3
Y13.489 F1000
G3 X10.137 Y13.113 I0.4 J0
G1 X16.769 Y15.527
G2 X21.6 Y12.144 I1.231 J-3.383
G1 Y0
G2 X20 Y-1.6 I-1.6 J0
G1 X0
X-0.05 Y-1.592
X-0.094 Y-1.57
X-0.131 Y-1.536
X-0.155 Y-1.492
X-0.178 Y-1.448
X-0.211 Y-1.412
X-0.251 Y-1.384
X-0.298 Y-1.368
G2 X-1.4 Y0 I0.298 J1.368 F500
G1 Y6.451
Z-9.05
Y11.251
Z-12.55 F333.3
Y39.871 F500
Z-9.05
Y44.671
Z-12.55 F333.3
Y50 F500
G2 X0 Y51.4 I1.4 J0
G1 X20
G2 X21.4 Y50 I0 J-1.4
G1 Y37.856
G2 X16.837 Y34.661 I-3.4 J0
G1 X10.205 Y37.075
G3 X9.4 Y36.511 I-0.205 J-0.564
G1 Y27.011
Z-9.05
Y22.211
Z-12.55 F333.3
Y13.489 F500
G3 X10.205 Y12.925 I0.6 J0
G1 X16.837 Y15.339
G2 X21.4 Y12.144 I1.163 J-3.195
G1 Y0
G2 X20 Y-1.4 I-1.4 J0
G1 X0
G2 X-1.4 Y0 I0 J1.4
G1 Y6.451
Z-9.05
Y11.251
Z-12.55 F333.3
Y39.871 F500
Z-9.05
Y44.671
Z-12.55 F333.3
Y50 F500
G2 X0 Y51.4 I1.4 J0
G1 X20
G2 X21.4 Y50 I0 J-1.4
G1 Y37.856
G2 X16.837 Y34.661 I-3.4 J0
G1 X10.205 Y37.075
G3 X9.4 Y36.511 I-0.205 J-0.564
G1 Y27.011
Z-9.05
Y22.211
Z-12.55 F333.3
Y13.489 F500
G3 X10.205 Y12.925 I0.6 J0
G1 X16.837 Y15.339
G2 X21.4 Y12.144 I1.163 J-3.195
G1 Y0
G2 X20 Y-1.4 I-1.4 J0
G1 X0
G2 X-0.298 Y-1.368 I0 J1.4
G1 Z5 F1000
X41 Y-1.6
Z3 F333.3
Z-1.758
G2 X39.4 Y0 I0 J1.6 F500
G1 Y12.144
G3 X38.863 Y12.52 I-0.4 J0
G1 X32.231 Y10.106
G2 X27.4 Y13.489 I-1.231 J3.383
G1 Y36.511
G2 X32.231 Y39.894 I3.6 J0
G1 X38.863 Y37.48
G3 X39.4 Y37.856 I0.137 J0.376
G1 Y50
G2 X41 Y51.6 I1.6 J0
G1 X51
G2 X52.6 Y50 I0 J-1.6
G1 Y0
G2 X51 Y-1.6 I-1.6 J0
G1 X41
Z-3.517 F333.3
G2 X39.4 Y0 I0 J1.6 F500
G1 Y12.144
G3 X38.863 Y12.52 I-0.4 J0
G1 X32.231 Y10.106
G2 X27.4 Y13.489 I-1.231 J3.383
G1 Y36.511
G2 X32.231 Y39.894 I3.6 J0
G1 X38.863 Y37.48
G3 X39.4 Y37.856 I0.137 J0.376
G1 Y50
G2 X41 Y51.6 I1.6 J0
G1 X51
G2 X52.6 Y50 I0 J-1.6
G1 Y0
G2 X51 Y-1.6 I-1.6 J0
G1 X41
Z-5.275 F333.3
G2 X39.4 Y0 I0 J1.6 F500
G1 Y12.144
G3 X38.863 Y12.52 I-0.4 J0
G1 X32.231 Y10.106
G2 X27.4 Y13.489 I-1.231 J3.383
G1 Y36.511
G2 X32.231 Y39.894 I3.6 J0
G1 X38.863 Y37.48
G3 X39.4 Y37.856 I0.137 J0.376
G1 Y50
G2 X41 Y51.6 I1.6 J0
G1 X51
G2 X52.6 Y50 I0 J-1.6
G1 Y0
G2 X51 Y-1.6 I-1.6 J0
G1 X41
Z-7.033 F333.3
G2 X39.4 Y0 I0 J1.6 F500
G1 Y12.144
G3 X38.863 Y12.52 I-0.4 J0
G1 X32.231 Y10.106
G2 X27.4 Y13.489 I-1.231 J3.383
G1 Y36.511
G2 X32.231 Y39.894 I3.6 J0
G1 X38.863 Y37.48
G3 X39.4 Y37.856 I0.137 J0.376
G1 Y50
G2 X41 Y51.6 I1.6 J0
G1 X51
G2 X52.6 Y50 I0 J-1.6
G1 Y0
G2 X51 Y-1.6 I-1.6 J0
G1 X41
Z-8.792 F333.3
G2 X39.4 Y0 I0 J1.6 F500
G1 Y12.144
G3 X38.863 Y12.52 I-0.4 J0
G1 X32.231 Y10.106
G2 X27.4 Y13.489 I-1.231 J3.383
G1 Y36.511
G2 X32.231 Y39.894 I3.6 J0
G1 X38.863 Y37.48
G3 X39.4 Y37.856 I0.137 J0.376
G1 Y50
G2 X41 Y51.6 I1.6 J0
G1 X51
G2 X52.6 Y50 I0 J-1.6
G1 Y0
G2 X51 Y-1.6 I-1.6 J0
G1 X41
Z-10.55 F333.3
G2 X39.4 Y0 I0 J1.6 F500
G1 Y12.144
G3 X38.863 Y12.52 I-0.4 J0
G1 X32.231 Y10.106
G2 X27.4 Y13.489 I-1.231 J3.383
G1 Y21.565
Z-9.05
Y26.365
Z-10.55 F333.3
Y36.511 F500
G2 X32.231 Y39.894 I3.6 J0
G1 X38.863 Y37.48
G3 X39.4 Y37.856 I0.137 J0.376
G1 Y50
G2 X41 Y51.6 I1.6 J0
G1 X51
G2 X52.6 Y50 I0 J-1.6
G1 Y44.375
Z-9.05
Y39.575
Z-10.55 F333.3
Y10.195 F500
Z-9.05
Y5.395
Z-10.55 F333.3
Y0 F500
G2 X51 Y-1.6 I-1.6 J0
G1 X41
Z-12.55 F333.3
G2 X39.4 Y0 I0 J1.6 F1000
G1 Y12.144
G3 X38.863 Y12.52 I-0.4 J0
G1 X32.231 Y10.106
G2 X27.4 Y13.489 I-1.231 J3.383
G1 Y21.565
Z-9.05
Y26.365
Z-12.55 F333.3
Y36.511 F1000
G2 X32.231 Y39.894 I3.6 J0
G1 X38.863 Y37.48
G3 X39.4 Y37.856 I0.137 J0.376
G1 Y50
G2 X41 Y51.6 I1.6 J0
G1 X51
G2 X52.6 Y50 I0 J-1.6
G1 Y44.375
Z-9.05
Y39.575
Z-12.55 F333.3
Y10.195 F1000
Z-9.05
Y5.395
Z-12.55 F333.3
Y0 F1000
G2 X51 Y-1.6 I-1.6 J0
G1 X41
X40.95 Y-1.592
X40.906 Y-1.57
X40.869 Y-1.536
X40.845 Y-1.492
X40.822 Y-1.448
X40.789 Y-1.412
X40.749 Y-1.384
X40.702 Y-1.368
G2 X39.6 Y0 I0.298 J1.368 F500
G1 Y12.144
G3 X38.795 Y12.708 I-0.6 J0
G1 X32.163 Y10.294
G2 X27.6 Y13.489 I-1.163 J3.195
G1 Y21.565
Z-9.05
Y26.365
Z-12.55 F333.3
Y36.511 F500
G2 X32.163 Y39.706 I3.4 J0
G1 X38.795 Y37.292
G3 X39.6 Y37.856 I0.205 J0.564
G1 Y50
G2 X41 Y51.4 I1.4 J0
G1 X51
G2 X52.4 Y50 I0 J-1.4
G1 Y44.375
Z-9.05
Y39.575
Z-12.55 F333.3
Y10.195 F500
Z-9.05
Y5.395
Z-12.55 F333.3
Y0 F500
G2 X51 Y-1.4 I-1.4 J0
G1 X41
G2 X39.6 Y0 I0 J1.4
G1 Y12.144
G3 X38.795 Y12.708 I-0.6 J0
G1 X32.163 Y10.294
G2 X27.6 Y13.489 I-1.163 J3.195
G1 Y21.565
Z-9.05
Y26.365
Z-12.55 F333.3
Y36.511 F500
G2 X32.163 Y39.706 I3.4 J0
G1 X38.795 Y37.292
G3 X39.6 Y37.856 I0.205 J0.564
G1 Y50
G2 X41 Y51.4 I1.4 J0
G1 X51
G2 X52.4 Y50 I0 J-1.4
G1 Y44.375
Z-9.05
Y39.575
Z-12.55 F333.3
Y10.195 F500
Z-9.05
Y5.395
Z-12.55 F333.3
Y0 F500
G2 X51 Y-1.4 I-1.4 J0
G1 X41
G2 X40.702 Y-1.368 I0 J1.4
G1 Z10 F1000
M5
M30
