(1049_thin_tab_3175bit)
(T1  D=3.175 CR=0 - ZMIN=-1 - flat end mill)
G90 G94
G17
G21
(When using Fusion 360 for Personal Use, the feedrate of)
(rapid moves is reduced to match the feedrate of cutting)
(moves, which can increase machining time. Unrestricted rapid)
(moves are available with a Fusion 360 Subscription.)

(2D Contour5)
T1
S5000 M3
G54
G0 X-1.788 Y0
Z10
G1 Z5 F1000
Z4 F333.3
Z1
Y50 F500
G2 X0 Y51.787 I1.788 J0
G1 X20
G2 X21.788 Y50 I0 J-1.787
G1 Y37.856
G2 X16.705 Y34.297 I-3.788 J0
G1 X10.073 Y36.711
G3 X9.788 Y36.511 I-0.073 J-0.2
G1 Y13.489
G3 X10.073 Y13.289 I0.212 J0
G1 X16.705 Y15.703
G2 X21.788 Y12.144 I1.295 J-3.559
G1 Y0
G2 X20 Y-1.788 I-1.788 J0
G1 X0
G2 X-1.788 Y0 I0 J1.788
G1 Z-1 F333.3
Y50 F1000
G2 X0 Y51.787 I1.788 J0
G1 X20
G2 X21.788 Y50 I0 J-1.787
G1 Y37.856
G2 X16.705 Y34.297 I-3.788 J0
G1 X10.073 Y36.711
G3 X9.788 Y36.511 I-0.073 J-0.2
G1 Y13.489
G3 X10.073 Y13.289 I0.212 J0
G1 X16.705 Y15.703
G2 X21.788 Y12.144 I1.295 J-3.559
G1 Y0
G2 X20 Y-1.788 I-1.788 J0
G1 X0
G2 X-1.788 Y0 I0 J1.788
G1 X-1.781 Y0.047
X-1.76 Y0.09
X-1.728 Y0.125
X-1.688 Y0.15
X-1.647 Y0.175
X-1.615 Y0.21
X-1.594 Y0.253
X-1.587 Y0.3
Y50 F500
G2 X0 Y51.588 I1.587 J0
G1 X20
G2 X21.587 Y50 I0 J-1.588
G1 Y37.856
G2 X16.773 Y34.485 I-3.587 J0
G1 X10.141 Y36.899
G3 X9.587 Y36.511 I-0.141 J-0.388
G1 Y13.489
G3 X10.141 Y13.101 I0.413 J0
G1 X16.773 Y15.515
G2 X21.587 Y12.144 I1.227 J-3.371
G1 Y0
G2 X20 Y-1.587 I-1.587 J0
G1 X0
G2 X-1.587 Y0 I0 J1.587
G1 Y50
G2 X0 Y51.588 I1.587 J0
G1 X20
G2 X21.587 Y50 I0 J-1.588
G1 Y37.856
G2 X16.773 Y34.485 I-3.587 J0
G1 X10.141 Y36.899
G3 X9.587 Y36.511 I-0.141 J-0.388
G1 Y13.489
G3 X10.141 Y13.101 I0.413 J0
G1 X16.773 Y15.515
G2 X21.587 Y12.144 I1.227 J-3.371
G1 Y0
G2 X20 Y-1.587 I-1.587 J0
G1 X0
G2 X-1.587 Y0 I0 J1.587
G1 Y0.3
Z5 F1000
X41 Y-1.787
Z4 F333.3
Z1
G2 X39.213 Y0 I0 J1.787 F500
G1 Y12.144
G3 X38.927 Y12.343 I-0.213 J0
G1 X32.295 Y9.93
G2 X27.212 Y13.489 I-1.295 J3.559
G1 Y36.511
G2 X32.295 Y40.07 I3.788 J0
G1 X38.927 Y37.657
G3 X39.213 Y37.856 I0.073 J0.2
G1 Y50
G2 X41 Y51.787 I1.787 J0
G1 X51
G2 X52.787 Y50 I0 J-1.787
G1 Y0
G2 X51 Y-1.787 I-1.787 J0
G1 X41
Z-1 F333.3
G2 X39.213 Y0 I0 J1.787 F1000
G1 Y12.144
G3 X38.927 Y12.343 I-0.213 J0
G1 X32.295 Y9.93
G2 X27.212 Y13.489 I-1.295 J3.559
G1 Y36.511
G2 X32.295 Y40.07 I3.788 J0
G1 X38.927 Y37.657
G3 X39.213 Y37.856 I0.073 J0.2
G1 Y50
G2 X41 Y51.787 I1.787 J0
G1 X51
G2 X52.787 Y50 I0 J-1.787
G1 Y0
G2 X51 Y-1.787 I-1.787 J0
G1 X41
X40.951 Y-1.78
X40.906 Y-1.758
X40.87 Y-1.724
X40.845 Y-1.68
X40.823 Y-1.637
X40.789 Y-1.601
X40.748 Y-1.574
X40.702 Y-1.559
G2 X39.412 Y0 I0.298 J1.559 F500
G1 Y12.144
G3 X38.859 Y12.531 I-0.412 J0
G1 X32.227 Y10.118
G2 X27.413 Y13.489 I-1.227 J3.371
G1 Y36.511
G2 X32.227 Y39.882 I3.587 J0
G1 X38.859 Y37.469
G3 X39.412 Y37.856 I0.141 J0.388
G1 Y50
G2 X41 Y51.588 I1.588 J0
G1 X51
G2 X52.588 Y50 I0 J-1.588
G1 Y0
G2 X51 Y-1.587 I-1.588 J0
G1 X41
G2 X39.412 Y0 I0 J1.588
G1 Y12.144
G3 X38.859 Y12.531 I-0.412 J0
G1 X32.227 Y10.118
G2 X27.413 Y13.489 I-1.227 J3.371
G1 Y36.511
G2 X32.227 Y39.882 I3.587 J0
G1 X38.859 Y37.469
G3 X39.412 Y37.856 I0.141 J0.388
G1 Y50
G2 X41 Y51.588 I1.588 J0
G1 X51
G2 X52.588 Y50 I0 J-1.588
G1 Y0
G2 X51 Y-1.587 I-1.588 J0
G1 X41
G2 X40.702 Y-1.559 I0 J1.588
G1 Z10 F1000
M5
M30
