(1050_flat_single)
(T1  D=3.175 CR=0 - ZMIN=-1 - flat end mill)
G90 G94
G17
G21
(When using Fusion 360 for Personal Use, the feedrate of)
(rapid moves is reduced to match the feedrate of cutting)
(moves, which can increase machining time. Unrestricted rapid)
(moves are available with a Fusion 360 Subscription.)

(2D Contour5)
T1
S5000 M3
G54
G0 X0 Y-1.587
Z10
G1 Z5 F1000
Z1 F333.3
Z-1
G2 X-1.587 Y0 I0 J1.587 F500
G1 Y50
G2 X0 Y51.588 I1.587 J0
G1 X20
G2 X21.587 Y50 I0 J-1.588
G1 Y37.856
G2 X16.773 Y34.485 I-3.587 J0
G1 X10.141 Y36.899
G3 X9.587 Y36.511 I-0.141 J-0.388
G1 Y13.489
G3 X10.141 Y13.101 I0.413 J0
G1 X16.773 Y15.515
G2 X21.587 Y12.144 I1.227 J-3.371
G1 Y0
G2 X20 Y-1.587 I-1.587 J0
G1 X0
G2 X-1.587 Y0 I0 J1.587
G1 Y50
G2 X0 Y51.588 I1.587 J0
G1 X20
G2 X21.587 Y50 I0 J-1.588
G1 Y37.856
G2 X16.773 Y34.485 I-3.587 J0
G1 X10.141 Y36.899
G3 X9.587 Y36.511 I-0.141 J-0.388
G1 Y13.489
G3 X10.141 Y13.101 I0.413 J0
G1 X16.773 Y15.515
G2 X21.587 Y12.144 I1.227 J-3.371
G1 Y0
G2 X20 Y-1.587 I-1.587 J0
G1 X0
Z5 F1000
X39.412 Y0
Z1 F333.3
Z-1
Y12.144 F500
G3 X38.859 Y12.531 I-0.412 J0
G1 X32.227 Y10.118
G2 X27.413 Y13.489 I-1.227 J3.371
G1 Y36.511
G2 X32.227 Y39.882 I3.587 J0
G1 X38.859 Y37.469
G3 X39.412 Y37.856 I0.141 J0.388
G1 Y50
G2 X41 Y51.588 I1.588 J0
G1 X51
G2 X52.588 Y50 I0 J-1.588
G1 Y0
G2 X51 Y-1.587 I-1.588 J0
G1 X41
G2 X39.412 Y0 I0 J1.588
G1 Y12.144
G3 X38.859 Y12.531 I-0.412 J0
G1 X32.227 Y10.118
G2 X27.413 Y13.489 I-1.227 J3.371
G1 Y36.511
G2 X32.227 Y39.882 I3.587 J0
G1 X38.859 Y37.469
G3 X39.412 Y37.856 I0.141 J0.388
G1 Y50
G2 X41 Y51.588 I1.588 J0
G1 X51
G2 X52.588 Y50 I0 J-1.588
G1 Y0
G2 X51 Y-1.587 I-1.588 J0
G1 X41
G2 X39.412 Y0 I0 J1.588
G1 Z10 F1000
M5
M30
