(1051_tab_flat_single_347bit)
(T1  D=3.47 CR=0 - ZMIN=-1 - flat end mill)
G90 G94
G17
G21
(When using Fusion 360 for Personal Use, the feedrate of)
(rapid moves is reduced to match the feedrate of cutting)
(moves, which can increase machining time. Unrestricted rapid)
(moves are available with a Fusion 360 Subscription.)

(2D Contour5)
T1
S5000 M3
G54
G0 X0 Y-1.735
Z10
G1 Z5 F1000
Z1 F333.3
Z-1
G2 X-1.735 Y0 I0 J1.735 F500
G1 Y50
G2 X0 Y51.735 I1.735 J0
G1 X20
G2 X21.735 Y50 I0 J-1.735
G1 Y37.856
G2 X16.723 Y34.347 I-3.735 J0
G1 X10.091 Y36.76
G3 X9.735 Y36.511 I-0.091 J-0.249
G1 Y13.489
G3 X10.091 Y13.24 I0.265 J0
G1 X16.723 Y15.653
G2 X21.735 Y12.144 I1.277 J-3.51
G1 Y0
G2 X20 Y-1.735 I-1.735 J0
G1 X0
G2 X-1.735 Y0 I0 J1.735
G1 Y50
G2 X0 Y51.735 I1.735 J0
G1 X20
G2 X21.735 Y50 I0 J-1.735
G1 Y37.856
G2 X16.723 Y34.347 I-3.735 J0
G1 X10.091 Y36.76
G3 X9.735 Y36.511 I-0.091 J-0.249
G1 Y13.489
G3 X10.091 Y13.24 I0.265 J0
G1 X16.723 Y15.653
G2 X21.735 Y12.144 I1.277 J-3.51
G1 Y0
G2 X20 Y-1.735 I-1.735 J0
G1 X0
Z5 F1000
X39.265 Y0
Z1 F333.3
Z-1
Y12.144 F500
G3 X38.909 Y12.393 I-0.265 J0
G1 X32.277 Y9.979
G2 X27.265 Y13.489 I-1.277 J3.51
G1 Y36.511
G2 X32.277 Y40.021 I3.735 J0
G1 X38.909 Y37.607
G3 X39.265 Y37.856 I0.091 J0.249
G1 Y50
G2 X41 Y51.735 I1.735 J0
G1 X51
G2 X52.735 Y50 I0 J-1.735
G1 Y0
G2 X51 Y-1.735 I-1.735 J0
G1 X41
G2 X39.265 Y0 I0 J1.735
G1 Y12.144
G3 X38.909 Y12.393 I-0.265 J0
G1 X32.277 Y9.979
G2 X27.265 Y13.489 I-1.277 J3.51
G1 Y36.511
G2 X32.277 Y40.021 I3.735 J0
G1 X38.909 Y37.607
G3 X39.265 Y37.856 I0.091 J0.249
G1 Y50
G2 X41 Y51.735 I1.735 J0
G1 X51
G2 X52.735 Y50 I0 J-1.735
G1 Y0
G2 X51 Y-1.735 I-1.735 J0
G1 X41
G2 X39.265 Y0 I0 J1.735
G1 Z10 F1000
M5
M30
