(1052_26bit_single)
(T1  D=2.6 CR=0 - ZMIN=-1 - flat end mill)
G90 G94
G17
G21
(When using Fusion 360 for Personal Use, the feedrate of)
(rapid moves is reduced to match the feedrate of cutting)
(moves, which can increase machining time. Unrestricted rapid)
(moves are available with a Fusion 360 Subscription.)

(2D Contour5)
T1
S5000 M3
G54
G0 X0 Y-1.3
Z10
G1 Z5 F1000
Z1 F333.3
Z-1
G2 X-1.3 Y0 I0 J1.3 F500
G1 Y50
G2 X0 Y51.3 I1.3 J0
G1 X20
G2 X21.3 Y50 I0 J-1.3
G1 Y37.856
G2 X16.871 Y34.755 I-3.3 J0
G1 X10.239 Y37.169
G3 X9.3 Y36.511 I-0.239 J-0.658
G1 Y13.489
G3 X10.239 Y12.831 I0.7 J0
G1 X16.871 Y15.245
G2 X21.3 Y12.144 I1.129 J-3.101
G1 Y0
G2 X20 Y-1.3 I-1.3 J0
G1 X0
G2 X-1.3 Y0 I0 J1.3
G1 Y50
G2 X0 Y51.3 I1.3 J0
G1 X20
G2 X21.3 Y50 I0 J-1.3
G1 Y37.856
G2 X16.871 Y34.755 I-3.3 J0
G1 X10.239 Y37.169
G3 X9.3 Y36.511 I-0.239 J-0.658
G1 Y13.489
G3 X10.239 Y12.831 I0.7 J0
G1 X16.871 Y15.245
G2 X21.3 Y12.144 I1.129 J-3.101
G1 Y0
G2 X20 Y-1.3 I-1.3 J0
G1 X0
Z5 F1000
X39.7 Y0
Z1 F333.3
Z-1
Y12.144 F500
G3 X38.761 Y12.801 I-0.7 J0
G1 X32.129 Y10.388
G2 X27.7 Y13.489 I-1.129 J3.101
G1 Y36.511
G2 X32.129 Y39.612 I3.3 J0
G1 X38.761 Y37.199
G3 X39.7 Y37.856 I0.239 J0.658
G1 Y50
G2 X41 Y51.3 I1.3 J0
G1 X51
G2 X52.3 Y50 I0 J-1.3
G1 Y0
G2 X51 Y-1.3 I-1.3 J0
G1 X41
G2 X39.7 Y0 I0 J1.3
G1 Y12.144
G3 X38.761 Y12.801 I-0.7 J0
G1 X32.129 Y10.388
G2 X27.7 Y13.489 I-1.129 J3.101
G1 Y36.511
G2 X32.129 Y39.612 I3.3 J0
G1 X38.761 Y37.199
G3 X39.7 Y37.856 I0.239 J0.658
G1 Y50
G2 X41 Y51.3 I1.3 J0
G1 X51
G2 X52.3 Y50 I0 J-1.3
G1 Y0
G2 X51 Y-1.3 I-1.3 J0
G1 X41
G2 X39.7 Y0 I0 J1.3
G1 Z10 F1000
M5
M30
