(1053_tab_26bit)
(T1  D=2.6 CR=0 - ZMIN=-12.55 - flat end mill)
G90 G94
G17
G21
(When using Fusion 360 for Personal Use, the feedrate of)
(rapid moves is reduced to match the feedrate of cutting)
(moves, which can increase machining time. Unrestricted rapid)
(moves are available with a Fusion 360 Subscription.)

(2D Contour5)
T1
S5000 M3
G54
G0 X0 Y-1.5
Z10
G1 Z5 F1000
Z3 F333.3
Z-1.793
G2 X-1.5 Y0 I0 J1.5 F500
G1 Y50
G2 X0 Y51.5 I1.5 J0
G1 X20
G2 X21.5 Y50 I0 J-1.5
G1 Y37.856
G2 X16.803 Y34.567 I-3.5 J0
G1 X10.171 Y36.981
G3 X9.5 Y36.511 I-0.171 J-0.47
G1 Y13.489
G3 X10.171 Y13.019 I0.5 J0
G1 X16.803 Y15.433
G2 X21.5 Y12.144 I1.197 J-3.289
G1 Y0
G2 X20 Y-1.5 I-1.5 J0
G1 X0
Z-3.586 F333.3
G2 X-1.5 Y0 I0 J1.5 F500
G1 Y50
G2 X0 Y51.5 I1.5 J0
G1 X20
G2 X21.5 Y50 I0 J-1.5
G1 Y37.856
G2 X16.803 Y34.567 I-3.5 J0
G1 X10.171 Y36.981
G3 X9.5 Y36.511 I-0.171 J-0.47
G1 Y13.489
G3 X10.171 Y13.019 I0.5 J0
G1 X16.803 Y15.433
G2 X21.5 Y12.144 I1.197 J-3.289
G1 Y0
G2 X20 Y-1.5 I-1.5 J0
G1 X0
Z-5.379 F333.3
G2 X-1.5 Y0 I0 J1.5 F500
G1 Y50
G2 X0 Y51.5 I1.5 J0
G1 X20
G2 X21.5 Y50 I0 J-1.5
G1 Y37.856
G2 X16.803 Y34.567 I-3.5 J0
G1 X10.171 Y36.981
G3 X9.5 Y36.511 I-0.171 J-0.47
G1 Y13.489
G3 X10.171 Y13.019 I0.5 J0
G1 X16.803 Y15.433
G2 X21.5 Y12.144 I1.197 J-3.289
G1 Y0
G2 X20 Y-1.5 I-1.5 J0
G1 X0
Z-7.171 F333.3
G2 X-1.5 Y0 I0 J1.5 F500
G1 Y50
G2 X0 Y51.5 I1.5 J0
G1 X20
G2 X21.5 Y50 I0 J-1.5
G1 Y37.856
G2 X16.803 Y34.567 I-3.5 J0
G1 X10.171 Y36.981
G3 X9.5 Y36.511 I-0.171 J-0.47
G1 Y13.489
G3 X10.171 Y13.019 I0.5 J0
G1 X16.803 Y15.433
G2 X21.5 Y12.144 I1.197 J-3.289
G1 Y0
G2 X20 Y-1.5 I-1.5 J0
G1 X0
Z-8.964 F333.3
G2 X-1.5 Y0 I0 J1.5 F500
G1 Y50
G2 X0 Y51.5 I1.5 J0
G1 X20
G2 X21.5 Y50 I0 J-1.5
G1 Y37.856
G2 X16.803 Y34.567 I-3.5 J0
G1 X10.171 Y36.981
G3 X9.5 Y36.511 I-0.171 J-0.47
G1 Y13.489
G3 X10.171 Y13.019 I0.5 J0
G1 X16.803 Y15.433
G2 X21.5 Y12.144 I1.197 J-3.289
G1 Y0
G2 X20 Y-1.5 I-1.5 J0
G1 X0
Z-10.757 F333.3
G2 X-1.5 Y0 I0 J1.5 F500
G1 Y9.7
Z-9.05
Y15.3
Z-10.757 F333.3
Y34.7 F500
Z-9.05
Y40.3
Z-10.757 F333.3
Y50 F500
G2 X0 Y51.5 I1.5 J0
G1 X20
G2 X21.5 Y50 I0 J-1.5
G1 Y37.856
G2 X16.803 Y34.567 I-3.5 J0
G1 X10.171 Y36.981
G3 X9.5 Y36.511 I-0.171 J-0.47
G1 Y27.8
Z-9.05
Y22.2
Z-10.757 F333.3
Y13.489 F500
G3 X10.171 Y13.019 I0.5 J0
G1 X16.803 Y15.433
G2 X21.5 Y12.144 I1.197 J-3.289
G1 Y0
G2 X20 Y-1.5 I-1.5 J0
G1 X0
Z-12.55 F333.3
G2 X-1.5 Y0 I0 J1.5 F1000
G1 Y9.7
Z-9.05
Y15.3
Z-12.55 F333.3
Y34.7 F1000
Z-9.05
Y40.3
Z-12.55 F333.3
Y50 F1000
G2 X0 Y51.5 I1.5 J0
G1 X20
G2 X21.5 Y50 I0 J-1.5
G1 Y37.856
G2 X16.803 Y34.567 I-3.5 J0
G1 X10.171 Y36.981
G3 X9.5 Y36.511 I-0.171 J-0.47
G1 Y27.8
Z-9.05
Y22.2
Z-12.55 F333.3
Y13.489 F1000
G3 X10.171 Y13.019 I0.5 J0
G1 X16.803 Y15.433
G2 X21.5 Y12.144 I1.197 J-3.289
G1 Y0
G2 X20 Y-1.5 I-1.5 J0
G1 X0
X-0.05 Y-1.492
X-0.095 Y-1.47
X-0.131 Y-1.435
X-0.155 Y-1.391
X-0.178 Y-1.348
X-0.211 Y-1.311
X-0.251 Y-1.283
X-0.297 Y-1.266
G2 X-1.3 Y0 I0.297 J1.266 F500
G1 Y9.7
Z-9.05
Y15.3
Z-12.55 F333.3
Y34.7 F500
Z-9.05
Y40.3
Z-12.55 F333.3
Y50 F500
G2 X0 Y51.3 I1.3 J0
G1 X20
G2 X21.3 Y50 I0 J-1.3
G1 Y37.856
G2 X16.871 Y34.755 I-3.3 J0
G1 X10.239 Y37.169
G3 X9.3 Y36.511 I-0.239 J-0.658
G1 Y27.8
Z-9.05
Y22.2
Z-12.55 F333.3
Y13.489 F500
G3 X10.239 Y12.831 I0.7 J0
G1 X16.871 Y15.245
G2 X21.3 Y12.144 I1.129 J-3.101
G1 Y0
G2 X20 Y-1.3 I-1.3 J0
G1 X0
G2 X-1.3 Y0 I0 J1.3
G1 Y9.7
Z-9.05
Y15.3
Z-12.55 F333.3
Y34.7 F500
Z-9.05
Y40.3
Z-12.55 F333.3
Y50 F500
G2 X0 Y51.3 I1.3 J0
G1 X20
G2 X21.3 Y50 I0 J-1.3
G1 Y37.856
G2 X16.871 Y34.755 I-3.3 J0
G1 X10.239 Y37.169
G3 X9.3 Y36.511 I-0.239 J-0.658
G1 Y27.8
Z-9.05
Y22.2
Z-12.55 F333.3
Y13.489 F500
G3 X10.239 Y12.831 I0.7 J0
G1 X16.871 Y15.245
G2 X21.3 Y12.144 I1.129 J-3.101
G1 Y0
G2 X20 Y-1.3 I-1.3 J0
G1 X0
G2 X-0.297 Y-1.266 I0 J1.3
G1 Z5 F1000
X41 Y-1.5
Z3 F333.3
Z-1.793
G2 X39.5 Y0 I0 J1.5 F500
G1 Y12.144
G3 X38.829 Y12.614 I-0.5 J0
G1 X32.197 Y10.2
G2 X27.5 Y13.489 I-1.197 J3.289
G1 Y36.511
G2 X32.197 Y39.8 I3.5 J0
G1 X38.829 Y37.386
G3 X39.5 Y37.856 I0.171 J0.47
G1 Y50
G2 X41 Y51.5 I1.5 J0
G1 X51
G2 X52.5 Y50 I0 J-1.5
G1 Y0
G2 X51 Y-1.5 I-1.5 J0
G1 X41
Z-3.586 F333.3
G2 X39.5 Y0 I0 J1.5 F500
G1 Y12.144
G3 X38.829 Y12.614 I-0.5 J0
G1 X32.197 Y10.2
G2 X27.5 Y13.489 I-1.197 J3.289
G1 Y36.511
G2 X32.197 Y39.8 I3.5 J0
G1 X38.829 Y37.386
G3 X39.5 Y37.856 I0.171 J0.47
G1 Y50
G2 X41 Y51.5 I1.5 J0
G1 X51
G2 X52.5 Y50 I0 J-1.5
G1 Y0
G2 X51 Y-1.5 I-1.5 J0
G1 X41
Z-5.379 F333.3
G2 X39.5 Y0 I0 J1.5 F500
G1 Y12.144
G3 X38.829 Y12.614 I-0.5 J0
G1 X32.197 Y10.2
G2 X27.5 Y13.489 I-1.197 J3.289
G1 Y36.511
G2 X32.197 Y39.8 I3.5 J0
G1 X38.829 Y37.386
G3 X39.5 Y37.856 I0.171 J0.47
G1 Y50
G2 X41 Y51.5 I1.5 J0
G1 X51
G2 X52.5 Y50 I0 J-1.5
G1 Y0
G2 X51 Y-1.5 I-1.5 J0
G1 X41
Z-7.171 F333.3
G2 X39.5 Y0 I0 J1.5 F500
G1 Y12.144
G3 X38.829 Y12.614 I-0.5 J0
G1 X32.197 Y10.2
G2 X27.5 Y13.489 I-1.197 J3.289
G1 Y36.511
G2 X32.197 Y39.8 I3.5 J0
G1 X38.829 Y37.386
G3 X39.5 Y37.856 I0.171 J0.47
G1 Y50
G2 X41 Y51.5 I1.5 J0
G1 X51
G2 X52.5 Y50 I0 J-1.5
G1 Y0
G2 X51 Y-1.5 I-1.5 J0
G1 X41
Z-8.964 F333.3
G2 X39.5 Y0 I0 J1.5 F500
G1 Y12.144
G3 X38.829 Y12.614 I-0.5 J0
G1 X32.197 Y10.2
G2 X27.5 Y13.489 I-1.197 J3.289
G1 Y36.511
G2 X32.197 Y39.8 I3.5 J0
G1 X38.829 Y37.386
G3 X39.5 Y37.856 I0.171 J0.47
G1 Y50
G2 X41 Y51.5 I1.5 J0
G1 X51
G2 X52.5 Y50 I0 J-1.5
G1 Y0
G2 X51 Y-1.5 I-1.5 J0
G1 X41
Z-10.757 F333.3
G2 X39.5 Y0 I0 J1.5 F500
G1 Y12.144
G3 X38.829 Y12.614 I-0.5 J0
G1 X32.197 Y10.2
G2 X27.5 Y13.489 I-1.197 J3.289
G1 Y22.2
Z-9.05
Y27.8
Z-10.757 F333.3
Y36.511 F500
G2 X32.197 Y39.8 I3.5 J0
G1 X38.829 Y37.386
G3 X39.5 Y37.856 I0.171 J0.47
G1 Y50
G2 X41 Y51.5 I1.5 J0
G1 X51
G2 X52.5 Y50 I0 J-1.5
G1 Y40.3
Z-9.05
Y34.7
Z-10.757 F333.3
Y15.3 F500
Z-9.05
Y9.7
Z-10.757 F333.3
Y0 F500
G2 X51 Y-1.5 I-1.5 J0
G1 X41
Z-12.55 F333.3
G2 X39.5 Y0 I0 J1.5 F1000
G1 Y12.144
G3 X38.829 Y12.614 I-0.5 J0
G1 X32.197 Y10.2
G2 X27.5 Y13.489 I-1.197 J3.289
G1 Y22.2
Z-9.05
Y27.8
Z-12.55 F333.3
Y36.511 F1000
G2 X32.197 Y39.8 I3.5 J0
G1 X38.829 Y37.386
G3 X39.5 Y37.856 I0.171 J0.47
G1 Y50
G2 X41 Y51.5 I1.5 J0
G1 X51
G2 X52.5 Y50 I0 J-1.5
G1 Y40.3
Z-9.05
Y34.7
Z-12.55 F333.3
Y15.3 F1000
Z-9.05
Y9.7
Z-12.55 F333.3
Y0 F1000
G2 X51 Y-1.5 I-1.5 J0
G1 X41
X40.95 Y-1.492
X40.905 Y-1.47
X40.869 Y-1.435
X40.845 Y-1.391
X40.822 Y-1.348
X40.789 Y-1.311
X40.749 Y-1.283
X40.703 Y-1.266
G2 X39.7 Y0 I0.297 J1.266 F500
G1 Y12.144
G3 X38.761 Y12.801 I-0.7 J0
G1 X32.129 Y10.388
G2 X27.7 Y13.489 I-1.129 J3.101
G1 Y22.2
Z-9.05
Y27.8
Z-12.55 F333.3
Y36.511 F500
G2 X32.129 Y39.612 I3.3 J0
G1 X38.761 Y37.199
G3 X39.7 Y37.856 I0.239 J0.658
G1 Y50
G2 X41 Y51.3 I1.3 J0
G1 X51
G2 X52.3 Y50 I0 J-1.3
G1 Y40.3
Z-9.05
Y34.7
Z-12.55 F333.3
Y15.3 F500
Z-9.05
Y9.7
Z-12.55 F333.3
Y0 F500
G2 X51 Y-1.3 I-1.3 J0
G1 X41
G2 X39.7 Y0 I0 J1.3
G1 Y12.144
G3 X38.761 Y12.801 I-0.7 J0
G1 X32.129 Y10.388
G2 X27.7 Y13.489 I-1.129 J3.101
G1 Y22.2
Z-9.05
Y27.8
Z-12.55 F333.3
Y36.511 F500
G2 X32.129 Y39.612 I3.3 J0
G1 X38.761 Y37.199
G3 X39.7 Y37.856 I0.239 J0.658
G1 Y50
G2 X41 Y51.3 I1.3 J0
G1 X51
G2 X52.3 Y50 I0 J-1.3
G1 Y40.3
Z-9.05
Y34.7
Z-12.55 F333.3
Y15.3 F500
Z-9.05
Y9.7
Z-12.55 F333.3
Y0 F500
G2 X51 Y-1.3 I-1.3 J0
G1 X41
G2 X40.703 Y-1.266 I0 J1.3
G1 Z10 F1000
M5
M30
