(1054_tab_27bit)
(T1  D=2.7 CR=0 - ZMIN=-12.55 - flat end mill)
G90 G94
G17
G21
(When using Fusion 360 for Personal Use, the feedrate of)
(rapid moves is reduced to match the feedrate of cutting)
(moves, which can increase machining time. Unrestricted rapid)
(moves are available with a Fusion 360 Subscription.)

(2D Contour5)
T1
S5000 M3
G54
G0 X0 Y-1.55
Z10
G1 Z5 F1000
Z3 F333.3
Z-1.793
G2 X-1.55 Y0 I0 J1.55 F500
G1 Y50
G2 X0 Y51.55 I1.55 J0
G1 X20
G2 X21.55 Y50 I0 J-1.55
G1 Y37.856
G2 X16.786 Y34.52 I-3.55 J0
G1 X10.154 Y36.934
G3 X9.55 Y36.511 I-0.154 J-0.423
G1 Y13.489
G3 X10.154 Y13.066 I0.45 J0
G1 X16.786 Y15.48
G2 X21.55 Y12.144 I1.214 J-3.336
G1 Y0
G2 X20 Y-1.55 I-1.55 J0
G1 X0
Z-3.586 F333.3
G2 X-1.55 Y0 I0 J1.55 F500
G1 Y50
G2 X0 Y51.55 I1.55 J0
G1 X20
G2 X21.55 Y50 I0 J-1.55
G1 Y37.856
G2 X16.786 Y34.52 I-3.55 J0
G1 X10.154 Y36.934
G3 X9.55 Y36.511 I-0.154 J-0.423
G1 Y13.489
G3 X10.154 Y13.066 I0.45 J0
G1 X16.786 Y15.48
G2 X21.55 Y12.144 I1.214 J-3.336
G1 Y0
G2 X20 Y-1.55 I-1.55 J0
G1 X0
Z-5.379 F333.3
G2 X-1.55 Y0 I0 J1.55 F500
G1 Y50
G2 X0 Y51.55 I1.55 J0
G1 X20
G2 X21.55 Y50 I0 J-1.55
G1 Y37.856
G2 X16.786 Y34.52 I-3.55 J0
G1 X10.154 Y36.934
G3 X9.55 Y36.511 I-0.154 J-0.423
G1 Y13.489
G3 X10.154 Y13.066 I0.45 J0
G1 X16.786 Y15.48
G2 X21.55 Y12.144 I1.214 J-3.336
G1 Y0
G2 X20 Y-1.55 I-1.55 J0
G1 X0
Z-7.171 F333.3
G2 X-1.55 Y0 I0 J1.55 F500
G1 Y50
G2 X0 Y51.55 I1.55 J0
G1 X20
G2 X21.55 Y50 I0 J-1.55
G1 Y37.856
G2 X16.786 Y34.52 I-3.55 J0
G1 X10.154 Y36.934
G3 X9.55 Y36.511 I-0.154 J-0.423
G1 Y13.489
G3 X10.154 Y13.066 I0.45 J0
G1 X16.786 Y15.48
G2 X21.55 Y12.144 I1.214 J-3.336
G1 Y0
G2 X20 Y-1.55 I-1.55 J0
G1 X0
Z-8.964 F333.3
G2 X-1.55 Y0 I0 J1.55 F500
G1 Y50
G2 X0 Y51.55 I1.55 J0
G1 X20
G2 X21.55 Y50 I0 J-1.55
G1 Y37.856
G2 X16.786 Y34.52 I-3.55 J0
G1 X10.154 Y36.934
G3 X9.55 Y36.511 I-0.154 J-0.423
G1 Y13.489
G3 X10.154 Y13.066 I0.45 J0
G1 X16.786 Y15.48
G2 X21.55 Y12.144 I1.214 J-3.336
G1 Y0
G2 X20 Y-1.55 I-1.55 J0
G1 X0
Z-10.757 F333.3
G2 X-1.55 Y0 I0 J1.55 F500
G1 Y9.65
Z-9.05
Y15.35
Z-10.757 F333.3
Y34.65 F500
Z-9.05
Y40.35
Z-10.757 F333.3
Y50 F500
G2 X0 Y51.55 I1.55 J0
G1 X20
G2 X21.55 Y50 I0 J-1.55
G1 Y37.856
G2 X16.786 Y34.52 I-3.55 J0
G1 X10.154 Y36.934
G3 X9.55 Y36.511 I-0.154 J-0.423
G1 Y27.85
Z-9.05
Y22.15
Z-10.757 F333.3
Y13.489 F500
G3 X10.154 Y13.066 I0.45 J0
G1 X16.786 Y15.48
G2 X21.55 Y12.144 I1.214 J-3.336
G1 Y0
G2 X20 Y-1.55 I-1.55 J0
G1 X0
Z-12.55 F333.3
G2 X-1.55 Y0 I0 J1.55 F1000
G1 Y9.65
Z-9.05
Y15.35
Z-12.55 F333.3
Y34.65 F1000
Z-9.05
Y40.35
Z-12.55 F333.3
Y50 F1000
G2 X0 Y51.55 I1.55 J0
G1 X20
G2 X21.55 Y50 I0 J-1.55
G1 Y37.856
G2 X16.786 Y34.52 I-3.55 J0
G1 X10.154 Y36.934
G3 X9.55 Y36.511 I-0.154 J-0.423
G1 Y27.85
Z-9.05
Y22.15
Z-12.55 F333.3
Y13.489 F1000
G3 X10.154 Y13.066 I0.45 J0
G1 X16.786 Y15.48
G2 X21.55 Y12.144 I1.214 J-3.336
G1 Y0
G2 X20 Y-1.55 I-1.55 J0
G1 X0
X-0.05 Y-1.542
X-0.095 Y-1.52
X-0.131 Y-1.486
X-0.155 Y-1.442
X-0.178 Y-1.398
X-0.211 Y-1.361
X-0.251 Y-1.334
X-0.298 Y-1.317
G2 X-1.35 Y0 I0.298 J1.317 F500
G1 Y9.65
Z-9.05
Y15.35
Z-12.55 F333.3
Y34.65 F500
Z-9.05
Y40.35
Z-12.55 F333.3
Y50 F500
G2 X0 Y51.35 I1.35 J0
G1 X20
G2 X21.35 Y50 I0 J-1.35
G1 Y37.856
G2 X16.854 Y34.708 I-3.35 J0
G1 X10.222 Y37.122
G3 X9.35 Y36.511 I-0.222 J-0.611
G1 Y27.85
Z-9.05
Y22.15
Z-12.55 F333.3
Y13.489 F500
G3 X10.222 Y12.878 I0.65 J0
G1 X16.854 Y15.292
G2 X21.35 Y12.144 I1.146 J-3.148
G1 Y0
G2 X20 Y-1.35 I-1.35 J0
G1 X0
G2 X-1.35 Y0 I0 J1.35
G1 Y9.65
Z-9.05
Y15.35
Z-12.55 F333.3
Y34.65 F500
Z-9.05
Y40.35
Z-12.55 F333.3
Y50 F500
G2 X0 Y51.35 I1.35 J0
G1 X20
G2 X21.35 Y50 I0 J-1.35
G1 Y37.856
G2 X16.854 Y34.708 I-3.35 J0
G1 X10.222 Y37.122
G3 X9.35 Y36.511 I-0.222 J-0.611
G1 Y27.85
Z-9.05
Y22.15
Z-12.55 F333.3
Y13.489 F500
G3 X10.222 Y12.878 I0.65 J0
G1 X16.854 Y15.292
G2 X21.35 Y12.144 I1.146 J-3.148
G1 Y0
G2 X20 Y-1.35 I-1.35 J0
G1 X0
G2 X-0.298 Y-1.317 I0 J1.35
G1 Z5 F1000
X39.45 Y0
Z3 F333.3
Z-1.793
Y12.144 F500
G3 X38.846 Y12.567 I-0.45 J0
G1 X32.214 Y10.153
G2 X27.45 Y13.489 I-1.214 J3.336
G1 Y36.511
G2 X32.214 Y39.847 I3.55 J0
G1 X38.846 Y37.433
G3 X39.45 Y37.856 I0.154 J0.423
G1 Y50
G2 X41 Y51.55 I1.55 J0
G1 X51
G2 X52.55 Y50 I0 J-1.55
G1 Y0
G2 X51 Y-1.55 I-1.55 J0
G1 X41
G2 X39.45 Y0 I0 J1.55
G1 Z-3.586 F333.3
Y12.144 F500
G3 X38.846 Y12.567 I-0.45 J0
G1 X32.214 Y10.153
G2 X27.45 Y13.489 I-1.214 J3.336
G1 Y36.511
G2 X32.214 Y39.847 I3.55 J0
G1 X38.846 Y37.433
G3 X39.45 Y37.856 I0.154 J0.423
G1 Y50
G2 X41 Y51.55 I1.55 J0
G1 X51
G2 X52.55 Y50 I0 J-1.55
G1 Y0
G2 X51 Y-1.55 I-1.55 J0
G1 X41
G2 X39.45 Y0 I0 J1.55
G1 Z-5.379 F333.3
Y12.144 F500
G3 X38.846 Y12.567 I-0.45 J0
G1 X32.214 Y10.153
G2 X27.45 Y13.489 I-1.214 J3.336
G1 Y36.511
G2 X32.214 Y39.847 I3.55 J0
G1 X38.846 Y37.433
G3 X39.45 Y37.856 I0.154 J0.423
G1 Y50
G2 X41 Y51.55 I1.55 J0
G1 X51
G2 X52.55 Y50 I0 J-1.55
G1 Y0
G2 X51 Y-1.55 I-1.55 J0
G1 X41
G2 X39.45 Y0 I0 J1.55
G1 Z-7.171 F333.3
Y12.144 F500
G3 X38.846 Y12.567 I-0.45 J0
G1 X32.214 Y10.153
G2 X27.45 Y13.489 I-1.214 J3.336
G1 Y36.511
G2 X32.214 Y39.847 I3.55 J0
G1 X38.846 Y37.433
G3 X39.45 Y37.856 I0.154 J0.423
G1 Y50
G2 X41 Y51.55 I1.55 J0
G1 X51
G2 X52.55 Y50 I0 J-1.55
G1 Y0
G2 X51 Y-1.55 I-1.55 J0
G1 X41
G2 X39.45 Y0 I0 J1.55
G1 Z-8.964 F333.3
Y12.144 F500
G3 X38.846 Y12.567 I-0.45 J0
G1 X32.214 Y10.153
G2 X27.45 Y13.489 I-1.214 J3.336
G1 Y36.511
G2 X32.214 Y39.847 I3.55 J0
G1 X38.846 Y37.433
G3 X39.45 Y37.856 I0.154 J0.423
G1 Y50
G2 X41 Y51.55 I1.55 J0
G1 X51
G2 X52.55 Y50 I0 J-1.55
G1 Y0
G2 X51 Y-1.55 I-1.55 J0
G1 X41
G2 X39.45 Y0 I0 J1.55
G1 Z-10.757 F333.3
Y12.144 F500
G3 X38.846 Y12.567 I-0.45 J0
G1 X32.214 Y10.153
G2 X27.45 Y13.489 I-1.214 J3.336
G1 Y22.15
Z-9.05
Y27.85
Z-10.757 F333.3
Y36.511 F500
G2 X32.214 Y39.847 I3.55 J0
G1 X38.846 Y37.433
G3 X39.45 Y37.856 I0.154 J0.423
G1 Y50
G2 X41 Y51.55 I1.55 J0
G1 X51
G2 X52.55 Y50 I0 J-1.55
G1 Y40.35
Z-9.05
Y34.65
Z-10.757 F333.3
Y15.35 F500
Z-9.05
Y9.65
Z-10.757 F333.3
Y0 F500
G2 X51 Y-1.55 I-1.55 J0
G1 X41
G2 X39.45 Y0 I0 J1.55
G1 Z-12.55 F333.3
Y12.144 F1000
G3 X38.846 Y12.567 I-0.45 J0
G1 X32.214 Y10.153
G2 X27.45 Y13.489 I-1.214 J3.336
G1 Y22.15
Z-9.05
Y27.85
Z-12.55 F333.3
Y36.511 F1000
G2 X32.214 Y39.847 I3.55 J0
G1 X38.846 Y37.433
G3 X39.45 Y37.856 I0.154 J0.423
G1 Y50
G2 X41 Y51.55 I1.55 J0
G1 X51
G2 X52.55 Y50 I0 J-1.55
G1 Y40.35
Z-9.05
Y34.65
Z-12.55 F333.3
Y15.35 F1000
Z-9.05
Y9.65
Z-12.55 F333.3
Y0 F1000
G2 X51 Y-1.55 I-1.55 J0
G1 X41
G2 X39.45 Y0 I0 J1.55
G1 X39.457 Y0.047
X39.477 Y0.09
X39.509 Y0.125
X39.55 Y0.15
X39.591 Y0.175
X39.623 Y0.21
X39.643 Y0.253
X39.65 Y0.3
Y12.144 F500
G3 X38.778 Y12.755 I-0.65 J0
G1 X32.146 Y10.341
G2 X27.65 Y13.489 I-1.146 J3.148
G1 Y22.15
Z-9.05
Y27.85
Z-12.55 F333.3
Y36.511 F500
G2 X32.146 Y39.659 I3.35 J0
G1 X38.778 Y37.245
G3 X39.65 Y37.856 I0.222 J0.611
G1 Y50
G2 X41 Y51.35 I1.35 J0
G1 X51
G2 X52.35 Y50 I0 J-1.35
G1 Y40.35
Z-9.05
Y34.65
Z-12.55 F333.3
Y15.35 F500
Z-9.05
Y9.65
Z-12.55 F333.3
Y0 F500
G2 X51 Y-1.35 I-1.35 J0
G1 X41
G2 X39.65 Y0 I0 J1.35
G1 Y12.144
G3 X38.778 Y12.755 I-0.65 J0
G1 X32.146 Y10.341
G2 X27.65 Y13.489 I-1.146 J3.148
G1 Y22.15
Z-9.05
Y27.85
Z-12.55 F333.3
Y36.511 F500
G2 X32.146 Y39.659 I3.35 J0
G1 X38.778 Y37.245
G3 X39.65 Y37.856 I0.222 J0.611
G1 Y50
G2 X41 Y51.35 I1.35 J0
G1 X51
G2 X52.35 Y50 I0 J-1.35
G1 Y40.35
Z-9.05
Y34.65
Z-12.55 F333.3
Y15.35 F500
Z-9.05
Y9.65
Z-12.55 F333.3
Y0 F500
G2 X51 Y-1.35 I-1.35 J0
G1 X41
G2 X39.65 Y0 I0 J1.35
G1 Y0.3
Z10 F1000
M5
M30
