(1055_utab_265bit)
(T1  D=2.65 CR=0 - ZMIN=-12.55 - flat end mill)
G90 G94
G17
G21
(When using Fusion 360 for Personal Use, the feedrate of)
(rapid moves is reduced to match the feedrate of cutting)
(moves, which can increase machining time. Unrestricted rapid)
(moves are available with a Fusion 360 Subscription.)

(2D Adaptive2)
T1
S5000 M3
G54
G0 X22.646 Y41.373
Z10
G1 Z5 F1000
Z-1.47
Z-1.735
X22.641 Y41.368 Z-1.794
X22.628 Y41.354 Z-1.85
X22.607 Y41.33 Z-1.9
X22.579 Y41.299 Z-1.942
X22.546 Y41.261 Z-1.974
X22.509 Y41.22 Z-1.993
X22.469 Y41.176 Z-2
G3 X21.747 Y39.781 I2.362 J-2.107
G1 X21.732 Y39.7
X21.726 Y39.663
X21.789 Y39.527
X21.9 Y39.426
X22.031 Y39.352
X22.171 Y39.299
X22.317 Y39.263
X22.486 Y39.236
X22.698 Y39.219
X22.97
X23.334 Y39.248
X23.863 Y39.334
X24.532 Y39.499
X25.191 Y39.703
X25.844 Y39.924
X26.494 Y40.153
X27.143 Y40.385
X28.439 Y40.854
X30.382 Y41.561
X31.042 Y41.759
X31.726 Y41.851
X32.411 Y41.775
X33.046 Y41.508
X33.569 Y41.06
X33.913 Y40.462
X34.095 Y39.797
X34.184 Y39.114
X34.227 Y38.426
X34.247 Y37.737
X34.257 Y37.048
X34.261 Y36.359
X34.263 Y35.669
X34.265 Y33.601
Y11.545
X34.264 Y10.856
X34.194 Y10.17
X33.978 Y9.515
X33.593 Y8.944
X33.054 Y8.514
X32.408 Y8.275
X31.72 Y8.234
X31.038 Y8.336
X30.37 Y8.508
X29.712 Y8.713
X29.06 Y8.935
X28.41 Y9.164
X27.761 Y9.396
X26.465 Y9.866
X23.55 Y10.926
X23.068 Y11.078
X22.873 Y11.123
X22.624 Y11.159
X22.413 Y11.173
X22.263 Y11.17
X22.249 Y11.169
X22.052 Y11.115
X21.883 Y10.999
X21.761 Y10.835
X21.7 Y10.64
X21.705 Y10.436
G3 X22.228 Y10.509 I0.258 J0.06
G1 X22.225 Y10.568 Z-1.993
X22.222 Y10.623 Z-1.974
X22.22 Y10.674 Z-1.942
X22.218 Y10.716 Z-1.9
X22.216 Y10.747 Z-1.85
X22.215 Y10.767 Z-1.794
Y10.773 Z-1.735
Z5
X22.269 Y40.596
Z-1.47
Z-1.735
X22.265 Y40.591 Z-1.794
X22.252 Y40.576 Z-1.85
X22.231 Y40.552 Z-1.9
X22.203 Y40.521 Z-1.942
X22.169 Y40.484 Z-1.974
X22.132 Y40.442 Z-1.993
X22.093 Y40.398 Z-2
G3 X21.732 Y39.7 I1.181 J-1.053
G1 X21.686 Y39.468
X21.664 Y39.319
X21.716 Y39.179
X21.797 Y39.052
X21.897 Y38.94
X22.01 Y38.843
X22.135 Y38.758
X22.266 Y38.687
X22.418 Y38.619
X22.585 Y38.561
X22.799 Y38.506
X23.035 Y38.464
X23.318 Y38.437
X23.678 Y38.432
X24.102 Y38.461
X24.685 Y38.547
X25.357 Y38.702
X26.019 Y38.896
X26.674 Y39.11
X27.326 Y39.334
X27.975 Y39.564
X28.624 Y39.796
X29.92 Y40.266
X30.573 Y40.488
X31.247 Y40.631
X31.59 Y40.593
X31.91 Y40.467
X32.188 Y40.263
X32.644 Y39.746
X32.909 Y39.11
X33.052 Y38.436
X33.127 Y37.751
X33.166 Y37.062
X33.186 Y36.373
X33.195 Y35.684
X33.2 Y34.995
X33.203 Y34.306
X33.204 Y32.927
X33.205 Y12.249
X33.204 Y11.56
X33.15 Y10.873
X33.034 Y10.548
X32.852 Y10.255
X32.598 Y10.023
X32.296 Y9.857
X31.638 Y9.65
X30.949 Y9.645
X30.269 Y9.755
X29.601 Y9.926
X28.942 Y10.129
X28.289 Y10.348
X27.638 Y10.575
X26.989 Y10.807
X26.341 Y11.041
X25.045 Y11.51
X24.396 Y11.745
X23.829 Y11.929
X23.397 Y12.031
X23.121 Y12.074
X22.866 Y12.092
X22.67 Y12.091
X22.498 Y12.076
X22.319 Y12.045
X22.173 Y12.008
X22.031 Y11.96
X21.89 Y11.898
X21.819 Y11.859
X21.675 Y11.751
X21.568 Y11.606
X21.507 Y11.436
X21.498 Y11.257
X21.541 Y11.082
Z5
X22.231 Y40.359
Z-1.47
Z-1.735
X22.226 Y40.354 Z-1.794
X22.213 Y40.339 Z-1.85
X22.192 Y40.316 Z-1.9
X22.164 Y40.285 Z-1.942
X22.13 Y40.248 Z-1.974
X22.092 Y40.206 Z-1.993
X22.053 Y40.162 Z-2
G3 X21.686 Y39.468 I1.173 J-1.063
G1 X21.655 Y39.311
X21.62 Y39.155
X21.605 Y39.108
X21.566 Y38.963
X21.579 Y38.813
X21.622 Y38.669
X21.686 Y38.534
X21.768 Y38.408
X21.864 Y38.293
X21.971 Y38.188
X22.087 Y38.093
X22.227 Y37.996
X22.378 Y37.908
X22.569 Y37.818
X22.771 Y37.74
X23.028 Y37.665
X23.295 Y37.61
X23.65 Y37.566
X24.015 Y37.551
X24.503 Y37.569
X25.102 Y37.64
X25.778 Y37.775
X26.444 Y37.954
X27.102 Y38.157
X27.756 Y38.374
X28.408 Y38.6
X29.057 Y38.83
X29.706 Y39.063
X30.033 Y39.173
X30.201 Y39.211
X30.373 Y39.221
X30.543 Y39.195
X30.868 Y39.081
X31.146 Y38.877
X31.598 Y38.357
X31.857 Y37.718
X31.996 Y37.043
X32.069 Y36.357
X32.106 Y35.669
X32.125 Y34.98
X32.135 Y34.291
X32.14 Y33.602
X32.143 Y32.912
X32.144 Y31.534
X32.145 Y12.924
Y12.234
X32.107 Y12.066
X32.04 Y11.907
X31.85 Y11.62
X31.577 Y11.409
X31.263 Y11.268
X30.594 Y11.099
X29.905 Y11.121
X29.228 Y11.245
X28.562 Y11.424
X27.904 Y11.631
X27.251 Y11.852
X26.601 Y12.08
X25.952 Y12.312
X25.303 Y12.545
X24.65 Y12.766
X24.086 Y12.919
X23.659 Y12.998
X23.295 Y13.036
X22.976 Y13.044
X22.684 Y13.027
X22.422 Y12.991
X22.205 Y12.943
X22.005 Y12.882
X21.85 Y12.821
X21.692 Y12.742
X21.56 Y12.664
X21.438 Y12.577
X21.323 Y12.479
X21.284 Y12.44
X21.164 Y12.269
X21.107 Y12.067
X21.121 Y11.859
X21.204 Y11.666
X21.236 Y11.617
X21.424 Y11.314
X21.51 Y11.158
X21.541 Y11.082
Z5
X22.245 Y39.933
Z-1.47
Z-1.735
X22.24 Y39.929 Z-1.794
X22.225 Y39.916 Z-1.85
X22.201 Y39.895 Z-1.9
X22.17 Y39.867 Z-1.942
X22.132 Y39.834 Z-1.974
X22.09 Y39.797 Z-1.993
X22.046 Y39.758 Z-2
G3 X21.605 Y39.108 I1.048 J-1.186
G1 X21.57 Y38.999
X21.549 Y38.937
X21.51 Y38.842
X21.462 Y38.756
X21.397 Y38.621
X21.368 Y38.474
X21.37 Y38.324
X21.396 Y38.176
X21.443 Y38.034
X21.506 Y37.898
X21.583 Y37.769
X21.671 Y37.648
X21.77 Y37.534
X21.895 Y37.411
X22.034 Y37.296
X22.2 Y37.178
X22.392 Y37.064
X22.611 Y36.958
X22.873 Y36.855
X23.15 Y36.771
X23.491 Y36.697
X23.881 Y36.645
X24.322 Y36.622
X24.873 Y36.638
X25.522 Y36.708
X26.2 Y36.838
X26.868 Y37.007
X27.529 Y37.203
X28.185 Y37.414
X28.837 Y37.636
X29.163 Y37.75
X29.334 Y37.764
X29.505 Y37.74
X29.83 Y37.625
X30.105 Y37.418
X30.553 Y36.894
X30.806 Y36.253
X30.941 Y35.577
X31.012 Y34.891
X31.048 Y34.203
X31.066 Y33.514
X31.076 Y32.825
X31.08 Y32.135
X31.083 Y31.446
X31.085 Y29.378
Y13.697
X31.055 Y13.528
X30.988 Y13.369
X30.794 Y13.084
X30.517 Y12.879
X29.882 Y12.612
X29.194 Y12.576
X28.511 Y12.671
X27.841 Y12.833
X27.181 Y13.032
X26.527 Y13.248
X25.874 Y13.47
X25.218 Y13.681
X24.552 Y13.861
X24.029 Y13.96
X23.553 Y14.01
X23.135 Y14.02
X22.77 Y14
X22.438 Y13.954
X22.138 Y13.888
X21.872 Y13.807
X21.627 Y13.71
X21.434 Y13.615
X21.251 Y13.506
X21.101 Y13.399
X20.985 Y13.302
X20.867 Y13.186
X20.767 Y13.069
X20.745 Y13.039
X20.653 Y12.856
X20.626 Y12.654
X20.666 Y12.453
X20.77 Y12.277
X20.923 Y12.095
X21.026 Y11.94
X21.204 Y11.666
Z5
X22.248 Y39.444
Z-1.47
Z-1.735
X22.242 Y39.441 Z-1.794
X22.225 Y39.431 Z-1.85
X22.198 Y39.415 Z-1.9
X22.162 Y39.393 Z-1.942
X22.119 Y39.368 Z-1.974
X22.07 Y39.34 Z-1.993
X22.02 Y39.31 Z-2
G3 X21.462 Y38.756 I0.802 J-1.364
G1 X21.424 Y38.686
X21.229 Y38.373
X21.198 Y38.326
X21.123 Y38.196
X21.077 Y38.053
X21.059 Y37.904
X21.063 Y37.754
X21.087 Y37.606
X21.127 Y37.461
X21.181 Y37.322
X21.248 Y37.187
X21.329 Y37.052
X21.433 Y36.909
X21.55 Y36.77
X21.697 Y36.624
X21.866 Y36.479
X22.056 Y36.342
X22.288 Y36.201
X22.545 Y36.072
X22.837 Y35.954
X23.184 Y35.845
X23.565 Y35.758
X24 Y35.696
X24.533 Y35.662
X25.122 Y35.672
X25.808 Y35.739
X26.486 Y35.861
X27.157 Y36.021
X27.82 Y36.207
X28.149 Y36.309
X28.322 Y36.313
X28.491 Y36.28
X28.81 Y36.151
X29.079 Y35.935
X29.513 Y35.4
X29.757 Y34.755
X29.888 Y34.078
X29.955 Y33.392
X29.99 Y32.704
X30.007 Y32.015
X30.016 Y31.326
X30.02 Y30.636
X30.023 Y29.947
X30.025 Y27.879
Y15.128
X29.988 Y14.96
X29.911 Y14.806
X29.696 Y14.536
X29.408 Y14.347
X28.762 Y14.105
X28.073 Y14.087
X27.392 Y14.191
X26.723 Y14.356
X26.06 Y14.544
X25.395 Y14.728
X24.723 Y14.881
X24.1 Y14.975
X23.544 Y15.014
X23.065 Y15.009
X22.633 Y14.969
X22.231 Y14.9
X21.87 Y14.807
X21.551 Y14.697
X21.271 Y14.575
X21.016 Y14.438
X20.799 Y14.297
X20.634 Y14.171
X20.477 Y14.029
X20.363 Y13.909
X20.265 Y13.786
X20.172 Y13.649
X20.098 Y13.518
X20.063 Y13.442
X20.009 Y13.235
X20.029 Y13.023
X20.119 Y12.829
X20.271 Y12.678
X20.453 Y12.55
X20.61 Y12.423
X20.766 Y12.281
X20.77 Y12.277
G3 X21.192 Y12.594 I0.197 J0.177
G1 X21.161 Y12.644 Z-1.993
X21.132 Y12.692 Z-1.974
X21.105 Y12.734 Z-1.942
X21.083 Y12.77 Z-1.9
X21.067 Y12.797 Z-1.85
X21.056 Y12.813 Z-1.794
X21.053 Y12.819 Z-1.735
Z5
X22.032 Y38.954
Z-1.47
Z-1.735
X22.026 Y38.951 Z-1.794
X22.008 Y38.943 Z-1.85
X21.98 Y38.929 Z-1.9
X21.942 Y38.91 Z-1.942
X21.897 Y38.888 Z-1.974
X21.847 Y38.863 Z-1.993
X21.794 Y38.837 Z-2
G3 X21.198 Y38.326 I0.7 J-1.419
G1 X21.026 Y38.06
X20.921 Y37.904
X20.882 Y37.856
X20.791 Y37.737
X20.732 Y37.599
X20.698 Y37.453
X20.685 Y37.303
X20.691 Y37.153
X20.713 Y37.005
X20.748 Y36.859
X20.799 Y36.713
X20.863 Y36.565
X20.946 Y36.41
X21.053 Y36.244
X21.176 Y36.083
X21.329 Y35.912
X21.511 Y35.74
X21.713 Y35.578
X21.958 Y35.411
X22.244 Y35.248
X22.549 Y35.105
X22.909 Y34.971
X23.339 Y34.85
X23.798 Y34.758
X24.317 Y34.698
X24.932 Y34.677
X25.621 Y34.708
X26.305 Y34.794
X26.982 Y34.923
X27.153 Y34.941
X27.325 Y34.924
X27.655 Y34.827
X27.939 Y34.632
X28.402 Y34.121
X28.667 Y33.484
X28.811 Y32.81
X28.886 Y32.125
X28.925 Y31.437
X28.944 Y30.748
X28.955 Y30.059
X28.96 Y29.369
X28.962 Y28.68
X28.964 Y27.302
X28.965 Y16.618
X28.924 Y16.451
X28.843 Y16.298
X28.624 Y16.033
X28.333 Y15.847
X27.686 Y15.609
X26.998 Y15.586
X26.313 Y15.67
X25.635 Y15.791
X24.955 Y15.906
X24.272 Y15.992
X23.647 Y16.028
X23.074 Y16.015
X22.546 Y15.961
X22.063 Y15.871
X21.636 Y15.756
X21.256 Y15.62
X20.919 Y15.467
X20.614 Y15.299
X20.357 Y15.129
X20.132 Y14.952
X19.932 Y14.768
X19.782 Y14.604
X19.646 Y14.431
X19.543 Y14.275
X19.469 Y14.14
X19.4 Y13.988
X19.35 Y13.848
X19.315 Y13.669
X19.333 Y13.488
X19.403 Y13.32
X19.519 Y13.18
X19.671 Y13.08
X19.747 Y13.035
X19.984 Y12.878
X20.271 Y12.678
G3 X20.596 Y13.094 I0.144 J0.222
G1 X20.553 Y13.134 Z-1.993
X20.512 Y13.173 Z-1.974
X20.476 Y13.207 Z-1.942
X20.445 Y13.236 Z-1.9
X20.422 Y13.257 Z-1.85
X20.408 Y13.271 Z-1.794
X20.403 Y13.275 Z-1.735
Z5
X21.786 Y38.379
Z-1.47
Z-1.735
X21.779 Y38.377 Z-1.794
X21.761 Y38.371 Z-1.85
X21.731 Y38.36 Z-1.9
X21.691 Y38.346 Z-1.942
X21.644 Y38.33 Z-1.974
X21.591 Y38.311 Z-1.993
X21.536 Y38.292 Z-2
G3 X20.882 Y37.856 I0.523 J-1.494
G1 X20.766 Y37.719
X20.61 Y37.577
X20.529 Y37.512
X20.418 Y37.411
X20.335 Y37.286
X20.276 Y37.148
X20.237 Y37.004
X20.216 Y36.855
X20.212 Y36.705
X20.222 Y36.555
X20.245 Y36.407
X20.284 Y36.248
X20.339 Y36.079
X20.412 Y35.907
X20.508 Y35.72
X20.626 Y35.532
X20.768 Y35.341
X20.946 Y35.138
X21.151 Y34.939
X21.382 Y34.748
X21.659 Y34.554
X21.988 Y34.361
X22.34 Y34.192
X22.743 Y34.035
X23.209 Y33.897
X23.75 Y33.782
X24.327 Y33.708
X24.967 Y33.677
X25.655 Y33.7
X25.998 Y33.736
X26.342 Y33.712
X26.658 Y33.574
X26.927 Y33.359
X27.364 Y32.826
X27.616 Y32.185
X27.754 Y31.509
X27.827 Y30.824
X27.865 Y30.136
X27.884 Y29.447
X27.894 Y28.757
X27.9 Y28.068
X27.902 Y27.379
X27.904 Y26
X27.905 Y18.074
X27.852 Y17.91
X27.677 Y17.613
X27.414 Y17.391
X26.797 Y17.083
X26.115 Y16.986
X25.425 Y16.99
X24.737 Y17.028
X24.049 Y17.058
X23.359 Y17.053
X22.695 Y17.001
X22.101 Y16.906
X21.588 Y16.78
X21.123 Y16.626
X20.7 Y16.448
X20.319 Y16.249
X19.979 Y16.035
X19.691 Y15.821
X19.442 Y15.601
X19.228 Y15.381
X19.045 Y15.159
X18.907 Y14.96
X18.791 Y14.761
X18.715 Y14.603
X18.649 Y14.432
X18.604 Y14.279
X18.573 Y14.132
X18.555 Y13.978
X18.552 Y13.921
X18.58 Y13.71
X18.678 Y13.521
X18.834 Y13.377
X19.03 Y13.294
X19.045 Y13.29
X19.514 Y13.153
X19.671 Y13.08
G3 X19.92 Y13.545 I0.104 J0.244
G1 X19.87 Y13.578 Z-1.993
X19.823 Y13.608 Z-1.974
X19.781 Y13.636 Z-1.942
X19.746 Y13.659 Z-1.9
X19.72 Y13.676 Z-1.85
X19.703 Y13.687 Z-1.794
X19.698 Y13.69 Z-1.735
Z5
X21.516 Y37.855
Z-1.47
Z-1.735
X21.509 Y37.854 Z-1.794
X21.49 Y37.851 Z-1.85
X21.458 Y37.846 Z-1.9
X21.417 Y37.84 Z-1.942
X21.367 Y37.833 Z-1.974
X21.312 Y37.824 Z-1.993
X21.254 Y37.816 Z-2
G3 X20.529 Y37.512 I0.232 J-1.565
G1 X20.453 Y37.45
X20.093 Y37.197
X19.974 Y37.106
X19.876 Y36.993
X19.798 Y36.865
X19.739 Y36.727
X19.697 Y36.583
X19.671 Y36.435
X19.659 Y36.285
X19.661 Y36.131
X19.675 Y35.972
X19.705 Y35.794
X19.752 Y35.61
X19.819 Y35.414
X19.912 Y35.202
X20.024 Y34.991
X20.165 Y34.772
X20.341 Y34.541
X20.55 Y34.309
X20.788 Y34.082
X21.072 Y33.854
X21.404 Y33.627
X21.781 Y33.413
X22.188 Y33.223
X22.668 Y33.044
X23.211 Y32.889
X23.819 Y32.769
X24.486 Y32.691
X25.174 Y32.666
X25.495 Y32.541
X25.774 Y32.338
X26.239 Y31.829
X26.515 Y31.198
X26.669 Y30.526
X26.752 Y29.842
X26.796 Y29.154
X26.82 Y28.465
X26.832 Y27.776
X26.838 Y27.087
X26.841 Y26.397
X26.844 Y25.019
X26.845 Y19.505
X26.795 Y19.34
X26.636 Y19.034
X26.39 Y18.793
X25.804 Y18.429
X25.136 Y18.259
X24.451 Y18.184
X23.763 Y18.14
X23.076 Y18.086
X22.392 Y17.999
X21.737 Y17.868
X21.143 Y17.698
X20.606 Y17.497
X20.122 Y17.27
X19.707 Y17.032
X19.338 Y16.78
X19.009 Y16.514
X18.724 Y16.243
X18.484 Y15.976
X18.291 Y15.721
X18.13 Y15.469
X17.998 Y15.222
X17.899 Y14.993
X17.833 Y14.8
X17.781 Y14.594
X17.753 Y14.429
X17.74 Y14.278
X17.738 Y14.11
X17.745 Y14.02
X17.794 Y13.82
X17.906 Y13.647
X18.069 Y13.521
X18.264 Y13.455
X18.419 Y13.43
X18.576 Y13.399
X19.03 Y13.294
G3 X19.177 Y13.801 I0.051 J0.26
G1 X19.122 Y13.822 Z-1.993
X19.07 Y13.842 Z-1.974
X19.023 Y13.861 Z-1.942
X18.984 Y13.876 Z-1.9
X18.955 Y13.887 Z-1.85
X18.936 Y13.894 Z-1.794
X18.93 Y13.897 Z-1.735
Z5
X21.102 Y37.465
Z-1.47
Z-1.735
X21.096 Z-1.794
X21.076 Y37.463 Z-1.85
X21.045 Y37.461 Z-1.9
X21.003 Y37.458 Z-1.942
X20.953 Y37.455 Z-1.974
X20.897 Y37.451 Z-1.993
X20.838 Y37.446 Z-2
G3 X20.093 Y37.197 I0.113 J-1.579
G1 X19.984 Y37.121
X19.747 Y36.965
X19.671 Y36.92
X19.624 Y36.898
X19.491 Y36.828
X19.377 Y36.73
X19.283 Y36.614
X19.206 Y36.485
X19.145 Y36.348
X19.099 Y36.205
X19.067 Y36.059
X19.047 Y35.903
X19.039 Y35.743
X19.045 Y35.563
X19.068 Y35.368
X19.107 Y35.168
X19.17 Y34.945
X19.256 Y34.712
X19.366 Y34.476
X19.509 Y34.224
X19.689 Y33.958
X19.895 Y33.702
X20.145 Y33.438
X20.444 Y33.168
X20.791 Y32.903
X21.179 Y32.652
X21.606 Y32.423
X22.104 Y32.205
X22.674 Y32.009
X23.311 Y31.845
X23.99 Y31.728
X24.316 Y31.616
X24.607 Y31.431
X25.101 Y30.951
X25.405 Y30.332
X25.579 Y29.665
X25.674 Y28.982
X25.726 Y28.295
X25.754 Y27.606
X25.769 Y26.917
X25.776 Y26.228
X25.781 Y25.539
X25.783 Y24.85
X25.785 Y22.782
Y21.059
X25.769 Y20.714
X25.642 Y20.394
X25.429 Y20.123
X24.898 Y19.684
X24.257 Y19.432
X23.584 Y19.279
X22.905 Y19.161
X22.227 Y19.037
X21.555 Y18.884
X20.894 Y18.69
X20.273 Y18.457
X19.737 Y18.204
X19.25 Y17.926
X18.811 Y17.625
X18.423 Y17.311
X18.086 Y16.99
X17.799 Y16.669
X17.562 Y16.356
X17.368 Y16.052
X17.207 Y15.75
X17.084 Y15.465
X16.993 Y15.196
X16.932 Y14.955
X16.894 Y14.734
X16.877 Y14.534
X16.876 Y14.374
X16.889 Y14.203
X16.913 Y14.047
X16.948 Y13.901
X16.972 Y13.828
X17.073 Y13.643
X17.231 Y13.504
X17.426 Y13.426
X17.637 Y13.419
X17.95 Y13.453
X18.106 Y13.465
X18.264 Y13.455
G3 X18.375 Y13.971 I0.033 J0.263
G1 X18.319 Y13.988 Z-1.993
X18.266 Y14.005 Z-1.974
X18.218 Y14.02 Z-1.942
X18.178 Y14.032 Z-1.9
X18.147 Y14.042 Z-1.85
X18.129 Y14.048 Z-1.794
X18.122 Y14.05 Z-1.735
Z5
X20.664 Y36.99
Z-1.47
Z-1.735
X20.657 Y36.991 Z-1.794
X20.638 Y36.993 Z-1.85
X20.606 Y36.996 Z-1.9
X20.564 Y37 Z-1.942
X20.514 Y37.005 Z-1.974
X20.459 Y37.011 Z-1.993
X20.4 Y37.016 Z-2
G3 X19.624 Y36.898 I-0.158 J-1.575
G1 X19.514 Y36.847
X19.154 Y36.742
X19.013 Y36.693
X18.883 Y36.617
X18.769 Y36.519
X18.67 Y36.406
X18.586 Y36.282
X18.516 Y36.15
X18.46 Y36.011
X18.415 Y35.867
X18.379 Y35.707
X18.355 Y35.531
X18.344 Y35.344
X18.348 Y35.134
X18.371 Y34.913
X18.414 Y34.68
X18.484 Y34.421
X18.58 Y34.152
X18.702 Y33.882
X18.861 Y33.593
X19.063 Y33.288
X19.304 Y32.982
X19.578 Y32.684
X19.908 Y32.38
X20.289 Y32.081
X20.73 Y31.789
X21.234 Y31.511
X21.771 Y31.269
X22.381 Y31.05
X23.047 Y30.871
X23.352 Y30.711
X23.622 Y30.496
X24.079 Y29.981
X24.361 Y29.352
X24.524 Y28.682
X24.616 Y27.999
X24.666 Y27.311
X24.693 Y26.623
X24.708 Y25.933
X24.716 Y25.244
X24.72 Y24.555
X24.722 Y23.866
X24.724 Y22.143
X24.677 Y21.801
X24.538 Y21.486
X24.326 Y21.214
X23.809 Y20.758
X23.187 Y20.461
X22.531 Y20.249
X21.866 Y20.068
X21.203 Y19.88
X20.548 Y19.665
X19.907 Y19.413
X19.285 Y19.116
X18.733 Y18.796
X18.239 Y18.455
X17.799 Y18.094
X17.412 Y17.722
X17.079 Y17.346
X16.794 Y16.966
X16.559 Y16.595
X16.374 Y16.243
X16.229 Y15.903
X16.12 Y15.576
X16.045 Y15.274
X15.999 Y14.991
X15.977 Y14.722
Y14.498
X15.994 Y14.284
X16.024 Y14.097
X16.06 Y13.947
X16.112 Y13.792
X16.173 Y13.648
X16.193 Y13.609
X16.312 Y13.45
X16.476 Y13.337
X16.667 Y13.281
X16.865 Y13.29
X17.011 Y13.319
X17.169 Y13.348
X17.48 Y13.397
X17.637 Y13.419
G3 X17.591 Y13.945 I-0.046 J0.261
G1 X17.532 Z-1.993
X17.476 Z-1.974
X17.426 Z-1.942
X17.384 Z-1.9
X17.352 Z-1.85
X17.333 Y13.946 Z-1.794
X17.326 Z-1.735
Z5
X20.196 Y36.675
Z-1.47
Z-1.735
X20.19 Y36.677 Z-1.794
X20.171 Y36.682 Z-1.85
X20.14 Y36.69 Z-1.9
X20.1 Y36.7 Z-1.942
X20.051 Y36.713 Z-1.974
X19.997 Y36.727 Z-1.993
X19.94 Y36.741 Z-2
G3 X19.154 Y36.742 I-0.394 J-1.533
G1 X19.045 Y36.71
X18.576 Y36.601
X18.43 Y36.565
X18.295 Y36.5
X18.172 Y36.414
X18.063 Y36.311
X17.966 Y36.196
X17.882 Y36.072
X17.81 Y35.94
X17.747 Y35.797
X17.692 Y35.639
X17.647 Y35.466
X17.612 Y35.267
X17.593 Y35.059
X17.59 Y34.829
X17.607 Y34.575
X17.647 Y34.312
X17.711 Y34.033
X17.809 Y33.727
X17.942 Y33.403
X18.104 Y33.083
X18.308 Y32.75
X18.561 Y32.402
X18.867 Y32.047
X19.227 Y31.691
X19.623 Y31.358
X20.085 Y31.028
X20.608 Y30.715
X21.198 Y30.424
X21.839 Y30.169
X22.453 Y29.855
X22.925 Y29.353
X23.233 Y28.737
X23.42 Y28.073
X23.528 Y27.393
X23.59 Y26.706
X23.624 Y26.018
X23.643 Y25.329
X23.653 Y24.64
X23.658 Y23.95
X23.661 Y23.261
X23.615 Y22.92
X23.494 Y22.597
X23.306 Y22.308
X22.835 Y21.805
X22.244 Y21.451
X21.61 Y21.18
X20.963 Y20.941
X20.317 Y20.701
X19.679 Y20.44
X19.055 Y20.148
X18.451 Y19.816
X17.873 Y19.44
X17.349 Y19.037
X16.884 Y18.616
X16.475 Y18.181
X16.125 Y17.743
X15.84 Y17.321
X15.605 Y16.903
X15.415 Y16.492
X15.268 Y16.093
X15.16 Y15.706
X15.091 Y15.352
X15.054 Y15.023
X15.044 Y14.717
X15.059 Y14.428
X15.091 Y14.183
X15.135 Y13.975
X15.193 Y13.78
X15.251 Y13.631
X15.324 Y13.48
X15.404 Y13.344
X15.453 Y13.274
X15.593 Y13.13
X15.773 Y13.04
X15.972 Y13.011
X16.17 Y13.048
X16.563 Y13.191
X16.698 Y13.237
X16.854 Y13.287
X16.865 Y13.29
G3 X16.787 Y13.812 I-0.062 J0.258
G1 X16.729 Y13.808 Z-1.993
X16.673 Y13.805 Z-1.974
X16.622 Y13.802 Z-1.942
X16.581 Y13.799 Z-1.9
X16.549 Y13.798 Z-1.85
X16.529 Y13.796 Z-1.794
X16.523 Z-1.735
Z5
X19.608 Y36.443
Z-1.47
Z-1.735
X19.601 Y36.445 Z-1.794
X19.583 Y36.452 Z-1.85
X19.553 Y36.462 Z-1.9
X19.514 Y36.476 Z-1.942
X19.466 Y36.493 Z-1.974
X19.413 Y36.512 Z-1.993
X19.358 Y36.531 Z-2
G3 X18.576 Y36.601 I-0.528 J-1.492
G1 X18.419 Y36.57
X18.263 Y36.545
X18.106 Y36.535
X18.059 Y36.539
X17.909 Y36.543
X17.764 Y36.502
X17.629 Y36.438
X17.504 Y36.355
X17.39 Y36.257
X17.287 Y36.148
X17.195 Y36.029
X17.114 Y35.903
X17.036 Y35.759
X16.963 Y35.591
X16.901 Y35.413
X16.848 Y35.207
X16.809 Y34.98
X16.787 Y34.743
X16.784 Y34.474
X16.804 Y34.178
X16.85 Y33.877
X16.926 Y33.553
X17.037 Y33.203
X17.19 Y32.832
X17.378 Y32.463
X17.612 Y32.083
X17.903 Y31.685
X18.248 Y31.285
X18.652 Y30.886
X19.119 Y30.495
X19.638 Y30.126
X20.205 Y29.787
X20.824 Y29.483
X21.42 Y29.137
X21.871 Y28.616
X22.17 Y27.995
X22.355 Y27.331
X22.463 Y26.65
X22.526 Y25.963
X22.561 Y25.275
X22.581 Y24.586
X22.584 Y24.241
X22.534 Y23.9
X22.42 Y23.575
X22.072 Y22.98
X21.549 Y22.531
X20.954 Y22.184
X20.331 Y21.888
X19.701 Y21.608
X19.075 Y21.32
X18.461 Y21.008
X17.864 Y20.662
X17.291 Y20.279
X16.746 Y19.858
X16.233 Y19.397
X15.768 Y18.909
X15.374 Y18.423
X15.045 Y17.942
X14.77 Y17.461
X14.544 Y16.981
X14.368 Y16.512
X14.238 Y16.059
X14.151 Y15.626
X14.103 Y15.221
X14.089 Y14.855
X14.104 Y14.513
X14.142 Y14.2
X14.201 Y13.917
X14.271 Y13.676
X14.351 Y13.467
X14.438 Y13.284
X14.518 Y13.145
X14.617 Y13.002
X14.666 Y12.942
X14.808 Y12.815
X14.981 Y12.737
X15.17 Y12.715
X15.357 Y12.752
X16.17 Y13.048
Z5
X19.011 Y36.11
Z-1.47
Z-1.735
X19.005 Y36.114 Z-1.794
X18.989 Y36.125 Z-1.85
X18.963 Y36.143 Z-1.9
X18.929 Y36.167 Z-1.942
X18.888 Y36.196 Z-1.974
X18.842 Y36.228 Z-1.993
X18.794 Y36.262 Z-2
G3 X18.059 Y36.539 I-0.908 J-1.296
G1 X17.95 Y36.547
X17.637 Y36.581
X17.551 Y36.593
X17.401 Y36.607
X17.252 Y36.593
X17.107 Y36.553
X16.97 Y36.492
X16.842 Y36.415
X16.722 Y36.324
X16.612 Y36.222
X16.511 Y36.111
X16.412 Y35.982
X16.314 Y35.831
X16.226 Y35.667
X16.142 Y35.476
X16.067 Y35.26
X16.007 Y35.031
X15.961 Y34.771
X15.934 Y34.481
X15.93 Y34.183
X15.952 Y33.855
X16.006 Y33.493
X16.096 Y33.107
X16.219 Y32.719
X16.384 Y32.316
X16.601 Y31.887
X16.874 Y31.441
X17.206 Y30.986
X17.601 Y30.527
X18.044 Y30.087
X18.543 Y29.667
X19.104 Y29.267
X19.695 Y28.912
X20.279 Y28.546
X20.743 Y28.037
X21.06 Y27.424
X21.26 Y26.765
X21.38 Y26.086
X21.451 Y25.4
X21.453 Y25.056
X21.403 Y24.715
X21.287 Y24.39
X20.942 Y23.793
X20.436 Y23.326
X19.859 Y22.949
X19.255 Y22.617
X18.644 Y22.298
X18.038 Y21.969
X17.445 Y21.618
X16.87 Y21.238
X16.317 Y20.825
X15.792 Y20.38
X15.297 Y19.9
X14.839 Y19.385
X14.432 Y18.848
X14.083 Y18.301
X13.791 Y17.751
X13.555 Y17.204
X13.373 Y16.667
X13.242 Y16.147
X13.16 Y15.661
X13.121 Y15.21
X13.119 Y14.784
X13.148 Y14.386
X13.206 Y14.02
X13.282 Y13.701
X13.376 Y13.413
X13.471 Y13.187
X13.579 Y12.978
X13.676 Y12.821
X13.778 Y12.684
X13.834 Y12.619
X13.975 Y12.499
X14.146 Y12.427
X14.33 Y12.408
X14.512 Y12.444
X15.357 Y12.752
Z5
X18.472 Y36.102
Z-1.47
Z-1.735
X18.467 Y36.106 Z-1.794
X18.452 Y36.119 Z-1.85
X18.427 Y36.138 Z-1.9
X18.395 Y36.165 Z-1.942
X18.355 Y36.196 Z-1.974
X18.312 Y36.231 Z-1.993
X18.266 Y36.268 Z-2
G3 X17.551 Y36.593 I-0.992 J-1.233
G1 X17.48 Y36.603
X17.167 Y36.653
X17.011 Y36.681
X16.925 Y36.698
X16.777 Y36.721
X16.627 Y36.714
X16.48 Y36.683
X16.339 Y36.633
X16.204 Y36.566
X16.078 Y36.486
X15.959 Y36.394
X15.844 Y36.289
X15.725 Y36.162
X15.614 Y36.022
X15.502 Y35.854
X15.395 Y35.661
X15.299 Y35.453
X15.212 Y35.213
X15.137 Y34.941
X15.084 Y34.658
X15.049 Y34.339
X15.039 Y33.981
X15.06 Y33.599
X15.112 Y33.21
X15.203 Y32.792
X15.339 Y32.344
X15.526 Y31.868
X15.769 Y31.372
X16.063 Y30.875
X16.411 Y30.383
X16.828 Y29.885
X17.31 Y29.394
X17.831 Y28.942
X18.384 Y28.531
X18.956 Y28.147
X19.469 Y27.686
X19.851 Y27.113
X20.102 Y26.471
X20.177 Y26.134
X20.202 Y25.791
X20.162 Y25.448
X20.054 Y25.121
X19.727 Y24.514
X19.24 Y24.026
X18.684 Y23.62
X18.1 Y23.253
X17.511 Y22.896
X16.927 Y22.529
X16.356 Y22.143
X15.804 Y21.73
X15.274 Y21.29
X14.77 Y20.819
X14.297 Y20.318
X13.859 Y19.786
X13.46 Y19.224
X13.104 Y18.634
X12.801 Y18.027
X12.557 Y17.42
X12.371 Y16.823
X12.241 Y16.247
X12.162 Y15.694
X12.129 Y15.166
X12.139 Y14.67
X12.183 Y14.225
X12.256 Y13.823
X12.354 Y13.454
X12.468 Y13.133
X12.582 Y12.877
X12.701 Y12.661
X12.812 Y12.493
X12.919 Y12.354
X12.977 Y12.292
X13.118 Y12.178
X13.286 Y12.109
X13.466 Y12.092
X13.644 Y12.129
X14.512 Y12.444
Z5
X17.814 Y36.152
Z-1.47
Z-1.735
X17.81 Y36.156 Z-1.794
X17.795 Y36.169 Z-1.85
X17.772 Y36.19 Z-1.9
X17.741 Y36.219 Z-1.942
X17.704 Y36.253 Z-1.974
X17.662 Y36.29 Z-1.993
X17.619 Y36.33 Z-2
G3 X16.925 Y36.698 I-1.066 J-1.17
G1 X16.854 Y36.713
X16.698 Y36.763
X16.541 Y36.817
X16.385 Y36.874
X16.242 Y36.918
X16.092 Y36.93
X15.943 Y36.917
X15.796 Y36.885
X15.654 Y36.836
X15.518 Y36.773
X15.388 Y36.698
X15.257 Y36.606
X15.128 Y36.501
X14.992 Y36.369
X14.861 Y36.219
X14.731 Y36.045
X14.602 Y35.84
X14.486 Y35.617
X14.38 Y35.366
X14.283 Y35.074
X14.205 Y34.752
X14.15 Y34.413
X14.121 Y34.038
X14.122 Y33.626
X14.159 Y33.179
X14.235 Y32.714
X14.354 Y32.234
X14.527 Y31.716
X14.759 Y31.175
X15.049 Y30.622
X15.405 Y30.061
X15.819 Y29.51
X16.275 Y28.993
X16.767 Y28.511
X17.294 Y28.067
X17.844 Y27.651
X18.35 Y27.183
X18.543 Y26.897
X18.678 Y26.58
X18.726 Y26.239
X18.684 Y25.897
X18.454 Y25.247
X18.023 Y24.709
X17.503 Y24.257
X16.948 Y23.848
X16.383 Y23.453
X15.823 Y23.052
X15.274 Y22.634
X14.743 Y22.195
X14.234 Y21.73
X13.75 Y21.239
X13.296 Y20.72
X12.875 Y20.175
X12.49 Y19.604
X12.145 Y19.006
X11.846 Y18.385
X11.593 Y17.744
X11.39 Y17.085
X11.247 Y16.441
X11.16 Y15.824
X11.126 Y15.237
X11.138 Y14.684
X11.191 Y14.165
X11.28 Y13.685
X11.392 Y13.267
X11.518 Y12.915
X11.656 Y12.609
X11.78 Y12.384
X11.908 Y12.191
X12.018 Y12.05
X12.093 Y11.969
X12.234 Y11.855
X12.402 Y11.787
X12.582 Y11.77
X12.759 Y11.807
X13.644 Y12.129
Z5
X17.185 Y36.203
Z-1.47
Z-1.735
X17.181 Y36.208 Z-1.794
X17.168 Y36.223 Z-1.85
X17.149 Y36.248 Z-1.9
X17.122 Y36.28 Z-1.942
X17.09 Y36.319 Z-1.974
X17.055 Y36.362 Z-1.993
X17.017 Y36.408 Z-2
G3 X16.385 Y36.874 I-1.225 J-1.002
G1 X15.759 Y37.101
X15.616 Y37.146
X15.467 Y37.167
X15.317 Y37.165
X15.169 Y37.143
X15.024 Y37.105
X14.883 Y37.053
X14.748 Y36.988
X14.609 Y36.907
X14.46 Y36.804
X14.317 Y36.686
X14.166 Y36.541
X14.014 Y36.369
X13.871 Y36.177
X13.726 Y35.946
X13.589 Y35.684
X13.47 Y35.405
X13.363 Y35.083
X13.273 Y34.717
X13.208 Y34.316
X13.175 Y33.9
Y33.44
X13.215 Y32.945
X13.302 Y32.412
X13.441 Y31.846
X13.637 Y31.259
X13.884 Y30.678
X14.201 Y30.074
X14.568 Y29.491
X14.979 Y28.937
X15.427 Y28.413
X15.91 Y27.921
X16.422 Y27.46
X16.683 Y27.235
X16.797 Y27.106
X16.887 Y26.959
X16.945 Y26.797
X16.998 Y26.456
X16.951 Y26.115
X16.715 Y25.467
X16.295 Y24.921
X15.796 Y24.445
X15.269 Y24.001
X14.737 Y23.563
X14.212 Y23.117
X13.702 Y22.653
X13.212 Y22.168
X12.746 Y21.66
X12.308 Y21.128
X11.9 Y20.572
X11.526 Y19.993
X11.192 Y19.39
X10.899 Y18.767
X10.648 Y18.125
X10.441 Y17.467
X10.282 Y16.796
X10.175 Y16.116
X10.123 Y15.45
X10.124 Y14.811
X10.174 Y14.209
X10.262 Y13.678
X10.38 Y13.2
X10.522 Y12.779
X10.673 Y12.424
X10.815 Y12.156
X10.957 Y11.932
X11.076 Y11.773
X11.204 Y11.629
X11.219 Y11.614
X11.359 Y11.513
X11.52 Y11.455
X11.691 Y11.443
X11.859 Y11.479
X12.759 Y11.807
Z5
X16.559 Y36.431
Z-1.47
Z-1.735
X16.555 Y36.436 Z-1.794
X16.543 Y36.451 Z-1.85
X16.523 Y36.475 Z-1.9
X16.496 Y36.508 Z-1.942
X16.464 Y36.547 Z-1.974
X16.429 Y36.59 Z-1.993
X16.391 Y36.636 Z-2
G3 X15.759 Y37.101 I-1.225 J-1.002
G1 X15.047 Y37.361
X14.904 Y37.405
X14.755 Y37.427
X14.605
X14.457 Y37.409
X14.31 Y37.375
X14.168 Y37.327
X14.022 Y37.264
X13.875 Y37.185
X13.718 Y37.085
X13.554 Y36.96
X13.393 Y36.816
X13.225 Y36.638
X13.059 Y36.433
X12.903 Y36.204
X12.746 Y35.928
X12.598 Y35.612
X12.472 Y35.277
X12.364 Y34.897
X12.279 Y34.47
X12.223 Y33.996
X12.205 Y33.489
X12.228 Y32.967
X12.3 Y32.392
X12.427 Y31.777
X12.614 Y31.142
X12.86 Y30.498
X13.156 Y29.875
X13.497 Y29.276
X13.878 Y28.702
X14.297 Y28.155
X14.751 Y27.637
X14.994 Y27.392
X15.099 Y27.255
X15.175 Y27.1
X15.269 Y26.769
X15.257 Y26.424
X15.085 Y25.757
X14.713 Y25.176
X14.256 Y24.661
X13.765 Y24.177
X13.267 Y23.7
X12.776 Y23.216
X12.3 Y22.718
X11.845 Y22.2
X11.415 Y21.662
X11.014 Y21.101
X10.645 Y20.519
X10.311 Y19.916
X10.014 Y19.294
X9.754 Y18.655
X9.535 Y18.002
X9.357 Y17.336
X9.223 Y16.66
X9.137 Y15.976
X9.101 Y15.288
X9.118 Y14.617
X9.184 Y13.985
X9.294 Y13.401
X9.438 Y12.874
X9.597 Y12.433
X9.761 Y12.073
X9.921 Y11.785
X10.063 Y11.572
X10.19 Y11.41
X10.318 Y11.273
X10.456 Y11.177
X10.615 Y11.122
X10.783 Y11.112
X10.947 Y11.147
X11.859 Y11.479
Z5
X15.847 Y36.69
Z-1.47
Z-1.735
X15.843 Y36.695 Z-1.794
X15.831 Y36.71 Z-1.85
X15.811 Y36.734 Z-1.9
X15.784 Y36.767 Z-1.942
X15.752 Y36.806 Z-1.974
X15.717 Y36.849 Z-1.993
X15.68 Y36.895 Z-2
G3 X15.047 Y37.361 I-1.225 J-1.002
G1 X14.265 Y37.645
X14.121 Y37.69
X13.972 Y37.706
X13.822 Y37.703
X13.674 Y37.684
X13.528 Y37.649
X13.385 Y37.602
X13.23 Y37.536
X13.071 Y37.452
X12.905 Y37.348
X12.726 Y37.214
X12.554 Y37.062
X12.369 Y36.87
X12.185 Y36.646
X12.014 Y36.399
X11.842 Y36.103
X11.676 Y35.757
X11.535 Y35.387
X11.412 Y34.969
X11.314 Y34.496
X11.249 Y33.978
X11.224 Y33.413
X11.246 Y32.813
X11.318 Y32.199
X11.45 Y31.534
X11.639 Y30.871
X11.877 Y30.224
X12.16 Y29.596
X12.484 Y28.988
X12.847 Y28.402
X13.246 Y27.84
X13.462 Y27.571
X13.628 Y27.269
X13.696 Y26.931
X13.678 Y26.587
X13.512 Y25.918
X13.167 Y25.322
X12.741 Y24.78
X12.282 Y24.265
X11.818 Y23.756
X11.36 Y23.241
X10.918 Y22.712
X10.498 Y22.165
X10.105 Y21.599
X9.742 Y21.013
X9.41 Y20.409
X9.111 Y19.788
X8.847 Y19.152
X8.618 Y18.501
X8.428 Y17.839
X8.276 Y17.166
X8.166 Y16.486
X8.1 Y15.8
X8.08 Y15.111
X8.11 Y14.422
X8.192 Y13.749
X8.317 Y13.133
X8.477 Y12.583
X8.658 Y12.103
X8.836 Y11.728
X9.007 Y11.431
X9.152 Y11.22
X9.285 Y11.057
X9.371 Y10.967
X9.512 Y10.857
X9.678 Y10.792
X9.855 Y10.777
X10.029 Y10.813
X10.947 Y11.147
Z5
X15.065 Y36.974
Z-1.47
Z-1.735
X15.061 Y36.98 Z-1.794
X15.048 Y36.995 Z-1.85
X15.028 Y37.019 Z-1.9
X15.002 Y37.052 Z-1.942
X14.97 Y37.091 Z-1.974
X14.934 Y37.134 Z-1.993
X14.897 Y37.18 Z-2
G3 X14.265 Y37.645 I-1.225 J-1.002
G1 X13.512 Y37.919
X13.368 Y37.964
X13.22 Y37.986
X13.07 Y37.988
X12.921 Y37.973
X12.774 Y37.943
X12.627 Y37.9
X12.47 Y37.84
X12.305 Y37.76
X12.126 Y37.656
X11.95 Y37.533
X11.757 Y37.374
X11.566 Y37.189
X11.372 Y36.969
X11.173 Y36.701
X10.984 Y36.4
X10.809 Y36.064
X10.64 Y35.665
X10.489 Y35.208
X10.367 Y34.707
X10.282 Y34.178
X10.236 Y33.585
X10.237 Y32.947
X10.294 Y32.261
X10.405 Y31.581
X10.567 Y30.911
X10.776 Y30.254
X11.027 Y29.612
X11.319 Y28.988
X11.65 Y28.383
X12.016 Y27.799
X12.154 Y27.484
X12.215 Y27.144
X12.189 Y26.455
X11.938 Y25.814
X11.572 Y25.229
X11.156 Y24.68
X10.722 Y24.144
X10.289 Y23.608
X9.868 Y23.063
X9.466 Y22.503
X9.087 Y21.926
X8.736 Y21.334
X8.413 Y20.725
X8.121 Y20.1
X7.862 Y19.461
X7.859 Y19.452
X7.84 Y19.386
X7.829 Y19.318
X7.825 Y19.25
Y12.566
X7.839 Y12.289
X7.869 Y12.056
X7.92 Y11.821
X7.993 Y11.575
X8.088 Y11.332
X8.187 Y11.127
X8.3 Y10.936
X8.401 Y10.793
X8.511 Y10.66
X8.52 Y10.651
X8.66 Y10.543
X8.825 Y10.48
X9.001 Y10.466
X9.174 Y10.502
G3 X9.32 Y10.846 Z-1.8 I-0.099 J0.246
G1 X9.307 Y10.874
X9.167 Y11.132
X8.346 Y12.64
X8.323 Y12.683
G3 X8.099 Y12.821 I-0.233 J-0.127
X7.825 Y12.566 Z-2 I-0.009 J-0.265
G1 Y11.001
X7.832 Y10.852
X7.86 Y10.703
X7.951 Y10.528
X8.092 Y10.39
X8.269 Y10.303
X8.465 Y10.277
X8.659 Y10.314
G3 X8.806 Y10.659 Z-1.8 I-0.099 J0.246
G1 X8.778 Y10.711
X8.739 Y10.755
X8.588 Y10.895
X8.369 Y11.095
X8.269 Y11.187
X8.218 Y11.224
X8.161 Y11.248
X8.099 Y11.257
G3 X7.825 Y11.001 Z-2 I-0.009 J-0.265
G1 Y10.454
X7.837 Y10.376
X7.846 Y10.337
X7.863 Y10.298
X7.874 Y10.278
X7.887 Y10.259
X7.904 Y10.239
X7.924 Y10.219
X7.935 Y10.21
X7.974 Y10.184
X8.014 Y10.164
X8.053 Y10.15
X8.092 Y10.144
X8.131 Y10.143
X8.17 Y10.148
X8.248 Y10.165
X10.029 Y10.813
Z5
X14.312 Y37.249
Z-1.47
Z-1.735
X14.308 Y37.254 Z-1.794
X14.295 Y37.269 Z-1.85
X14.275 Y37.293 Z-1.9
X14.249 Y37.326 Z-1.942
X14.217 Y37.365 Z-1.974
X14.181 Y37.408 Z-1.993
X14.144 Y37.454 Z-2
G3 X13.512 Y37.919 I-1.225 J-1.002
G1 X12.696 Y38.216
X12.552 Y38.261
X12.404 Y38.281
X12.254 Y38.282
X12.104 Y38.267
X11.957 Y38.237
X11.81 Y38.195
X11.642 Y38.132
X11.476 Y38.053
X11.285 Y37.944
X11.099 Y37.816
X10.898 Y37.653
X10.687 Y37.452
X10.488 Y37.228
X10.276 Y36.949
X10.063 Y36.615
X9.873 Y36.257
X9.69 Y35.831
X9.525 Y35.345
X9.387 Y34.796
X9.287 Y34.203
X9.234 Y33.583
X9.23 Y32.894
X9.282 Y32.207
X9.383 Y31.525
X9.531 Y30.852
X9.722 Y30.19
X9.953 Y29.54
X10.223 Y28.906
X10.529 Y28.288
X10.686 Y27.981
X10.796 Y27.655
X10.84 Y27.313
X10.805 Y26.625
X10.569 Y25.977
X10.227 Y25.379
X9.836 Y24.811
X9.429 Y24.255
X9.024 Y23.697
X8.63 Y23.132
X8.255 Y22.553
X7.899 Y21.955
X7.858 Y21.862
X7.833 Y21.763
X7.825 Y21.661
Y19.25
G3 X8.352 Y19.221 I0.265 J0.009
G1 X8.361 Y19.279 Z-1.993
X8.369 Y19.335 Z-1.974
X8.376 Y19.385 Z-1.942
X8.382 Y19.426 Z-1.9
X8.386 Y19.457 Z-1.85
X8.389 Y19.477 Z-1.794
X8.39 Y19.483 Z-1.735
Z5
X13.496 Y37.546
Z-1.47
Z-1.735
X13.491 Y37.551 Z-1.794
X13.479 Y37.566 Z-1.85
X13.459 Y37.59 Z-1.9
X13.433 Y37.623 Z-1.942
X13.401 Y37.662 Z-1.974
X13.365 Y37.705 Z-1.993
X13.328 Y37.751 Z-2
G3 X12.696 Y38.216 I-1.225 J-1.002
G1 X11.918 Y38.5
X11.774 Y38.544
X11.627 Y38.572
X11.477 Y38.58
X11.327 Y38.57
X11.179 Y38.547
X11.023 Y38.508
X10.864 Y38.455
X10.687 Y38.379
X10.503 Y38.281
X10.307 Y38.157
X10.095 Y37.997
X9.887 Y37.812
X9.663 Y37.578
X9.44 Y37.304
X9.225 Y36.992
X9.005 Y36.61
X8.792 Y36.159
X8.61 Y35.679
X8.452 Y35.132
X8.327 Y34.521
X8.244 Y33.841
X8.216 Y33.152
X8.24 Y32.463
X8.311 Y31.778
X8.426 Y31.098
X8.583 Y30.427
X8.781 Y29.767
X9.016 Y29.119
X9.286 Y28.485
X9.535 Y27.842
X9.581 Y27.154
X9.418 Y26.485
X9.131 Y25.858
X8.78 Y25.265
X8.402 Y24.689
X8.017 Y24.116
X7.926 Y23.978
X7.871 Y23.872
X7.837 Y23.758
X7.825 Y23.639
Y21.661
G3 X8.352 Y21.633 I0.265 J0.009
G1 X8.361 Y21.691 Z-1.993
X8.369 Y21.747 Z-1.974
X8.376 Y21.797 Z-1.942
X8.382 Y21.838 Z-1.9
X8.386 Y21.869 Z-1.85
X8.389 Y21.889 Z-1.794
X8.39 Y21.895 Z-1.735
Z5
X12.718 Y37.829
Z-1.47
Z-1.735
X12.714 Y37.834 Z-1.794
X12.701 Y37.849 Z-1.85
X12.681 Y37.874 Z-1.9
X12.655 Y37.906 Z-1.942
X12.623 Y37.945 Z-1.974
X12.587 Y37.988 Z-1.993
X12.55 Y38.034 Z-2
G3 X11.918 Y38.5 I-1.225 J-1.002
G1 X11.065 Y38.81
X10.921 Y38.854
X10.774 Y38.879
X10.624 Y38.886
X10.474 Y38.876
X10.326 Y38.852
X10.175 Y38.814
X10.002 Y38.757
X9.826 Y38.682
X9.626 Y38.577
X9.429 Y38.453
X9.21 Y38.288
X8.988 Y38.092
X8.76 Y37.855
X8.513 Y37.553
X8.282 Y37.22
X8.055 Y36.829
X7.885 Y36.472
X7.852 Y36.387
X7.832 Y36.297
X7.825 Y36.206
G3 X8.099 Y35.95 Z-1.8 I0.265 J0.009
G1 X8.156 Y35.959
X8.209 Y35.979
X8.257 Y36.01
X8.375 Y36.106
X10.986 Y38.239
X11.133 Y38.359
X11.165 Y38.39
X11.191 Y38.426
X11.211 Y38.465
G3 X11.065 Y38.81 Z-2 I-0.246 J0.099
G1 X10.196 Y39.126
X10.053 Y39.17
X9.905 Y39.193
X9.755 Y39.198
X9.605 Y39.187
X9.457 Y39.162
X9.298 Y39.123
X9.123 Y39.063
X8.94 Y38.985
X8.734 Y38.876
X8.527 Y38.744
X8.293 Y38.568
X8.067 Y38.367
X7.997 Y38.293
X7.903 Y38.167
X7.845 Y38.021
X7.825 Y37.866
G3 X8.099 Y37.61 Z-1.8 I0.265 J0.009
G1 X8.155 Y37.618
X8.209 Y37.638
X8.396 Y37.732
X10.098 Y38.584
X10.216 Y38.643
X10.269 Y38.679
X10.312 Y38.726
X10.343 Y38.781
G3 X10.196 Y39.126 Z-2 I-0.246 J0.099
G1 X9.344 Y39.437
X9.2 Y39.481
X9.052 Y39.505
X8.902 Y39.512
X8.753 Y39.503
X8.604 Y39.481
X8.438 Y39.442
X8.276 Y39.389
X8.207 Y39.361
X8.051 Y39.267
X7.929 Y39.133
X7.852 Y38.969
X7.825 Y38.789
G3 X8.099 Y38.534 Z-1.8 I0.265 J0.009
G1 X8.137 Y38.538
X8.175 Y38.548
X8.408 Y38.627
X9.239 Y38.909
X9.33 Y38.94
X9.381 Y38.964
X9.426 Y38.998
X9.463 Y39.042
X9.49 Y39.092
G3 X9.344 Y39.437 Z-2 I-0.246 J0.099
G1 X8.475 Y39.753
X8.332 Y39.797
X8.177 Y39.781
X8.036 Y39.716
X7.923 Y39.609
X7.85 Y39.472
X7.825 Y39.319
G3 X8.099 Y39.063 Z-1.8 I0.265 J0.009
G1 X8.145 Y39.069
X8.189 Y39.082
X8.23 Y39.103
X8.383 Y39.199
X8.516 Y39.282
X8.56 Y39.316
X8.596 Y39.359
X8.622 Y39.408
G3 X8.475 Y39.753 Z-2 I-0.246 J0.099
G1 X8.248 Y39.835
X8.17 Y39.852
X8.131 Y39.857
X8.092 Y39.856
X8.053 Y39.85
X8.014 Y39.837
X7.974 Y39.816
X7.935 Y39.79
X7.924 Y39.781
X7.904 Y39.761
X7.887 Y39.741
X7.874 Y39.722
X7.863 Y39.702
X7.846 Y39.663
X7.837 Y39.624
X7.825 Y39.546
Y30.396
X7.842 Y30.049
X7.892 Y29.674
X8.008 Y29.13
X8.206 Y28.47
X8.348 Y27.796
X8.292 Y27.109
X8.083 Y26.452
X7.886 Y26.042
X7.852 Y25.956
X7.832 Y25.866
X7.825 Y25.774
G3 X8.099 Y25.519 Z-1.8 I0.265 J0.009
X8.355 Y25.783 I-0.009 J0.265
G1 Y30.387
G3 X8.099 Y30.652 I-0.265 J0
X7.825 Y30.396 Z-2 I-0.009 J-0.265
G1 Y23.639
G3 X8.2 Y23.407 I0.265 J0.009
G1 X8.238 Y23.439 Z-1.995
X8.275 Y23.47 Z-1.981
X8.309 Y23.499 Z-1.957
X8.324 Y23.537 Z-1.924
X8.336 Y23.568 Z-1.884
X8.345 Y23.591 Z-1.838
X8.35 Y23.605 Z-1.788
X8.352 Y23.61 Z-1.735
Z5
X22.646 Y41.373
Z-3.47
Z-3.735
X22.641 Y41.368 Z-3.794
X22.628 Y41.354 Z-3.85
X22.607 Y41.33 Z-3.9
X22.579 Y41.299 Z-3.942
X22.546 Y41.261 Z-3.974
X22.509 Y41.22 Z-3.993
X22.469 Y41.176 Z-4
G3 X21.747 Y39.781 I2.362 J-2.107
G1 X21.732 Y39.7
X21.726 Y39.663
X21.789 Y39.527
X21.9 Y39.426
X22.031 Y39.352
X22.171 Y39.299
X22.317 Y39.263
X22.486 Y39.236
X22.698 Y39.219
X22.97
X23.334 Y39.248
X23.863 Y39.334
X24.532 Y39.499
X25.191 Y39.703
X25.844 Y39.924
X26.494 Y40.153
X27.143 Y40.385
X28.439 Y40.854
X30.382 Y41.561
X31.042 Y41.759
X31.726 Y41.851
X32.411 Y41.775
X33.046 Y41.508
X33.569 Y41.06
X33.913 Y40.462
X34.095 Y39.797
X34.184 Y39.114
X34.227 Y38.426
X34.247 Y37.737
X34.257 Y37.048
X34.261 Y36.359
X34.263 Y35.669
X34.265 Y33.601
Y11.545
X34.264 Y10.856
X34.194 Y10.17
X33.978 Y9.515
X33.593 Y8.944
X33.054 Y8.514
X32.408 Y8.275
X31.72 Y8.234
X31.038 Y8.336
X30.37 Y8.508
X29.712 Y8.713
X29.06 Y8.935
X28.41 Y9.164
X27.761 Y9.396
X26.465 Y9.866
X23.55 Y10.926
X23.068 Y11.078
X22.873 Y11.123
X22.624 Y11.159
X22.413 Y11.173
X22.263 Y11.17
X22.249 Y11.169
X22.052 Y11.115
X21.883 Y10.999
X21.761 Y10.835
X21.7 Y10.64
X21.705 Y10.436
G3 X22.228 Y10.509 I0.258 J0.06
G1 X22.225 Y10.568 Z-3.993
X22.222 Y10.623 Z-3.974
X22.22 Y10.674 Z-3.942
X22.218 Y10.716 Z-3.9
X22.216 Y10.747 Z-3.85
X22.215 Y10.767 Z-3.794
Y10.773 Z-3.735
Z5
X22.269 Y40.596
Z-3.47
Z-3.735
X22.265 Y40.591 Z-3.794
X22.252 Y40.576 Z-3.85
X22.231 Y40.552 Z-3.9
X22.203 Y40.521 Z-3.942
X22.169 Y40.484 Z-3.974
X22.132 Y40.442 Z-3.993
X22.093 Y40.398 Z-4
G3 X21.732 Y39.7 I1.181 J-1.053
G1 X21.686 Y39.468
X21.664 Y39.319
X21.716 Y39.179
X21.797 Y39.052
X21.897 Y38.94
X22.01 Y38.843
X22.135 Y38.758
X22.266 Y38.687
X22.418 Y38.619
X22.585 Y38.561
X22.799 Y38.506
X23.035 Y38.464
X23.318 Y38.437
X23.678 Y38.432
X24.102 Y38.461
X24.685 Y38.547
X25.357 Y38.702
X26.019 Y38.896
X26.674 Y39.11
X27.326 Y39.334
X27.975 Y39.564
X28.624 Y39.796
X29.92 Y40.266
X30.573 Y40.488
X31.247 Y40.631
X31.59 Y40.593
X31.91 Y40.467
X32.188 Y40.263
X32.644 Y39.746
X32.909 Y39.11
X33.052 Y38.436
X33.127 Y37.751
X33.166 Y37.062
X33.186 Y36.373
X33.195 Y35.684
X33.2 Y34.995
X33.203 Y34.306
X33.204 Y32.927
X33.205 Y12.249
X33.204 Y11.56
X33.15 Y10.873
X33.034 Y10.548
X32.852 Y10.255
X32.598 Y10.023
X32.296 Y9.857
X31.638 Y9.65
X30.949 Y9.645
X30.269 Y9.755
X29.601 Y9.926
X28.942 Y10.129
X28.289 Y10.348
X27.638 Y10.575
X26.989 Y10.807
X26.341 Y11.041
X25.045 Y11.51
X24.396 Y11.745
X23.829 Y11.929
X23.397 Y12.031
X23.121 Y12.074
X22.866 Y12.092
X22.67 Y12.091
X22.498 Y12.076
X22.319 Y12.045
X22.173 Y12.008
X22.031 Y11.96
X21.89 Y11.898
X21.819 Y11.859
X21.675 Y11.751
X21.568 Y11.606
X21.507 Y11.436
X21.498 Y11.257
X21.541 Y11.082
Z5
X22.231 Y40.359
Z-3.47
Z-3.735
X22.226 Y40.354 Z-3.794
X22.213 Y40.339 Z-3.85
X22.192 Y40.316 Z-3.9
X22.164 Y40.285 Z-3.942
X22.13 Y40.248 Z-3.974
X22.092 Y40.206 Z-3.993
X22.053 Y40.162 Z-4
G3 X21.686 Y39.468 I1.173 J-1.063
G1 X21.655 Y39.311
X21.62 Y39.155
X21.605 Y39.108
X21.566 Y38.963
X21.579 Y38.813
X21.622 Y38.669
X21.686 Y38.534
X21.768 Y38.408
X21.864 Y38.293
X21.971 Y38.188
X22.087 Y38.093
X22.227 Y37.996
X22.378 Y37.908
X22.569 Y37.818
X22.771 Y37.74
X23.028 Y37.665
X23.295 Y37.61
X23.65 Y37.566
X24.015 Y37.551
X24.503 Y37.569
X25.102 Y37.64
X25.778 Y37.775
X26.444 Y37.954
X27.102 Y38.157
X27.756 Y38.374
X28.408 Y38.6
X29.057 Y38.83
X29.706 Y39.063
X30.033 Y39.173
X30.201 Y39.211
X30.373 Y39.221
X30.543 Y39.195
X30.868 Y39.081
X31.146 Y38.877
X31.598 Y38.357
X31.857 Y37.718
X31.996 Y37.043
X32.069 Y36.357
X32.106 Y35.669
X32.125 Y34.98
X32.135 Y34.291
X32.14 Y33.602
X32.143 Y32.912
X32.144 Y31.534
X32.145 Y12.924
Y12.234
X32.107 Y12.066
X32.04 Y11.907
X31.85 Y11.62
X31.577 Y11.409
X31.263 Y11.268
X30.594 Y11.099
X29.905 Y11.121
X29.228 Y11.245
X28.562 Y11.424
X27.904 Y11.631
X27.251 Y11.852
X26.601 Y12.08
X25.952 Y12.312
X25.303 Y12.545
X24.65 Y12.766
X24.086 Y12.919
X23.659 Y12.998
X23.295 Y13.036
X22.976 Y13.044
X22.684 Y13.027
X22.422 Y12.991
X22.205 Y12.943
X22.005 Y12.882
X21.85 Y12.821
X21.692 Y12.742
X21.56 Y12.664
X21.438 Y12.577
X21.323 Y12.479
X21.284 Y12.44
X21.164 Y12.269
X21.107 Y12.067
X21.121 Y11.859
X21.204 Y11.666
X21.236 Y11.617
X21.424 Y11.314
X21.51 Y11.158
X21.541 Y11.082
Z5
X22.245 Y39.933
Z-3.47
Z-3.735
X22.24 Y39.929 Z-3.794
X22.225 Y39.916 Z-3.85
X22.201 Y39.895 Z-3.9
X22.17 Y39.867 Z-3.942
X22.132 Y39.834 Z-3.974
X22.09 Y39.797 Z-3.993
X22.046 Y39.758 Z-4
G3 X21.605 Y39.108 I1.048 J-1.186
G1 X21.57 Y38.999
X21.549 Y38.937
X21.51 Y38.842
X21.462 Y38.756
X21.397 Y38.621
X21.368 Y38.474
X21.37 Y38.324
X21.396 Y38.176
X21.443 Y38.034
X21.506 Y37.898
X21.583 Y37.769
X21.671 Y37.648
X21.77 Y37.534
X21.895 Y37.411
X22.034 Y37.296
X22.2 Y37.178
X22.392 Y37.064
X22.611 Y36.958
X22.873 Y36.855
X23.15 Y36.771
X23.491 Y36.697
X23.881 Y36.645
X24.322 Y36.622
X24.873 Y36.638
X25.522 Y36.708
X26.2 Y36.838
X26.868 Y37.007
X27.529 Y37.203
X28.185 Y37.414
X28.837 Y37.636
X29.163 Y37.75
X29.334 Y37.764
X29.505 Y37.74
X29.83 Y37.625
X30.105 Y37.418
X30.553 Y36.894
X30.806 Y36.253
X30.941 Y35.577
X31.012 Y34.891
X31.048 Y34.203
X31.066 Y33.514
X31.076 Y32.825
X31.08 Y32.135
X31.083 Y31.446
X31.085 Y29.378
Y13.697
X31.055 Y13.528
X30.988 Y13.369
X30.794 Y13.084
X30.517 Y12.879
X29.882 Y12.612
X29.194 Y12.576
X28.511 Y12.671
X27.841 Y12.833
X27.181 Y13.032
X26.527 Y13.248
X25.874 Y13.47
X25.218 Y13.681
X24.552 Y13.861
X24.029 Y13.96
X23.553 Y14.01
X23.135 Y14.02
X22.77 Y14
X22.438 Y13.954
X22.138 Y13.888
X21.872 Y13.807
X21.627 Y13.71
X21.434 Y13.615
X21.251 Y13.506
X21.101 Y13.399
X20.985 Y13.302
X20.867 Y13.186
X20.767 Y13.069
X20.745 Y13.039
X20.653 Y12.856
X20.626 Y12.654
X20.666 Y12.453
X20.77 Y12.277
X20.923 Y12.095
X21.026 Y11.94
X21.204 Y11.666
Z5
X22.248 Y39.444
Z-3.47
Z-3.735
X22.242 Y39.441 Z-3.794
X22.225 Y39.431 Z-3.85
X22.198 Y39.415 Z-3.9
X22.162 Y39.393 Z-3.942
X22.119 Y39.368 Z-3.974
X22.07 Y39.34 Z-3.993
X22.02 Y39.31 Z-4
G3 X21.462 Y38.756 I0.802 J-1.364
G1 X21.424 Y38.686
X21.229 Y38.373
X21.198 Y38.326
X21.123 Y38.196
X21.077 Y38.053
X21.059 Y37.904
X21.063 Y37.754
X21.087 Y37.606
X21.127 Y37.461
X21.181 Y37.322
X21.248 Y37.187
X21.329 Y37.052
X21.433 Y36.909
X21.55 Y36.77
X21.697 Y36.624
X21.866 Y36.479
X22.056 Y36.342
X22.288 Y36.201
X22.545 Y36.072
X22.837 Y35.954
X23.184 Y35.845
X23.565 Y35.758
X24 Y35.696
X24.533 Y35.662
X25.122 Y35.672
X25.808 Y35.739
X26.486 Y35.861
X27.157 Y36.021
X27.82 Y36.207
X28.149 Y36.309
X28.322 Y36.313
X28.491 Y36.28
X28.81 Y36.151
X29.079 Y35.935
X29.513 Y35.4
X29.757 Y34.755
X29.888 Y34.078
X29.955 Y33.392
X29.99 Y32.704
X30.007 Y32.015
X30.016 Y31.326
X30.02 Y30.636
X30.023 Y29.947
X30.025 Y27.879
Y15.128
X29.988 Y14.96
X29.911 Y14.806
X29.696 Y14.536
X29.408 Y14.347
X28.762 Y14.105
X28.073 Y14.087
X27.392 Y14.191
X26.723 Y14.356
X26.06 Y14.544
X25.395 Y14.728
X24.723 Y14.881
X24.1 Y14.975
X23.544 Y15.014
X23.065 Y15.009
X22.633 Y14.969
X22.231 Y14.9
X21.87 Y14.807
X21.551 Y14.697
X21.271 Y14.575
X21.016 Y14.438
X20.799 Y14.297
X20.634 Y14.171
X20.477 Y14.029
X20.363 Y13.909
X20.265 Y13.786
X20.172 Y13.649
X20.098 Y13.518
X20.063 Y13.442
X20.009 Y13.235
X20.029 Y13.023
X20.119 Y12.829
X20.271 Y12.678
X20.453 Y12.55
X20.61 Y12.423
X20.766 Y12.281
X20.77 Y12.277
G3 X21.192 Y12.594 I0.197 J0.177
G1 X21.161 Y12.644 Z-3.993
X21.132 Y12.692 Z-3.974
X21.105 Y12.734 Z-3.942
X21.083 Y12.77 Z-3.9
X21.067 Y12.797 Z-3.85
X21.056 Y12.813 Z-3.794
X21.053 Y12.819 Z-3.735
Z5
X22.032 Y38.954
Z-3.47
Z-3.735
X22.026 Y38.951 Z-3.794
X22.008 Y38.943 Z-3.85
X21.98 Y38.929 Z-3.9
X21.942 Y38.91 Z-3.942
X21.897 Y38.888 Z-3.974
X21.847 Y38.863 Z-3.993
X21.794 Y38.837 Z-4
G3 X21.198 Y38.326 I0.7 J-1.419
G1 X21.026 Y38.06
X20.921 Y37.904
X20.882 Y37.856
X20.791 Y37.737
X20.732 Y37.599
X20.698 Y37.453
X20.685 Y37.303
X20.691 Y37.153
X20.713 Y37.005
X20.748 Y36.859
X20.799 Y36.713
X20.863 Y36.565
X20.946 Y36.41
X21.053 Y36.244
X21.176 Y36.083
X21.329 Y35.912
X21.511 Y35.74
X21.713 Y35.578
X21.958 Y35.411
X22.244 Y35.248
X22.549 Y35.105
X22.909 Y34.971
X23.339 Y34.85
X23.798 Y34.758
X24.317 Y34.698
X24.932 Y34.677
X25.621 Y34.708
X26.305 Y34.794
X26.982 Y34.923
X27.153 Y34.941
X27.325 Y34.924
X27.655 Y34.827
X27.939 Y34.632
X28.402 Y34.121
X28.667 Y33.484
X28.811 Y32.81
X28.886 Y32.125
X28.925 Y31.437
X28.944 Y30.748
X28.955 Y30.059
X28.96 Y29.369
X28.962 Y28.68
X28.964 Y27.302
X28.965 Y16.618
X28.924 Y16.451
X28.843 Y16.298
X28.624 Y16.033
X28.333 Y15.847
X27.686 Y15.609
X26.998 Y15.586
X26.313 Y15.67
X25.635 Y15.791
X24.955 Y15.906
X24.272 Y15.992
X23.647 Y16.028
X23.074 Y16.015
X22.546 Y15.961
X22.063 Y15.871
X21.636 Y15.756
X21.256 Y15.62
X20.919 Y15.467
X20.614 Y15.299
X20.357 Y15.129
X20.132 Y14.952
X19.932 Y14.768
X19.782 Y14.604
X19.646 Y14.431
X19.543 Y14.275
X19.469 Y14.14
X19.4 Y13.988
X19.35 Y13.848
X19.315 Y13.669
X19.333 Y13.488
X19.403 Y13.32
X19.519 Y13.18
X19.671 Y13.08
X19.747 Y13.035
X19.984 Y12.878
X20.271 Y12.678
G3 X20.596 Y13.094 I0.144 J0.222
G1 X20.553 Y13.134 Z-3.993
X20.512 Y13.173 Z-3.974
X20.476 Y13.207 Z-3.942
X20.445 Y13.236 Z-3.9
X20.422 Y13.257 Z-3.85
X20.408 Y13.271 Z-3.794
X20.403 Y13.275 Z-3.735
Z5
X21.786 Y38.379
Z-3.47
Z-3.735
X21.779 Y38.377 Z-3.794
X21.761 Y38.371 Z-3.85
X21.731 Y38.36 Z-3.9
X21.691 Y38.346 Z-3.942
X21.644 Y38.33 Z-3.974
X21.591 Y38.311 Z-3.993
X21.536 Y38.292 Z-4
G3 X20.882 Y37.856 I0.523 J-1.494
G1 X20.766 Y37.719
X20.61 Y37.577
X20.529 Y37.512
X20.418 Y37.411
X20.335 Y37.286
X20.276 Y37.148
X20.237 Y37.004
X20.216 Y36.855
X20.212 Y36.705
X20.222 Y36.555
X20.245 Y36.407
X20.284 Y36.248
X20.339 Y36.079
X20.412 Y35.907
X20.508 Y35.72
X20.626 Y35.532
X20.768 Y35.341
X20.946 Y35.138
X21.151 Y34.939
X21.382 Y34.748
X21.659 Y34.554
X21.988 Y34.361
X22.34 Y34.192
X22.743 Y34.035
X23.209 Y33.897
X23.75 Y33.782
X24.327 Y33.708
X24.967 Y33.677
X25.655 Y33.7
X25.998 Y33.736
X26.342 Y33.712
X26.658 Y33.574
X26.927 Y33.359
X27.364 Y32.826
X27.616 Y32.185
X27.754 Y31.509
X27.827 Y30.824
X27.865 Y30.136
X27.884 Y29.447
X27.894 Y28.757
X27.9 Y28.068
X27.902 Y27.379
X27.904 Y26
X27.905 Y18.074
X27.852 Y17.91
X27.677 Y17.613
X27.414 Y17.391
X26.797 Y17.083
X26.115 Y16.986
X25.425 Y16.99
X24.737 Y17.028
X24.049 Y17.058
X23.359 Y17.053
X22.695 Y17.001
X22.101 Y16.906
X21.588 Y16.78
X21.123 Y16.626
X20.7 Y16.448
X20.319 Y16.249
X19.979 Y16.035
X19.691 Y15.821
X19.442 Y15.601
X19.228 Y15.381
X19.045 Y15.159
X18.907 Y14.96
X18.791 Y14.761
X18.715 Y14.603
X18.649 Y14.432
X18.604 Y14.279
X18.573 Y14.132
X18.555 Y13.978
X18.552 Y13.921
X18.58 Y13.71
X18.678 Y13.521
X18.834 Y13.377
X19.03 Y13.294
X19.045 Y13.29
X19.514 Y13.153
X19.671 Y13.08
G3 X19.92 Y13.545 I0.104 J0.244
G1 X19.87 Y13.578 Z-3.993
X19.823 Y13.608 Z-3.974
X19.781 Y13.636 Z-3.942
X19.746 Y13.659 Z-3.9
X19.72 Y13.676 Z-3.85
X19.703 Y13.687 Z-3.794
X19.698 Y13.69 Z-3.735
Z5
X21.516 Y37.855
Z-3.47
Z-3.735
X21.509 Y37.854 Z-3.794
X21.49 Y37.851 Z-3.85
X21.458 Y37.846 Z-3.9
X21.417 Y37.84 Z-3.942
X21.367 Y37.833 Z-3.974
X21.312 Y37.824 Z-3.993
X21.254 Y37.816 Z-4
G3 X20.529 Y37.512 I0.232 J-1.565
G1 X20.453 Y37.45
X20.093 Y37.197
X19.974 Y37.106
X19.876 Y36.993
X19.798 Y36.865
X19.739 Y36.727
X19.697 Y36.583
X19.671 Y36.435
X19.659 Y36.285
X19.661 Y36.131
X19.675 Y35.972
X19.705 Y35.794
X19.752 Y35.61
X19.819 Y35.414
X19.912 Y35.202
X20.024 Y34.991
X20.165 Y34.772
X20.341 Y34.541
X20.55 Y34.309
X20.788 Y34.082
X21.072 Y33.854
X21.404 Y33.627
X21.781 Y33.413
X22.188 Y33.223
X22.668 Y33.044
X23.211 Y32.889
X23.819 Y32.769
X24.486 Y32.691
X25.174 Y32.666
X25.495 Y32.541
X25.774 Y32.338
X26.239 Y31.829
X26.515 Y31.198
X26.669 Y30.526
X26.752 Y29.842
X26.796 Y29.154
X26.82 Y28.465
X26.832 Y27.776
X26.838 Y27.087
X26.841 Y26.397
X26.844 Y25.019
X26.845 Y19.505
X26.795 Y19.34
X26.636 Y19.034
X26.39 Y18.793
X25.804 Y18.429
X25.136 Y18.259
X24.451 Y18.184
X23.763 Y18.14
X23.076 Y18.086
X22.392 Y17.999
X21.737 Y17.868
X21.143 Y17.698
X20.606 Y17.497
X20.122 Y17.27
X19.707 Y17.032
X19.338 Y16.78
X19.009 Y16.514
X18.724 Y16.243
X18.484 Y15.976
X18.291 Y15.721
X18.13 Y15.469
X17.998 Y15.222
X17.899 Y14.993
X17.833 Y14.8
X17.781 Y14.594
X17.753 Y14.429
X17.74 Y14.278
X17.738 Y14.11
X17.745 Y14.02
X17.794 Y13.82
X17.906 Y13.647
X18.069 Y13.521
X18.264 Y13.455
X18.419 Y13.43
X18.576 Y13.399
X19.03 Y13.294
G3 X19.177 Y13.801 I0.051 J0.26
G1 X19.122 Y13.822 Z-3.993
X19.07 Y13.842 Z-3.974
X19.023 Y13.861 Z-3.942
X18.984 Y13.876 Z-3.9
X18.955 Y13.887 Z-3.85
X18.936 Y13.894 Z-3.794
X18.93 Y13.897 Z-3.735
Z5
X21.102 Y37.465
Z-3.47
Z-3.735
X21.096 Z-3.794
X21.076 Y37.463 Z-3.85
X21.045 Y37.461 Z-3.9
X21.003 Y37.458 Z-3.942
X20.953 Y37.455 Z-3.974
X20.897 Y37.451 Z-3.993
X20.838 Y37.446 Z-4
G3 X20.093 Y37.197 I0.113 J-1.579
G1 X19.984 Y37.121
X19.747 Y36.965
X19.671 Y36.92
X19.624 Y36.898
X19.491 Y36.828
X19.377 Y36.73
X19.283 Y36.614
X19.206 Y36.485
X19.145 Y36.348
X19.099 Y36.205
X19.067 Y36.059
X19.047 Y35.903
X19.039 Y35.743
X19.045 Y35.563
X19.068 Y35.368
X19.107 Y35.168
X19.17 Y34.945
X19.256 Y34.712
X19.366 Y34.476
X19.509 Y34.224
X19.689 Y33.958
X19.895 Y33.702
X20.145 Y33.438
X20.444 Y33.168
X20.791 Y32.903
X21.179 Y32.652
X21.606 Y32.423
X22.104 Y32.205
X22.674 Y32.009
X23.311 Y31.845
X23.99 Y31.728
X24.316 Y31.616
X24.607 Y31.431
X25.101 Y30.951
X25.405 Y30.332
X25.579 Y29.665
X25.674 Y28.982
X25.726 Y28.295
X25.754 Y27.606
X25.769 Y26.917
X25.776 Y26.228
X25.781 Y25.539
X25.783 Y24.85
X25.785 Y22.782
Y21.059
X25.769 Y20.714
X25.642 Y20.394
X25.429 Y20.123
X24.898 Y19.684
X24.257 Y19.432
X23.584 Y19.279
X22.905 Y19.161
X22.227 Y19.037
X21.555 Y18.884
X20.894 Y18.69
X20.273 Y18.457
X19.737 Y18.204
X19.25 Y17.926
X18.811 Y17.625
X18.423 Y17.311
X18.086 Y16.99
X17.799 Y16.669
X17.562 Y16.356
X17.368 Y16.052
X17.207 Y15.75
X17.084 Y15.465
X16.993 Y15.196
X16.932 Y14.955
X16.894 Y14.734
X16.877 Y14.534
X16.876 Y14.374
X16.889 Y14.203
X16.913 Y14.047
X16.948 Y13.901
X16.972 Y13.828
X17.073 Y13.643
X17.231 Y13.504
X17.426 Y13.426
X17.637 Y13.419
X17.95 Y13.453
X18.106 Y13.465
X18.264 Y13.455
G3 X18.375 Y13.971 I0.033 J0.263
G1 X18.319 Y13.988 Z-3.993
X18.266 Y14.005 Z-3.974
X18.218 Y14.02 Z-3.942
X18.178 Y14.032 Z-3.9
X18.147 Y14.042 Z-3.85
X18.129 Y14.048 Z-3.794
X18.122 Y14.05 Z-3.735
Z5
X20.664 Y36.99
Z-3.47
Z-3.735
X20.657 Y36.991 Z-3.794
X20.638 Y36.993 Z-3.85
X20.606 Y36.996 Z-3.9
X20.564 Y37 Z-3.942
X20.514 Y37.005 Z-3.974
X20.459 Y37.011 Z-3.993
X20.4 Y37.016 Z-4
G3 X19.624 Y36.898 I-0.158 J-1.575
G1 X19.514 Y36.847
X19.154 Y36.742
X19.013 Y36.693
X18.883 Y36.617
X18.769 Y36.519
X18.67 Y36.406
X18.586 Y36.282
X18.516 Y36.15
X18.46 Y36.011
X18.415 Y35.867
X18.379 Y35.707
X18.355 Y35.531
X18.344 Y35.344
X18.348 Y35.134
X18.371 Y34.913
X18.414 Y34.68
X18.484 Y34.421
X18.58 Y34.152
X18.702 Y33.882
X18.861 Y33.593
X19.063 Y33.288
X19.304 Y32.982
X19.578 Y32.684
X19.908 Y32.38
X20.289 Y32.081
X20.73 Y31.789
X21.234 Y31.511
X21.771 Y31.269
X22.381 Y31.05
X23.047 Y30.871
X23.352 Y30.711
X23.622 Y30.496
X24.079 Y29.981
X24.361 Y29.352
X24.524 Y28.682
X24.616 Y27.999
X24.666 Y27.311
X24.693 Y26.623
X24.708 Y25.933
X24.716 Y25.244
X24.72 Y24.555
X24.722 Y23.866
X24.724 Y22.143
X24.677 Y21.801
X24.538 Y21.486
X24.326 Y21.214
X23.809 Y20.758
X23.187 Y20.461
X22.531 Y20.249
X21.866 Y20.068
X21.203 Y19.88
X20.548 Y19.665
X19.907 Y19.413
X19.285 Y19.116
X18.733 Y18.796
X18.239 Y18.455
X17.799 Y18.094
X17.412 Y17.722
X17.079 Y17.346
X16.794 Y16.966
X16.559 Y16.595
X16.374 Y16.243
X16.229 Y15.903
X16.12 Y15.576
X16.045 Y15.274
X15.999 Y14.991
X15.977 Y14.722
Y14.498
X15.994 Y14.284
X16.024 Y14.097
X16.06 Y13.947
X16.112 Y13.792
X16.173 Y13.648
X16.193 Y13.609
X16.312 Y13.45
X16.476 Y13.337
X16.667 Y13.281
X16.865 Y13.29
X17.011 Y13.319
X17.169 Y13.348
X17.48 Y13.397
X17.637 Y13.419
G3 X17.591 Y13.945 I-0.046 J0.261
G1 X17.532 Z-3.993
X17.476 Z-3.974
X17.426 Z-3.942
X17.384 Z-3.9
X17.352 Z-3.85
X17.333 Y13.946 Z-3.794
X17.326 Z-3.735
Z5
X20.196 Y36.675
Z-3.47
Z-3.735
X20.19 Y36.677 Z-3.794
X20.171 Y36.682 Z-3.85
X20.14 Y36.69 Z-3.9
X20.1 Y36.7 Z-3.942
X20.051 Y36.713 Z-3.974
X19.997 Y36.727 Z-3.993
X19.94 Y36.741 Z-4
G3 X19.154 Y36.742 I-0.394 J-1.533
G1 X19.045 Y36.71
X18.576 Y36.601
X18.43 Y36.565
X18.295 Y36.5
X18.172 Y36.414
X18.063 Y36.311
X17.966 Y36.196
X17.882 Y36.072
X17.81 Y35.94
X17.747 Y35.797
X17.692 Y35.639
X17.647 Y35.466
X17.612 Y35.267
X17.593 Y35.059
X17.59 Y34.829
X17.607 Y34.575
X17.647 Y34.312
X17.711 Y34.033
X17.809 Y33.727
X17.942 Y33.403
X18.104 Y33.083
X18.308 Y32.75
X18.561 Y32.402
X18.867 Y32.047
X19.227 Y31.691
X19.623 Y31.358
X20.085 Y31.028
X20.608 Y30.715
X21.198 Y30.424
X21.839 Y30.169
X22.453 Y29.855
X22.925 Y29.353
X23.233 Y28.737
X23.42 Y28.073
X23.528 Y27.393
X23.59 Y26.706
X23.624 Y26.018
X23.643 Y25.329
X23.653 Y24.64
X23.658 Y23.95
X23.661 Y23.261
X23.615 Y22.92
X23.494 Y22.597
X23.306 Y22.308
X22.835 Y21.805
X22.244 Y21.451
X21.61 Y21.18
X20.963 Y20.941
X20.317 Y20.701
X19.679 Y20.44
X19.055 Y20.148
X18.451 Y19.816
X17.873 Y19.44
X17.349 Y19.037
X16.884 Y18.616
X16.475 Y18.181
X16.125 Y17.743
X15.84 Y17.321
X15.605 Y16.903
X15.415 Y16.492
X15.268 Y16.093
X15.16 Y15.706
X15.091 Y15.352
X15.054 Y15.023
X15.044 Y14.717
X15.059 Y14.428
X15.091 Y14.183
X15.135 Y13.975
X15.193 Y13.78
X15.251 Y13.631
X15.324 Y13.48
X15.404 Y13.344
X15.453 Y13.274
X15.593 Y13.13
X15.773 Y13.04
X15.972 Y13.011
X16.17 Y13.048
X16.563 Y13.191
X16.698 Y13.237
X16.854 Y13.287
X16.865 Y13.29
G3 X16.787 Y13.812 I-0.062 J0.258
G1 X16.729 Y13.808 Z-3.993
X16.673 Y13.805 Z-3.974
X16.622 Y13.802 Z-3.942
X16.581 Y13.799 Z-3.9
X16.549 Y13.798 Z-3.85
X16.529 Y13.796 Z-3.794
X16.523 Z-3.735
Z5
X19.608 Y36.443
Z-3.47
Z-3.735
X19.601 Y36.445 Z-3.794
X19.583 Y36.452 Z-3.85
X19.553 Y36.462 Z-3.9
X19.514 Y36.476 Z-3.942
X19.466 Y36.493 Z-3.974
X19.413 Y36.512 Z-3.993
X19.358 Y36.531 Z-4
G3 X18.576 Y36.601 I-0.528 J-1.492
G1 X18.419 Y36.57
X18.263 Y36.545
X18.106 Y36.535
X18.059 Y36.539
X17.909 Y36.543
X17.764 Y36.502
X17.629 Y36.438
X17.504 Y36.355
X17.39 Y36.257
X17.287 Y36.148
X17.195 Y36.029
X17.114 Y35.903
X17.036 Y35.759
X16.963 Y35.591
X16.901 Y35.413
X16.848 Y35.207
X16.809 Y34.98
X16.787 Y34.743
X16.784 Y34.474
X16.804 Y34.178
X16.85 Y33.877
X16.926 Y33.553
X17.037 Y33.203
X17.19 Y32.832
X17.378 Y32.463
X17.612 Y32.083
X17.903 Y31.685
X18.248 Y31.285
X18.652 Y30.886
X19.119 Y30.495
X19.638 Y30.126
X20.205 Y29.787
X20.824 Y29.483
X21.42 Y29.137
X21.871 Y28.616
X22.17 Y27.995
X22.355 Y27.331
X22.463 Y26.65
X22.526 Y25.963
X22.561 Y25.275
X22.581 Y24.586
X22.584 Y24.241
X22.534 Y23.9
X22.42 Y23.575
X22.072 Y22.98
X21.549 Y22.531
X20.954 Y22.184
X20.331 Y21.888
X19.701 Y21.608
X19.075 Y21.32
X18.461 Y21.008
X17.864 Y20.662
X17.291 Y20.279
X16.746 Y19.858
X16.233 Y19.397
X15.768 Y18.909
X15.374 Y18.423
X15.045 Y17.942
X14.77 Y17.461
X14.544 Y16.981
X14.368 Y16.512
X14.238 Y16.059
X14.151 Y15.626
X14.103 Y15.221
X14.089 Y14.855
X14.104 Y14.513
X14.142 Y14.2
X14.201 Y13.917
X14.271 Y13.676
X14.351 Y13.467
X14.438 Y13.284
X14.518 Y13.145
X14.617 Y13.002
X14.666 Y12.942
X14.808 Y12.815
X14.981 Y12.737
X15.17 Y12.715
X15.357 Y12.752
X16.17 Y13.048
Z5
X19.011 Y36.11
Z-3.47
Z-3.735
X19.005 Y36.114 Z-3.794
X18.989 Y36.125 Z-3.85
X18.963 Y36.143 Z-3.9
X18.929 Y36.167 Z-3.942
X18.888 Y36.196 Z-3.974
X18.842 Y36.228 Z-3.993
X18.794 Y36.262 Z-4
G3 X18.059 Y36.539 I-0.908 J-1.296
G1 X17.95 Y36.547
X17.637 Y36.581
X17.551 Y36.593
X17.401 Y36.607
X17.252 Y36.593
X17.107 Y36.553
X16.97 Y36.492
X16.842 Y36.415
X16.722 Y36.324
X16.612 Y36.222
X16.511 Y36.111
X16.412 Y35.982
X16.314 Y35.831
X16.226 Y35.667
X16.142 Y35.476
X16.067 Y35.26
X16.007 Y35.031
X15.961 Y34.771
X15.934 Y34.481
X15.93 Y34.183
X15.952 Y33.855
X16.006 Y33.493
X16.096 Y33.107
X16.219 Y32.719
X16.384 Y32.316
X16.601 Y31.887
X16.874 Y31.441
X17.206 Y30.986
X17.601 Y30.527
X18.044 Y30.087
X18.543 Y29.667
X19.104 Y29.267
X19.695 Y28.912
X20.279 Y28.546
X20.743 Y28.037
X21.06 Y27.424
X21.26 Y26.765
X21.38 Y26.086
X21.451 Y25.4
X21.453 Y25.056
X21.403 Y24.715
X21.287 Y24.39
X20.942 Y23.793
X20.436 Y23.326
X19.859 Y22.949
X19.255 Y22.617
X18.644 Y22.298
X18.038 Y21.969
X17.445 Y21.618
X16.87 Y21.238
X16.317 Y20.825
X15.792 Y20.38
X15.297 Y19.9
X14.839 Y19.385
X14.432 Y18.848
X14.083 Y18.301
X13.791 Y17.751
X13.555 Y17.204
X13.373 Y16.667
X13.242 Y16.147
X13.16 Y15.661
X13.121 Y15.21
X13.119 Y14.784
X13.148 Y14.386
X13.206 Y14.02
X13.282 Y13.701
X13.376 Y13.413
X13.471 Y13.187
X13.579 Y12.978
X13.676 Y12.821
X13.778 Y12.684
X13.834 Y12.619
X13.975 Y12.499
X14.146 Y12.427
X14.33 Y12.408
X14.512 Y12.444
X15.357 Y12.752
Z5
X18.472 Y36.102
Z-3.47
Z-3.735
X18.467 Y36.106 Z-3.794
X18.452 Y36.119 Z-3.85
X18.427 Y36.138 Z-3.9
X18.395 Y36.165 Z-3.942
X18.355 Y36.196 Z-3.974
X18.312 Y36.231 Z-3.993
X18.266 Y36.268 Z-4
G3 X17.551 Y36.593 I-0.992 J-1.233
G1 X17.48 Y36.603
X17.167 Y36.653
X17.011 Y36.681
X16.925 Y36.698
X16.777 Y36.721
X16.627 Y36.714
X16.48 Y36.683
X16.339 Y36.633
X16.204 Y36.566
X16.078 Y36.486
X15.959 Y36.394
X15.844 Y36.289
X15.725 Y36.162
X15.614 Y36.022
X15.502 Y35.854
X15.395 Y35.661
X15.299 Y35.453
X15.212 Y35.213
X15.137 Y34.941
X15.084 Y34.658
X15.049 Y34.339
X15.039 Y33.981
X15.06 Y33.599
X15.112 Y33.21
X15.203 Y32.792
X15.339 Y32.344
X15.526 Y31.868
X15.769 Y31.372
X16.063 Y30.875
X16.411 Y30.383
X16.828 Y29.885
X17.31 Y29.394
X17.831 Y28.942
X18.384 Y28.531
X18.956 Y28.147
X19.469 Y27.686
X19.851 Y27.113
X20.102 Y26.471
X20.177 Y26.134
X20.202 Y25.791
X20.162 Y25.448
X20.054 Y25.121
X19.727 Y24.514
X19.24 Y24.026
X18.684 Y23.62
X18.1 Y23.253
X17.511 Y22.896
X16.927 Y22.529
X16.356 Y22.143
X15.804 Y21.73
X15.274 Y21.29
X14.77 Y20.819
X14.297 Y20.318
X13.859 Y19.786
X13.46 Y19.224
X13.104 Y18.634
X12.801 Y18.027
X12.557 Y17.42
X12.371 Y16.823
X12.241 Y16.247
X12.162 Y15.694
X12.129 Y15.166
X12.139 Y14.67
X12.183 Y14.225
X12.256 Y13.823
X12.354 Y13.454
X12.468 Y13.133
X12.582 Y12.877
X12.701 Y12.661
X12.812 Y12.493
X12.919 Y12.354
X12.977 Y12.292
X13.118 Y12.178
X13.286 Y12.109
X13.466 Y12.092
X13.644 Y12.129
X14.512 Y12.444
Z5
X17.814 Y36.152
Z-3.47
Z-3.735
X17.81 Y36.156 Z-3.794
X17.795 Y36.169 Z-3.85
X17.772 Y36.19 Z-3.9
X17.741 Y36.219 Z-3.942
X17.704 Y36.253 Z-3.974
X17.662 Y36.29 Z-3.993
X17.619 Y36.33 Z-4
G3 X16.925 Y36.698 I-1.066 J-1.17
G1 X16.854 Y36.713
X16.698 Y36.763
X16.541 Y36.817
X16.385 Y36.874
X16.242 Y36.918
X16.092 Y36.93
X15.943 Y36.917
X15.796 Y36.885
X15.654 Y36.836
X15.518 Y36.773
X15.388 Y36.698
X15.257 Y36.606
X15.128 Y36.501
X14.992 Y36.369
X14.861 Y36.219
X14.731 Y36.045
X14.602 Y35.84
X14.486 Y35.617
X14.38 Y35.366
X14.283 Y35.074
X14.205 Y34.752
X14.15 Y34.413
X14.121 Y34.038
X14.122 Y33.626
X14.159 Y33.179
X14.235 Y32.714
X14.354 Y32.234
X14.527 Y31.716
X14.759 Y31.175
X15.049 Y30.622
X15.405 Y30.061
X15.819 Y29.51
X16.275 Y28.993
X16.767 Y28.511
X17.294 Y28.067
X17.844 Y27.651
X18.35 Y27.183
X18.543 Y26.897
X18.678 Y26.58
X18.726 Y26.239
X18.684 Y25.897
X18.454 Y25.247
X18.023 Y24.709
X17.503 Y24.257
X16.948 Y23.848
X16.383 Y23.453
X15.823 Y23.052
X15.274 Y22.634
X14.743 Y22.195
X14.234 Y21.73
X13.75 Y21.239
X13.296 Y20.72
X12.875 Y20.175
X12.49 Y19.604
X12.145 Y19.006
X11.846 Y18.385
X11.593 Y17.744
X11.39 Y17.085
X11.247 Y16.441
X11.16 Y15.824
X11.126 Y15.237
X11.138 Y14.684
X11.191 Y14.165
X11.28 Y13.685
X11.392 Y13.267
X11.518 Y12.915
X11.656 Y12.609
X11.78 Y12.384
X11.908 Y12.191
X12.018 Y12.05
X12.093 Y11.969
X12.234 Y11.855
X12.402 Y11.787
X12.582 Y11.77
X12.759 Y11.807
X13.644 Y12.129
Z5
X17.185 Y36.203
Z-3.47
Z-3.735
X17.181 Y36.208 Z-3.794
X17.168 Y36.223 Z-3.85
X17.149 Y36.248 Z-3.9
X17.122 Y36.28 Z-3.942
X17.09 Y36.319 Z-3.974
X17.055 Y36.362 Z-3.993
X17.017 Y36.408 Z-4
G3 X16.385 Y36.874 I-1.225 J-1.002
G1 X15.759 Y37.101
X15.616 Y37.146
X15.467 Y37.167
X15.317 Y37.165
X15.169 Y37.143
X15.024 Y37.105
X14.883 Y37.053
X14.748 Y36.988
X14.609 Y36.907
X14.46 Y36.804
X14.317 Y36.686
X14.166 Y36.541
X14.014 Y36.369
X13.871 Y36.177
X13.726 Y35.946
X13.589 Y35.684
X13.47 Y35.405
X13.363 Y35.083
X13.273 Y34.717
X13.208 Y34.316
X13.175 Y33.9
Y33.44
X13.215 Y32.945
X13.302 Y32.412
X13.441 Y31.846
X13.637 Y31.259
X13.884 Y30.678
X14.201 Y30.074
X14.568 Y29.491
X14.979 Y28.937
X15.427 Y28.413
X15.91 Y27.921
X16.422 Y27.46
X16.683 Y27.235
X16.797 Y27.106
X16.887 Y26.959
X16.945 Y26.797
X16.998 Y26.456
X16.951 Y26.115
X16.715 Y25.467
X16.295 Y24.921
X15.796 Y24.445
X15.269 Y24.001
X14.737 Y23.563
X14.212 Y23.117
X13.702 Y22.653
X13.212 Y22.168
X12.746 Y21.66
X12.308 Y21.128
X11.9 Y20.572
X11.526 Y19.993
X11.192 Y19.39
X10.899 Y18.767
X10.648 Y18.125
X10.441 Y17.467
X10.282 Y16.796
X10.175 Y16.116
X10.123 Y15.45
X10.124 Y14.811
X10.174 Y14.209
X10.262 Y13.678
X10.38 Y13.2
X10.522 Y12.779
X10.673 Y12.424
X10.815 Y12.156
X10.957 Y11.932
X11.076 Y11.773
X11.204 Y11.629
X11.219 Y11.614
X11.359 Y11.513
X11.52 Y11.455
X11.691 Y11.443
X11.859 Y11.479
X12.759 Y11.807
Z5
X16.559 Y36.431
Z-3.47
Z-3.735
X16.555 Y36.436 Z-3.794
X16.543 Y36.451 Z-3.85
X16.523 Y36.475 Z-3.9
X16.496 Y36.508 Z-3.942
X16.464 Y36.547 Z-3.974
X16.429 Y36.59 Z-3.993
X16.391 Y36.636 Z-4
G3 X15.759 Y37.101 I-1.225 J-1.002
G1 X15.047 Y37.361
X14.904 Y37.405
X14.755 Y37.427
X14.605
X14.457 Y37.409
X14.31 Y37.375
X14.168 Y37.327
X14.022 Y37.264
X13.875 Y37.185
X13.718 Y37.085
X13.554 Y36.96
X13.393 Y36.816
X13.225 Y36.638
X13.059 Y36.433
X12.903 Y36.204
X12.746 Y35.928
X12.598 Y35.612
X12.472 Y35.277
X12.364 Y34.897
X12.279 Y34.47
X12.223 Y33.996
X12.205 Y33.489
X12.228 Y32.967
X12.3 Y32.392
X12.427 Y31.777
X12.614 Y31.142
X12.86 Y30.498
X13.156 Y29.875
X13.497 Y29.276
X13.878 Y28.702
X14.297 Y28.155
X14.751 Y27.637
X14.994 Y27.392
X15.099 Y27.255
X15.175 Y27.1
X15.269 Y26.769
X15.257 Y26.424
X15.085 Y25.757
X14.713 Y25.176
X14.256 Y24.661
X13.765 Y24.177
X13.267 Y23.7
X12.776 Y23.216
X12.3 Y22.718
X11.845 Y22.2
X11.415 Y21.662
X11.014 Y21.101
X10.645 Y20.519
X10.311 Y19.916
X10.014 Y19.294
X9.754 Y18.655
X9.535 Y18.002
X9.357 Y17.336
X9.223 Y16.66
X9.137 Y15.976
X9.101 Y15.288
X9.118 Y14.617
X9.184 Y13.985
X9.294 Y13.401
X9.438 Y12.874
X9.597 Y12.433
X9.761 Y12.073
X9.921 Y11.785
X10.063 Y11.572
X10.19 Y11.41
X10.318 Y11.273
X10.456 Y11.177
X10.615 Y11.122
X10.783 Y11.112
X10.947 Y11.147
X11.859 Y11.479
Z5
X15.847 Y36.69
Z-3.47
Z-3.735
X15.843 Y36.695 Z-3.794
X15.831 Y36.71 Z-3.85
X15.811 Y36.734 Z-3.9
X15.784 Y36.767 Z-3.942
X15.752 Y36.806 Z-3.974
X15.717 Y36.849 Z-3.993
X15.68 Y36.895 Z-4
G3 X15.047 Y37.361 I-1.225 J-1.002
G1 X14.265 Y37.645
X14.121 Y37.69
X13.972 Y37.706
X13.822 Y37.703
X13.674 Y37.684
X13.528 Y37.649
X13.385 Y37.602
X13.23 Y37.536
X13.071 Y37.452
X12.905 Y37.348
X12.726 Y37.214
X12.554 Y37.062
X12.369 Y36.87
X12.185 Y36.646
X12.014 Y36.399
X11.842 Y36.103
X11.676 Y35.757
X11.535 Y35.387
X11.412 Y34.969
X11.314 Y34.496
X11.249 Y33.978
X11.224 Y33.413
X11.246 Y32.813
X11.318 Y32.199
X11.45 Y31.534
X11.639 Y30.871
X11.877 Y30.224
X12.16 Y29.596
X12.484 Y28.988
X12.847 Y28.402
X13.246 Y27.84
X13.462 Y27.571
X13.628 Y27.269
X13.696 Y26.931
X13.678 Y26.587
X13.512 Y25.918
X13.167 Y25.322
X12.741 Y24.78
X12.282 Y24.265
X11.818 Y23.756
X11.36 Y23.241
X10.918 Y22.712
X10.498 Y22.165
X10.105 Y21.599
X9.742 Y21.013
X9.41 Y20.409
X9.111 Y19.788
X8.847 Y19.152
X8.618 Y18.501
X8.428 Y17.839
X8.276 Y17.166
X8.166 Y16.486
X8.1 Y15.8
X8.08 Y15.111
X8.11 Y14.422
X8.192 Y13.749
X8.317 Y13.133
X8.477 Y12.583
X8.658 Y12.103
X8.836 Y11.728
X9.007 Y11.431
X9.152 Y11.22
X9.285 Y11.057
X9.371 Y10.967
X9.512 Y10.857
X9.678 Y10.792
X9.855 Y10.777
X10.029 Y10.813
X10.947 Y11.147
Z5
X15.065 Y36.974
Z-3.47
Z-3.735
X15.061 Y36.98 Z-3.794
X15.048 Y36.995 Z-3.85
X15.028 Y37.019 Z-3.9
X15.002 Y37.052 Z-3.942
X14.97 Y37.091 Z-3.974
X14.934 Y37.134 Z-3.993
X14.897 Y37.18 Z-4
G3 X14.265 Y37.645 I-1.225 J-1.002
G1 X13.512 Y37.919
X13.368 Y37.964
X13.22 Y37.986
X13.07 Y37.988
X12.921 Y37.973
X12.774 Y37.943
X12.627 Y37.9
X12.47 Y37.84
X12.305 Y37.76
X12.126 Y37.656
X11.95 Y37.533
X11.757 Y37.374
X11.566 Y37.189
X11.372 Y36.969
X11.173 Y36.701
X10.984 Y36.4
X10.809 Y36.064
X10.64 Y35.665
X10.489 Y35.208
X10.367 Y34.707
X10.282 Y34.178
X10.236 Y33.585
X10.237 Y32.947
X10.294 Y32.261
X10.405 Y31.581
X10.567 Y30.911
X10.776 Y30.254
X11.027 Y29.612
X11.319 Y28.988
X11.65 Y28.383
X12.016 Y27.799
X12.154 Y27.484
X12.215 Y27.144
X12.189 Y26.455
X11.938 Y25.814
X11.572 Y25.229
X11.156 Y24.68
X10.722 Y24.144
X10.289 Y23.608
X9.868 Y23.063
X9.466 Y22.503
X9.087 Y21.926
X8.736 Y21.334
X8.413 Y20.725
X8.121 Y20.1
X7.862 Y19.461
X7.859 Y19.452
X7.84 Y19.386
X7.829 Y19.318
X7.825 Y19.25
Y12.566
X7.839 Y12.289
X7.869 Y12.056
X7.92 Y11.821
X7.993 Y11.575
X8.088 Y11.332
X8.187 Y11.127
X8.3 Y10.936
X8.401 Y10.793
X8.511 Y10.66
X8.52 Y10.651
X8.66 Y10.543
X8.825 Y10.48
X9.001 Y10.466
X9.174 Y10.502
G3 X9.32 Y10.846 Z-3.8 I-0.099 J0.246
G1 X9.307 Y10.874
X9.167 Y11.132
X8.346 Y12.64
X8.323 Y12.683
G3 X8.099 Y12.821 I-0.233 J-0.127
X7.825 Y12.566 Z-4 I-0.009 J-0.265
G1 Y11.001
X7.832 Y10.852
X7.86 Y10.703
X7.951 Y10.528
X8.092 Y10.39
X8.269 Y10.303
X8.465 Y10.277
X8.659 Y10.314
G3 X8.806 Y10.659 Z-3.8 I-0.099 J0.246
G1 X8.778 Y10.711
X8.739 Y10.755
X8.588 Y10.895
X8.369 Y11.095
X8.269 Y11.187
X8.218 Y11.224
X8.161 Y11.248
X8.099 Y11.257
G3 X7.825 Y11.001 Z-4 I-0.009 J-0.265
G1 Y10.454
X7.837 Y10.376
X7.846 Y10.337
X7.863 Y10.298
X7.874 Y10.278
X7.887 Y10.259
X7.904 Y10.239
X7.924 Y10.219
X7.935 Y10.21
X7.974 Y10.184
X8.014 Y10.164
X8.053 Y10.15
X8.092 Y10.144
X8.131 Y10.143
X8.17 Y10.148
X8.248 Y10.165
X10.029 Y10.813
Z5
X14.312 Y37.249
Z-3.47
Z-3.735
X14.308 Y37.254 Z-3.794
X14.295 Y37.269 Z-3.85
X14.275 Y37.293 Z-3.9
X14.249 Y37.326 Z-3.942
X14.217 Y37.365 Z-3.974
X14.181 Y37.408 Z-3.993
X14.144 Y37.454 Z-4
G3 X13.512 Y37.919 I-1.225 J-1.002
G1 X12.696 Y38.216
X12.552 Y38.261
X12.404 Y38.281
X12.254 Y38.282
X12.104 Y38.267
X11.957 Y38.237
X11.81 Y38.195
X11.642 Y38.132
X11.476 Y38.053
X11.285 Y37.944
X11.099 Y37.816
X10.898 Y37.653
X10.687 Y37.452
X10.488 Y37.228
X10.276 Y36.949
X10.063 Y36.615
X9.873 Y36.257
X9.69 Y35.831
X9.525 Y35.345
X9.387 Y34.796
X9.287 Y34.203
X9.234 Y33.583
X9.23 Y32.894
X9.282 Y32.207
X9.383 Y31.525
X9.531 Y30.852
X9.722 Y30.19
X9.953 Y29.54
X10.223 Y28.906
X10.529 Y28.288
X10.686 Y27.981
X10.796 Y27.655
X10.84 Y27.313
X10.805 Y26.625
X10.569 Y25.977
X10.227 Y25.379
X9.836 Y24.811
X9.429 Y24.255
X9.024 Y23.697
X8.63 Y23.132
X8.255 Y22.553
X7.899 Y21.955
X7.858 Y21.862
X7.833 Y21.763
X7.825 Y21.661
Y19.25
G3 X8.352 Y19.221 I0.265 J0.009
G1 X8.361 Y19.279 Z-3.993
X8.369 Y19.335 Z-3.974
X8.376 Y19.385 Z-3.942
X8.382 Y19.426 Z-3.9
X8.386 Y19.457 Z-3.85
X8.389 Y19.477 Z-3.794
X8.39 Y19.483 Z-3.735
Z5
X13.496 Y37.546
Z-3.47
Z-3.735
X13.491 Y37.551 Z-3.794
X13.479 Y37.566 Z-3.85
X13.459 Y37.59 Z-3.9
X13.433 Y37.623 Z-3.942
X13.401 Y37.662 Z-3.974
X13.365 Y37.705 Z-3.993
X13.328 Y37.751 Z-4
G3 X12.696 Y38.216 I-1.225 J-1.002
G1 X11.918 Y38.5
X11.774 Y38.544
X11.627 Y38.572
X11.477 Y38.58
X11.327 Y38.57
X11.179 Y38.547
X11.023 Y38.508
X10.864 Y38.455
X10.687 Y38.379
X10.503 Y38.281
X10.307 Y38.157
X10.095 Y37.997
X9.887 Y37.812
X9.663 Y37.578
X9.44 Y37.304
X9.225 Y36.992
X9.005 Y36.61
X8.792 Y36.159
X8.61 Y35.679
X8.452 Y35.132
X8.327 Y34.521
X8.244 Y33.841
X8.216 Y33.152
X8.24 Y32.463
X8.311 Y31.778
X8.426 Y31.098
X8.583 Y30.427
X8.781 Y29.767
X9.016 Y29.119
X9.286 Y28.485
X9.535 Y27.842
X9.581 Y27.154
X9.418 Y26.485
X9.131 Y25.858
X8.78 Y25.265
X8.402 Y24.689
X8.017 Y24.116
X7.926 Y23.978
X7.871 Y23.872
X7.837 Y23.758
X7.825 Y23.639
Y21.661
G3 X8.352 Y21.633 I0.265 J0.009
G1 X8.361 Y21.691 Z-3.993
X8.369 Y21.747 Z-3.974
X8.376 Y21.797 Z-3.942
X8.382 Y21.838 Z-3.9
X8.386 Y21.869 Z-3.85
X8.389 Y21.889 Z-3.794
X8.39 Y21.895 Z-3.735
Z5
X12.718 Y37.829
Z-3.47
Z-3.735
X12.714 Y37.834 Z-3.794
X12.701 Y37.849 Z-3.85
X12.681 Y37.874 Z-3.9
X12.655 Y37.906 Z-3.942
X12.623 Y37.945 Z-3.974
X12.587 Y37.988 Z-3.993
X12.55 Y38.034 Z-4
G3 X11.918 Y38.5 I-1.225 J-1.002
G1 X11.065 Y38.81
X10.921 Y38.854
X10.774 Y38.879
X10.624 Y38.886
X10.474 Y38.876
X10.326 Y38.852
X10.175 Y38.814
X10.002 Y38.757
X9.826 Y38.682
X9.626 Y38.577
X9.429 Y38.453
X9.21 Y38.288
X8.988 Y38.092
X8.76 Y37.855
X8.513 Y37.553
X8.282 Y37.22
X8.055 Y36.829
X7.885 Y36.472
X7.852 Y36.387
X7.832 Y36.297
X7.825 Y36.206
G3 X8.099 Y35.95 Z-3.8 I0.265 J0.009
G1 X8.156 Y35.959
X8.209 Y35.979
X8.257 Y36.01
X8.375 Y36.106
X10.986 Y38.239
X11.133 Y38.359
X11.165 Y38.39
X11.191 Y38.426
X11.211 Y38.465
G3 X11.065 Y38.81 Z-4 I-0.246 J0.099
G1 X10.196 Y39.126
X10.053 Y39.17
X9.905 Y39.193
X9.755 Y39.198
X9.605 Y39.187
X9.457 Y39.162
X9.298 Y39.123
X9.123 Y39.063
X8.94 Y38.985
X8.734 Y38.876
X8.527 Y38.744
X8.293 Y38.568
X8.067 Y38.367
X7.997 Y38.293
X7.903 Y38.167
X7.845 Y38.021
X7.825 Y37.866
G3 X8.099 Y37.61 Z-3.8 I0.265 J0.009
G1 X8.155 Y37.618
X8.209 Y37.638
X8.396 Y37.732
X10.098 Y38.584
X10.216 Y38.643
X10.269 Y38.679
X10.312 Y38.726
X10.343 Y38.781
G3 X10.196 Y39.126 Z-4 I-0.246 J0.099
G1 X9.344 Y39.437
X9.2 Y39.481
X9.052 Y39.505
X8.902 Y39.512
X8.753 Y39.503
X8.604 Y39.481
X8.438 Y39.442
X8.276 Y39.389
X8.207 Y39.361
X8.051 Y39.267
X7.929 Y39.133
X7.852 Y38.969
X7.825 Y38.789
G3 X8.099 Y38.534 Z-3.8 I0.265 J0.009
G1 X8.137 Y38.538
X8.175 Y38.548
X8.408 Y38.627
X9.239 Y38.909
X9.33 Y38.94
X9.381 Y38.964
X9.426 Y38.998
X9.463 Y39.042
X9.49 Y39.092
G3 X9.344 Y39.437 Z-4 I-0.246 J0.099
G1 X8.475 Y39.753
X8.332 Y39.797
X8.177 Y39.781
X8.036 Y39.716
X7.923 Y39.609
X7.85 Y39.472
X7.825 Y39.319
G3 X8.099 Y39.063 Z-3.8 I0.265 J0.009
G1 X8.145 Y39.069
X8.189 Y39.082
X8.23 Y39.103
X8.383 Y39.199
X8.516 Y39.282
X8.56 Y39.316
X8.596 Y39.359
X8.622 Y39.408
G3 X8.475 Y39.753 Z-4 I-0.246 J0.099
G1 X8.248 Y39.835
X8.17 Y39.852
X8.131 Y39.857
X8.092 Y39.856
X8.053 Y39.85
X8.014 Y39.837
X7.974 Y39.816
X7.935 Y39.79
X7.924 Y39.781
X7.904 Y39.761
X7.887 Y39.741
X7.874 Y39.722
X7.863 Y39.702
X7.846 Y39.663
X7.837 Y39.624
X7.825 Y39.546
Y30.396
X7.842 Y30.049
X7.892 Y29.674
X8.008 Y29.13
X8.206 Y28.47
X8.348 Y27.796
X8.292 Y27.109
X8.083 Y26.452
X7.886 Y26.042
X7.852 Y25.956
X7.832 Y25.866
X7.825 Y25.774
G3 X8.099 Y25.519 Z-3.8 I0.265 J0.009
X8.355 Y25.783 I-0.009 J0.265
G1 Y30.387
G3 X8.099 Y30.652 I-0.265 J0
X7.825 Y30.396 Z-4 I-0.009 J-0.265
G1 Y23.639
G3 X8.2 Y23.407 I0.265 J0.009
G1 X8.238 Y23.439 Z-3.995
X8.275 Y23.47 Z-3.981
X8.309 Y23.499 Z-3.957
X8.324 Y23.537 Z-3.924
X8.336 Y23.568 Z-3.884
X8.345 Y23.591 Z-3.838
X8.35 Y23.605 Z-3.788
X8.352 Y23.61 Z-3.735
Z5
X22.646 Y41.373
Z-5.12
Z-5.385
X22.641 Y41.368 Z-5.444
X22.628 Y41.354 Z-5.5
X22.607 Y41.33 Z-5.55
X22.579 Y41.299 Z-5.592
X22.546 Y41.261 Z-5.624
X22.509 Y41.22 Z-5.643
X22.469 Y41.176 Z-5.65
G3 X21.747 Y39.781 I2.362 J-2.107
G1 X21.732 Y39.7
X21.726 Y39.663
X21.789 Y39.527
X21.9 Y39.426
X22.031 Y39.352
X22.171 Y39.299
X22.317 Y39.263
X22.486 Y39.236
X22.698 Y39.219
X22.97
X23.334 Y39.248
X23.863 Y39.334
X24.532 Y39.499
X25.191 Y39.703
X25.844 Y39.924
X26.494 Y40.153
X27.143 Y40.385
X28.439 Y40.854
X30.382 Y41.561
X31.042 Y41.759
X31.726 Y41.851
X32.411 Y41.775
X33.046 Y41.508
X33.569 Y41.06
X33.913 Y40.462
X34.095 Y39.797
X34.184 Y39.114
X34.227 Y38.426
X34.247 Y37.737
X34.257 Y37.048
X34.261 Y36.359
X34.263 Y35.669
X34.265 Y33.601
Y11.545
X34.264 Y10.856
X34.194 Y10.17
X33.978 Y9.515
X33.593 Y8.944
X33.054 Y8.514
X32.408 Y8.275
X31.72 Y8.234
X31.038 Y8.336
X30.37 Y8.508
X29.712 Y8.713
X29.06 Y8.935
X28.41 Y9.164
X27.761 Y9.396
X26.465 Y9.866
X23.55 Y10.926
X23.068 Y11.078
X22.873 Y11.123
X22.624 Y11.159
X22.413 Y11.173
X22.263 Y11.17
X22.249 Y11.169
X22.052 Y11.115
X21.883 Y10.999
X21.761 Y10.835
X21.7 Y10.64
X21.705 Y10.436
G3 X22.228 Y10.509 I0.258 J0.06
G1 X22.225 Y10.568 Z-5.643
X22.222 Y10.623 Z-5.624
X22.22 Y10.674 Z-5.592
X22.218 Y10.716 Z-5.55
X22.216 Y10.747 Z-5.5
X22.215 Y10.767 Z-5.444
Y10.773 Z-5.385
Z5
X22.269 Y40.596
Z-5.12
Z-5.385
X22.265 Y40.591 Z-5.444
X22.252 Y40.576 Z-5.5
X22.231 Y40.552 Z-5.55
X22.203 Y40.521 Z-5.592
X22.169 Y40.484 Z-5.624
X22.132 Y40.442 Z-5.643
X22.093 Y40.398 Z-5.65
G3 X21.732 Y39.7 I1.181 J-1.053
G1 X21.686 Y39.468
X21.664 Y39.319
X21.716 Y39.179
X21.797 Y39.052
X21.897 Y38.94
X22.01 Y38.843
X22.135 Y38.758
X22.266 Y38.687
X22.418 Y38.619
X22.585 Y38.561
X22.799 Y38.506
X23.035 Y38.464
X23.318 Y38.437
X23.678 Y38.432
X24.102 Y38.461
X24.685 Y38.547
X25.357 Y38.702
X26.019 Y38.896
X26.674 Y39.11
X27.326 Y39.334
X27.975 Y39.564
X28.624 Y39.796
X29.92 Y40.266
X30.573 Y40.488
X31.247 Y40.631
X31.59 Y40.593
X31.91 Y40.467
X32.188 Y40.263
X32.644 Y39.746
X32.909 Y39.11
X33.052 Y38.436
X33.127 Y37.751
X33.166 Y37.062
X33.186 Y36.373
X33.195 Y35.684
X33.2 Y34.995
X33.203 Y34.306
X33.204 Y32.927
X33.205 Y12.249
X33.204 Y11.56
X33.15 Y10.873
X33.034 Y10.548
X32.852 Y10.255
X32.598 Y10.023
X32.296 Y9.857
X31.638 Y9.65
X30.949 Y9.645
X30.269 Y9.755
X29.601 Y9.926
X28.942 Y10.129
X28.289 Y10.348
X27.638 Y10.575
X26.989 Y10.807
X26.341 Y11.041
X25.045 Y11.51
X24.396 Y11.745
X23.829 Y11.929
X23.397 Y12.031
X23.121 Y12.074
X22.866 Y12.092
X22.67 Y12.091
X22.498 Y12.076
X22.319 Y12.045
X22.173 Y12.008
X22.031 Y11.96
X21.89 Y11.898
X21.819 Y11.859
X21.675 Y11.751
X21.568 Y11.606
X21.507 Y11.436
X21.498 Y11.257
X21.541 Y11.082
Z5
X22.231 Y40.359
Z-5.12
Z-5.385
X22.226 Y40.354 Z-5.444
X22.213 Y40.339 Z-5.5
X22.192 Y40.316 Z-5.55
X22.164 Y40.285 Z-5.592
X22.13 Y40.248 Z-5.624
X22.092 Y40.206 Z-5.643
X22.053 Y40.162 Z-5.65
G3 X21.686 Y39.468 I1.173 J-1.063
G1 X21.655 Y39.311
X21.62 Y39.155
X21.605 Y39.108
X21.566 Y38.963
X21.579 Y38.813
X21.622 Y38.669
X21.686 Y38.534
X21.768 Y38.408
X21.864 Y38.293
X21.971 Y38.188
X22.087 Y38.093
X22.227 Y37.996
X22.378 Y37.908
X22.569 Y37.818
X22.771 Y37.74
X23.028 Y37.665
X23.295 Y37.61
X23.65 Y37.566
X24.015 Y37.551
X24.503 Y37.569
X25.102 Y37.64
X25.778 Y37.775
X26.444 Y37.954
X27.102 Y38.157
X27.756 Y38.374
X28.408 Y38.6
X29.057 Y38.83
X29.706 Y39.063
X30.033 Y39.173
X30.201 Y39.211
X30.373 Y39.221
X30.543 Y39.195
X30.868 Y39.081
X31.146 Y38.877
X31.598 Y38.357
X31.857 Y37.718
X31.996 Y37.043
X32.069 Y36.357
X32.106 Y35.669
X32.125 Y34.98
X32.135 Y34.291
X32.14 Y33.602
X32.143 Y32.912
X32.144 Y31.534
X32.145 Y12.924
Y12.234
X32.107 Y12.066
X32.04 Y11.907
X31.85 Y11.62
X31.577 Y11.409
X31.263 Y11.268
X30.594 Y11.099
X29.905 Y11.121
X29.228 Y11.245
X28.562 Y11.424
X27.904 Y11.631
X27.251 Y11.852
X26.601 Y12.08
X25.952 Y12.312
X25.303 Y12.545
X24.65 Y12.766
X24.086 Y12.919
X23.659 Y12.998
X23.295 Y13.036
X22.976 Y13.044
X22.684 Y13.027
X22.422 Y12.991
X22.205 Y12.943
X22.005 Y12.882
X21.85 Y12.821
X21.692 Y12.742
X21.56 Y12.664
X21.438 Y12.577
X21.323 Y12.479
X21.284 Y12.44
X21.164 Y12.269
X21.107 Y12.067
X21.121 Y11.859
X21.204 Y11.666
X21.236 Y11.617
X21.424 Y11.314
X21.51 Y11.158
X21.541 Y11.082
Z5
X22.245 Y39.933
Z-5.12
Z-5.385
X22.24 Y39.929 Z-5.444
X22.225 Y39.916 Z-5.5
X22.201 Y39.895 Z-5.55
X22.17 Y39.867 Z-5.592
X22.132 Y39.834 Z-5.624
X22.09 Y39.797 Z-5.643
X22.046 Y39.758 Z-5.65
G3 X21.605 Y39.108 I1.048 J-1.186
G1 X21.57 Y38.999
X21.549 Y38.937
X21.51 Y38.842
X21.462 Y38.756
X21.397 Y38.621
X21.368 Y38.474
X21.37 Y38.324
X21.396 Y38.176
X21.443 Y38.034
X21.506 Y37.898
X21.583 Y37.769
X21.671 Y37.648
X21.77 Y37.534
X21.895 Y37.411
X22.034 Y37.296
X22.2 Y37.178
X22.392 Y37.064
X22.611 Y36.958
X22.873 Y36.855
X23.15 Y36.771
X23.491 Y36.697
X23.881 Y36.645
X24.322 Y36.622
X24.873 Y36.638
X25.522 Y36.708
X26.2 Y36.838
X26.868 Y37.007
X27.529 Y37.203
X28.185 Y37.414
X28.837 Y37.636
X29.163 Y37.75
X29.334 Y37.764
X29.505 Y37.74
X29.83 Y37.625
X30.105 Y37.418
X30.553 Y36.894
X30.806 Y36.253
X30.941 Y35.577
X31.012 Y34.891
X31.048 Y34.203
X31.066 Y33.514
X31.076 Y32.825
X31.08 Y32.135
X31.083 Y31.446
X31.085 Y29.378
Y13.697
X31.055 Y13.528
X30.988 Y13.369
X30.794 Y13.084
X30.517 Y12.879
X29.882 Y12.612
X29.194 Y12.576
X28.511 Y12.671
X27.841 Y12.833
X27.181 Y13.032
X26.527 Y13.248
X25.874 Y13.47
X25.218 Y13.681
X24.552 Y13.861
X24.029 Y13.96
X23.553 Y14.01
X23.135 Y14.02
X22.77 Y14
X22.438 Y13.954
X22.138 Y13.888
X21.872 Y13.807
X21.627 Y13.71
X21.434 Y13.615
X21.251 Y13.506
X21.101 Y13.399
X20.985 Y13.302
X20.867 Y13.186
X20.767 Y13.069
X20.745 Y13.039
X20.653 Y12.856
X20.626 Y12.654
X20.666 Y12.453
X20.77 Y12.277
X20.923 Y12.095
X21.026 Y11.94
X21.204 Y11.666
Z5
X22.248 Y39.444
Z-5.12
Z-5.385
X22.242 Y39.441 Z-5.444
X22.225 Y39.431 Z-5.5
X22.198 Y39.415 Z-5.55
X22.162 Y39.393 Z-5.592
X22.119 Y39.368 Z-5.624
X22.07 Y39.34 Z-5.643
X22.02 Y39.31 Z-5.65
G3 X21.462 Y38.756 I0.802 J-1.364
G1 X21.424 Y38.686
X21.229 Y38.373
X21.198 Y38.326
X21.123 Y38.196
X21.077 Y38.053
X21.059 Y37.904
X21.063 Y37.754
X21.087 Y37.606
X21.127 Y37.461
X21.181 Y37.322
X21.248 Y37.187
X21.329 Y37.052
X21.433 Y36.909
X21.55 Y36.77
X21.697 Y36.624
X21.866 Y36.479
X22.056 Y36.342
X22.288 Y36.201
X22.545 Y36.072
X22.837 Y35.954
X23.184 Y35.845
X23.565 Y35.758
X24 Y35.696
X24.533 Y35.662
X25.122 Y35.672
X25.808 Y35.739
X26.486 Y35.861
X27.157 Y36.021
X27.82 Y36.207
X28.149 Y36.309
X28.322 Y36.313
X28.491 Y36.28
X28.81 Y36.151
X29.079 Y35.935
X29.513 Y35.4
X29.757 Y34.755
X29.888 Y34.078
X29.955 Y33.392
X29.99 Y32.704
X30.007 Y32.015
X30.016 Y31.326
X30.02 Y30.636
X30.023 Y29.947
X30.025 Y27.879
Y15.128
X29.988 Y14.96
X29.911 Y14.806
X29.696 Y14.536
X29.408 Y14.347
X28.762 Y14.105
X28.073 Y14.087
X27.392 Y14.191
X26.723 Y14.356
X26.06 Y14.544
X25.395 Y14.728
X24.723 Y14.881
X24.1 Y14.975
X23.544 Y15.014
X23.065 Y15.009
X22.633 Y14.969
X22.231 Y14.9
X21.87 Y14.807
X21.551 Y14.697
X21.271 Y14.575
X21.016 Y14.438
X20.799 Y14.297
X20.634 Y14.171
X20.477 Y14.029
X20.363 Y13.909
X20.265 Y13.786
X20.172 Y13.649
X20.098 Y13.518
X20.063 Y13.442
X20.009 Y13.235
X20.029 Y13.023
X20.119 Y12.829
X20.271 Y12.678
X20.453 Y12.55
X20.61 Y12.423
X20.766 Y12.281
X20.77 Y12.277
G3 X21.192 Y12.594 I0.197 J0.177
G1 X21.161 Y12.644 Z-5.643
X21.132 Y12.692 Z-5.624
X21.105 Y12.734 Z-5.592
X21.083 Y12.77 Z-5.55
X21.067 Y12.797 Z-5.5
X21.056 Y12.813 Z-5.444
X21.053 Y12.819 Z-5.385
Z5
X22.032 Y38.954
Z-5.12
Z-5.385
X22.026 Y38.951 Z-5.444
X22.008 Y38.943 Z-5.5
X21.98 Y38.929 Z-5.55
X21.942 Y38.91 Z-5.592
X21.897 Y38.888 Z-5.624
X21.847 Y38.863 Z-5.643
X21.794 Y38.837 Z-5.65
G3 X21.198 Y38.326 I0.7 J-1.419
G1 X21.026 Y38.06
X20.921 Y37.904
X20.882 Y37.856
X20.791 Y37.737
X20.732 Y37.599
X20.698 Y37.453
X20.685 Y37.303
X20.691 Y37.153
X20.713 Y37.005
X20.748 Y36.859
X20.799 Y36.713
X20.863 Y36.565
X20.946 Y36.41
X21.053 Y36.244
X21.176 Y36.083
X21.329 Y35.912
X21.511 Y35.74
X21.713 Y35.578
X21.958 Y35.411
X22.244 Y35.248
X22.549 Y35.105
X22.909 Y34.971
X23.339 Y34.85
X23.798 Y34.758
X24.317 Y34.698
X24.932 Y34.677
X25.621 Y34.708
X26.305 Y34.794
X26.982 Y34.923
X27.153 Y34.941
X27.325 Y34.924
X27.655 Y34.827
X27.939 Y34.632
X28.402 Y34.121
X28.667 Y33.484
X28.811 Y32.81
X28.886 Y32.125
X28.925 Y31.437
X28.944 Y30.748
X28.955 Y30.059
X28.96 Y29.369
X28.962 Y28.68
X28.964 Y27.302
X28.965 Y16.618
X28.924 Y16.451
X28.843 Y16.298
X28.624 Y16.033
X28.333 Y15.847
X27.686 Y15.609
X26.998 Y15.586
X26.313 Y15.67
X25.635 Y15.791
X24.955 Y15.906
X24.272 Y15.992
X23.647 Y16.028
X23.074 Y16.015
X22.546 Y15.961
X22.063 Y15.871
X21.636 Y15.756
X21.256 Y15.62
X20.919 Y15.467
X20.614 Y15.299
X20.357 Y15.129
X20.132 Y14.952
X19.932 Y14.768
X19.782 Y14.604
X19.646 Y14.431
X19.543 Y14.275
X19.469 Y14.14
X19.4 Y13.988
X19.35 Y13.848
X19.315 Y13.669
X19.333 Y13.488
X19.403 Y13.32
X19.519 Y13.18
X19.671 Y13.08
X19.747 Y13.035
X19.984 Y12.878
X20.271 Y12.678
G3 X20.596 Y13.094 I0.144 J0.222
G1 X20.553 Y13.134 Z-5.643
X20.512 Y13.173 Z-5.624
X20.476 Y13.207 Z-5.592
X20.445 Y13.236 Z-5.55
X20.422 Y13.257 Z-5.5
X20.408 Y13.271 Z-5.444
X20.403 Y13.275 Z-5.385
Z5
X21.786 Y38.379
Z-5.12
Z-5.385
X21.779 Y38.377 Z-5.444
X21.761 Y38.371 Z-5.5
X21.731 Y38.36 Z-5.55
X21.691 Y38.346 Z-5.592
X21.644 Y38.33 Z-5.624
X21.591 Y38.311 Z-5.643
X21.536 Y38.292 Z-5.65
G3 X20.882 Y37.856 I0.523 J-1.494
G1 X20.766 Y37.719
X20.61 Y37.577
X20.529 Y37.512
X20.418 Y37.411
X20.335 Y37.286
X20.276 Y37.148
X20.237 Y37.004
X20.216 Y36.855
X20.212 Y36.705
X20.222 Y36.555
X20.245 Y36.407
X20.284 Y36.248
X20.339 Y36.079
X20.412 Y35.907
X20.508 Y35.72
X20.626 Y35.532
X20.768 Y35.341
X20.946 Y35.138
X21.151 Y34.939
X21.382 Y34.748
X21.659 Y34.554
X21.988 Y34.361
X22.34 Y34.192
X22.743 Y34.035
X23.209 Y33.897
X23.75 Y33.782
X24.327 Y33.708
X24.967 Y33.677
X25.655 Y33.7
X25.998 Y33.736
X26.342 Y33.712
X26.658 Y33.574
X26.927 Y33.359
X27.364 Y32.826
X27.616 Y32.185
X27.754 Y31.509
X27.827 Y30.824
X27.865 Y30.136
X27.884 Y29.447
X27.894 Y28.757
X27.9 Y28.068
X27.902 Y27.379
X27.904 Y26
X27.905 Y18.074
X27.852 Y17.91
X27.677 Y17.613
X27.414 Y17.391
X26.797 Y17.083
X26.115 Y16.986
X25.425 Y16.99
X24.737 Y17.028
X24.049 Y17.058
X23.359 Y17.053
X22.695 Y17.001
X22.101 Y16.906
X21.588 Y16.78
X21.123 Y16.626
X20.7 Y16.448
X20.319 Y16.249
X19.979 Y16.035
X19.691 Y15.821
X19.442 Y15.601
X19.228 Y15.381
X19.045 Y15.159
X18.907 Y14.96
X18.791 Y14.761
X18.715 Y14.603
X18.649 Y14.432
X18.604 Y14.279
X18.573 Y14.132
X18.555 Y13.978
X18.552 Y13.921
X18.58 Y13.71
X18.678 Y13.521
X18.834 Y13.377
X19.03 Y13.294
X19.045 Y13.29
X19.514 Y13.153
X19.671 Y13.08
G3 X19.92 Y13.545 I0.104 J0.244
G1 X19.87 Y13.578 Z-5.643
X19.823 Y13.608 Z-5.624
X19.781 Y13.636 Z-5.592
X19.746 Y13.659 Z-5.55
X19.72 Y13.676 Z-5.5
X19.703 Y13.687 Z-5.444
X19.698 Y13.69 Z-5.385
Z5
X21.516 Y37.855
Z-5.12
Z-5.385
X21.509 Y37.854 Z-5.444
X21.49 Y37.851 Z-5.5
X21.458 Y37.846 Z-5.55
X21.417 Y37.84 Z-5.592
X21.367 Y37.833 Z-5.624
X21.312 Y37.824 Z-5.643
X21.254 Y37.816 Z-5.65
G3 X20.529 Y37.512 I0.232 J-1.565
G1 X20.453 Y37.45
X20.093 Y37.197
X19.974 Y37.106
X19.876 Y36.993
X19.798 Y36.865
X19.739 Y36.727
X19.697 Y36.583
X19.671 Y36.435
X19.659 Y36.285
X19.661 Y36.131
X19.675 Y35.972
X19.705 Y35.794
X19.752 Y35.61
X19.819 Y35.414
X19.912 Y35.202
X20.024 Y34.991
X20.165 Y34.772
X20.341 Y34.541
X20.55 Y34.309
X20.788 Y34.082
X21.072 Y33.854
X21.404 Y33.627
X21.781 Y33.413
X22.188 Y33.223
X22.668 Y33.044
X23.211 Y32.889
X23.819 Y32.769
X24.486 Y32.691
X25.174 Y32.666
X25.495 Y32.541
X25.774 Y32.338
X26.239 Y31.829
X26.515 Y31.198
X26.669 Y30.526
X26.752 Y29.842
X26.796 Y29.154
X26.82 Y28.465
X26.832 Y27.776
X26.838 Y27.087
X26.841 Y26.397
X26.844 Y25.019
X26.845 Y19.505
X26.795 Y19.34
X26.636 Y19.034
X26.39 Y18.793
X25.804 Y18.429
X25.136 Y18.259
X24.451 Y18.184
X23.763 Y18.14
X23.076 Y18.086
X22.392 Y17.999
X21.737 Y17.868
X21.143 Y17.698
X20.606 Y17.497
X20.122 Y17.27
X19.707 Y17.032
X19.338 Y16.78
X19.009 Y16.514
X18.724 Y16.243
X18.484 Y15.976
X18.291 Y15.721
X18.13 Y15.469
X17.998 Y15.222
X17.899 Y14.993
X17.833 Y14.8
X17.781 Y14.594
X17.753 Y14.429
X17.74 Y14.278
X17.738 Y14.11
X17.745 Y14.02
X17.794 Y13.82
X17.906 Y13.647
X18.069 Y13.521
X18.264 Y13.455
X18.419 Y13.43
X18.576 Y13.399
X19.03 Y13.294
G3 X19.177 Y13.801 I0.051 J0.26
G1 X19.122 Y13.822 Z-5.643
X19.07 Y13.842 Z-5.624
X19.023 Y13.861 Z-5.592
X18.984 Y13.876 Z-5.55
X18.955 Y13.887 Z-5.5
X18.936 Y13.894 Z-5.444
X18.93 Y13.897 Z-5.385
Z5
X21.102 Y37.465
Z-5.12
Z-5.385
X21.096 Z-5.444
X21.076 Y37.463 Z-5.5
X21.045 Y37.461 Z-5.55
X21.003 Y37.458 Z-5.592
X20.953 Y37.455 Z-5.624
X20.897 Y37.451 Z-5.643
X20.838 Y37.446 Z-5.65
G3 X20.093 Y37.197 I0.113 J-1.579
G1 X19.984 Y37.121
X19.747 Y36.965
X19.671 Y36.92
X19.624 Y36.898
X19.491 Y36.828
X19.377 Y36.73
X19.283 Y36.614
X19.206 Y36.485
X19.145 Y36.348
X19.099 Y36.205
X19.067 Y36.059
X19.047 Y35.903
X19.039 Y35.743
X19.045 Y35.563
X19.068 Y35.368
X19.107 Y35.168
X19.17 Y34.945
X19.256 Y34.712
X19.366 Y34.476
X19.509 Y34.224
X19.689 Y33.958
X19.895 Y33.702
X20.145 Y33.438
X20.444 Y33.168
X20.791 Y32.903
X21.179 Y32.652
X21.606 Y32.423
X22.104 Y32.205
X22.674 Y32.009
X23.311 Y31.845
X23.99 Y31.728
X24.316 Y31.616
X24.607 Y31.431
X25.101 Y30.951
X25.405 Y30.332
X25.579 Y29.665
X25.674 Y28.982
X25.726 Y28.295
X25.754 Y27.606
X25.769 Y26.917
X25.776 Y26.228
X25.781 Y25.539
X25.783 Y24.85
X25.785 Y22.782
Y21.059
X25.769 Y20.714
X25.642 Y20.394
X25.429 Y20.123
X24.898 Y19.684
X24.257 Y19.432
X23.584 Y19.279
X22.905 Y19.161
X22.227 Y19.037
X21.555 Y18.884
X20.894 Y18.69
X20.273 Y18.457
X19.737 Y18.204
X19.25 Y17.926
X18.811 Y17.625
X18.423 Y17.311
X18.086 Y16.99
X17.799 Y16.669
X17.562 Y16.356
X17.368 Y16.052
X17.207 Y15.75
X17.084 Y15.465
X16.993 Y15.196
X16.932 Y14.955
X16.894 Y14.734
X16.877 Y14.534
X16.876 Y14.374
X16.889 Y14.203
X16.913 Y14.047
X16.948 Y13.901
X16.972 Y13.828
X17.073 Y13.643
X17.231 Y13.504
X17.426 Y13.426
X17.637 Y13.419
X17.95 Y13.453
X18.106 Y13.465
X18.264 Y13.455
G3 X18.375 Y13.971 I0.033 J0.263
G1 X18.319 Y13.988 Z-5.643
X18.266 Y14.005 Z-5.624
X18.218 Y14.02 Z-5.592
X18.178 Y14.032 Z-5.55
X18.147 Y14.042 Z-5.5
X18.129 Y14.048 Z-5.444
X18.122 Y14.05 Z-5.385
Z5
X20.664 Y36.99
Z-5.12
Z-5.385
X20.657 Y36.991 Z-5.444
X20.638 Y36.993 Z-5.5
X20.606 Y36.996 Z-5.55
X20.564 Y37 Z-5.592
X20.514 Y37.005 Z-5.624
X20.459 Y37.011 Z-5.643
X20.4 Y37.016 Z-5.65
G3 X19.624 Y36.898 I-0.158 J-1.575
G1 X19.514 Y36.847
X19.154 Y36.742
X19.013 Y36.693
X18.883 Y36.617
X18.769 Y36.519
X18.67 Y36.406
X18.586 Y36.282
X18.516 Y36.15
X18.46 Y36.011
X18.415 Y35.867
X18.379 Y35.707
X18.355 Y35.531
X18.344 Y35.344
X18.348 Y35.134
X18.371 Y34.913
X18.414 Y34.68
X18.484 Y34.421
X18.58 Y34.152
X18.702 Y33.882
X18.861 Y33.593
X19.063 Y33.288
X19.304 Y32.982
X19.578 Y32.684
X19.908 Y32.38
X20.289 Y32.081
X20.73 Y31.789
X21.234 Y31.511
X21.771 Y31.269
X22.381 Y31.05
X23.047 Y30.871
X23.352 Y30.711
X23.622 Y30.496
X24.079 Y29.981
X24.361 Y29.352
X24.524 Y28.682
X24.616 Y27.999
X24.666 Y27.311
X24.693 Y26.623
X24.708 Y25.933
X24.716 Y25.244
X24.72 Y24.555
X24.722 Y23.866
X24.724 Y22.143
X24.677 Y21.801
X24.538 Y21.486
X24.326 Y21.214
X23.809 Y20.758
X23.187 Y20.461
X22.531 Y20.249
X21.866 Y20.068
X21.203 Y19.88
X20.548 Y19.665
X19.907 Y19.413
X19.285 Y19.116
X18.733 Y18.796
X18.239 Y18.455
X17.799 Y18.094
X17.412 Y17.722
X17.079 Y17.346
X16.794 Y16.966
X16.559 Y16.595
X16.374 Y16.243
X16.229 Y15.903
X16.12 Y15.576
X16.045 Y15.274
X15.999 Y14.991
X15.977 Y14.722
Y14.498
X15.994 Y14.284
X16.024 Y14.097
X16.06 Y13.947
X16.112 Y13.792
X16.173 Y13.648
X16.193 Y13.609
X16.312 Y13.45
X16.476 Y13.337
X16.667 Y13.281
X16.865 Y13.29
X17.011 Y13.319
X17.169 Y13.348
X17.48 Y13.397
X17.637 Y13.419
G3 X17.591 Y13.945 I-0.046 J0.261
G1 X17.532 Z-5.643
X17.476 Z-5.624
X17.426 Z-5.592
X17.384 Z-5.55
X17.352 Z-5.5
X17.333 Y13.946 Z-5.444
X17.326 Z-5.385
Z5
X20.196 Y36.675
Z-5.12
Z-5.385
X20.19 Y36.677 Z-5.444
X20.171 Y36.682 Z-5.5
X20.14 Y36.69 Z-5.55
X20.1 Y36.7 Z-5.592
X20.051 Y36.713 Z-5.624
X19.997 Y36.727 Z-5.643
X19.94 Y36.741 Z-5.65
G3 X19.154 Y36.742 I-0.394 J-1.533
G1 X19.045 Y36.71
X18.576 Y36.601
X18.43 Y36.565
X18.295 Y36.5
X18.172 Y36.414
X18.063 Y36.311
X17.966 Y36.196
X17.882 Y36.072
X17.81 Y35.94
X17.747 Y35.797
X17.692 Y35.639
X17.647 Y35.466
X17.612 Y35.267
X17.593 Y35.059
X17.59 Y34.829
X17.607 Y34.575
X17.647 Y34.312
X17.711 Y34.033
X17.809 Y33.727
X17.942 Y33.403
X18.104 Y33.083
X18.308 Y32.75
X18.561 Y32.402
X18.867 Y32.047
X19.227 Y31.691
X19.623 Y31.358
X20.085 Y31.028
X20.608 Y30.715
X21.198 Y30.424
X21.839 Y30.169
X22.453 Y29.855
X22.925 Y29.353
X23.233 Y28.737
X23.42 Y28.073
X23.528 Y27.393
X23.59 Y26.706
X23.624 Y26.018
X23.643 Y25.329
X23.653 Y24.64
X23.658 Y23.95
X23.661 Y23.261
X23.615 Y22.92
X23.494 Y22.597
X23.306 Y22.308
X22.835 Y21.805
X22.244 Y21.451
X21.61 Y21.18
X20.963 Y20.941
X20.317 Y20.701
X19.679 Y20.44
X19.055 Y20.148
X18.451 Y19.816
X17.873 Y19.44
X17.349 Y19.037
X16.884 Y18.616
X16.475 Y18.181
X16.125 Y17.743
X15.84 Y17.321
X15.605 Y16.903
X15.415 Y16.492
X15.268 Y16.093
X15.16 Y15.706
X15.091 Y15.352
X15.054 Y15.023
X15.044 Y14.717
X15.059 Y14.428
X15.091 Y14.183
X15.135 Y13.975
X15.193 Y13.78
X15.251 Y13.631
X15.324 Y13.48
X15.404 Y13.344
X15.453 Y13.274
X15.593 Y13.13
X15.773 Y13.04
X15.972 Y13.011
X16.17 Y13.048
X16.563 Y13.191
X16.698 Y13.237
X16.854 Y13.287
X16.865 Y13.29
G3 X16.787 Y13.812 I-0.062 J0.258
G1 X16.729 Y13.808 Z-5.643
X16.673 Y13.805 Z-5.624
X16.622 Y13.802 Z-5.592
X16.581 Y13.799 Z-5.55
X16.549 Y13.798 Z-5.5
X16.529 Y13.796 Z-5.444
X16.523 Z-5.385
Z5
X19.608 Y36.443
Z-5.12
Z-5.385
X19.601 Y36.445 Z-5.444
X19.583 Y36.452 Z-5.5
X19.553 Y36.462 Z-5.55
X19.514 Y36.476 Z-5.592
X19.466 Y36.493 Z-5.624
X19.413 Y36.512 Z-5.643
X19.358 Y36.531 Z-5.65
G3 X18.576 Y36.601 I-0.528 J-1.492
G1 X18.419 Y36.57
X18.263 Y36.545
X18.106 Y36.535
X18.059 Y36.539
X17.909 Y36.543
X17.764 Y36.502
X17.629 Y36.438
X17.504 Y36.355
X17.39 Y36.257
X17.287 Y36.148
X17.195 Y36.029
X17.114 Y35.903
X17.036 Y35.759
X16.963 Y35.591
X16.901 Y35.413
X16.848 Y35.207
X16.809 Y34.98
X16.787 Y34.743
X16.784 Y34.474
X16.804 Y34.178
X16.85 Y33.877
X16.926 Y33.553
X17.037 Y33.203
X17.19 Y32.832
X17.378 Y32.463
X17.612 Y32.083
X17.903 Y31.685
X18.248 Y31.285
X18.652 Y30.886
X19.119 Y30.495
X19.638 Y30.126
X20.205 Y29.787
X20.824 Y29.483
X21.42 Y29.137
X21.871 Y28.616
X22.17 Y27.995
X22.355 Y27.331
X22.463 Y26.65
X22.526 Y25.963
X22.561 Y25.275
X22.581 Y24.586
X22.584 Y24.241
X22.534 Y23.9
X22.42 Y23.575
X22.072 Y22.98
X21.549 Y22.531
X20.954 Y22.184
X20.331 Y21.888
X19.701 Y21.608
X19.075 Y21.32
X18.461 Y21.008
X17.864 Y20.662
X17.291 Y20.279
X16.746 Y19.858
X16.233 Y19.397
X15.768 Y18.909
X15.374 Y18.423
X15.045 Y17.942
X14.77 Y17.461
X14.544 Y16.981
X14.368 Y16.512
X14.238 Y16.059
X14.151 Y15.626
X14.103 Y15.221
X14.089 Y14.855
X14.104 Y14.513
X14.142 Y14.2
X14.201 Y13.917
X14.271 Y13.676
X14.351 Y13.467
X14.438 Y13.284
X14.518 Y13.145
X14.617 Y13.002
X14.666 Y12.942
X14.808 Y12.815
X14.981 Y12.737
X15.17 Y12.715
X15.357 Y12.752
X16.17 Y13.048
Z5
X19.011 Y36.11
Z-5.12
Z-5.385
X19.005 Y36.114 Z-5.444
X18.989 Y36.125 Z-5.5
X18.963 Y36.143 Z-5.55
X18.929 Y36.167 Z-5.592
X18.888 Y36.196 Z-5.624
X18.842 Y36.228 Z-5.643
X18.794 Y36.262 Z-5.65
G3 X18.059 Y36.539 I-0.908 J-1.296
G1 X17.95 Y36.547
X17.637 Y36.581
X17.551 Y36.593
X17.401 Y36.607
X17.252 Y36.593
X17.107 Y36.553
X16.97 Y36.492
X16.842 Y36.415
X16.722 Y36.324
X16.612 Y36.222
X16.511 Y36.111
X16.412 Y35.982
X16.314 Y35.831
X16.226 Y35.667
X16.142 Y35.476
X16.067 Y35.26
X16.007 Y35.031
X15.961 Y34.771
X15.934 Y34.481
X15.93 Y34.183
X15.952 Y33.855
X16.006 Y33.493
X16.096 Y33.107
X16.219 Y32.719
X16.384 Y32.316
X16.601 Y31.887
X16.874 Y31.441
X17.206 Y30.986
X17.601 Y30.527
X18.044 Y30.087
X18.543 Y29.667
X19.104 Y29.267
X19.695 Y28.912
X20.279 Y28.546
X20.743 Y28.037
X21.06 Y27.424
X21.26 Y26.765
X21.38 Y26.086
X21.451 Y25.4
X21.453 Y25.056
X21.403 Y24.715
X21.287 Y24.39
X20.942 Y23.793
X20.436 Y23.326
X19.859 Y22.949
X19.255 Y22.617
X18.644 Y22.298
X18.038 Y21.969
X17.445 Y21.618
X16.87 Y21.238
X16.317 Y20.825
X15.792 Y20.38
X15.297 Y19.9
X14.839 Y19.385
X14.432 Y18.848
X14.083 Y18.301
X13.791 Y17.751
X13.555 Y17.204
X13.373 Y16.667
X13.242 Y16.147
X13.16 Y15.661
X13.121 Y15.21
X13.119 Y14.784
X13.148 Y14.386
X13.206 Y14.02
X13.282 Y13.701
X13.376 Y13.413
X13.471 Y13.187
X13.579 Y12.978
X13.676 Y12.821
X13.778 Y12.684
X13.834 Y12.619
X13.975 Y12.499
X14.146 Y12.427
X14.33 Y12.408
X14.512 Y12.444
X15.357 Y12.752
Z5
X18.472 Y36.102
Z-5.12
Z-5.385
X18.467 Y36.106 Z-5.444
X18.452 Y36.119 Z-5.5
X18.427 Y36.138 Z-5.55
X18.395 Y36.165 Z-5.592
X18.355 Y36.196 Z-5.624
X18.312 Y36.231 Z-5.643
X18.266 Y36.268 Z-5.65
G3 X17.551 Y36.593 I-0.992 J-1.233
G1 X17.48 Y36.603
X17.167 Y36.653
X17.011 Y36.681
X16.925 Y36.698
X16.777 Y36.721
X16.627 Y36.714
X16.48 Y36.683
X16.339 Y36.633
X16.204 Y36.566
X16.078 Y36.486
X15.959 Y36.394
X15.844 Y36.289
X15.725 Y36.162
X15.614 Y36.022
X15.502 Y35.854
X15.395 Y35.661
X15.299 Y35.453
X15.212 Y35.213
X15.137 Y34.941
X15.084 Y34.658
X15.049 Y34.339
X15.039 Y33.981
X15.06 Y33.599
X15.112 Y33.21
X15.203 Y32.792
X15.339 Y32.344
X15.526 Y31.868
X15.769 Y31.372
X16.063 Y30.875
X16.411 Y30.383
X16.828 Y29.885
X17.31 Y29.394
X17.831 Y28.942
X18.384 Y28.531
X18.956 Y28.147
X19.469 Y27.686
X19.851 Y27.113
X20.102 Y26.471
X20.177 Y26.134
X20.202 Y25.791
X20.162 Y25.448
X20.054 Y25.121
X19.727 Y24.514
X19.24 Y24.026
X18.684 Y23.62
X18.1 Y23.253
X17.511 Y22.896
X16.927 Y22.529
X16.356 Y22.143
X15.804 Y21.73
X15.274 Y21.29
X14.77 Y20.819
X14.297 Y20.318
X13.859 Y19.786
X13.46 Y19.224
X13.104 Y18.634
X12.801 Y18.027
X12.557 Y17.42
X12.371 Y16.823
X12.241 Y16.247
X12.162 Y15.694
X12.129 Y15.166
X12.139 Y14.67
X12.183 Y14.225
X12.256 Y13.823
X12.354 Y13.454
X12.468 Y13.133
X12.582 Y12.877
X12.701 Y12.661
X12.812 Y12.493
X12.919 Y12.354
X12.977 Y12.292
X13.118 Y12.178
X13.286 Y12.109
X13.466 Y12.092
X13.644 Y12.129
X14.512 Y12.444
Z5
X17.814 Y36.152
Z-5.12
Z-5.385
X17.81 Y36.156 Z-5.444
X17.795 Y36.169 Z-5.5
X17.772 Y36.19 Z-5.55
X17.741 Y36.219 Z-5.592
X17.704 Y36.253 Z-5.624
X17.662 Y36.29 Z-5.643
X17.619 Y36.33 Z-5.65
G3 X16.925 Y36.698 I-1.066 J-1.17
G1 X16.854 Y36.713
X16.698 Y36.763
X16.541 Y36.817
X16.385 Y36.874
X16.242 Y36.918
X16.092 Y36.93
X15.943 Y36.917
X15.796 Y36.885
X15.654 Y36.836
X15.518 Y36.773
X15.388 Y36.698
X15.257 Y36.606
X15.128 Y36.501
X14.992 Y36.369
X14.861 Y36.219
X14.731 Y36.045
X14.602 Y35.84
X14.486 Y35.617
X14.38 Y35.366
X14.283 Y35.074
X14.205 Y34.752
X14.15 Y34.413
X14.121 Y34.038
X14.122 Y33.626
X14.159 Y33.179
X14.235 Y32.714
X14.354 Y32.234
X14.527 Y31.716
X14.759 Y31.175
X15.049 Y30.622
X15.405 Y30.061
X15.819 Y29.51
X16.275 Y28.993
X16.767 Y28.511
X17.294 Y28.067
X17.844 Y27.651
X18.35 Y27.183
X18.543 Y26.897
X18.678 Y26.58
X18.726 Y26.239
X18.684 Y25.897
X18.454 Y25.247
X18.023 Y24.709
X17.503 Y24.257
X16.948 Y23.848
X16.383 Y23.453
X15.823 Y23.052
X15.274 Y22.634
X14.743 Y22.195
X14.234 Y21.73
X13.75 Y21.239
X13.296 Y20.72
X12.875 Y20.175
X12.49 Y19.604
X12.145 Y19.006
X11.846 Y18.385
X11.593 Y17.744
X11.39 Y17.085
X11.247 Y16.441
X11.16 Y15.824
X11.126 Y15.237
X11.138 Y14.684
X11.191 Y14.165
X11.28 Y13.685
X11.392 Y13.267
X11.518 Y12.915
X11.656 Y12.609
X11.78 Y12.384
X11.908 Y12.191
X12.018 Y12.05
X12.093 Y11.969
X12.234 Y11.855
X12.402 Y11.787
X12.582 Y11.77
X12.759 Y11.807
X13.644 Y12.129
Z5
X17.185 Y36.203
Z-5.12
Z-5.385
X17.181 Y36.208 Z-5.444
X17.168 Y36.223 Z-5.5
X17.149 Y36.248 Z-5.55
X17.122 Y36.28 Z-5.592
X17.09 Y36.319 Z-5.624
X17.055 Y36.362 Z-5.643
X17.017 Y36.408 Z-5.65
G3 X16.385 Y36.874 I-1.225 J-1.002
G1 X15.759 Y37.101
X15.616 Y37.146
X15.467 Y37.167
X15.317 Y37.165
X15.169 Y37.143
X15.024 Y37.105
X14.883 Y37.053
X14.748 Y36.988
X14.609 Y36.907
X14.46 Y36.804
X14.317 Y36.686
X14.166 Y36.541
X14.014 Y36.369
X13.871 Y36.177
X13.726 Y35.946
X13.589 Y35.684
X13.47 Y35.405
X13.363 Y35.083
X13.273 Y34.717
X13.208 Y34.316
X13.175 Y33.9
Y33.44
X13.215 Y32.945
X13.302 Y32.412
X13.441 Y31.846
X13.637 Y31.259
X13.884 Y30.678
X14.201 Y30.074
X14.568 Y29.491
X14.979 Y28.937
X15.427 Y28.413
X15.91 Y27.921
X16.422 Y27.46
X16.683 Y27.235
X16.797 Y27.106
X16.887 Y26.959
X16.945 Y26.797
X16.998 Y26.456
X16.951 Y26.115
X16.715 Y25.467
X16.295 Y24.921
X15.796 Y24.445
X15.269 Y24.001
X14.737 Y23.563
X14.212 Y23.117
X13.702 Y22.653
X13.212 Y22.168
X12.746 Y21.66
X12.308 Y21.128
X11.9 Y20.572
X11.526 Y19.993
X11.192 Y19.39
X10.899 Y18.767
X10.648 Y18.125
X10.441 Y17.467
X10.282 Y16.796
X10.175 Y16.116
X10.123 Y15.45
X10.124 Y14.811
X10.174 Y14.209
X10.262 Y13.678
X10.38 Y13.2
X10.522 Y12.779
X10.673 Y12.424
X10.815 Y12.156
X10.957 Y11.932
X11.076 Y11.773
X11.204 Y11.629
X11.219 Y11.614
X11.359 Y11.513
X11.52 Y11.455
X11.691 Y11.443
X11.859 Y11.479
X12.759 Y11.807
Z5
X16.559 Y36.431
Z-5.12
Z-5.385
X16.555 Y36.436 Z-5.444
X16.543 Y36.451 Z-5.5
X16.523 Y36.475 Z-5.55
X16.496 Y36.508 Z-5.592
X16.464 Y36.547 Z-5.624
X16.429 Y36.59 Z-5.643
X16.391 Y36.636 Z-5.65
G3 X15.759 Y37.101 I-1.225 J-1.002
G1 X15.047 Y37.361
X14.904 Y37.405
X14.755 Y37.427
X14.605
X14.457 Y37.409
X14.31 Y37.375
X14.168 Y37.327
X14.022 Y37.264
X13.875 Y37.185
X13.718 Y37.085
X13.554 Y36.96
X13.393 Y36.816
X13.225 Y36.638
X13.059 Y36.433
X12.903 Y36.204
X12.746 Y35.928
X12.598 Y35.612
X12.472 Y35.277
X12.364 Y34.897
X12.279 Y34.47
X12.223 Y33.996
X12.205 Y33.489
X12.228 Y32.967
X12.3 Y32.392
X12.427 Y31.777
X12.614 Y31.142
X12.86 Y30.498
X13.156 Y29.875
X13.497 Y29.276
X13.878 Y28.702
X14.297 Y28.155
X14.751 Y27.637
X14.994 Y27.392
X15.099 Y27.255
X15.175 Y27.1
X15.269 Y26.769
X15.257 Y26.424
X15.085 Y25.757
X14.713 Y25.176
X14.256 Y24.661
X13.765 Y24.177
X13.267 Y23.7
X12.776 Y23.216
X12.3 Y22.718
X11.845 Y22.2
X11.415 Y21.662
X11.014 Y21.101
X10.645 Y20.519
X10.311 Y19.916
X10.014 Y19.294
X9.754 Y18.655
X9.535 Y18.002
X9.357 Y17.336
X9.223 Y16.66
X9.137 Y15.976
X9.101 Y15.288
X9.118 Y14.617
X9.184 Y13.985
X9.294 Y13.401
X9.438 Y12.874
X9.597 Y12.433
X9.761 Y12.073
X9.921 Y11.785
X10.063 Y11.572
X10.19 Y11.41
X10.318 Y11.273
X10.456 Y11.177
X10.615 Y11.122
X10.783 Y11.112
X10.947 Y11.147
X11.859 Y11.479
Z5
X15.847 Y36.69
Z-5.12
Z-5.385
X15.843 Y36.695 Z-5.444
X15.831 Y36.71 Z-5.5
X15.811 Y36.734 Z-5.55
X15.784 Y36.767 Z-5.592
X15.752 Y36.806 Z-5.624
X15.717 Y36.849 Z-5.643
X15.68 Y36.895 Z-5.65
G3 X15.047 Y37.361 I-1.225 J-1.002
G1 X14.265 Y37.645
X14.121 Y37.69
X13.972 Y37.706
X13.822 Y37.703
X13.674 Y37.684
X13.528 Y37.649
X13.385 Y37.602
X13.23 Y37.536
X13.071 Y37.452
X12.905 Y37.348
X12.726 Y37.214
X12.554 Y37.062
X12.369 Y36.87
X12.185 Y36.646
X12.014 Y36.399
X11.842 Y36.103
X11.676 Y35.757
X11.535 Y35.387
X11.412 Y34.969
X11.314 Y34.496
X11.249 Y33.978
X11.224 Y33.413
X11.246 Y32.813
X11.318 Y32.199
X11.45 Y31.534
X11.639 Y30.871
X11.877 Y30.224
X12.16 Y29.596
X12.484 Y28.988
X12.847 Y28.402
X13.246 Y27.84
X13.462 Y27.571
X13.628 Y27.269
X13.696 Y26.931
X13.678 Y26.587
X13.512 Y25.918
X13.167 Y25.322
X12.741 Y24.78
X12.282 Y24.265
X11.818 Y23.756
X11.36 Y23.241
X10.918 Y22.712
X10.498 Y22.165
X10.105 Y21.599
X9.742 Y21.013
X9.41 Y20.409
X9.111 Y19.788
X8.847 Y19.152
X8.618 Y18.501
X8.428 Y17.839
X8.276 Y17.166
X8.166 Y16.486
X8.1 Y15.8
X8.08 Y15.111
X8.11 Y14.422
X8.192 Y13.749
X8.317 Y13.133
X8.477 Y12.583
X8.658 Y12.103
X8.836 Y11.728
X9.007 Y11.431
X9.152 Y11.22
X9.285 Y11.057
X9.371 Y10.967
X9.512 Y10.857
X9.678 Y10.792
X9.855 Y10.777
X10.029 Y10.813
X10.947 Y11.147
Z5
X15.065 Y36.974
Z-5.12
Z-5.385
X15.061 Y36.98 Z-5.444
X15.048 Y36.995 Z-5.5
X15.028 Y37.019 Z-5.55
X15.002 Y37.052 Z-5.592
X14.97 Y37.091 Z-5.624
X14.934 Y37.134 Z-5.643
X14.897 Y37.18 Z-5.65
G3 X14.265 Y37.645 I-1.225 J-1.002
G1 X13.512 Y37.919
X13.368 Y37.964
X13.22 Y37.986
X13.07 Y37.988
X12.921 Y37.973
X12.774 Y37.943
X12.627 Y37.9
X12.47 Y37.84
X12.305 Y37.76
X12.126 Y37.656
X11.95 Y37.533
X11.757 Y37.374
X11.566 Y37.189
X11.372 Y36.969
X11.173 Y36.701
X10.984 Y36.4
X10.809 Y36.064
X10.64 Y35.665
X10.489 Y35.208
X10.367 Y34.707
X10.282 Y34.178
X10.236 Y33.585
X10.237 Y32.947
X10.294 Y32.261
X10.405 Y31.581
X10.567 Y30.911
X10.776 Y30.254
X11.027 Y29.612
X11.319 Y28.988
X11.65 Y28.383
X12.016 Y27.799
X12.154 Y27.484
X12.215 Y27.144
X12.189 Y26.455
X11.938 Y25.814
X11.572 Y25.229
X11.156 Y24.68
X10.722 Y24.144
X10.289 Y23.608
X9.868 Y23.063
X9.466 Y22.503
X9.087 Y21.926
X8.736 Y21.334
X8.413 Y20.725
X8.121 Y20.1
X7.862 Y19.461
X7.859 Y19.452
X7.84 Y19.386
X7.829 Y19.318
X7.825 Y19.25
Y12.566
X7.839 Y12.289
X7.869 Y12.056
X7.92 Y11.821
X7.993 Y11.575
X8.088 Y11.332
X8.187 Y11.127
X8.3 Y10.936
X8.401 Y10.793
X8.511 Y10.66
X8.52 Y10.651
X8.66 Y10.543
X8.825 Y10.48
X9.001 Y10.466
X9.174 Y10.502
G3 X9.32 Y10.846 Z-5.45 I-0.099 J0.246
G1 X9.307 Y10.874
X9.167 Y11.132
X8.346 Y12.64
X8.323 Y12.683
G3 X8.099 Y12.821 I-0.233 J-0.127
X7.825 Y12.566 Z-5.65 I-0.009 J-0.265
G1 Y11.001
X7.832 Y10.852
X7.86 Y10.703
X7.951 Y10.528
X8.092 Y10.39
X8.269 Y10.303
X8.465 Y10.277
X8.659 Y10.314
G3 X8.806 Y10.659 Z-5.45 I-0.099 J0.246
G1 X8.778 Y10.711
X8.739 Y10.755
X8.588 Y10.895
X8.369 Y11.095
X8.269 Y11.187
X8.218 Y11.224
X8.161 Y11.248
X8.099 Y11.257
G3 X7.825 Y11.001 Z-5.65 I-0.009 J-0.265
G1 Y10.454
X7.837 Y10.376
X7.846 Y10.337
X7.863 Y10.298
X7.874 Y10.278
X7.887 Y10.259
X7.904 Y10.239
X7.924 Y10.219
X7.935 Y10.21
X7.974 Y10.184
X8.014 Y10.164
X8.053 Y10.15
X8.092 Y10.144
X8.131 Y10.143
X8.17 Y10.148
X8.248 Y10.165
X10.029 Y10.813
Z5
X14.312 Y37.249
Z-5.12
Z-5.385
X14.308 Y37.254 Z-5.444
X14.295 Y37.269 Z-5.5
X14.275 Y37.293 Z-5.55
X14.249 Y37.326 Z-5.592
X14.217 Y37.365 Z-5.624
X14.181 Y37.408 Z-5.643
X14.144 Y37.454 Z-5.65
G3 X13.512 Y37.919 I-1.225 J-1.002
G1 X12.696 Y38.216
X12.552 Y38.261
X12.404 Y38.281
X12.254 Y38.282
X12.104 Y38.267
X11.957 Y38.237
X11.81 Y38.195
X11.642 Y38.132
X11.476 Y38.053
X11.285 Y37.944
X11.099 Y37.816
X10.898 Y37.653
X10.687 Y37.452
X10.488 Y37.228
X10.276 Y36.949
X10.063 Y36.615
X9.873 Y36.257
X9.69 Y35.831
X9.525 Y35.345
X9.387 Y34.796
X9.287 Y34.203
X9.234 Y33.583
X9.23 Y32.894
X9.282 Y32.207
X9.383 Y31.525
X9.531 Y30.852
X9.722 Y30.19
X9.953 Y29.54
X10.223 Y28.906
X10.529 Y28.288
X10.686 Y27.981
X10.796 Y27.655
X10.84 Y27.313
X10.805 Y26.625
X10.569 Y25.977
X10.227 Y25.379
X9.836 Y24.811
X9.429 Y24.255
X9.024 Y23.697
X8.63 Y23.132
X8.255 Y22.553
X7.899 Y21.955
X7.858 Y21.862
X7.833 Y21.763
X7.825 Y21.661
Y19.25
G3 X8.352 Y19.221 I0.265 J0.009
G1 X8.361 Y19.279 Z-5.643
X8.369 Y19.335 Z-5.624
X8.376 Y19.385 Z-5.592
X8.382 Y19.426 Z-5.55
X8.386 Y19.457 Z-5.5
X8.389 Y19.477 Z-5.444
X8.39 Y19.483 Z-5.385
Z5
X13.496 Y37.546
Z-5.12
Z-5.385
X13.491 Y37.551 Z-5.444
X13.479 Y37.566 Z-5.5
X13.459 Y37.59 Z-5.55
X13.433 Y37.623 Z-5.592
X13.401 Y37.662 Z-5.624
X13.365 Y37.705 Z-5.643
X13.328 Y37.751 Z-5.65
G3 X12.696 Y38.216 I-1.225 J-1.002
G1 X11.918 Y38.5
X11.774 Y38.544
X11.627 Y38.572
X11.477 Y38.58
X11.327 Y38.57
X11.179 Y38.547
X11.023 Y38.508
X10.864 Y38.455
X10.687 Y38.379
X10.503 Y38.281
X10.307 Y38.157
X10.095 Y37.997
X9.887 Y37.812
X9.663 Y37.578
X9.44 Y37.304
X9.225 Y36.992
X9.005 Y36.61
X8.792 Y36.159
X8.61 Y35.679
X8.452 Y35.132
X8.327 Y34.521
X8.244 Y33.841
X8.216 Y33.152
X8.24 Y32.463
X8.311 Y31.778
X8.426 Y31.098
X8.583 Y30.427
X8.781 Y29.767
X9.016 Y29.119
X9.286 Y28.485
X9.535 Y27.842
X9.581 Y27.154
X9.418 Y26.485
X9.131 Y25.858
X8.78 Y25.265
X8.402 Y24.689
X8.017 Y24.116
X7.926 Y23.978
X7.871 Y23.872
X7.837 Y23.758
X7.825 Y23.639
Y21.661
G3 X8.352 Y21.633 I0.265 J0.009
G1 X8.361 Y21.691 Z-5.643
X8.369 Y21.747 Z-5.624
