(1056_utab_265bit_norm_pocket)
(T1  D=2.65 CR=0 - ZMIN=-12.55 - flat end mill)
G90 G94
G17
G21
(When using Fusion 360 for Personal Use, the feedrate of)
(rapid moves is reduced to match the feedrate of cutting)
(moves, which can increase machining time. Unrestricted rapid)
(moves are available with a Fusion 360 Subscription.)

(2D Pocket1)
T1
S5000 M3
G54
G0 X38.374 Y28.902
Z10
G1 Z5 F1000
Z-1.785 F333.3
X38.369 Y28.897 Z-1.844 F1000
X38.357 Y28.883 Z-1.9
X38.336 Y28.859 Z-1.95
X38.308 Y28.827 Z-1.992
X38.276 Y28.789 Z-2.024
X38.239 Y28.747 Z-2.043
X38.2 Y28.702 Z-2.05
X35.315 Y25.369
X35.174 Y25.209
G3 X35.174 Y24.791 I0.237 J-0.209
G1 X35.315 Y24.631
X35.35 Y24.602
X35.393 Y24.587
X35.439
X35.482 Y24.603
X35.517 Y24.633
X35.539 Y24.672
X35.547 Y24.717
X35.554 Y27.678
G3 X35.314 Y27.756 I-0.132 J0
G2 X33.145 Y25.223 I-17.526 J12.812
G3 X33.145 Y24.777 I0.223 J-0.223
G2 X35.315 Y22.243 I-15.357 J-15.345
G3 X35.554 Y22.321 I0.107 J0.078
G1 X35.562 Y30.384
G3 X35.315 Y30.45 I-0.132 J0
G2 X30.902 Y25.179 I-17.188 J9.906
G3 X30.902 Y24.821 I0.152 J-0.179
G2 X35.315 Y19.508 I-12.985 J-15.275
G3 X35.562 Y19.574 I0.115 J0.066
G1 X35.571 Y33.885
G3 X35.315 Y33.931 I-0.132 J0
G2 X28.405 Y25.145 I-17.212 J6.425
G3 X28.405 Y24.855 I0.099 J-0.145
G2 X35.315 Y16.013 I-10.464 J-15.297
G3 X35.571 Y16.061 I0.124 J0.046
G1 X35.249 Y41.177
G3 X34.984 Y41.175 I-0.132 J-0.002
G1 X34.985 Y40.356
G2 X25.398 Y25.117 I-16.905 J0
G1 X25.364 Y25.093
X25.339 Y25.06
X25.326 Y25.021
Y24.979
X25.339 Y24.94
X25.364 Y24.907
X25.398 Y24.883
G2 X34.985 Y9.644 I-7.433 J-15.311
G1 X34.984 Y8.825
Y8.815
Y8.756 Z-2.043
Y8.7 Z-2.024
Y8.649 Z-1.992
Y8.607 Z-1.95
Y8.576 Z-1.9
Y8.556 Z-1.844
Y8.55 Z-1.785
X33.488 Y45.933
Y45.926 Z-1.844
Y45.907 Z-1.9
Y45.875 Z-1.95
Y45.833 Z-1.992
Y45.783 Z-2.024
Y45.727 Z-2.043
Y45.668 Z-2.05
X33.492 Y42.698
X33.495 Y40.356
G2 X20.409 Y25.095 I-15.442 J0
G1 X20.372 Y25.082
X20.344 Y25.055
X20.329 Y25.019
Y24.981
X20.344 Y24.945
X20.372 Y24.918
X20.409 Y24.905
G2 X33.495 Y9.644 I-2.417 J-15.314
G1 X33.492 Y7.302
Y7.291
Y7.232 Z-2.043
Y7.176 Z-2.024
Y7.126 Z-1.992
Y7.084 Z-1.95
Y7.053 Z-1.9
Y7.033 Z-1.844
Y7.026 Z-1.785
X31.998 Y46.109
Y46.103 Z-1.844
Y46.083 Z-1.9
Y46.052 Z-1.95
Y46.01 Z-1.992
Y45.959 Z-2.024
Y45.903 Z-2.043
Y45.844 Z-2.05
X32.002 Y43.048
X32.005 Y40.356
G2 X18.269 Y26.399 I-13.959 J0
G3 X17.96 Y26.084 I0.006 J-0.315
G1 Y23.916
G3 X18.269 Y23.601 I0.315 J0
G2 X32.005 Y9.644 I-0.27 J-14.003
G1 X32.002 Y6.951
Y6.941
Y6.882 Z-2.043
Y6.826 Z-2.024
X32.001 Y6.776 Z-1.992
Y6.734 Z-1.95
Y6.702 Z-1.9
Y6.683 Z-1.844
Y6.676 Z-1.785
X30.508 Y45.93
Y45.924 Z-1.844
Y45.904 Z-1.9
Y45.872 Z-1.95
X30.509 Y45.83 Z-1.992
Y45.78 Z-2.024
Y45.724 Z-2.043
Y45.665 Z-2.05
X30.512 Y42.725
X30.515 Y40.356
G2 X16.729 Y27.951 I-12.474 J0
G3 X16.47 Y27.717 I-0.024 J-0.234
G1 Y22.283
G3 X16.729 Y22.049 I0.235 J0
G2 X30.515 Y9.644 I1.275 J-12.446
G1 X30.512 Y7.275
Y7.265
Y7.206 Z-2.043
Y7.15 Z-2.024
Y7.099 Z-1.992
Y7.057 Z-1.95
Y7.026 Z-1.9
Y7.006 Z-1.844
Y7 Z-1.785
X29.019 Y45.436
Y45.43 Z-1.844
Y45.41 Z-1.9
Y45.379 Z-1.95
Y45.337 Z-1.992
Y45.286 Z-2.024
Y45.23 Z-2.043
X29.02 Y45.171 Z-2.05
X29.023 Y42.182
X29.025 Y40.356
G2 X15.274 Y29.72 I-10.989 J0
G3 X14.98 Y29.492 I-0.058 J-0.228
G1 Y20.508
G3 X15.274 Y20.28 I0.235 J0
G2 X29.025 Y9.644 I2.735 J-10.671
G1 X29.023 Y7.817
Y7.807
Y7.748 Z-2.043
Y7.692 Z-2.024
Y7.641 Z-1.992
Y7.6 Z-1.95
Y7.568 Z-1.9
Y7.548 Z-1.844
Y7.542 Z-1.785
X27.53 Y44.894
Y44.888 Z-1.844
Y44.868 Z-1.9
Y44.837 Z-1.95
Y44.795 Z-1.992
Y44.744 Z-2.024
Y44.688 Z-2.043
Y44.629 Z-2.05
X27.534 Y41.641
X27.535 Y40.356
G2 X14.743 Y31.408 I-9.526 J0
X14.263 Y31.6 I2.833 J7.783
G3 X13.782 Y31.792 I-3.313 J-7.591
X13.49 Y31.588 I-0.074 J-0.205
G1 Y18.412
G3 X13.782 Y18.208 I0.218 J0
X14.263 Y18.4 I-2.833 J7.785
G2 X14.743 Y18.592 I3.312 J-7.587
X27.535 Y9.644 I3.26 J-8.957
G1 X27.534 Y8.359
Y8.349
Y8.29 Z-2.043
X27.533 Y8.234 Z-2.024
Y8.184 Z-1.992
Y8.142 Z-1.95
Y8.11 Z-1.9
Y8.09 Z-1.844
Y8.084 Z-1.785
X26.041 Y44.352
Y44.346 Z-1.844
Y44.326 Z-1.9
Y44.295 Z-1.95
Y44.253 Z-1.992
Y44.202 Z-2.024
Y44.146 Z-2.043
Y44.087 Z-2.05
X26.044 Y41.099
X26.045 Y40.356
G2 X15.248 Y32.796 I-8.045 J0
X13.77 Y33.358 I19.005 J52.217
G3 X12.292 Y33.92 I-20.484 J-51.655
X12 Y33.716 I-0.074 J-0.205
G1 Y16.284
G3 X12.292 Y16.08 I0.218 J0
X13.77 Y16.642 I-19.007 J52.221
G2 X15.249 Y17.204 I20.46 J-51.594
X26.045 Y9.644 I2.751 J-7.56
G1 X26.044 Y8.901
Y8.891
Y8.832 Z-2.043
Y8.776 Z-2.024
Y8.726 Z-1.992
Y8.684 Z-1.95
Y8.652 Z-1.9
Y8.632 Z-1.844
Y8.626 Z-1.785
X24.551 Y43.81
Y43.804 Z-1.844
Y43.784 Z-1.9
X24.552 Y43.752 Z-1.95
Y43.71 Z-1.992
Y43.66 Z-2.024
Y43.604 Z-2.043
Y43.545 Z-2.05
X24.555 Y40.557
Y40.356
G2 X15.758 Y34.197 I-6.555 J0
X13.28 Y35.122 I53.182 J146.116
G3 X10.802 Y36.048 I-55.66 J-145.19
X10.51 Y35.844 I-0.074 J-0.205
G1 Y14.156
G3 X10.802 Y13.952 I0.218 J0
X13.28 Y14.878 I-53.182 J146.117
G2 X15.758 Y15.803 I55.66 J-145.191
X24.555 Y9.644 I2.242 J-6.16
G1 Y9.443
Y9.433
Y9.374 Z-2.043
Y9.318 Z-2.024
Y9.268 Z-1.992
Y9.226 Z-1.95
Y9.194 Z-1.9
Y9.174 Z-1.844
Y9.168 Z-1.785
X23.282 Y43.348
X23.281 Y43.341 Z-1.844
X23.28 Y43.322 Z-1.9
X23.278 Y43.29 Z-1.95
X23.275 Y43.249 Z-1.992
X23.272 Y43.198 Z-2.024
X23.268 Y43.143 Z-2.043
X23.264 Y43.084 Z-2.05
X23.053 Y40.01
G2 X16.268 Y35.597 I-5.053 J0.346
G1 X9.312 Y38.176
G3 X9.02 Y37.972 I-0.074 J-0.205
G1 Y12.028
G3 X9.312 Y11.824 I0.218 J0
G1 X16.268 Y14.403
G2 X23.053 Y9.991 I1.732 J-4.76
G1 X23.144 Y8.669
X23.148 Y8.61 Z-2.043
X23.152 Y8.554 Z-2.024
X23.155 Y8.504 Z-1.992
X23.158 Y8.462 Z-1.95
X23.16 Y8.431 Z-1.9
X23.162 Y8.411 Z-1.844
Y8.404 Z-1.785
X22.057 Y44.2
Y44.193 Z-1.844
X22.054 Y44.174 Z-1.9
X22.05 Y44.142 Z-1.95
X22.045 Y44.101 Z-1.992
X22.038 Y44.051 Z-2.024
X22.031 Y43.995 Z-2.043
X22.023 Y43.937 Z-2.05
X21.495 Y39.899
G2 X16.794 Y37.044 I-3.495 J0.457
G1 X8.162 Y40.186
G3 X7.525 Y39.739 I-0.162 J-0.446
G1 Y10.261
G3 X8.162 Y9.814 I0.475 J0
G1 X16.794 Y12.956
G2 X21.495 Y10.101 I1.206 J-3.312
G1 X21.508 Y10.06
X21.533 Y10.024
X21.568 Y9.999
X21.61 Y9.987
X21.653 Y9.988
X21.694 Y10.004
X21.727 Y10.032
X35.468 Y25.951
G2 X35.655 Y25.965 I0.1 J-0.087
X35.668 Y25.778 I-0.087 J-0.1
G1 X35.63 Y25.733 Z-2.057
X35.593 Y25.691 Z-2.076
X35.56 Y25.653 Z-2.108
X35.533 Y25.621 Z-2.15
X35.512 Y25.597 Z-2.2
X35.499 Y25.582 Z-2.256
X35.495 Y25.577 Z-2.315
Z-3.835
X35.491 Y25.572 Z-3.894
X35.478 Y25.557 Z-3.95
X35.457 Y25.534 Z-4
X35.43 Y25.502 Z-4.042
X35.397 Y25.464 Z-4.074
X35.36 Y25.422 Z-4.093
X35.321 Y25.377 Z-4.1
X35.315 Y25.369
X35.174 Y25.209
G3 X35.174 Y24.791 I0.237 J-0.209
G1 X35.315 Y24.631
X35.35 Y24.602
X35.393 Y24.587
X35.439
X35.482 Y24.603
X35.517 Y24.633
X35.539 Y24.672
X35.547 Y24.717
X35.554 Y27.678
G3 X35.314 Y27.756 I-0.132 J0
G2 X33.145 Y25.223 I-17.526 J12.812
G3 X33.145 Y24.777 I0.223 J-0.223
G2 X35.315 Y22.243 I-15.357 J-15.345
G3 X35.554 Y22.321 I0.107 J0.078
G1 X35.562 Y30.384
G3 X35.315 Y30.45 I-0.132 J0
G2 X30.902 Y25.179 I-17.188 J9.906
G3 X30.902 Y24.821 I0.152 J-0.179
G2 X35.315 Y19.508 I-12.985 J-15.275
G3 X35.562 Y19.574 I0.115 J0.066
G1 X35.571 Y33.885
G3 X35.315 Y33.931 I-0.132 J0
G2 X28.405 Y25.145 I-17.212 J6.425
G3 X28.405 Y24.855 I0.099 J-0.145
G2 X35.315 Y16.013 I-10.464 J-15.297
G3 X35.571 Y16.061 I0.124 J0.046
G1 X35.249 Y41.177
G3 X34.984 Y41.175 I-0.132 J-0.002
G1 X34.985 Y40.356
G2 X25.398 Y25.117 I-16.905 J0
G1 X25.364 Y25.093
X25.339 Y25.06
X25.326 Y25.021
Y24.979
X25.339 Y24.94
X25.364 Y24.907
X25.398 Y24.883
G2 X34.985 Y9.644 I-7.433 J-15.311
G1 X34.984 Y8.825
Y8.815
Y8.756 Z-4.093
Y8.7 Z-4.074
Y8.649 Z-4.042
Y8.607 Z-4
Y8.576 Z-3.95
Y8.556 Z-3.894
Y8.55 Z-3.835
X33.488 Y45.933
Y45.926 Z-3.894
Y45.907 Z-3.95
Y45.875 Z-4
Y45.833 Z-4.042
Y45.783 Z-4.074
Y45.727 Z-4.093
Y45.668 Z-4.1
X33.492 Y42.698
X33.495 Y40.356
G2 X20.409 Y25.095 I-15.442 J0
G1 X20.372 Y25.082
X20.344 Y25.055
X20.329 Y25.019
Y24.981
X20.344 Y24.945
X20.372 Y24.918
X20.409 Y24.905
G2 X33.495 Y9.644 I-2.417 J-15.314
G1 X33.492 Y7.302
Y7.291
Y7.232 Z-4.093
Y7.176 Z-4.074
Y7.126 Z-4.042
Y7.084 Z-4
Y7.053 Z-3.95
Y7.033 Z-3.894
Y7.026 Z-3.835
X31.998 Y46.109
Y46.103 Z-3.894
Y46.083 Z-3.95
Y46.052 Z-4
Y46.01 Z-4.042
Y45.959 Z-4.074
Y45.903 Z-4.093
Y45.844 Z-4.1
X32.002 Y43.048
X32.005 Y40.356
G2 X18.269 Y26.399 I-13.959 J0
G3 X17.96 Y26.084 I0.006 J-0.315
G1 Y23.916
G3 X18.269 Y23.601 I0.315 J0
G2 X32.005 Y9.644 I-0.27 J-14.003
G1 X32.002 Y6.951
Y6.941
Y6.882 Z-4.093
Y6.826 Z-4.074
X32.001 Y6.776 Z-4.042
Y6.734 Z-4
Y6.702 Z-3.95
Y6.683 Z-3.894
Y6.676 Z-3.835
X30.508 Y45.93
Y45.924 Z-3.894
Y45.904 Z-3.95
Y45.872 Z-4
X30.509 Y45.83 Z-4.042
Y45.78 Z-4.074
Y45.724 Z-4.093
Y45.665 Z-4.1
X30.512 Y42.725
X30.515 Y40.356
G2 X16.729 Y27.951 I-12.474 J0
G3 X16.47 Y27.717 I-0.024 J-0.234
G1 Y22.283
G3 X16.729 Y22.049 I0.235 J0
G2 X30.515 Y9.644 I1.275 J-12.446
G1 X30.512 Y7.275
Y7.265
Y7.206 Z-4.093
Y7.15 Z-4.074
Y7.099 Z-4.042
Y7.057 Z-4
Y7.026 Z-3.95
Y7.006 Z-3.894
Y7 Z-3.835
X29.019 Y45.436
Y45.43 Z-3.894
Y45.41 Z-3.95
Y45.379 Z-4
Y45.337 Z-4.042
Y45.286 Z-4.074
Y45.23 Z-4.093
X29.02 Y45.171 Z-4.1
X29.023 Y42.182
X29.025 Y40.356
G2 X15.274 Y29.72 I-10.989 J0
G3 X14.98 Y29.492 I-0.058 J-0.228
G1 Y20.508
G3 X15.274 Y20.28 I0.235 J0
G2 X29.025 Y9.644 I2.735 J-10.671
G1 X29.023 Y7.817
Y7.807
Y7.748 Z-4.093
Y7.692 Z-4.074
Y7.641 Z-4.042
Y7.6 Z-4
Y7.568 Z-3.95
Y7.548 Z-3.894
Y7.542 Z-3.835
X27.53 Y44.894
Y44.888 Z-3.894
Y44.868 Z-3.95
Y44.837 Z-4
Y44.795 Z-4.042
Y44.744 Z-4.074
Y44.688 Z-4.093
Y44.629 Z-4.1
X27.534 Y41.641
X27.535 Y40.356
G2 X14.743 Y31.408 I-9.526 J0
X14.263 Y31.6 I2.833 J7.783
G3 X13.782 Y31.792 I-3.313 J-7.591
X13.49 Y31.588 I-0.074 J-0.205
G1 Y18.412
G3 X13.782 Y18.208 I0.218 J0
X14.263 Y18.4 I-2.833 J7.785
G2 X14.743 Y18.592 I3.312 J-7.587
X27.535 Y9.644 I3.26 J-8.957
G1 X27.534 Y8.359
Y8.349
Y8.29 Z-4.093
X27.533 Y8.234 Z-4.074
Y8.184 Z-4.042
Y8.142 Z-4
Y8.11 Z-3.95
Y8.09 Z-3.894
Y8.084 Z-3.835
X26.041 Y44.352
Y44.346 Z-3.894
Y44.326 Z-3.95
Y44.295 Z-4
Y44.253 Z-4.042
Y44.202 Z-4.074
Y44.146 Z-4.093
Y44.087 Z-4.1
X26.044 Y41.099
X26.045 Y40.356
G2 X15.248 Y32.796 I-8.045 J0
X13.77 Y33.358 I19.005 J52.217
G3 X12.292 Y33.92 I-20.484 J-51.655
X12 Y33.716 I-0.074 J-0.205
G1 Y16.284
G3 X12.292 Y16.08 I0.218 J0
X13.77 Y16.642 I-19.007 J52.221
G2 X15.249 Y17.204 I20.46 J-51.594
X26.045 Y9.644 I2.751 J-7.56
G1 X26.044 Y8.901
Y8.891
Y8.832 Z-4.093
Y8.776 Z-4.074
Y8.726 Z-4.042
Y8.684 Z-4
Y8.652 Z-3.95
Y8.632 Z-3.894
Y8.626 Z-3.835
X24.551 Y43.81
Y43.804 Z-3.894
Y43.784 Z-3.95
X24.552 Y43.752 Z-4
Y43.71 Z-4.042
Y43.66 Z-4.074
Y43.604 Z-4.093
Y43.545 Z-4.1
X24.555 Y40.557
Y40.356
G2 X15.758 Y34.197 I-6.555 J0
X13.28 Y35.122 I53.182 J146.116
G3 X10.802 Y36.048 I-55.66 J-145.19
X10.51 Y35.844 I-0.074 J-0.205
G1 Y14.156
G3 X10.802 Y13.952 I0.218 J0
X13.28 Y14.878 I-53.182 J146.117
G2 X15.758 Y15.803 I55.66 J-145.191
X24.555 Y9.644 I2.242 J-6.16
G1 Y9.443
Y9.433
Y9.374 Z-4.093
Y9.318 Z-4.074
Y9.268 Z-4.042
Y9.226 Z-4
Y9.194 Z-3.95
Y9.174 Z-3.894
Y9.168 Z-3.835
X23.282 Y43.348
X23.281 Y43.341 Z-3.894
X23.28 Y43.322 Z-3.95
X23.278 Y43.29 Z-4
X23.275 Y43.249 Z-4.042
X23.272 Y43.198 Z-4.074
X23.268 Y43.143 Z-4.093
X23.264 Y43.084 Z-4.1
X23.053 Y40.01
G2 X16.268 Y35.597 I-5.053 J0.346
G1 X9.312 Y38.176
G3 X9.02 Y37.972 I-0.074 J-0.205
G1 Y12.028
G3 X9.312 Y11.824 I0.218 J0
G1 X16.268 Y14.403
G2 X23.053 Y9.991 I1.732 J-4.76
G1 X23.144 Y8.669
X23.148 Y8.61 Z-4.093
X23.152 Y8.554 Z-4.074
X23.155 Y8.504 Z-4.042
X23.158 Y8.462 Z-4
X23.16 Y8.431 Z-3.95
X23.162 Y8.411 Z-3.894
Y8.404 Z-3.835
X22.057 Y44.2
Y44.193 Z-3.894
X22.054 Y44.174 Z-3.95
X22.05 Y44.142 Z-4
X22.045 Y44.101 Z-4.042
X22.038 Y44.051 Z-4.074
X22.031 Y43.995 Z-4.093
X22.023 Y43.937 Z-4.1
X21.495 Y39.899
G2 X16.794 Y37.044 I-3.495 J0.457
G1 X8.162 Y40.186
G3 X7.525 Y39.739 I-0.162 J-0.446
G1 Y10.261
G3 X8.162 Y9.814 I0.475 J0
G1 X16.794 Y12.956
G2 X21.495 Y10.101 I1.206 J-3.312
G1 X21.508 Y10.06
X21.533 Y10.024
X21.568 Y9.999
X21.61 Y9.987
X21.653 Y9.988
X21.694 Y10.004
X21.727 Y10.032
X35.468 Y25.951
G2 X35.655 Y25.965 I0.1 J-0.087
X35.668 Y25.778 I-0.087 J-0.1
G1 X35.63 Y25.733 Z-4.107
X35.593 Y25.691 Z-4.126
X35.56 Y25.653 Z-4.158
X35.533 Y25.621 Z-4.2
X35.512 Y25.597 Z-4.25
X35.499 Y25.582 Z-4.306
X35.495 Y25.577 Z-4.365
Z-5.885
X35.491 Y25.572 Z-5.944
X35.478 Y25.557 Z-6
X35.457 Y25.534 Z-6.05
X35.43 Y25.502 Z-6.092
X35.397 Y25.464 Z-6.124
X35.36 Y25.422 Z-6.143
X35.321 Y25.377 Z-6.15
X35.315 Y25.369
X35.174 Y25.209
G3 X35.174 Y24.791 I0.237 J-0.209
G1 X35.315 Y24.631
X35.35 Y24.602
X35.393 Y24.587
X35.439
X35.482 Y24.603
X35.517 Y24.633
X35.539 Y24.672
X35.547 Y24.717
X35.554 Y27.678
G3 X35.314 Y27.756 I-0.132 J0
G2 X33.145 Y25.223 I-17.526 J12.812
G3 X33.145 Y24.777 I0.223 J-0.223
G2 X35.315 Y22.243 I-15.357 J-15.345
G3 X35.554 Y22.321 I0.107 J0.078
G1 X35.562 Y30.384
G3 X35.315 Y30.45 I-0.132 J0
G2 X30.902 Y25.179 I-17.188 J9.906
G3 X30.902 Y24.821 I0.152 J-0.179
G2 X35.315 Y19.508 I-12.985 J-15.275
G3 X35.562 Y19.574 I0.115 J0.066
G1 X35.571 Y33.885
G3 X35.315 Y33.931 I-0.132 J0
G2 X28.405 Y25.145 I-17.212 J6.425
G3 X28.405 Y24.855 I0.099 J-0.145
G2 X35.315 Y16.013 I-10.464 J-15.297
G3 X35.571 Y16.061 I0.124 J0.046
G1 X35.249 Y41.177
G3 X34.984 Y41.175 I-0.132 J-0.002
G1 X34.985 Y40.356
G2 X25.398 Y25.117 I-16.905 J0
G1 X25.364 Y25.093
X25.339 Y25.06
X25.326 Y25.021
Y24.979
X25.339 Y24.94
X25.364 Y24.907
X25.398 Y24.883
G2 X34.985 Y9.644 I-7.433 J-15.311
G1 X34.984 Y8.825
Y8.815
Y8.756 Z-6.143
Y8.7 Z-6.124
Y8.649 Z-6.092
Y8.607 Z-6.05
Y8.576 Z-6
Y8.556 Z-5.944
Y8.55 Z-5.885
X33.488 Y45.933
Y45.926 Z-5.944
Y45.907 Z-6
Y45.875 Z-6.05
Y45.833 Z-6.092
Y45.783 Z-6.124
Y45.727 Z-6.143
Y45.668 Z-6.15
X33.492 Y42.698
X33.495 Y40.356
G2 X20.409 Y25.095 I-15.442 J0
G1 X20.372 Y25.082
X20.344 Y25.055
X20.329 Y25.019
Y24.981
X20.344 Y24.945
X20.372 Y24.918
X20.409 Y24.905
G2 X33.495 Y9.644 I-2.417 J-15.314
G1 X33.492 Y7.302
Y7.291
Y7.232 Z-6.143
Y7.176 Z-6.124
Y7.126 Z-6.092
Y7.084 Z-6.05
Y7.053 Z-6
Y7.033 Z-5.944
Y7.026 Z-5.885
X31.998 Y46.109
Y46.103 Z-5.944
Y46.083 Z-6
Y46.052 Z-6.05
Y46.01 Z-6.092
Y45.959 Z-6.124
Y45.903 Z-6.143
Y45.844 Z-6.15
X32.002 Y43.048
X32.005 Y40.356
G2 X18.269 Y26.399 I-13.959 J0
G3 X17.96 Y26.084 I0.006 J-0.315
G1 Y23.916
G3 X18.269 Y23.601 I0.315 J0
G2 X32.005 Y9.644 I-0.27 J-14.003
G1 X32.002 Y6.951
Y6.941
Y6.882 Z-6.143
Y6.826 Z-6.124
X32.001 Y6.776 Z-6.092
Y6.734 Z-6.05
Y6.702 Z-6
Y6.683 Z-5.944
Y6.676 Z-5.885
X30.508 Y45.93
Y45.924 Z-5.944
Y45.904 Z-6
Y45.872 Z-6.05
X30.509 Y45.83 Z-6.092
Y45.78 Z-6.124
Y45.724 Z-6.143
Y45.665 Z-6.15
X30.512 Y42.725
X30.515 Y40.356
G2 X16.729 Y27.951 I-12.474 J0
G3 X16.47 Y27.717 I-0.024 J-0.234
G1 Y22.283
G3 X16.729 Y22.049 I0.235 J0
G2 X30.515 Y9.644 I1.275 J-12.446
G1 X30.512 Y7.275
Y7.265
Y7.206 Z-6.143
Y7.15 Z-6.124
Y7.099 Z-6.092
Y7.057 Z-6.05
Y7.026 Z-6
Y7.006 Z-5.944
Y7 Z-5.885
X29.019 Y45.436
Y45.43 Z-5.944
Y45.41 Z-6
Y45.379 Z-6.05
Y45.337 Z-6.092
Y45.286 Z-6.124
Y45.23 Z-6.143
X29.02 Y45.171 Z-6.15
X29.023 Y42.182
X29.025 Y40.356
G2 X15.274 Y29.72 I-10.989 J0
G3 X14.98 Y29.492 I-0.058 J-0.228
G1 Y20.508
G3 X15.274 Y20.28 I0.235 J0
G2 X29.025 Y9.644 I2.735 J-10.671
G1 X29.023 Y7.817
Y7.807
Y7.748 Z-6.143
Y7.692 Z-6.124
Y7.641 Z-6.092
Y7.6 Z-6.05
Y7.568 Z-6
Y7.548 Z-5.944
Y7.542 Z-5.885
X27.53 Y44.894
Y44.888 Z-5.944
Y44.868 Z-6
Y44.837 Z-6.05
Y44.795 Z-6.092
Y44.744 Z-6.124
Y44.688 Z-6.143
Y44.629 Z-6.15
X27.534 Y41.641
X27.535 Y40.356
G2 X14.743 Y31.408 I-9.526 J0
X14.263 Y31.6 I2.833 J7.783
G3 X13.782 Y31.792 I-3.313 J-7.591
X13.49 Y31.588 I-0.074 J-0.205
G1 Y18.412
G3 X13.782 Y18.208 I0.218 J0
X14.263 Y18.4 I-2.833 J7.785
G2 X14.743 Y18.592 I3.312 J-7.587
X27.535 Y9.644 I3.26 J-8.957
G1 X27.534 Y8.359
Y8.349
Y8.29 Z-6.143
X27.533 Y8.234 Z-6.124
Y8.184 Z-6.092
Y8.142 Z-6.05
Y8.11 Z-6
Y8.09 Z-5.944
Y8.084 Z-5.885
X26.041 Y44.352
Y44.346 Z-5.944
Y44.326 Z-6
Y44.295 Z-6.05
Y44.253 Z-6.092
Y44.202 Z-6.124
Y44.146 Z-6.143
Y44.087 Z-6.15
X26.044 Y41.099
X26.045 Y40.356
G2 X15.248 Y32.796 I-8.045 J0
X13.77 Y33.358 I19.005 J52.217
G3 X12.292 Y33.92 I-20.484 J-51.655
X12 Y33.716 I-0.074 J-0.205
G1 Y16.284
G3 X12.292 Y16.08 I0.218 J0
X13.77 Y16.642 I-19.007 J52.221
G2 X15.249 Y17.204 I20.46 J-51.594
X26.045 Y9.644 I2.751 J-7.56
G1 X26.044 Y8.901
Y8.891
Y8.832 Z-6.143
Y8.776 Z-6.124
Y8.726 Z-6.092
Y8.684 Z-6.05
Y8.652 Z-6
Y8.632 Z-5.944
Y8.626 Z-5.885
X24.551 Y43.81
Y43.804 Z-5.944
Y43.784 Z-6
X24.552 Y43.752 Z-6.05
Y43.71 Z-6.092
Y43.66 Z-6.124
Y43.604 Z-6.143
Y43.545 Z-6.15
X24.555 Y40.557
Y40.356
G2 X15.758 Y34.197 I-6.555 J0
X13.28 Y35.122 I53.182 J146.116
G3 X10.802 Y36.048 I-55.66 J-145.19
X10.51 Y35.844 I-0.074 J-0.205
G1 Y14.156
G3 X10.802 Y13.952 I0.218 J0
X13.28 Y14.878 I-53.182 J146.117
G2 X15.758 Y15.803 I55.66 J-145.191
X24.555 Y9.644 I2.242 J-6.16
G1 Y9.443
Y9.433
Y9.374 Z-6.143
Y9.318 Z-6.124
Y9.268 Z-6.092
Y9.226 Z-6.05
Y9.194 Z-6
Y9.174 Z-5.944
Y9.168 Z-5.885
X23.282 Y43.348
X23.281 Y43.341 Z-5.944
X23.28 Y43.322 Z-6
X23.278 Y43.29 Z-6.05
X23.275 Y43.249 Z-6.092
X23.272 Y43.198 Z-6.124
X23.268 Y43.143 Z-6.143
X23.264 Y43.084 Z-6.15
X23.053 Y40.01
G2 X16.268 Y35.597 I-5.053 J0.346
X12.79 Y36.886 I104.173 J286.23
G3 X9.312 Y38.176 I-108.047 J-286.01
X9.02 Y37.972 I-0.074 J-0.205
G1 Y12.028
G3 X9.312 Y11.824 I0.218 J0
G1 X16.268 Y14.403
G2 X23.053 Y9.991 I1.732 J-4.76
G1 X23.144 Y8.669
X23.148 Y8.61 Z-6.143
X23.152 Y8.554 Z-6.124
X23.155 Y8.504 Z-6.092
X23.158 Y8.462 Z-6.05
X23.16 Y8.431 Z-6
X23.162 Y8.411 Z-5.944
Y8.404 Z-5.885
X22.057 Y44.2
Y44.193 Z-5.944
X22.054 Y44.174 Z-6
X22.05 Y44.142 Z-6.05
X22.045 Y44.101 Z-6.092
X22.038 Y44.051 Z-6.124
X22.031 Y43.995 Z-6.143
X22.023 Y43.937 Z-6.15
X21.495 Y39.899
G2 X16.794 Y37.044 I-3.495 J0.457
G1 X8.162 Y40.186
G3 X7.525 Y39.739 I-0.162 J-0.446
G1 Y10.261
G3 X8.162 Y9.814 I0.475 J0
G1 X16.794 Y12.956
G2 X21.495 Y10.101 I1.206 J-3.312
G3 X21.759 Y10.119 I0.131 J0.017
G1 X21.589 Y40.269
G3 X21.324 Y40.271 I-0.132 J-0.001
G2 X16.863 Y37.232 I-3.324 J0.085
G1 X8.231 Y40.374
G3 X7.325 Y39.739 I-0.231 J-0.634
G1 Y10.261
G3 X8.231 Y9.626 I0.675 J0
G1 X16.863 Y12.768
G2 X21.324 Y9.729 I1.137 J-3.124
G1 X21.358 Y8.404
X21.359 Y8.345 Z-6.143
X21.361 Y8.289 Z-6.124
X21.362 Y8.239 Z-6.092
X21.363 Y8.197 Z-6.05
X21.364 Y8.165 Z-6
Y8.146 Z-5.944
X21.365 Y8.139 Z-5.885
Z10
(When using Fusion 360 for Personal Use, the feedrate of)
(rapid moves is reduced to match the feedrate of cutting)
(moves, which can increase machining time. Unrestricted rapid)
(moves are available with a Fusion 360 Subscription.)

(2D Contour3 2)
G0 X20.265 Y-2.32
G1 Z10 F1000
Z5
Z3 F333.3
Z-1.528
G19 G3 Y-2.055 Z-1.793 J0.265 K0 F1000
G1 Y-1.79
G17 G3 X20 Y-1.525 I-0.265 J0
G1 X0
G2 X-1.525 Y0 I0 J1.525
G1 Y50
G2 X0 Y51.525 I1.525 J0
G1 X20
G2 X21.525 Y50 I0 J-1.525
G1 Y40.356
G3 X22.162 Y39.91 I0.475 J0
G1 X30.794 Y43.052
G2 X35.525 Y39.739 I1.206 J-3.312
G1 Y10.261
G2 X30.794 Y6.948 I-3.525 J0
G1 X22.162 Y10.09
G3 X21.525 Y9.644 I-0.162 J-0.446
G1 Y0
G2 X20 Y-1.525 I-1.525 J0
G3 X19.735 Y-1.79 I0 J-0.265
G1 Y-2.055
G19 G2 Y-2.32 Z-1.528 J0 K0.265
G1 Z5
X20.265
Z1.207 F333.3
Z-3.321
G3 Y-2.055 Z-3.586 J0.265 K0 F1000
G1 Y-1.79
G17 G3 X20 Y-1.525 I-0.265 J0
G1 X0
G2 X-1.525 Y0 I0 J1.525
G1 Y50
G2 X0 Y51.525 I1.525 J0
G1 X20
G2 X21.525 Y50 I0 J-1.525
G1 Y40.356
G3 X22.162 Y39.91 I0.475 J0
G1 X30.794 Y43.052
G2 X35.525 Y39.739 I1.206 J-3.312
G1 Y10.261
G2 X30.794 Y6.948 I-3.525 J0
G1 X22.162 Y10.09
G3 X21.525 Y9.644 I-0.162 J-0.446
G1 Y0
G2 X20 Y-1.525 I-1.525 J0
G3 X19.735 Y-1.79 I0 J-0.265
G1 Y-2.055
G19 G2 Y-2.32 Z-3.321 J0 K0.265
G1 Z5
X20.265
Z-0.586 F333.3
Z-5.114
G3 Y-2.055 Z-5.379 J0.265 K0 F1000
G1 Y-1.79
G17 G3 X20 Y-1.525 I-0.265 J0
G1 X0
G2 X-1.525 Y0 I0 J1.525
G1 Y50
G2 X0 Y51.525 I1.525 J0
G1 X20
G2 X21.525 Y50 I0 J-1.525
G1 Y40.356
G3 X22.162 Y39.91 I0.475 J0
G1 X30.794 Y43.052
G2 X35.525 Y39.739 I1.206 J-3.312
G1 Y10.261
G2 X30.794 Y6.948 I-3.525 J0
G1 X22.162 Y10.09
G3 X21.525 Y9.644 I-0.162 J-0.446
G1 Y0
G2 X20 Y-1.525 I-1.525 J0
G3 X19.735 Y-1.79 I0 J-0.265
G1 Y-2.055
G19 G2 Y-2.32 Z-5.114 J0 K0.265
G1 Z5
X20.265
Z-2.379 F333.3
Z-6.906
G3 Y-2.055 Z-7.171 J0.265 K0 F1000
G1 Y-1.79
G17 G3 X20 Y-1.525 I-0.265 J0
G1 X0
G2 X-1.525 Y0 I0 J1.525
G1 Y50
G2 X0 Y51.525 I1.525 J0
G1 X20
G2 X21.525 Y50 I0 J-1.525
G1 Y40.356
G3 X22.162 Y39.91 I0.475 J0
G1 X30.794 Y43.052
G2 X35.525 Y39.739 I1.206 J-3.312
G1 Y10.261
G2 X30.794 Y6.948 I-3.525 J0
G1 X22.162 Y10.09
G3 X21.525 Y9.644 I-0.162 J-0.446
G1 Y0
G2 X20 Y-1.525 I-1.525 J0
G3 X19.735 Y-1.79 I0 J-0.265
G1 Y-2.055
G19 G2 Y-2.32 Z-6.906 J0 K0.265
G1 Z5
X20.265
Z-4.171 F333.3
Z-8.699
G3 Y-2.055 Z-8.964 J0.265 K0 F1000
G1 Y-1.79
G17 G3 X20 Y-1.525 I-0.265 J0
G1 X0
G2 X-1.525 Y0 I0 J1.525
G1 Y50
G2 X0 Y51.525 I1.525 J0
G1 X20
G2 X21.525 Y50 I0 J-1.525
G1 Y40.356
G3 X22.162 Y39.91 I0.475 J0
G1 X30.794 Y43.052
G2 X35.525 Y39.739 I1.206 J-3.312
G1 Y10.261
G2 X30.794 Y6.948 I-3.525 J0
G1 X22.162 Y10.09
G3 X21.525 Y9.644 I-0.162 J-0.446
G1 Y0
G2 X20 Y-1.525 I-1.525 J0
G3 X19.735 Y-1.79 I0 J-0.265
G1 Y-2.055
G19 G2 Y-2.32 Z-8.699 J0 K0.265
G1 Z5
X20.265
Z-5.964 F333.3
Z-10.492
G3 Y-2.055 Z-10.757 J0.265 K0 F1000
G1 Y-1.79
G17 G3 X20 Y-1.525 I-0.265 J0
G1 X0
G2 X-1.525 Y0 I0 J1.525
G1 Y9.675
Z-9.05
Y15.325
Z-10.757 F333.3
Y34.675 F1000
Z-9.05
Y40.325
Z-10.757 F333.3
Y50 F1000
G2 X0 Y51.525 I1.525 J0
G1 X20
G2 X21.525 Y50 I0 J-1.525
G1 Y40.356
G3 X22.162 Y39.91 I0.475 J0
G1 X30.794 Y43.052
G2 X35.525 Y39.739 I1.206 J-3.312
G1 Y27.825
Z-9.05
Y22.175
Z-10.757 F333.3
Y10.261 F1000
G2 X30.794 Y6.948 I-3.525 J0
G1 X22.162 Y10.09
G3 X21.525 Y9.644 I-0.162 J-0.446
G1 Y0
G2 X20 Y-1.525 I-1.525 J0
G3 X19.735 Y-1.79 I0 J-0.265
G1 Y-2.055
G19 G2 Y-2.32 Z-10.492 J0 K0.265
G1 Z5
X20.265
Z-7.757 F333.3
Z-12.285
G3 Y-2.055 Z-12.55 J0.265 K0 F1000
G1 Y-1.79
G17 G3 X20 Y-1.525 I-0.265 J0
G1 X0
G2 X-1.525 Y0 I0 J1.525
G1 Y9.675
Z-9.05
Y15.325
Z-12.55 F333.3
Y34.675 F1000
Z-9.05
Y40.325
Z-12.55 F333.3
Y50 F1000
G2 X0 Y51.525 I1.525 J0
G1 X20
G2 X21.525 Y50 I0 J-1.525
G1 Y40.356
G3 X22.162 Y39.91 I0.475 J0
G1 X30.794 Y43.052
G2 X35.525 Y39.739 I1.206 J-3.312
G1 Y27.825
Z-9.05
Y22.175
Z-12.55 F333.3
Y10.261 F1000
G2 X30.794 Y6.948 I-3.525 J0
G1 X22.162 Y10.09
G3 X21.525 Y9.644 I-0.162 J-0.446
G1 Y0
G2 X20 Y-1.525 I-1.525 J0
G1 X19.953 Y-1.518
X19.91 Y-1.498
X19.875 Y-1.466
X19.85 Y-1.425
X19.825 Y-1.384
X19.79 Y-1.352
X19.747 Y-1.332
X19.7 Y-1.325
X0
G2 X-1.325 Y0 I0 J1.325
G1 Y9.675
Z-9.05
Y15.325
Z-12.55 F333.3
Y34.675 F1000
Z-9.05
Y40.325
Z-12.55 F333.3
Y50 F1000
G2 X0 Y51.325 I1.325 J0
G1 X20
G2 X21.325 Y50 I0 J-1.325
G1 Y40.356
G3 X22.231 Y39.722 I0.675 J0
G1 X30.863 Y42.864
G2 X35.325 Y39.739 I1.137 J-3.124
G1 Y27.825
Z-9.05
Y22.175
Z-12.55 F333.3
Y10.261 F1000
G2 X30.863 Y7.136 I-3.325 J0
G1 X22.231 Y10.278
G3 X21.325 Y9.644 I-0.231 J-0.634
G1 Y0
G2 X20 Y-1.325 I-1.325 J0
G1 X19.7
G3 X19.435 Y-1.59 I0 J-0.265
G1 Y-1.855
G19 G2 Y-2.12 Z-12.285 J0 K0.265
G1 Z10
G17
M5
M30
