(1057_utab_265bit_norm_pocket_inner_contour)
(T1  D=2.65 CR=0 - ZMIN=-12.55 - flat end mill)
G90 G94
G17
G21
(When using Fusion 360 for Personal Use, the feedrate of)
(rapid moves is reduced to match the feedrate of cutting)
(moves, which can increase machining time. Unrestricted rapid)
(moves are available with a Fusion 360 Subscription.)

(2D Pocket1)
T1
S5000 M3
G54
G0 X38.374 Y19.14
Z10
G1 Z5 F1000
Z-1.785 F333.3
X38.37 Y19.145 Z-1.844 F1000
X38.358 Y19.16 Z-1.9
X38.338 Y19.185 Z-1.95
X38.313 Y19.218 Z-1.992
X38.282 Y19.258 Z-2.024
X38.247 Y19.302 Z-2.043
X38.211 Y19.349 Z-2.05
X35.315 Y23.072
G3 X33.839 Y24.782 I-17.544 J-13.648
G2 X33.839 Y25.218 I0.228 J0.218
G3 X35.314 Y26.927 I-16.068 J15.358
G1 X35.333 Y26.96
X35.342 Y26.997
X35.559 Y29.403
G3 X35.315 Y29.486 I-0.132 J0.012
G2 X31.657 Y25.175 I-17.18 J10.87
G3 X31.657 Y24.825 I0.157 J-0.175
G2 X35.315 Y20.478 I-13.748 J-15.283
G1 X35.328 Y20.449
X35.335 Y20.418
X35.568 Y17.395
G2 X35.315 Y17.331 I-0.132 J-0.01
G3 X29.326 Y24.811 I-17.382 J-7.777
G2 X29.326 Y25.189 I0.141 J0.189
G3 X35.315 Y32.619 I-11.215 J15.168
G1 X35.323 Y32.642
X35.326 Y32.667
X35.578 Y37.905
G3 X35.315 Y37.93 I-0.132 J0.006
G2 X26.544 Y25.153 I-17.227 J2.427
G3 X26.544 Y24.847 I0.086 J-0.153
G2 X35.315 Y12.004 I-8.588 J-15.281
G1 X35.316 Y11.979
X35.312 Y11.955
X34.254 Y7.584
G2 X33.992 Y7.615 I-0.129 J0.031
G1 X33.995 Y9.644
G3 X22.732 Y24.876 I-16.014 J-0.061
G1 X22.695 Y24.894
X22.665 Y24.923
X22.647 Y24.959
X22.64 Y25
X22.647 Y25.041
X22.665 Y25.077
X22.695 Y25.106
X22.732 Y25.124
G3 X33.995 Y40.356 I-4.668 J15.232
G1 X33.992 Y42.385
X33.987 Y42.421
X33.973 Y42.454
X33.95 Y42.482
X33.92 Y42.503
X32.695 Y43.13
X32.652 Y43.143
X32.607 Y43.142
X32.565 Y43.125
X32.531 Y43.095
X32.509 Y43.056
X32.502 Y43.012
X32.505 Y40.356
G2 X18.759 Y25.916 I-14.458 J0
G3 X18.46 Y25.601 I0.017 J-0.315
G1 Y24.399
G3 X18.759 Y24.084 I0.315 J0
G2 X32.505 Y9.644 I-0.761 J-14.488
G1 X32.502 Y6.988
X32.494 Y6.945
X32.473 Y6.906
X32.441 Y6.877
X32.401 Y6.86
X32.357 Y6.856
X31.132 Y6.969
X31.094 Y6.978
X31.061 Y6.998
X31.034 Y7.027
X31.018 Y7.062
X31.012 Y7.101
X31.015 Y9.644
G3 X17.219 Y22.59 I-13.012 J-0.042
G2 X16.97 Y22.825 I-0.014 J0.235
G1 Y27.175
G2 X17.219 Y27.41 I0.235 J0
G3 X31.015 Y40.356 I0.823 J12.946
G1 X31.012 Y42.899
X31.005 Y42.942
X30.984 Y42.98
X30.952 Y43.009
X30.912 Y43.027
X30.869 Y43.03
X30.827 Y43.02
X29.602 Y42.487
X29.57 Y42.467
X29.544 Y42.438
X29.528 Y42.403
X29.523 Y42.365
X29.525 Y40.356
G2 X15.761 Y29.097 I-11.487 J0
G3 X15.48 Y28.866 I-0.046 J-0.231
G1 Y21.134
G3 X15.761 Y20.903 I0.235 J0
G2 X29.525 Y9.644 I2.246 J-11.297
G1 X29.523 Y7.636
X29.515 Y7.592
X29.495 Y7.554
X29.462 Y7.525
X29.422 Y7.507
X29.379 Y7.504
X29.337 Y7.515
X28.112 Y8.056
X28.08 Y8.077
X28.055 Y8.105
X28.039 Y8.14
X28.033 Y8.178
X28.035 Y9.644
G3 X14.58 Y19.041 I-10.026 J-0.025
G1 X14.431 Y18.981
X14.282 Y18.922
G2 X13.99 Y19.126 I-0.074 J0.205
G1 Y30.874
G2 X14.282 Y31.078 I0.218 J0
G1 X14.431 Y31.019
X14.58 Y30.959
G3 X28.035 Y40.356 I3.446 J9.397
G1 X28.033 Y41.823
X28.026 Y41.866
X28.005 Y41.904
X27.973 Y41.934
X27.933 Y41.951
X27.89 Y41.955
X27.847 Y41.944
X26.623 Y41.402
X26.591 Y41.382
X26.565 Y41.353
X26.549 Y41.318
X26.544 Y41.281
X26.545 Y40.356
G2 X15.077 Y32.327 I-8.545 J0
X13.935 Y32.766 I11.393 J31.302
G3 X12.792 Y33.206 I-12.536 J-30.862
X12.5 Y33.002 I-0.074 J-0.205
G1 Y16.998
G3 X12.792 Y16.794 I0.218 J0
X13.935 Y17.234 I-11.394 J31.305
G2 X15.078 Y17.673 I12.522 J-30.828
X26.545 Y9.644 I2.922 J-8.03
G1 X26.544 Y8.72
X26.537 Y8.677
X26.516 Y8.638
X26.484 Y8.609
X26.444 Y8.591
X26.4 Y8.588
X26.358 Y8.599
X25.133 Y9.14
X25.101 Y9.161
X25.076 Y9.189
X25.06 Y9.224
X25.055 Y9.262
Y9.644
G3 X15.587 Y16.273 I-7.055 J0
X13.445 Y15.47 I39.705 J-109.097
G2 X11.302 Y14.666 I-41.939 J108.537
X11.01 Y14.87 I-0.074 J0.205
G1 Y35.13
G2 X11.302 Y35.334 I0.218 J0
X13.445 Y34.53 I-39.795 J-109.335
G3 X15.587 Y33.727 I41.938 J108.532
X25.055 Y40.356 I2.413 J6.63
G1 Y40.738
X25.047 Y40.781
X25.026 Y40.82
X24.994 Y40.849
X24.954 Y40.867
X24.91 Y40.87
X24.868 Y40.859
X23.641 Y40.312
X23.61 Y40.293
X23.585 Y40.265
X23.569 Y40.232
X23.563 Y40.195
G2 X16.097 Y35.127 I-5.563 J0.161
G1 X9.812 Y37.462
G3 X9.52 Y37.257 I-0.074 J-0.205
G1 Y12.743
G3 X9.812 Y12.538 I0.218 J0
G1 X16.097 Y14.873
G2 X23.563 Y9.804 I1.903 J-5.229
G1 X23.557 Y9.761
X23.537 Y9.722
X23.506 Y9.691
X23.466 Y9.673
X23.423 Y9.668
X23.38 Y9.678
X22.047 Y10.225
X22.009 Y10.249
X21.982 Y10.283
X21.967 Y10.325
G3 X16.623 Y13.426 I-3.967 J-0.682
G1 X8.025 Y10.296
Y39.704
X16.623 Y36.574
G3 X21.967 Y39.675 I1.377 J3.782
G1 X21.98 Y39.714
X22.003 Y39.746
X22.036 Y39.77
X22.074 Y39.783
X22.114 Y39.784
X22.153 Y39.773
X22.187 Y39.751
X35.631 Y27.533
X35.656 Y27.503
X35.67 Y27.466
X35.674 Y27.427
X35.665 Y27.388
X35.646 Y27.354
X35.61 Y27.307 Z-2.057
X35.576 Y27.263 Z-2.076
X35.545 Y27.224 Z-2.108
X35.519 Y27.19 Z-2.15
X35.5 Y27.166 Z-2.2
X35.488 Y27.15 Z-2.256
X35.483 Y27.145 Z-2.315
Z-3.835
X35.479 Y27.14 Z-3.894
X35.467 Y27.124 Z-3.95
X35.448 Y27.099 Z-4
X35.422 Y27.066 Z-4.042
X35.391 Y27.026 Z-4.074
X35.357 Y26.982 Z-4.093
X35.321 Y26.936 Z-4.1
X35.314 Y26.927
G2 X33.839 Y25.218 I-17.544 J13.648
G3 X33.839 Y24.782 I0.228 J-0.218
G2 X35.315 Y23.072 I-16.068 J-15.358
G1 X35.333 Y23.039
X35.342 Y23.003
X35.559 Y20.561
G2 X35.315 Y20.478 I-0.132 J-0.012
G3 X31.657 Y24.825 I-17.406 J-10.936
G2 X31.657 Y25.175 I0.157 J0.175
G3 X35.315 Y29.486 I-13.521 J15.181
G1 X35.329 Y29.515
X35.335 Y29.547
X35.568 Y32.554
G3 X35.315 Y32.619 I-0.132 J0.01
G2 X29.326 Y25.189 I-17.203 J7.738
G3 X29.326 Y24.811 I0.141 J-0.189
G2 X35.315 Y17.331 I-11.394 J-15.258
G1 X35.323 Y17.307
X35.326 Y17.283
X35.578 Y12.029
G2 X35.315 Y12.004 I-0.132 J-0.006
G3 X26.544 Y24.847 I-17.358 J-2.438
G2 X26.544 Y25.153 I0.086 J0.153
G3 X35.315 Y37.93 I-8.456 J15.204
G1 X35.316 Y37.954
X35.313 Y37.979
X34.254 Y42.416
G3 X33.992 Y42.385 I-0.129 J-0.031
G1 X33.995 Y40.356
G2 X22.732 Y25.124 I-15.931 J0
G1 X22.695 Y25.106
X22.665 Y25.077
X22.647 Y25.041
X22.64 Y25
X22.647 Y24.959
X22.665 Y24.923
X22.695 Y24.894
X22.732 Y24.876
G2 X33.995 Y9.644 I-4.751 J-15.293
G1 X33.992 Y7.615
X33.987 Y7.579
X33.973 Y7.546
X33.95 Y7.518
X33.92 Y7.497
X32.695 Y6.87
X32.652 Y6.857
X32.607 Y6.858
X32.565 Y6.875
X32.531 Y6.905
X32.509 Y6.944
X32.502 Y6.988
X32.505 Y9.644
G3 X18.759 Y24.084 I-14.507 J-0.048
G2 X18.46 Y24.399 I0.017 J0.315
G1 Y25.601
G2 X18.759 Y25.916 I0.315 J0
G3 X32.505 Y40.356 I-0.711 J14.44
G1 X32.502 Y43.012
X32.494 Y43.055
X32.473 Y43.093
X32.441 Y43.123
X32.401 Y43.14
X32.357 Y43.144
X31.132 Y43.031
X31.094 Y43.021
X31.061 Y43.001
X31.034 Y42.973
X31.018 Y42.937
X31.012 Y42.899
X31.015 Y40.356
G2 X17.219 Y27.41 I-12.973 J0
G3 X16.97 Y27.175 I-0.014 J-0.235
G1 Y22.825
G3 X17.219 Y22.59 I0.235 J0
G2 X31.015 Y9.644 I0.783 J-12.989
G1 X31.012 Y7.101
X31.005 Y7.058
X30.984 Y7.02
X30.952 Y6.99
X30.912 Y6.973
X30.869 Y6.969
X30.826 Y6.98
X29.602 Y7.514
X29.57 Y7.534
X29.544 Y7.563
X29.528 Y7.598
X29.523 Y7.636
X29.525 Y9.644
G3 X15.761 Y20.903 I-11.518 J-0.037
G2 X15.48 Y21.134 I-0.046 J0.231
G1 Y28.866
G2 X15.761 Y29.097 I0.235 J0
G3 X29.525 Y40.356 I2.276 J11.26
G1 X29.523 Y42.365
X29.515 Y42.408
X29.495 Y42.447
X29.462 Y42.476
X29.422 Y42.494
X29.379 Y42.497
X29.337 Y42.486
X28.112 Y41.944
X28.08 Y41.924
X28.055 Y41.895
X28.039 Y41.861
X28.033 Y41.823
X28.035 Y40.356
G2 X14.58 Y30.959 I-10.009 J0
G1 X14.431 Y31.019
X14.282 Y31.078
G3 X13.99 Y30.874 I-0.074 J-0.205
G1 Y19.126
G3 X14.282 Y18.922 I0.218 J0
G1 X14.431 Y18.981
X14.58 Y19.041
G2 X28.035 Y9.644 I3.429 J-9.422
G1 X28.033 Y8.178
X28.026 Y8.135
X28.005 Y8.096
X27.973 Y8.067
X27.933 Y8.049
X27.89 Y8.046
X27.847 Y8.057
X26.623 Y8.598
X26.591 Y8.619
X26.565 Y8.647
X26.549 Y8.682
X26.544 Y8.72
X26.545 Y9.644
G3 X15.078 Y17.673 I-8.545 J0
X13.935 Y17.234 I11.38 J-31.268
G2 X12.792 Y16.794 I-12.537 J30.866
X12.5 Y16.998 I-0.074 J0.205
G1 Y33.002
G2 X12.792 Y33.206 I0.218 J0
X13.935 Y32.766 I-11.393 J-31.302
G3 X15.077 Y32.327 I12.536 J30.862
X26.545 Y40.356 I2.923 J8.03
G1 X26.544 Y41.281
X26.537 Y41.324
X26.516 Y41.362
X26.484 Y41.392
X26.444 Y41.409
X26.4 Y41.412
X26.358 Y41.402
X25.133 Y40.86
X25.101 Y40.839
X25.076 Y40.811
X25.06 Y40.776
X25.055 Y40.738
Y40.356
G2 X15.587 Y33.727 I-7.055 J0
X13.445 Y34.53 I39.795 J109.335
G3 X11.302 Y35.334 I-41.938 J-108.532
X11.01 Y35.13 I-0.074 J-0.205
G1 Y14.87
G3 X11.302 Y14.666 I0.218 J0
X13.445 Y15.47 I-39.797 J109.341
G2 X15.587 Y16.273 I41.848 J-108.293
X25.055 Y9.644 I2.413 J-6.63
G1 Y9.262
X25.047 Y9.219
X25.026 Y9.18
X24.994 Y9.151
X24.954 Y9.133
X24.911 Y9.13
X24.868 Y9.141
X23.641 Y9.687
X23.61 Y9.707
X23.585 Y9.734
X23.569 Y9.768
X23.563 Y9.804
G3 X16.097 Y14.873 I-5.563 J-0.16
G1 X9.812 Y12.538
G2 X9.52 Y12.743 I-0.074 J0.205
G1 Y37.257
G2 X9.812 Y37.462 I0.218 J0
G1 X16.097 Y35.127
G3 X23.563 Y40.195 I1.903 J5.229
G1 X23.557 Y40.238
X23.537 Y40.277
X23.506 Y40.308
X23.466 Y40.327
X23.423 Y40.331
X23.38 Y40.322
X22.047 Y39.776
X22.01 Y39.752
X21.982 Y39.717
X21.967 Y39.675
G2 X16.623 Y36.574 I-3.967 J0.681
G1 X8.025 Y39.704
Y10.296
X16.623 Y13.426
G2 X21.967 Y10.325 I1.377 J-3.782
G1 X21.98 Y10.287
X22.003 Y10.254
X22.036 Y10.23
X22.074 Y10.217
X22.114 Y10.216
X22.153 Y10.227
X22.187 Y10.25
X35.631 Y22.466
X35.656 Y22.497
X35.671 Y22.533
X35.674 Y22.573
X35.666 Y22.611
X35.646 Y22.646
X35.61 Y22.692 Z-4.107
X35.576 Y22.736 Z-4.126
X35.545 Y22.776 Z-4.158
X35.519 Y22.809 Z-4.2
X35.5 Y22.834 Z-4.25
X35.488 Y22.85 Z-4.306
X35.484 Y22.855 Z-4.365
Z-5.885
X35.48 Y22.86 Z-5.944
X35.468 Y22.876 Z-6
X35.448 Y22.901 Z-6.05
X35.422 Y22.934 Z-6.092
X35.392 Y22.973 Z-6.124
X35.357 Y23.017 Z-6.143
X35.321 Y23.064 Z-6.15
X35.315 Y23.072
G3 X33.839 Y24.782 I-17.544 J-13.648
G2 X33.839 Y25.218 I0.228 J0.218
G3 X35.314 Y26.927 I-16.068 J15.358
G1 X35.333 Y26.96
X35.342 Y26.997
X35.559 Y29.403
G3 X35.315 Y29.486 I-0.132 J0.012
G2 X31.657 Y25.175 I-17.18 J10.87
G3 X31.657 Y24.825 I0.157 J-0.175
G2 X35.315 Y20.478 I-13.748 J-15.283
G1 X35.328 Y20.449
X35.335 Y20.418
X35.568 Y17.395
G2 X35.315 Y17.331 I-0.132 J-0.01
G3 X29.326 Y24.811 I-17.382 J-7.777
G2 X29.326 Y25.189 I0.141 J0.189
G3 X35.315 Y32.619 I-11.215 J15.168
G1 X35.323 Y32.642
X35.326 Y32.667
X35.578 Y37.905
G3 X35.315 Y37.93 I-0.132 J0.006
G2 X26.544 Y25.153 I-17.227 J2.427
G3 X26.544 Y24.847 I0.086 J-0.153
G2 X35.315 Y12.004 I-8.588 J-15.281
G1 X35.316 Y11.979
X35.312 Y11.955
X34.254 Y7.584
G2 X33.992 Y7.615 I-0.129 J0.031
G1 X33.995 Y9.644
G3 X22.732 Y24.876 I-16.014 J-0.061
G1 X22.695 Y24.894
X22.665 Y24.923
X22.647 Y24.959
X22.64 Y25
X22.647 Y25.041
X22.665 Y25.077
X22.695 Y25.106
X22.732 Y25.124
G3 X33.995 Y40.356 I-4.668 J15.232
G1 X33.992 Y42.385
X33.987 Y42.421
X33.973 Y42.454
X33.95 Y42.482
X33.92 Y42.503
X32.695 Y43.13
X32.652 Y43.143
X32.607 Y43.142
X32.565 Y43.125
X32.531 Y43.095
X32.509 Y43.056
X32.502 Y43.012
X32.505 Y40.356
G2 X18.759 Y25.916 I-14.458 J0
G3 X18.46 Y25.601 I0.017 J-0.315
G1 Y24.399
G3 X18.759 Y24.084 I0.315 J0
G2 X32.505 Y9.644 I-0.761 J-14.488
G1 X32.502 Y6.988
X32.494 Y6.945
X32.473 Y6.906
X32.441 Y6.877
X32.401 Y6.86
X32.357 Y6.856
X31.132 Y6.969
X31.094 Y6.978
X31.061 Y6.998
X31.034 Y7.027
X31.018 Y7.062
X31.012 Y7.101
X31.015 Y9.644
G3 X17.219 Y22.59 I-13.012 J-0.042
G2 X16.97 Y22.825 I-0.014 J0.235
G1 Y27.175
G2 X17.219 Y27.41 I0.235 J0
G3 X31.015 Y40.356 I0.823 J12.946
G1 X31.012 Y42.899
X31.005 Y42.942
X30.984 Y42.98
X30.952 Y43.009
X30.912 Y43.027
X30.869 Y43.03
X30.827 Y43.02
X29.602 Y42.487
X29.57 Y42.467
X29.544 Y42.438
X29.528 Y42.403
X29.523 Y42.365
X29.525 Y40.356
G2 X15.761 Y29.097 I-11.487 J0
G3 X15.48 Y28.866 I-0.046 J-0.231
G1 Y21.134
G3 X15.761 Y20.903 I0.235 J0
G2 X29.525 Y9.644 I2.246 J-11.297
G1 X29.523 Y7.636
X29.515 Y7.592
X29.495 Y7.554
X29.462 Y7.525
X29.422 Y7.507
X29.379 Y7.504
X29.337 Y7.515
X28.112 Y8.056
X28.08 Y8.077
X28.055 Y8.105
X28.039 Y8.14
X28.033 Y8.178
X28.035 Y9.644
G3 X14.58 Y19.041 I-10.026 J-0.025
G1 X14.431 Y18.981
X14.282 Y18.922
G2 X13.99 Y19.126 I-0.074 J0.205
G1 Y30.874
G2 X14.282 Y31.078 I0.218 J0
G1 X14.431 Y31.019
X14.58 Y30.959
G3 X28.035 Y40.356 I3.446 J9.397
G1 X28.033 Y41.823
X28.026 Y41.866
X28.005 Y41.904
X27.973 Y41.934
X27.933 Y41.951
X27.89 Y41.955
X27.847 Y41.944
X26.623 Y41.402
X26.591 Y41.382
X26.565 Y41.353
X26.549 Y41.318
X26.544 Y41.281
X26.545 Y40.356
G2 X15.077 Y32.327 I-8.545 J0
X13.935 Y32.766 I11.393 J31.302
G3 X12.792 Y33.206 I-12.536 J-30.862
X12.5 Y33.002 I-0.074 J-0.205
G1 Y16.998
G3 X12.792 Y16.794 I0.218 J0
X13.935 Y17.234 I-11.394 J31.305
G2 X15.078 Y17.673 I12.522 J-30.828
X26.545 Y9.644 I2.922 J-8.03
G1 X26.544 Y8.72
X26.537 Y8.677
X26.516 Y8.638
X26.484 Y8.609
X26.444 Y8.591
X26.4 Y8.588
X26.358 Y8.599
X25.133 Y9.14
X25.101 Y9.161
X25.076 Y9.189
X25.06 Y9.224
X25.055 Y9.262
Y9.644
G3 X15.587 Y16.273 I-7.055 J0
X13.445 Y15.47 I39.705 J-109.097
G2 X11.302 Y14.666 I-41.939 J108.537
X11.01 Y14.87 I-0.074 J0.205
G1 Y35.13
G2 X11.302 Y35.334 I0.218 J0
X13.445 Y34.53 I-39.795 J-109.335
G3 X15.587 Y33.727 I41.938 J108.532
X25.055 Y40.356 I2.413 J6.63
G1 Y40.738
X25.047 Y40.781
X25.026 Y40.82
X24.994 Y40.849
X24.954 Y40.867
X24.91 Y40.87
X24.868 Y40.859
X23.641 Y40.312
X23.61 Y40.293
X23.585 Y40.265
X23.569 Y40.232
X23.563 Y40.195
G2 X16.097 Y35.127 I-5.563 J0.161
X12.955 Y36.295 I85.093 J233.806
G3 X9.812 Y37.462 I-88.55 J-233.486
X9.52 Y37.257 I-0.074 J-0.205
G1 Y12.743
G3 X9.812 Y12.538 I0.218 J0
G1 X16.097 Y14.873
G2 X23.563 Y9.804 I1.903 J-5.229
G1 X23.557 Y9.761
X23.537 Y9.722
X23.506 Y9.691
X23.466 Y9.673
X23.423 Y9.668
X23.38 Y9.678
X22.047 Y10.225
X22.009 Y10.249
X21.982 Y10.283
X21.967 Y10.325
G3 X16.623 Y13.426 I-3.967 J-0.682
G1 X8.025 Y10.296
Y39.704
X16.623 Y36.574
G3 X21.967 Y39.675 I1.377 J3.782
G1 Y39.678
Y39.717
X21.952 Y39.753
X21.923 Y39.781
X21.887 Y39.795
X21.848 Y39.794
X21.812 Y39.778
X21.785 Y39.75
X21.771 Y39.713
G2 X16.692 Y36.762 I-3.771 J0.643
G1 X8.06 Y39.904
G3 X7.825 Y39.739 I-0.06 J-0.164
G1 Y10.261
G3 X8.06 Y10.096 I0.175 J0
G1 X16.692 Y13.238
G2 X21.771 Y10.287 I1.308 J-3.594
G1 X21.993 Y8.981
X22.003 Y8.923 Z-6.143
X22.013 Y8.867 Z-6.124
X22.021 Y8.818 Z-6.092
X22.028 Y8.776 Z-6.05
X22.033 Y8.745 Z-6
X22.037 Y8.726 Z-5.944
X22.038 Y8.719 Z-5.885
Z10
(When using Fusion 360 for Personal Use, the feedrate of)
(rapid moves is reduced to match the feedrate of cutting)
(moves, which can increase machining time. Unrestricted rapid)
(moves are available with a Fusion 360 Subscription.)

(2D Contour2 2)
G0 X22.32 Y40.621
G1 Z10 F1000
Z5
Z3.06 F333.3
Z-1.785
G18 G3 X22.055 Z-2.05 I-0.265 K0 F1000
G1 X21.79
G17 G3 X21.525 Y40.356 I0 J-0.265
G2 X16.794 Y37.044 I-3.525 J0
G1 X8.162 Y40.186
G3 X7.525 Y39.739 I-0.162 J-0.446
G1 Y10.261
G3 X8.162 Y9.814 I0.475 J0
G1 X16.794 Y12.956
G2 X21.525 Y9.644 I1.206 J-3.312
G3 X21.79 Y9.379 I0.265 J0
G1 X22.055
G18 G2 X22.32 Z-1.785 I0 K0.265
G1 Z5
Y40.621
Z1.01 F333.3
Z-3.835
G3 X22.055 Z-4.1 I-0.265 K0 F1000
G1 X21.79
G17 G3 X21.525 Y40.356 I0 J-0.265
G2 X16.794 Y37.044 I-3.525 J0
G1 X8.162 Y40.186
G3 X7.525 Y39.739 I-0.162 J-0.446
G1 Y10.261
G3 X8.162 Y9.814 I0.475 J0
G1 X16.794 Y12.956
G2 X21.525 Y9.644 I1.206 J-3.312
G3 X21.79 Y9.379 I0.265 J0
G1 X22.055
G18 G2 X22.32 Z-3.835 I0 K0.265
G1 Z5
Y40.621
Z-1.04 F333.3
Z-5.885
G3 X22.055 Z-6.15 I-0.265 K0 F1000
G1 X21.79
G17 G3 X21.525 Y40.356 I0 J-0.265
G2 X16.794 Y37.044 I-3.525 J0
G1 X8.162 Y40.186
G3 X7.525 Y39.739 I-0.162 J-0.446
G1 Y10.261
G3 X8.162 Y9.814 I0.475 J0
G1 X16.794 Y12.956
G2 X21.525 Y9.644 I1.206 J-3.312
G3 X21.79 Y9.379 I0.265 J0
G1 X22.055
G18 G2 X22.32 Z-5.885 I0 K0.265
G1 Z5
X22.12 Y40.621
Z-1.04 F333.3
Z-5.885
G3 X21.855 Z-6.15 I-0.265 K0 F1000
G1 X21.59
G17 G3 X21.325 Y40.356 I0 J-0.265
G2 X16.863 Y37.232 I-3.325 J0
G1 X8.231 Y40.374
G3 X7.325 Y39.739 I-0.231 J-0.634
G1 Y10.261
G3 X8.231 Y9.626 I0.675 J0
G1 X16.863 Y12.768
G2 X21.325 Y9.644 I1.137 J-3.124
G3 X21.59 Y9.379 I0.265 J0
G1 X21.855
G18 G2 X22.12 Z-5.885 I0 K0.265
G1 Z10
G17
(When using Fusion 360 for Personal Use, the feedrate of)
(rapid moves is reduced to match the feedrate of cutting)
(moves, which can increase machining time. Unrestricted rapid)
(moves are available with a Fusion 360 Subscription.)

(2D Contour3 2)
G0 X20.265 Y-2.32
G1 Z10 F1000
Z5
Z3 F333.3
Z-1.528
G19 G3 Y-2.055 Z-1.793 J0.265 K0 F1000
G1 Y-1.79
G17 G3 X20 Y-1.525 I-0.265 J0
G1 X0
G2 X-1.525 Y0 I0 J1.525
G1 Y50
G2 X0 Y51.525 I1.525 J0
G1 X20
G2 X21.525 Y50 I0 J-1.525
G1 Y40.356
G3 X22.162 Y39.91 I0.475 J0
G1 X30.794 Y43.052
G2 X35.525 Y39.739 I1.206 J-3.312
G1 Y10.261
G2 X30.794 Y6.948 I-3.525 J0
G1 X22.162 Y10.09
G3 X21.525 Y9.644 I-0.162 J-0.446
G1 Y0
G2 X20 Y-1.525 I-1.525 J0
G3 X19.735 Y-1.79 I0 J-0.265
G1 Y-2.055
G19 G2 Y-2.32 Z-1.528 J0 K0.265
G1 Z5
X20.265
Z1.207 F333.3
Z-3.321
G3 Y-2.055 Z-3.586 J0.265 K0 F1000
G1 Y-1.79
G17 G3 X20 Y-1.525 I-0.265 J0
G1 X0
G2 X-1.525 Y0 I0 J1.525
G1 Y50
G2 X0 Y51.525 I1.525 J0
G1 X20
G2 X21.525 Y50 I0 J-1.525
G1 Y40.356
G3 X22.162 Y39.91 I0.475 J0
G1 X30.794 Y43.052
G2 X35.525 Y39.739 I1.206 J-3.312
G1 Y10.261
G2 X30.794 Y6.948 I-3.525 J0
G1 X22.162 Y10.09
G3 X21.525 Y9.644 I-0.162 J-0.446
G1 Y0
G2 X20 Y-1.525 I-1.525 J0
G3 X19.735 Y-1.79 I0 J-0.265
G1 Y-2.055
G19 G2 Y-2.32 Z-3.321 J0 K0.265
G1 Z5
X20.265
Z-0.586 F333.3
Z-5.114
G3 Y-2.055 Z-5.379 J0.265 K0 F1000
G1 Y-1.79
G17 G3 X20 Y-1.525 I-0.265 J0
G1 X0
G2 X-1.525 Y0 I0 J1.525
G1 Y50
G2 X0 Y51.525 I1.525 J0
G1 X20
G2 X21.525 Y50 I0 J-1.525
G1 Y40.356
G3 X22.162 Y39.91 I0.475 J0
G1 X30.794 Y43.052
G2 X35.525 Y39.739 I1.206 J-3.312
G1 Y10.261
G2 X30.794 Y6.948 I-3.525 J0
G1 X22.162 Y10.09
G3 X21.525 Y9.644 I-0.162 J-0.446
G1 Y0
G2 X20 Y-1.525 I-1.525 J0
G3 X19.735 Y-1.79 I0 J-0.265
G1 Y-2.055
G19 G2 Y-2.32 Z-5.114 J0 K0.265
G1 Z5
X20.265
Z-2.379 F333.3
Z-6.906
G3 Y-2.055 Z-7.171 J0.265 K0 F1000
G1 Y-1.79
G17 G3 X20 Y-1.525 I-0.265 J0
G1 X0
G2 X-1.525 Y0 I0 J1.525
G1 Y50
G2 X0 Y51.525 I1.525 J0
G1 X20
G2 X21.525 Y50 I0 J-1.525
G1 Y40.356
G3 X22.162 Y39.91 I0.475 J0
G1 X30.794 Y43.052
G2 X35.525 Y39.739 I1.206 J-3.312
G1 Y10.261
G2 X30.794 Y6.948 I-3.525 J0
G1 X22.162 Y10.09
G3 X21.525 Y9.644 I-0.162 J-0.446
G1 Y0
G2 X20 Y-1.525 I-1.525 J0
G3 X19.735 Y-1.79 I0 J-0.265
G1 Y-2.055
G19 G2 Y-2.32 Z-6.906 J0 K0.265
G1 Z5
X20.265
Z-4.171 F333.3
Z-8.699
G3 Y-2.055 Z-8.964 J0.265 K0 F1000
G1 Y-1.79
G17 G3 X20 Y-1.525 I-0.265 J0
G1 X0
G2 X-1.525 Y0 I0 J1.525
G1 Y50
G2 X0 Y51.525 I1.525 J0
G1 X20
G2 X21.525 Y50 I0 J-1.525
G1 Y40.356
G3 X22.162 Y39.91 I0.475 J0
G1 X30.794 Y43.052
G2 X35.525 Y39.739 I1.206 J-3.312
G1 Y10.261
G2 X30.794 Y6.948 I-3.525 J0
G1 X22.162 Y10.09
G3 X21.525 Y9.644 I-0.162 J-0.446
G1 Y0
G2 X20 Y-1.525 I-1.525 J0
G3 X19.735 Y-1.79 I0 J-0.265
G1 Y-2.055
G19 G2 Y-2.32 Z-8.699 J0 K0.265
G1 Z5
X20.265
Z-5.964 F333.3
Z-10.492
G3 Y-2.055 Z-10.757 J0.265 K0 F1000
G1 Y-1.79
G17 G3 X20 Y-1.525 I-0.265 J0
G1 X0
G2 X-1.525 Y0 I0 J1.525
G1 Y9.675
Z-9.05
Y15.325
Z-10.757 F333.3
Y34.675 F1000
Z-9.05
Y40.325
Z-10.757 F333.3
Y50 F1000
G2 X0 Y51.525 I1.525 J0
G1 X20
G2 X21.525 Y50 I0 J-1.525
G1 Y40.356
G3 X22.162 Y39.91 I0.475 J0
G1 X30.794 Y43.052
G2 X35.525 Y39.739 I1.206 J-3.312
G1 Y27.825
Z-9.05
Y22.175
Z-10.757 F333.3
Y10.261 F1000
G2 X30.794 Y6.948 I-3.525 J0
G1 X22.162 Y10.09
G3 X21.525 Y9.644 I-0.162 J-0.446
G1 Y0
G2 X20 Y-1.525 I-1.525 J0
G3 X19.735 Y-1.79 I0 J-0.265
G1 Y-2.055
G19 G2 Y-2.32 Z-10.492 J0 K0.265
G1 Z5
X20.265
Z-7.757 F333.3
Z-12.285
G3 Y-2.055 Z-12.55 J0.265 K0 F1000
G1 Y-1.79
G17 G3 X20 Y-1.525 I-0.265 J0
G1 X0
G2 X-1.525 Y0 I0 J1.525
G1 Y9.675
Z-9.05
Y15.325
Z-12.55 F333.3
Y34.675 F1000
Z-9.05
Y40.325
Z-12.55 F333.3
Y50 F1000
G2 X0 Y51.525 I1.525 J0
G1 X20
G2 X21.525 Y50 I0 J-1.525
G1 Y40.356
G3 X22.162 Y39.91 I0.475 J0
G1 X30.794 Y43.052
G2 X35.525 Y39.739 I1.206 J-3.312
G1 Y27.825
Z-9.05
Y22.175
Z-12.55 F333.3
Y10.261 F1000
G2 X30.794 Y6.948 I-3.525 J0
G1 X22.162 Y10.09
G3 X21.525 Y9.644 I-0.162 J-0.446
G1 Y0
G2 X20 Y-1.525 I-1.525 J0
G1 X19.953 Y-1.518
X19.91 Y-1.498
X19.875 Y-1.466
X19.85 Y-1.425
X19.825 Y-1.384
X19.79 Y-1.352
X19.747 Y-1.332
X19.7 Y-1.325
X0
G2 X-1.325 Y0 I0 J1.325
G1 Y9.675
Z-9.05
Y15.325
Z-12.55 F333.3
Y34.675 F1000
Z-9.05
Y40.325
Z-12.55 F333.3
Y50 F1000
G2 X0 Y51.325 I1.325 J0
G1 X20
G2 X21.325 Y50 I0 J-1.325
G1 Y40.356
G3 X22.231 Y39.722 I0.675 J0
G1 X30.863 Y42.864
G2 X35.325 Y39.739 I1.137 J-3.124
G1 Y27.825
Z-9.05
Y22.175
Z-12.55 F333.3
Y10.261 F1000
G2 X30.863 Y7.136 I-3.325 J0
G1 X22.231 Y10.278
G3 X21.325 Y9.644 I-0.231 J-0.634
G1 Y0
G2 X20 Y-1.325 I-1.325 J0
G1 X19.7
G3 X19.435 Y-1.59 I0 J-0.265
G1 Y-1.855
G19 G2 Y-2.12 Z-12.285 J0 K0.265
G1 Z10
G17
M5
M30
