(1058_utab_27bit_no_leads_shorter_tab)
(T1  D=2.7 CR=0 - ZMIN=-12.55 - flat end mill)
G90 G94
G17
G21
(When using Fusion 360 for Personal Use, the feedrate of)
(rapid moves is reduced to match the feedrate of cutting)
(moves, which can increase machining time. Unrestricted rapid)
(moves are available with a Fusion 360 Subscription.)

(2D Pocket1)
T1
S5000 M3
G54
G0 X38.398 Y30.117
Z10
G1 Z5 F1000
Z-1.78 F333.3
X38.394 Y30.111 Z-1.84 F1000
X38.381 Y30.096 Z-1.897
X38.361 Y30.071 Z-1.948
X38.334 Y30.038 Z-1.991
X38.302 Y29.998 Z-2.023
X38.266 Y29.954 Z-2.043
X38.228 Y29.907 Z-2.05
X35.34 Y26.341
G2 X34.364 Y25.214 I-17.583 J14.241
G3 X34.364 Y24.786 I0.231 J-0.214
G2 X35.339 Y23.66 I-16.607 J-15.367
G1 X35.36 Y23.625
X35.369 Y23.587
X35.587 Y21.18
G2 X35.34 Y21.094 I-0.134 J-0.012
G3 X32.179 Y24.828 I-17.437 J-11.554
G2 X32.179 Y25.172 I0.161 J0.172
G3 X35.34 Y28.874 I-14.038 J15.184
G1 X35.355 Y28.905
X35.362 Y28.939
X35.596 Y31.838
G3 X35.34 Y31.909 I-0.135 J0.011
G2 X29.857 Y25.185 I-17.223 J8.448
G3 X29.857 Y24.815 I0.145 J-0.185
G2 X35.34 Y18.043 I-11.93 J-15.264
G1 X35.349 Y18.018
X35.353 Y17.992
X35.606 Y13.539
G2 X35.34 Y13.502 I-0.135 J-0.008
G3 X27.127 Y24.85 I-17.388 J-3.938
G2 X27.127 Y25.15 I0.09 J0.15
G3 X35.34 Y36.435 I-9.035 J15.206
G1 X35.343 Y36.459
X35.342 Y36.484
X34.526 Y42.219
G3 X34.258 Y42.2 I-0.134 J-0.019
G1 X34.26 Y40.356
G2 X23.554 Y25.122 I-16.192 J0
G1 X23.515 Y25.1
X23.486 Y25.065
X23.471 Y25.023
Y24.977
X23.486 Y24.935
X23.515 Y24.9
X23.554 Y24.878
G2 X34.26 Y9.644 I-5.578 J-15.299
G1 X34.258 Y7.801
X34.25 Y7.757
X34.228 Y7.717
X34.195 Y7.687
X32.944 Y6.891
X32.907 Y6.875
X32.866 Y6.87
X32.825 Y6.878
X32.789 Y6.898
X32.761 Y6.928
X32.743 Y6.965
X32.737 Y7.005
X32.74 Y9.644
G3 X18.989 Y24.305 I-14.743 J-0.048
G2 X18.695 Y24.62 I0.021 J0.315
G1 Y25.38
G2 X18.989 Y25.695 I0.315 J0
G3 X32.74 Y40.356 I-0.941 J14.662
G1 X32.737 Y42.995
X32.73 Y43.036
X32.711 Y43.074
X32.68 Y43.104
X32.642 Y43.123
X32.601 Y43.129
X31.351 Y43.118
X31.309 Y43.112
X31.272 Y43.092
X31.242 Y43.062
X31.223 Y43.025
X31.217 Y42.983
X31.22 Y40.356
G2 X17.502 Y27.191 I-13.177 J0
G3 X17.175 Y26.876 I-0.012 J-0.315
G1 Y23.124
G3 X17.502 Y22.809 I0.315 J0
G2 X31.22 Y9.644 I0.499 J-13.209
G1 X31.217 Y7.017
X31.21 Y6.973
X31.189 Y6.935
X31.156 Y6.905
X31.116 Y6.887
X31.072 Y6.882
X31.029 Y6.893
X29.78 Y7.42
X29.746 Y7.441
X29.72 Y7.47
X29.703 Y7.506
X29.698 Y7.545
X29.7 Y9.644
G3 X15.932 Y21.114 I-11.693 J-0.038
G2 X15.655 Y21.345 I-0.042 J0.232
G1 Y28.655
G2 X15.932 Y28.886 I0.235 J0
G3 X29.7 Y40.356 I2.106 J11.47
G1 X29.698 Y42.454
X29.69 Y42.498
X29.669 Y42.537
X29.636 Y42.567
X29.595 Y42.585
X29.551 Y42.589
X29.508 Y42.578
X28.259 Y42.026
X28.226 Y42.006
X28.2 Y41.976
X28.184 Y41.941
X28.178 Y41.903
X28.18 Y40.356
G2 X14.532 Y30.829 I-10.149 J0
G1 X14.48 Y30.85
X14.427 Y30.871
G3 X14.135 Y30.667 I-0.074 J-0.205
G1 Y19.333
G3 X14.427 Y19.129 I0.218 J0
G1 X14.48 Y19.15
X14.533 Y19.171
G2 X28.18 Y9.644 I3.478 J-9.556
G1 X28.178 Y8.098
X28.171 Y8.055
X28.15 Y8.015
X28.117 Y7.985
X28.076 Y7.968
X28.032 Y7.964
X27.989 Y7.975
X26.739 Y8.527
X26.706 Y8.548
X26.681 Y8.577
X26.664 Y8.612
X26.659 Y8.651
X26.66 Y9.644
G3 X15.038 Y17.782 I-8.66 J0
X13.973 Y17.37 I9.906 J-27.219
G2 X12.907 Y16.958 I-10.983 J26.836
X12.615 Y17.163 I-0.074 J0.205
G1 Y32.837
G2 X12.907 Y33.042 I0.218 J0
X13.973 Y32.63 I-9.916 J-27.244
G3 X15.038 Y32.219 I10.982 J26.832
X26.66 Y40.356 I2.962 J8.138
G1 X26.659 Y41.349
X26.652 Y41.393
X26.63 Y41.432
X26.598 Y41.462
X26.557 Y41.48
X26.512 Y41.484
X26.469 Y41.473
X25.22 Y40.92
X25.187 Y40.899
X25.161 Y40.87
X25.145 Y40.835
X25.14 Y40.796
Y40.356
G2 X15.558 Y33.647 I-7.14 J0
X13.473 Y34.43 I37.712 J103.612
G3 X11.387 Y35.213 I-39.797 J-102.829
X11.095 Y35.008 I-0.074 J-0.205
G1 Y14.992
G3 X11.387 Y14.787 I0.218 J0
X13.473 Y15.57 I-37.714 J103.618
G2 X15.558 Y16.353 I39.721 J-102.628
X25.14 Y9.644 I2.442 J-6.709
G1 Y9.204
X25.132 Y9.16
X25.111 Y9.121
X25.078 Y9.091
X25.037 Y9.073
X24.993 Y9.07
X24.95 Y9.081
X23.699 Y9.636
X23.667 Y9.656
X23.641 Y9.685
X23.625 Y9.719
X23.619 Y9.757
G3 X16.078 Y14.925 I-5.619 J-0.113
G1 X9.867 Y12.616
G2 X9.575 Y12.821 I-0.074 J0.205
G1 Y37.179
G2 X9.867 Y37.384 I0.218 J0
G1 X16.078 Y35.075
G3 X23.619 Y40.242 I1.922 J5.281
G1 X23.612 Y40.286
X23.592 Y40.326
X23.56 Y40.357
X23.519 Y40.375
X23.475 Y40.38
X23.432 Y40.37
X22.078 Y39.803
X22.039 Y39.779
X22.011 Y39.743
X21.997 Y39.701
G2 X16.615 Y36.551 I-3.997 J0.656
G1 X8.05 Y39.668
Y10.332
X16.615 Y13.449
G2 X21.997 Y10.3 I1.385 J-3.806
G1 X22.01 Y10.26
X22.034 Y10.226
X22.068 Y10.202
X22.107 Y10.188
X22.149
X22.189 Y10.2
X22.223 Y10.224
X35.674 Y23.049
X35.699 Y23.081
X35.713 Y23.118
X35.716 Y23.158
X35.706 Y23.197
X35.686 Y23.232
X35.648 Y23.278 Z-2.057
X35.612 Y23.323 Z-2.077
X35.58 Y23.363 Z-2.109
X35.553 Y23.396 Z-2.152
X35.533 Y23.421 Z-2.203
X35.52 Y23.436 Z-2.26
X35.516 Y23.441 Z-2.32
Z-3.83
X35.512 Y23.447 Z-3.89
X35.499 Y23.462 Z-3.947
X35.479 Y23.487 Z-3.998
X35.452 Y23.52 Z-4.041
X35.42 Y23.56 Z-4.073
X35.384 Y23.605 Z-4.093
X35.346 Y23.651 Z-4.1
X35.339 Y23.66
G3 X34.364 Y24.786 I-17.582 J-14.241
G2 X34.364 Y25.214 I0.231 J0.214
G3 X35.34 Y26.341 I-16.607 J15.367
G1 X35.36 Y26.375
X35.369 Y26.413
X35.586 Y28.787
G3 X35.34 Y28.874 I-0.134 J0.012
G2 X32.179 Y25.172 I-17.199 J11.482
G3 X32.179 Y24.828 I0.161 J-0.172
G2 X35.34 Y21.094 I-14.276 J-15.289
G1 X35.355 Y21.063
X35.362 Y21.03
X35.596 Y18.113
G2 X35.34 Y18.043 I-0.135 J-0.011
G3 X29.857 Y24.815 I-17.412 J-8.492
G2 X29.857 Y25.185 I0.145 J0.185
G3 X35.34 Y31.909 I-11.741 J15.171
G1 X35.349 Y31.934
X35.353 Y31.96
X35.606 Y36.397
G3 X35.34 Y36.435 I-0.135 J0.008
G2 X27.127 Y25.15 I-17.247 J3.921
G3 X27.127 Y24.85 I0.09 J-0.15
G2 X35.34 Y13.502 I-9.175 J-15.286
G1 X35.343 Y13.477
X35.342 Y13.453
X34.526 Y7.782
G2 X34.258 Y7.801 I-0.134 J0.019
G1 X34.26 Y9.644
G3 X23.554 Y24.878 I-16.284 J-0.064
G1 X23.515 Y24.9
X23.486 Y24.935
X23.471 Y24.977
Y25.023
X23.486 Y25.065
X23.515 Y25.1
X23.554 Y25.122
G3 X34.26 Y40.356 I-5.486 J15.234
G1 X34.258 Y42.2
X34.25 Y42.244
X34.228 Y42.283
X34.195 Y42.314
X32.944 Y43.109
X32.906 Y43.125
X32.866 Y43.13
X32.825 Y43.122
X32.789 Y43.102
X32.761 Y43.072
X32.743 Y43.035
X32.737 Y42.995
X32.74 Y40.356
G2 X18.989 Y25.695 I-14.692 J0
G3 X18.695 Y25.38 I0.021 J-0.315
G1 Y24.62
G3 X18.989 Y24.305 I0.315 J0
G2 X32.74 Y9.644 I-0.992 J-14.71
G1 X32.737 Y7.005
X32.73 Y6.964
X32.711 Y6.926
X32.68 Y6.896
X32.642 Y6.877
X32.6 Y6.871
X31.351 Y6.882
X31.309 Y6.889
X31.272 Y6.908
X31.242 Y6.938
X31.223 Y6.975
X31.217 Y7.017
X31.22 Y9.644
G3 X17.502 Y22.809 I-13.218 J-0.043
G2 X17.175 Y23.124 I-0.012 J0.315
G1 Y26.876
G2 X17.502 Y27.191 I0.315 J0
G3 X31.22 Y40.356 I0.541 J13.166
G1 X31.217 Y42.983
X31.21 Y43.027
X31.189 Y43.066
X31.156 Y43.096
X31.116 Y43.114
X31.072 Y43.118
X31.029 Y43.108
X29.78 Y42.579
X29.746 Y42.558
X29.72 Y42.529
X29.703 Y42.493
X29.698 Y42.454
X29.7 Y40.356
G2 X15.932 Y28.886 I-11.662 J0
G3 X15.655 Y28.655 I-0.042 J-0.232
G1 Y21.345
G3 X15.932 Y21.114 I0.235 J0
G2 X29.7 Y9.644 I2.075 J-11.508
G1 X29.698 Y7.545
X29.69 Y7.501
X29.669 Y7.462
X29.636 Y7.432
X29.595 Y7.414
X29.551 Y7.411
X29.508 Y7.422
X28.259 Y7.975
X28.226 Y7.995
X28.2 Y8.025
X28.184 Y8.06
X28.178 Y8.098
X28.18 Y9.644
G3 X14.533 Y19.171 I-10.169 J-0.029
G1 X14.48 Y19.15
X14.427 Y19.129
G2 X14.135 Y19.333 I-0.074 J0.205
G1 Y30.667
G2 X14.427 Y30.871 I0.218 J0
G1 X14.48 Y30.85
X14.532 Y30.829
G3 X28.18 Y40.356 I3.498 J9.527
G1 X28.178 Y41.903
X28.171 Y41.946
X28.15 Y41.985
X28.117 Y42.016
X28.076 Y42.033
X28.032 Y42.037
X27.989 Y42.026
X26.739 Y41.473
X26.706 Y41.452
X26.681 Y41.423
X26.664 Y41.388
X26.659 Y41.349
X26.66 Y40.356
G2 X15.038 Y32.219 I-8.66 J0
X13.973 Y32.63 I9.916 J27.244
G3 X12.907 Y33.042 I-10.982 J-26.832
X12.615 Y32.837 I-0.074 J-0.205
G1 Y17.163
G3 X12.907 Y16.958 I0.218 J0
X13.973 Y17.37 I-9.917 J27.248
G2 X15.038 Y17.782 I10.972 J-26.808
X26.66 Y9.644 I2.962 J-8.138
G1 X26.659 Y8.651
X26.652 Y8.607
X26.63 Y8.568
X26.598 Y8.538
X26.557 Y8.52
X26.512 Y8.516
X26.469 Y8.527
X25.22 Y9.081
X25.187 Y9.101
X25.161 Y9.13
X25.145 Y9.166
X25.14 Y9.204
Y9.644
G3 X15.558 Y16.353 I-7.14 J0
X13.473 Y15.57 I37.636 J-103.411
G2 X11.387 Y14.787 I-39.799 J102.835
X11.095 Y14.992 I-0.074 J0.205
G1 Y35.008
G2 X11.387 Y35.213 I0.218 J0
X13.473 Y34.43 I-37.712 J-103.612
G3 X15.558 Y33.647 I39.797 J102.829
X25.14 Y40.356 I2.442 J6.709
G1 Y40.796
X25.132 Y40.84
X25.111 Y40.879
X25.078 Y40.909
X25.037 Y40.927
X24.993 Y40.93
X24.95 Y40.919
X23.699 Y40.363
X23.667 Y40.343
X23.641 Y40.314
X23.625 Y40.28
X23.619 Y40.242
G2 X16.078 Y35.075 I-5.619 J0.114
G1 X9.867 Y37.384
G3 X9.575 Y37.179 I-0.074 J-0.205
G1 Y12.821
G3 X9.867 Y12.616 I0.218 J0
G1 X16.078 Y14.925
G2 X23.619 Y9.757 I1.922 J-5.281
G1 X23.612 Y9.713
X23.592 Y9.673
X23.56 Y9.643
X23.519 Y9.624
X23.475 Y9.62
X23.432 Y9.63
X22.078 Y10.197
X22.039 Y10.221
X22.011 Y10.257
X21.997 Y10.3
G3 X16.615 Y13.449 I-3.997 J-0.656
G1 X8.05 Y10.332
Y39.668
X16.615 Y36.551
G3 X21.997 Y39.701 I1.385 J3.806
G1 X22.01 Y39.74
X22.034 Y39.774
X22.068 Y39.799
X22.107 Y39.812
X22.149
X22.189 Y39.8
X22.223 Y39.776
X35.674 Y26.951
X35.699 Y26.919
X35.713 Y26.882
X35.716 Y26.842
X35.706 Y26.803
X35.686 Y26.768
X35.648 Y26.722 Z-4.107
X35.612 Y26.677 Z-4.127
X35.58 Y26.638 Z-4.159
X35.553 Y26.604 Z-4.202
X35.533 Y26.579 Z-4.253
X35.52 Y26.564 Z-4.31
X35.516 Y26.559 Z-4.37
Z-5.88
X35.512 Y26.553 Z-5.94
X35.499 Y26.538 Z-5.997
X35.479 Y26.513 Z-6.048
X35.452 Y26.48 Z-6.091
X35.42 Y26.44 Z-6.123
X35.384 Y26.396 Z-6.143
X35.346 Y26.349 Z-6.15
X35.34 Y26.341
G2 X34.364 Y25.214 I-17.583 J14.241
G3 X34.364 Y24.786 I0.231 J-0.214
G2 X35.339 Y23.66 I-16.607 J-15.367
G1 X35.36 Y23.625
X35.369 Y23.587
X35.587 Y21.18
G2 X35.34 Y21.094 I-0.134 J-0.012
G3 X32.179 Y24.828 I-17.437 J-11.554
G2 X32.179 Y25.172 I0.161 J0.172
G3 X35.34 Y28.874 I-14.038 J15.184
G1 X35.355 Y28.905
X35.362 Y28.939
X35.596 Y31.838
G3 X35.34 Y31.909 I-0.135 J0.011
G2 X29.857 Y25.185 I-17.223 J8.448
G3 X29.857 Y24.815 I0.145 J-0.185
G2 X35.34 Y18.043 I-11.93 J-15.264
G1 X35.349 Y18.018
X35.353 Y17.992
X35.606 Y13.539
G2 X35.34 Y13.502 I-0.135 J-0.008
G3 X27.127 Y24.85 I-17.388 J-3.938
G2 X27.127 Y25.15 I0.09 J0.15
G3 X35.34 Y36.435 I-9.035 J15.206
G1 X35.343 Y36.459
X35.342 Y36.484
X34.526 Y42.219
G3 X34.258 Y42.2 I-0.134 J-0.019
G1 X34.26 Y40.356
G2 X23.554 Y25.122 I-16.192 J0
G1 X23.515 Y25.1
X23.486 Y25.065
X23.471 Y25.023
Y24.977
X23.486 Y24.935
X23.515 Y24.9
X23.554 Y24.878
G2 X34.26 Y9.644 I-5.578 J-15.299
G1 X34.258 Y7.801
X34.25 Y7.757
X34.228 Y7.717
X34.195 Y7.687
X32.944 Y6.891
X32.907 Y6.875
X32.866 Y6.87
X32.825 Y6.878
X32.789 Y6.898
X32.761 Y6.928
X32.743 Y6.965
X32.737 Y7.005
X32.74 Y9.644
G3 X18.989 Y24.305 I-14.743 J-0.048
G2 X18.695 Y24.62 I0.021 J0.315
G1 Y25.38
G2 X18.989 Y25.695 I0.315 J0
G3 X32.74 Y40.356 I-0.941 J14.662
G1 X32.737 Y42.995
X32.73 Y43.036
X32.711 Y43.074
X32.68 Y43.104
X32.642 Y43.123
X32.601 Y43.129
X31.351 Y43.118
X31.309 Y43.112
X31.272 Y43.092
X31.242 Y43.062
X31.223 Y43.025
X31.217 Y42.983
X31.22 Y40.356
G2 X17.502 Y27.191 I-13.177 J0
G3 X17.175 Y26.876 I-0.012 J-0.315
G1 Y23.124
G3 X17.502 Y22.809 I0.315 J0
G2 X31.22 Y9.644 I0.499 J-13.209
G1 X31.217 Y7.017
X31.21 Y6.973
X31.189 Y6.935
X31.156 Y6.905
X31.116 Y6.887
X31.072 Y6.882
X31.029 Y6.893
X29.78 Y7.42
X29.746 Y7.441
X29.72 Y7.47
X29.703 Y7.506
X29.698 Y7.545
X29.7 Y9.644
G3 X15.932 Y21.114 I-11.693 J-0.038
G2 X15.655 Y21.345 I-0.042 J0.232
G1 Y28.655
G2 X15.932 Y28.886 I0.235 J0
G3 X29.7 Y40.356 I2.106 J11.47
G1 X29.698 Y42.454
X29.69 Y42.498
X29.669 Y42.537
X29.636 Y42.567
X29.595 Y42.585
X29.551 Y42.589
X29.508 Y42.578
X28.259 Y42.026
X28.226 Y42.006
X28.2 Y41.976
X28.184 Y41.941
X28.178 Y41.903
X28.18 Y40.356
G2 X14.532 Y30.829 I-10.149 J0
G1 X14.48 Y30.85
X14.427 Y30.871
G3 X14.135 Y30.667 I-0.074 J-0.205
G1 Y19.333
G3 X14.427 Y19.129 I0.218 J0
G1 X14.48 Y19.15
X14.533 Y19.171
G2 X28.18 Y9.644 I3.478 J-9.556
G1 X28.178 Y8.098
X28.171 Y8.055
X28.15 Y8.015
X28.117 Y7.985
X28.076 Y7.968
X28.032 Y7.964
X27.989 Y7.975
X26.739 Y8.527
X26.706 Y8.548
X26.681 Y8.577
X26.664 Y8.612
X26.659 Y8.651
X26.66 Y9.644
G3 X15.038 Y17.782 I-8.66 J0
X13.973 Y17.37 I9.906 J-27.219
G2 X12.907 Y16.958 I-10.983 J26.836
X12.615 Y17.163 I-0.074 J0.205
G1 Y32.837
G2 X12.907 Y33.042 I0.218 J0
X13.973 Y32.63 I-9.916 J-27.244
G3 X15.038 Y32.219 I10.982 J26.832
X26.66 Y40.356 I2.962 J8.138
G1 X26.659 Y41.349
X26.652 Y41.393
X26.63 Y41.432
X26.598 Y41.462
X26.557 Y41.48
X26.512 Y41.484
X26.469 Y41.473
X25.22 Y40.92
X25.187 Y40.899
X25.161 Y40.87
X25.145 Y40.835
X25.14 Y40.796
Y40.356
G2 X15.558 Y33.647 I-7.14 J0
X13.473 Y34.43 I37.712 J103.612
G3 X11.387 Y35.213 I-39.797 J-102.829
X11.095 Y35.008 I-0.074 J-0.205
G1 Y14.992
G3 X11.387 Y14.787 I0.218 J0
X13.473 Y15.57 I-37.714 J103.618
G2 X15.558 Y16.353 I39.721 J-102.628
X25.14 Y9.644 I2.442 J-6.709
G1 Y9.204
X25.132 Y9.16
X25.111 Y9.121
X25.078 Y9.091
X25.037 Y9.073
X24.993 Y9.07
X24.95 Y9.081
X23.699 Y9.636
X23.667 Y9.656
X23.641 Y9.685
X23.625 Y9.719
X23.619 Y9.757
G3 X16.078 Y14.925 I-5.619 J-0.113
G1 X9.867 Y12.616
G2 X9.575 Y12.821 I-0.074 J0.205
G1 Y37.179
G2 X9.867 Y37.384 I0.218 J0
X12.973 Y36.229 I-83.418 J-229.188
G3 X16.078 Y35.075 I86.216 J227.206
X23.619 Y40.242 I1.922 J5.281
G1 X23.612 Y40.286
X23.592 Y40.326
X23.56 Y40.357
X23.519 Y40.375
X23.475 Y40.38
X23.432 Y40.37
X22.078 Y39.803
X22.039 Y39.779
X22.011 Y39.743
X21.997 Y39.701
G2 X16.615 Y36.551 I-3.997 J0.656
G1 X8.05 Y39.668
Y10.332
X16.615 Y13.449
G2 X21.997 Y10.3 I1.385 J-3.806
G1 X21.995 Y10.261
X21.979 Y10.225
X21.95 Y10.199
X21.913 Y10.186
X21.875 Y10.187
X21.839 Y10.203
X21.813 Y10.232
X21.799 Y10.268
G3 X16.683 Y13.262 I-3.799 J-0.624
G1 X8.051 Y10.12
X8.004 Y10.111
X7.957 Y10.117
X7.914 Y10.138
X7.88 Y10.171
X7.858 Y10.214
X7.85 Y10.261
Y39.739
X7.858 Y39.786
X7.88 Y39.829
X7.914 Y39.862
X7.957 Y39.883
X8.004 Y39.889
X8.051 Y39.88
X16.683 Y36.738
G3 X21.799 Y39.731 I1.317 J3.618
G1 X22.018 Y41.063
X22.028 Y41.123 Z-6.143
X22.037 Y41.179 Z-6.123
X22.045 Y41.229 Z-6.091
X22.052 Y41.272 Z-6.048
X22.058 Y41.303 Z-5.997
X22.061 Y41.323 Z-5.94
X22.062 Y41.33 Z-5.88
Z10
(When using Fusion 360 for Personal Use, the feedrate of)
(rapid moves is reduced to match the feedrate of cutting)
(moves, which can increase machining time. Unrestricted rapid)
(moves are available with a Fusion 360 Subscription.)

(2D Contour2 2)
G0 X21.55 Y40.356
G1 Z10 F1000
Z5
Z3.06 F333.3
Z-2.05
G2 X16.786 Y37.02 I-3.55 J0 F1000
G1 X8.154 Y40.162
G3 X7.55 Y39.739 I-0.154 J-0.423
G1 Y10.261
G3 X8.154 Y9.838 I0.45 J0
G1 X16.786 Y12.98
G2 X21.55 Y9.644 I1.214 J-3.336
G1 Z5
Y40.356
Z1.01 F333.3
Z-4.1
G2 X16.786 Y37.02 I-3.55 J0 F1000
G1 X8.154 Y40.162
G3 X7.55 Y39.739 I-0.154 J-0.423
G1 Y10.261
G3 X8.154 Y9.838 I0.45 J0
G1 X16.786 Y12.98
G2 X21.55 Y9.644 I1.214 J-3.336
G1 Z5
Y40.356
Z-1.04 F333.3
Z-6.15
G2 X16.786 Y37.02 I-3.55 J0 F1000
G1 X8.154 Y40.162
G3 X7.55 Y39.739 I-0.154 J-0.423
G1 Y10.261
G3 X8.154 Y9.838 I0.45 J0
G1 X16.786 Y12.98
G2 X21.55 Y9.644 I1.214 J-3.336
G1 Z5
X21.35 Y40.356
Z-1.04 F333.3
Z-6.15
G2 X16.854 Y37.208 I-3.35 J0 F1000
G1 X8.222 Y40.35
G3 X7.35 Y39.739 I-0.222 J-0.611
G1 Y10.261
G3 X8.222 Y9.65 I0.65 J0
G1 X16.854 Y12.792
G2 X21.35 Y9.644 I1.146 J-3.148
G1 Z10
(When using Fusion 360 for Personal Use, the feedrate of)
(rapid moves is reduced to match the feedrate of cutting)
(moves, which can increase machining time. Unrestricted rapid)
(moves are available with a Fusion 360 Subscription.)

(2D Contour3 2)
G0 X20 Y-1.55
G1 Z10 F1000
Z5
Z3 F333.3
Z-1.793
X0 F1000
G2 X-1.55 Y0 I0 J1.55
G1 Y50
G2 X0 Y51.55 I1.55 J0
G1 X20
G2 X21.55 Y50 I0 J-1.55
G1 Y40.356
G3 X22.154 Y39.933 I0.45 J0
G1 X30.786 Y43.075
G2 X35.55 Y39.739 I1.214 J-3.336
G1 Y10.261
G2 X30.786 Y6.925 I-3.55 J0
G1 X22.154 Y10.067
G3 X21.55 Y9.644 I-0.154 J-0.423
G1 Y0
G2 X20 Y-1.55 I-1.55 J0
G1 Z-3.586 F333.3
X0 F1000
G2 X-1.55 Y0 I0 J1.55
G1 Y50
G2 X0 Y51.55 I1.55 J0
G1 X20
G2 X21.55 Y50 I0 J-1.55
G1 Y40.356
G3 X22.154 Y39.933 I0.45 J0
G1 X30.786 Y43.075
G2 X35.55 Y39.739 I1.214 J-3.336
G1 Y10.261
G2 X30.786 Y6.925 I-3.55 J0
G1 X22.154 Y10.067
G3 X21.55 Y9.644 I-0.154 J-0.423
G1 Y0
G2 X20 Y-1.55 I-1.55 J0
G1 Z-5.379 F333.3
X0 F1000
G2 X-1.55 Y0 I0 J1.55
G1 Y50
G2 X0 Y51.55 I1.55 J0
G1 X20
G2 X21.55 Y50 I0 J-1.55
G1 Y40.356
G3 X22.154 Y39.933 I0.45 J0
G1 X30.786 Y43.075
G2 X35.55 Y39.739 I1.214 J-3.336
G1 Y10.261
G2 X30.786 Y6.925 I-3.55 J0
G1 X22.154 Y10.067
G3 X21.55 Y9.644 I-0.154 J-0.423
G1 Y0
G2 X20 Y-1.55 I-1.55 J0
G1 Z-7.171 F333.3
X0 F1000
G2 X-1.55 Y0 I0 J1.55
G1 Y50
G2 X0 Y51.55 I1.55 J0
G1 X20
G2 X21.55 Y50 I0 J-1.55
G1 Y40.356
G3 X22.154 Y39.933 I0.45 J0
G1 X30.786 Y43.075
G2 X35.55 Y39.739 I1.214 J-3.336
G1 Y10.261
G2 X30.786 Y6.925 I-3.55 J0
G1 X22.154 Y10.067
G3 X21.55 Y9.644 I-0.154 J-0.423
G1 Y0
G2 X20 Y-1.55 I-1.55 J0
G1 Z-8.964 F333.3
X0 F1000
G2 X-1.55 Y0 I0 J1.55
G1 Y50
G2 X0 Y51.55 I1.55 J0
G1 X20
G2 X21.55 Y50 I0 J-1.55
G1 Y40.356
G3 X22.154 Y39.933 I0.45 J0
G1 X30.786 Y43.075
G2 X35.55 Y39.739 I1.214 J-3.336
G1 Y10.261
G2 X30.786 Y6.925 I-3.55 J0
G1 X22.154 Y10.067
G3 X21.55 Y9.644 I-0.154 J-0.423
G1 Y0
G2 X20 Y-1.55 I-1.55 J0
G1 Z-10.757 F333.3
X0 F1000
G2 X-1.55 Y0 I0 J1.55
G1 Y9.65
Z-9.75
Y15.35
Z-10.757 F333.3
Y34.65 F1000
Z-9.75
Y40.35
Z-10.757 F333.3
Y50 F1000
G2 X0 Y51.55 I1.55 J0
G1 X20
G2 X21.55 Y50 I0 J-1.55
G1 Y40.356
G3 X22.154 Y39.933 I0.45 J0
G1 X30.786 Y43.075
G2 X35.55 Y39.739 I1.214 J-3.336
G1 Y27.85
Z-9.75
Y22.15
Z-10.757 F333.3
Y10.261 F1000
G2 X30.786 Y6.925 I-3.55 J0
G1 X22.154 Y10.067
G3 X21.55 Y9.644 I-0.154 J-0.423
G1 Y0
G2 X20 Y-1.55 I-1.55 J0
G1 Z-12.55 F333.3
X0 F1000
G2 X-1.55 Y0 I0 J1.55
G1 Y9.65
Z-9.75
Y15.35
Z-12.55 F333.3
Y34.65 F1000
Z-9.75
Y40.35
Z-12.55 F333.3
Y50 F1000
G2 X0 Y51.55 I1.55 J0
G1 X20
G2 X21.55 Y50 I0 J-1.55
G1 Y40.356
G3 X22.154 Y39.933 I0.45 J0
G1 X30.786 Y43.075
G2 X35.55 Y39.739 I1.214 J-3.336
G1 Y27.85
Z-9.75
Y22.15
Z-12.55 F333.3
Y10.261 F1000
G2 X30.786 Y6.925 I-3.55 J0
G1 X22.154 Y10.067
G3 X21.55 Y9.644 I-0.154 J-0.423
G1 Y0
G2 X20 Y-1.55 I-1.55 J0
G1 X19.953 Y-1.543
X19.91 Y-1.523
X19.875 Y-1.491
X19.85 Y-1.45
X19.825 Y-1.409
X19.79 Y-1.377
X19.747 Y-1.357
X19.7 Y-1.35
X0
G2 X-1.35 Y0 I0 J1.35
G1 Y9.65
Z-9.75
Y15.35
Z-12.55 F333.3
Y34.65 F1000
Z-9.75
Y40.35
Z-12.55 F333.3
Y50 F1000
G2 X0 Y51.35 I1.35 J0
G1 X20
G2 X21.35 Y50 I0 J-1.35
G1 Y40.356
G3 X22.222 Y39.745 I0.65 J0
G1 X30.854 Y42.887
G2 X35.35 Y39.739 I1.146 J-3.148
G1 Y27.85
Z-9.75
Y22.15
Z-12.55 F333.3
Y10.261 F1000
G2 X30.854 Y7.113 I-3.35 J0
G1 X22.222 Y10.255
G3 X21.35 Y9.644 I-0.222 J-0.611
G1 Y0
G2 X20 Y-1.35 I-1.35 J0
G1 X19.7
Z10
M5
M30
