(1059_walltest_27bit_1234_gap)
(T1  D=2.7 CR=0 - ZMIN=-12.34 - flat end mill)
G90 G94
G17
G21
(When using Fusion 360 for Personal Use, the feedrate of)
(rapid moves is reduced to match the feedrate of cutting)
(moves, which can increase machining time. Unrestricted rapid)
(moves are available with a Fusion 360 Subscription.)

(2D Contour6)
T1
S5000 M3
G54
G0 X0 Y-1.55
Z10
G1 Z5 F1000
Z3 F333.3
Z-1.763
G2 X-1.55 Y0 I0 J1.55 F1000
G1 Y60
G2 X0 Y61.55 I1.55 J0
G1 X13.83
G2 X15.38 Y60 I0 J-1.55
G1 Y33.2
G2 X13.83 Y31.65 I-1.55 J0
G1 X13.78
Y31.55
X26.22
Y31.65
X26.17
G2 X24.62 Y33.2 I0 J1.55
G1 Y60
G2 X26.17 Y61.55 I1.55 J0
G1 X40
G2 X41.55 Y60 I0 J-1.55
G1 Y0
G2 X40 Y-1.55 I-1.55 J0
G1 X0
Z-3.526 F333.3
G2 X-1.55 Y0 I0 J1.55 F1000
G1 Y60
G2 X0 Y61.55 I1.55 J0
G1 X13.83
G2 X15.38 Y60 I0 J-1.55
G1 Y33.2
G2 X13.83 Y31.65 I-1.55 J0
G1 X13.78
Y31.55
X26.22
Y31.65
X26.17
G2 X24.62 Y33.2 I0 J1.55
G1 Y60
G2 X26.17 Y61.55 I1.55 J0
G1 X40
G2 X41.55 Y60 I0 J-1.55
G1 Y0
G2 X40 Y-1.55 I-1.55 J0
G1 X0
Z-5.289 F333.3
G2 X-1.55 Y0 I0 J1.55 F1000
G1 Y60
G2 X0 Y61.55 I1.55 J0
G1 X13.83
G2 X15.38 Y60 I0 J-1.55
G1 Y33.2
G2 X13.83 Y31.65 I-1.55 J0
G1 X13.78
Y31.55
X26.22
Y31.65
X26.17
G2 X24.62 Y33.2 I0 J1.55
G1 Y60
G2 X26.17 Y61.55 I1.55 J0
G1 X40
G2 X41.55 Y60 I0 J-1.55
G1 Y0
G2 X40 Y-1.55 I-1.55 J0
G1 X0
Z-7.051 F333.3
G2 X-1.55 Y0 I0 J1.55 F1000
G1 Y60
G2 X0 Y61.55 I1.55 J0
G1 X13.83
G2 X15.38 Y60 I0 J-1.55
G1 Y33.2
G2 X13.83 Y31.65 I-1.55 J0
G1 X13.78
Y31.55
X26.22
Y31.65
X26.17
G2 X24.62 Y33.2 I0 J1.55
G1 Y60
G2 X26.17 Y61.55 I1.55 J0
G1 X40
G2 X41.55 Y60 I0 J-1.55
G1 Y0
G2 X40 Y-1.55 I-1.55 J0
G1 X0
Z-8.814 F333.3
G2 X-1.55 Y0 I0 J1.55 F1000
G1 Y60
G2 X0 Y61.55 I1.55 J0
G1 X13.83
G2 X15.38 Y60 I0 J-1.55
G1 Y33.2
G2 X13.83 Y31.65 I-1.55 J0
G1 X13.78
Y31.55
X26.22
Y31.65
X26.17
G2 X24.62 Y33.2 I0 J1.55
G1 Y60
G2 X26.17 Y61.55 I1.55 J0
G1 X40
G2 X41.55 Y60 I0 J-1.55
G1 Y0
G2 X40 Y-1.55 I-1.55 J0
G1 X0
Z-10.577 F333.3
G2 X-1.55 Y0 I0 J1.55 F1000
G1 Y25.517
Z-9.54
Y31.216
Z-10.577 F333.3
Y60 F1000
G2 X0 Y61.55 I1.55 J0
G1 X3.551
Z-9.54
X9.251
Z-10.577 F333.3
X13.83 F1000
G2 X15.38 Y60 I0 J-1.55
G1 Y33.2
G2 X13.83 Y31.65 I-1.55 J0
G1 X13.78
Y31.55
X26.22
Y31.65
X26.17
G2 X24.62 Y33.2 I0 J1.55
G1 Y60
G2 X26.17 Y61.55 I1.55 J0
G1 X30.129
Z-9.54
X35.829
Z-10.577 F333.3
X40 F1000
G2 X41.55 Y60 I0 J-1.55
G1 Y31.424
Z-9.54
Y25.725
Z-10.577 F333.3
Y0 F1000
G2 X40 Y-1.55 I-1.55 J0
G1 X23.876
Z-9.54
X18.177
Z-10.577 F333.3
X0 F1000
Z-12.34 F333.3
G2 X-1.55 Y0 I0 J1.55 F1000
G1 Y25.517
Z-9.54
Y31.216
Z-12.34 F333.3
Y60 F1000
G2 X0 Y61.55 I1.55 J0
G1 X3.551
Z-9.54
X9.251
Z-12.34 F333.3
X13.83 F1000
G2 X15.38 Y60 I0 J-1.55
G1 Y33.2
G2 X13.83 Y31.65 I-1.55 J0
G1 X13.78
Y31.55
X26.22
Y31.65
X26.17
G2 X24.62 Y33.2 I0 J1.55
G1 Y60
G2 X26.17 Y61.55 I1.55 J0
G1 X30.129
Z-9.54
X35.829
Z-12.34 F333.3
X40 F1000
G2 X41.55 Y60 I0 J-1.55
G1 Y31.424
Z-9.54
Y25.725
Z-12.34 F333.3
Y0 F1000
G2 X40 Y-1.55 I-1.55 J0
G1 X23.876
Z-9.54
X18.177
Z-12.34 F333.3
X0 F1000
X-0.05 Y-1.542
X-0.095 Y-1.52
X-0.131 Y-1.486
X-0.155 Y-1.442
X-0.178 Y-1.398
X-0.211 Y-1.361
X-0.251 Y-1.334
X-0.298 Y-1.317
G2 X-1.35 Y0 I0.298 J1.317
G1 Y25.517
Z-9.54
Y31.216
Z-12.34 F333.3
Y60 F1000
G2 X0 Y61.35 I1.35 J0
G1 X3.551
Z-9.54
X9.251
Z-12.34 F333.3
X13.83 F1000
G2 X15.18 Y60 I0 J-1.35
G1 Y33.2
G2 X13.83 Y31.85 I-1.35 J0
G1 X13.58
Y31.35
X26.42
Y31.85
X26.17
G2 X24.82 Y33.2 I0 J1.35
G1 Y60
G2 X26.17 Y61.35 I1.35 J0
G1 X30.129
Z-9.54
X35.829
Z-12.34 F333.3
X40 F1000
G2 X41.35 Y60 I0 J-1.35
G1 Y31.424
Z-9.54
Y25.725
Z-12.34 F333.3
Y0 F1000
G2 X40 Y-1.35 I-1.35 J0
G1 X23.876
Z-9.54
X18.177
Z-12.34 F333.3
X0 F1000
G2 X-0.298 Y-1.317 I0 J1.35
G1 Z10
M5
M30
