(1074_wall_27bit_ch_gap_depth_tab_pos)
(T1  D=2.7 CR=0 - ZMIN=-12.3 - flat end mill)
G90 G94
G17
G21
(When using Fusion 360 for Personal Use, the feedrate of)
(rapid moves is reduced to match the feedrate of cutting)
(moves, which can increase machining time. Unrestricted rapid)
(moves are available with a Fusion 360 Subscription.)

(2D Pocket tabs)
T1
S5000 M3
G54
G0 X-1.347 Y33.181
Z10
G1 Z5 F1000
Z3.07 F333.3
Z-1.983 F1000
X-1.34 Y33.189
G2 X0.345 Y34.824 I17.207 J-16.045
G3 X0.345 Y35.176 I-0.156 J0.176
G2 X-1.34 Y36.824 I15.744 J17.781
G1 X-1.345 Y36.837
X-1.376 Y39.144
X-1.369 Y39.159
X-1.354 Y39.164
X-1.34 Y39.157
G3 X2.733 Y35.188 I17.408 J13.79
G2 X2.733 Y34.812 I-0.141 J-0.188
G3 X-1.34 Y30.871 I13.155 J-17.668
G1 X-1.344 Y30.859
X-1.377 Y28.287
X-1.37 Y28.271
X-1.354 Y28.266
X-1.34 Y28.275
G2 X5.519 Y34.849 I17.248 J-11.132
G3 X5.519 Y35.151 I-0.089 J0.151
G2 X-1.34 Y41.763 I10.528 J17.785
G1 X-1.343 Y41.774
X-1.378 Y44.899
X-1.374 Y44.911
X-1.362 Y44.919
X-1.349 Y44.917
X-1.34 Y44.907
G3 X9.032 Y35.121 I17.366 J8.015
G1 X9.07 Y35.098
X9.098 Y35.064
X9.112 Y35.022
Y34.978
X9.098 Y34.936
X9.07 Y34.902
X9.032 Y34.879
G3 X-1.34 Y25.137 I6.898 J-17.735
G1 X-1.342 Y25.129
X-1.38 Y20.037
X-1.375 Y20.024
X-1.361 Y20.017
X-1.347 Y20.021
X-1.34 Y20.034
G2 X12.136 Y34.248 I17.282 J-2.89
G3 X12.357 Y34.378 I-0.093 J0.412
G1 X12.362 Y34.391
Y35.609
X12.357 Y35.623
G3 X12.136 Y35.752 I-0.314 J-0.282
G2 X-1.34 Y50.016 I3.877 J17.16
G1 Y50.024
X-0.097 Y54.869
X-0.089 Y54.881
X-0.075 Y54.884
X-0.063 Y54.877
X-0.058 Y54.864
X-0.06 Y52.856
G3 X13.715 Y37.005 I16.068 J0.052
G2 X13.978 Y36.757 I-0.045 J-0.312
G1 X13.988 Y36.744
X15.475 Y35.888
X15.488 Y35.886
X15.5 Y35.892
X15.505 Y35.905
Y38.068
G3 X15.207 Y38.383 I-0.315 J0
G2 X1.46 Y52.856 I0.796 J14.521
G1 X1.463 Y55.532
Y55.542
Z5
X13.981 Y33.253
Z3.07 F333.3
Z-1.983 F1000
X13.978 Y33.243
G2 X13.715 Y32.995 I-0.309 J0.064
G3 X-0.06 Y17.144 I2.233 J-15.851
G1 X-0.058 Y15.136
X-0.054 Y15.125
X-0.046 Y15.118
X1.435 Y14.45
X1.448 Y14.449
X1.459 Y14.456
X1.463 Y14.468
X1.46 Y17.144
G2 X15.207 Y31.617 I14.492 J0
G3 X15.505 Y31.932 I-0.017 J0.315
G1 Y34.094
G3 X14.365 Y34.62 I-0.691 J0
G1 X12.045 Y32.645
X11.995 Y32.597
X0.431 Y20.55
G3 X0.067 Y19.564 I0.95 J-0.911
G1 X0.352 Y14.498
G3 X2.983 Y14.573 I1.314 J0.074
G1 X2.98 Y17.144
G2 X16.776 Y30.095 I12.978 J0
G3 X17.025 Y30.33 I0.014 J0.235
G1 Y39.67
G3 X16.776 Y39.905 I-0.235 J0
G2 X2.98 Y52.856 I-0.778 J12.994
G1 X2.983 Y55.427
X2.987 Y55.439
X2.997 Y55.446
X3.01 Y55.445
X4.489 Y54.901
X4.499 Y54.894
X4.502 Y54.882
X4.5 Y52.856
G3 X18.263 Y41.627 I11.493 J0.037
G2 X18.545 Y41.396 I0.046 J-0.231
G1 Y28.604
G2 X18.263 Y28.373 I-0.235 J0
G3 X4.5 Y17.144 I-2.301 J-11.229
G1 X4.502 Y15.117
X4.506 Y15.105
X4.517 Y15.098
X4.529 Y15.099
X6.008 Y15.652
X6.018 Y15.659
X6.021 Y15.671
X6.02 Y17.144
G2 X19.402 Y26.491 I9.956 J0
G1 X19.587 Y26.417
X19.773 Y26.343
G3 X20.065 Y26.548 I0.074 J0.205
G1 Y43.452
G3 X19.773 Y43.657 I-0.218 J0
G1 X19.587 Y43.583
X19.402 Y43.509
G2 X6.02 Y52.856 I-3.41 J9.37
G1 X6.021 Y54.33
X6.025 Y54.342
X6.036 Y54.349
X6.048
X7.528 Y53.795
X7.537 Y53.788
X7.541 Y53.776
X7.54 Y52.856
G3 X18.893 Y44.906 I8.46 J0
X20.093 Y45.367 I-12.535 J34.442
G2 X21.293 Y45.828 I13.751 J-34.025
X21.585 Y45.623 I0.074 J-0.205
G1 Y24.377
G2 X21.293 Y24.172 I-0.218 J0
X20.093 Y24.633 I12.55 J34.482
G3 X18.893 Y25.094 I-13.75 J-34.021
X7.54 Y17.144 I-2.893 J-7.95
G1 X7.541 Y16.224
X7.545 Y16.212
X7.555 Y16.205
X7.568
X9.047 Y16.758
X9.057 Y16.766
X9.06 Y16.777
Y17.144
G2 X18.374 Y23.665 I6.94 J0
X20.593 Y22.833 I-42.703 J-117.324
G3 X22.813 Y22.002 I44.922 J116.492
X23.105 Y22.206 I0.074 J0.205
G1 Y47.794
G3 X22.813 Y47.998 I-0.218 J0
X20.593 Y47.167 I42.704 J-117.329
G2 X18.373 Y46.335 I-44.821 J116.222
X9.06 Y52.856 I-2.373 J6.522
G1 Y53.223
X9.064 Y53.235
X9.075 Y53.242
X9.087 Y53.241
X10.57 Y52.687
X10.579 Y52.68
X10.583 Y52.669
G3 X17.854 Y47.763 I5.417 J0.187
G1 X24.333 Y50.169
G2 X24.625 Y49.965 I0.074 J-0.205
G1 Y20.035
G2 X24.333 Y19.831 I-0.218 J0
G1 X17.854 Y22.237
G3 X10.583 Y17.331 I-1.854 J-5.093
G1 X10.587 Y17.319
X10.596 Y17.311
X10.609
X12.187 Y17.753
X12.196 Y17.759
X12.201 Y17.769
G2 X17.317 Y20.762 I3.799 J-0.625
G1 X25.949 Y17.62
X25.996 Y17.611
X26.043 Y17.617
X26.086 Y17.638
X26.12 Y17.671
X26.142 Y17.714
X26.15 Y17.761
Y52.239
X26.142 Y52.286
X26.12 Y52.329
X26.086 Y52.362
X26.043 Y52.383
X25.996 Y52.389
X25.949 Y52.38
X17.317 Y49.238
G2 X12.201 Y52.232 I-1.317 J3.618
G1 X12.193 Y52.244
X12.179 Y52.249
X12.166 Y52.242
X-1.347 Y36.859
X-1.352 Y36.845
X-1.347 Y36.832
Z-3.967
X-1.34 Y36.824
G3 X0.345 Y35.176 I17.429 J16.133
G2 X0.345 Y34.824 I-0.156 J-0.176
G3 X-1.34 Y33.189 I15.522 J-17.68
G1 X-1.345 Y33.176
X-1.376 Y30.883
X-1.369 Y30.869
X-1.354 Y30.863
X-1.34 Y30.871
G2 X2.733 Y34.812 I17.228 J-13.727
G3 X2.733 Y35.188 I-0.141 J0.188
G2 X-1.34 Y39.157 I13.335 J17.759
G1 X-1.344 Y39.169
X-1.377 Y41.752
X-1.37 Y41.767
X-1.354 Y41.772
X-1.34 Y41.763
G3 X5.519 Y35.151 I17.387 J11.172
G2 X5.519 Y34.849 I-0.089 J-0.151
G3 X-1.34 Y28.275 I10.389 J-17.706
G1 X-1.343 Y28.265
X-1.378 Y25.146
X-1.374 Y25.133
X-1.362 Y25.126
X-1.349 Y25.127
X-1.34 Y25.137
G2 X9.032 Y34.879 I17.269 J-7.993
G1 X9.07 Y34.902
X9.098 Y34.936
X9.112 Y34.978
Y35.022
X9.098 Y35.064
X9.07 Y35.098
X9.032 Y35.121
G2 X-1.34 Y44.907 I6.994 J17.801
G1 X-1.342 Y44.916
X-1.38 Y50.012
X-1.374 Y50.026
X-1.361 Y50.032
X-1.347 Y50.028
X-1.34 Y50.016
G3 X12.136 Y35.752 I17.353 J2.897
G2 X12.357 Y35.623 I-0.093 J-0.412
G1 X12.362 Y35.609
Y34.391
X12.357 Y34.378
G2 X12.136 Y34.248 I-0.314 J0.282
G3 X-1.34 Y20.034 I3.807 J-17.104
G1 Y20.026
X-0.097 Y15.131
X-0.089 Y15.12
X-0.075 Y15.116
X-0.063 Y15.123
X-0.058 Y15.136
X-0.06 Y17.144
G2 X13.715 Y32.995 I16.008 J0
G3 X13.978 Y33.243 I-0.045 J0.312
G1 X13.988 Y33.256
X15.475 Y34.111
X15.488 Y34.113
X15.5 Y34.106
X15.505 Y34.094
Y31.932
G2 X15.207 Y31.617 I-0.315 J0
G3 X1.46 Y17.144 I0.746 J-14.473
G1 X1.463 Y14.468
Y14.458
Z1.087
X13.981 Y36.747
Z-3.967
X13.978 Y36.757
G3 X13.715 Y37.005 I-0.309 J-0.064
G2 X-0.06 Y52.856 I2.293 J15.903
G1 X-0.058 Y54.864
X-0.054 Y54.875
X-0.046 Y54.882
X1.435 Y55.55
X1.448 Y55.551
X1.459 Y55.544
X1.463 Y55.532
X1.46 Y52.856
G3 X15.207 Y38.383 I14.543 J0.048
G2 X15.505 Y38.068 I-0.017 J-0.315
G1 Y35.905
G2 X14.365 Y35.379 I-0.692 J0
G1 X12.043 Y37.355
X11.993 Y37.402
X0.43 Y49.447
G2 X0.066 Y50.433 I0.95 J0.912
G1 X0.352 Y55.502
G2 X2.983 Y55.427 I1.314 J-0.074
G1 X2.98 Y52.856
G3 X16.776 Y39.905 I13.017 J0.042
G2 X17.025 Y39.67 I0.014 J-0.235
G1 Y30.33
G2 X16.776 Y30.095 I-0.235 J0
G3 X2.98 Y17.144 I-0.818 J-12.952
G1 X2.983 Y14.573
X2.987 Y14.561
X2.997 Y14.554
X3.01
X4.489 Y15.099
X4.499 Y15.106
X4.502 Y15.117
X4.5 Y17.144
G2 X18.263 Y28.373 I11.462 J0
G3 X18.545 Y28.604 I0.046 J0.231
G1 Y41.396
G3 X18.263 Y41.627 I-0.235 J0
G2 X4.5 Y52.856 I-2.271 J11.266
G1 X4.502 Y54.882
X4.506 Y54.894
X4.516 Y54.901
X4.529
X6.008 Y54.349
X6.018 Y54.341
X6.021 Y54.33
X6.02 Y52.856
G3 X19.402 Y43.509 I9.972 J0.023
G1 X19.587 Y43.583
X19.773 Y43.657
G2 X20.065 Y43.452 I0.074 J-0.205
G1 Y26.548
G2 X19.773 Y26.343 I-0.218 J0
G1 X19.587 Y26.417
X19.402 Y26.491
G3 X6.02 Y17.144 I-3.426 J-9.348
G1 X6.021 Y15.671
X6.025 Y15.659
X6.036 Y15.651
X6.048 Y15.652
X7.528 Y16.205
X7.537 Y16.212
X7.541 Y16.224
X7.54 Y17.144
G2 X18.893 Y25.094 I8.46 J0
X20.093 Y24.633 I-12.55 J-34.482
G3 X21.293 Y24.172 I13.75 J34.021
X21.585 Y24.377 I0.074 J0.205
G1 Y45.623
G3 X21.293 Y45.828 I-0.218 J0
X20.093 Y45.367 I12.552 J-34.486
G2 X18.893 Y44.906 I-13.735 J33.981
X7.54 Y52.856 I-2.893 J7.95
G1 X7.541 Y53.776
X7.545 Y53.788
X7.555 Y53.795
X7.568
X9.047 Y53.242
X9.057 Y53.234
X9.06 Y53.223
Y52.856
G3 X18.373 Y46.335 I6.94 J0
X20.593 Y47.167 I-42.601 J117.054
G2 X22.813 Y47.998 I44.924 J-116.497
X23.105 Y47.794 I0.074 J-0.205
G1 Y22.206
G2 X22.813 Y22.002 I-0.218 J0
X20.593 Y22.833 I42.703 J117.324
G3 X18.374 Y23.665 I-44.922 J-116.492
X9.06 Y17.144 I-2.374 J-6.521
G1 Y16.777
X9.064 Y16.765
X9.075 Y16.758
X9.087
X10.57 Y17.313
X10.579 Y17.32
X10.583 Y17.331
G2 X17.854 Y22.237 I5.417 J-0.187
G1 X24.333 Y19.831
G3 X24.625 Y20.035 I0.074 J0.205
G1 Y49.965
G3 X24.333 Y50.169 I-0.218 J0
G1 X17.854 Y47.763
G2 X10.583 Y52.669 I-1.854 J5.093
G1 X10.587 Y52.681
X10.596 Y52.689
X10.609
X12.187 Y52.248
X12.196 Y52.242
X12.201 Y52.232
G3 X17.317 Y49.238 I3.799 J0.624
G1 X25.949 Y52.38
X25.996 Y52.389
X26.043 Y52.383
X26.086 Y52.362
X26.12 Y52.329
X26.142 Y52.286
X26.15 Y52.239
Y17.761
X26.142 Y17.714
X26.12 Y17.671
X26.086 Y17.638
X26.043 Y17.617
X25.996 Y17.611
X25.949 Y17.62
X17.317 Y20.762
G3 X12.201 Y17.769 I-1.317 J-3.618
G1 X12.194 Y17.756
X12.179 Y17.752
X12.166 Y17.759
X-1.347 Y33.155
X-1.352 Y33.168
X-1.347 Y33.181
Z-5.95
X-1.34 Y33.189
G2 X0.345 Y34.824 I17.207 J-16.045
G3 X0.345 Y35.176 I-0.156 J0.176
G2 X-1.34 Y36.824 I15.744 J17.781
G1 X-1.345 Y36.837
X-1.376 Y39.144
X-1.369 Y39.159
X-1.354 Y39.164
X-1.34 Y39.157
G3 X2.733 Y35.188 I17.408 J13.79
G2 X2.733 Y34.812 I-0.141 J-0.188
G3 X-1.34 Y30.871 I13.155 J-17.668
G1 X-1.344 Y30.859
X-1.377 Y28.287
X-1.37 Y28.271
X-1.354 Y28.266
X-1.34 Y28.275
G2 X5.519 Y34.849 I17.248 J-11.132
G3 X5.519 Y35.151 I-0.089 J0.151
G2 X-1.34 Y41.763 I10.528 J17.785
G1 X-1.343 Y41.774
X-1.378 Y44.899
X-1.374 Y44.911
X-1.362 Y44.919
X-1.349 Y44.917
X-1.34 Y44.907
G3 X9.032 Y35.121 I17.366 J8.015
G1 X9.07 Y35.098
X9.098 Y35.064
X9.112 Y35.022
Y34.978
X9.098 Y34.936
X9.07 Y34.902
X9.032 Y34.879
G3 X-1.34 Y25.137 I6.898 J-17.735
G1 X-1.342 Y25.129
X-1.38 Y20.037
X-1.375 Y20.024
X-1.361 Y20.017
X-1.347 Y20.021
X-1.34 Y20.034
G2 X12.136 Y34.248 I17.282 J-2.89
G3 X12.357 Y34.378 I-0.093 J0.412
G1 X12.362 Y34.391
Y35.609
X12.357 Y35.623
G3 X12.136 Y35.752 I-0.314 J-0.282
G2 X-1.34 Y50.016 I3.877 J17.16
G1 Y50.024
X-0.097 Y54.869
X-0.089 Y54.881
X-0.075 Y54.884
X-0.063 Y54.877
X-0.058 Y54.864
X-0.06 Y52.856
G3 X13.715 Y37.005 I16.068 J0.052
G2 X13.978 Y36.757 I-0.045 J-0.312
G1 X13.988 Y36.744
X15.475 Y35.888
X15.488 Y35.886
X15.5 Y35.892
X15.505 Y35.905
Y38.068
G3 X15.207 Y38.383 I-0.315 J0
G2 X1.46 Y52.856 I0.796 J14.521
G1 X1.463 Y55.532
Y55.542
Z-0.897
X13.981 Y33.253
Z-5.95
X13.978 Y33.243
G2 X13.715 Y32.995 I-0.309 J0.064
G3 X-0.06 Y17.144 I2.233 J-15.851
G1 X-0.058 Y15.136
X-0.054 Y15.125
X-0.046 Y15.118
X1.435 Y14.45
X1.448 Y14.449
X1.459 Y14.456
X1.463 Y14.468
X1.46 Y17.144
G2 X15.207 Y31.617 I14.492 J0
G3 X15.505 Y31.932 I-0.017 J0.315
G1 Y34.094
G3 X14.365 Y34.62 I-0.691 J0
G1 X12.045 Y32.645
X11.995 Y32.597
X0.431 Y20.55
G3 X0.067 Y19.564 I0.95 J-0.911
G1 X0.352 Y14.498
G3 X2.983 Y14.573 I1.314 J0.074
G1 X2.98 Y17.144
G2 X16.776 Y30.095 I12.978 J0
G3 X17.025 Y30.33 I0.014 J0.235
G1 Y39.67
G3 X16.776 Y39.905 I-0.235 J0
G2 X2.98 Y52.856 I-0.778 J12.994
G1 X2.983 Y55.427
X2.987 Y55.439
X2.997 Y55.446
X3.01 Y55.445
X4.489 Y54.901
X4.499 Y54.894
X4.502 Y54.882
X4.5 Y52.856
G3 X18.263 Y41.627 I11.493 J0.037
G2 X18.545 Y41.396 I0.046 J-0.231
G1 Y28.604
G2 X18.263 Y28.373 I-0.235 J0
G3 X4.5 Y17.144 I-2.301 J-11.229
G1 X4.502 Y15.117
X4.506 Y15.105
X4.517 Y15.098
X4.529 Y15.099
X6.008 Y15.652
X6.018 Y15.659
X6.021 Y15.671
X6.02 Y17.144
G2 X19.402 Y26.491 I9.956 J0
G1 X19.587 Y26.417
X19.773 Y26.343
G3 X20.065 Y26.548 I0.074 J0.205
G1 Y43.452
G3 X19.773 Y43.657 I-0.218 J0
G1 X19.587 Y43.583
X19.402 Y43.509
G2 X6.02 Y52.856 I-3.41 J9.37
G1 X6.021 Y54.33
X6.025 Y54.342
X6.036 Y54.349
X6.048
X7.528 Y53.795
X7.537 Y53.788
X7.541 Y53.776
X7.54 Y52.856
G3 X18.893 Y44.906 I8.46 J0
X20.093 Y45.367 I-12.535 J34.442
G2 X21.293 Y45.828 I13.751 J-34.025
X21.585 Y45.623 I0.074 J-0.205
G1 Y24.377
G2 X21.293 Y24.172 I-0.218 J0
X20.093 Y24.633 I12.55 J34.482
G3 X18.893 Y25.094 I-13.75 J-34.021
X7.54 Y17.144 I-2.893 J-7.95
G1 X7.541 Y16.224
X7.545 Y16.212
X7.555 Y16.205
X7.568
X9.047 Y16.758
X9.057 Y16.766
X9.06 Y16.777
Y17.144
G2 X18.374 Y23.665 I6.94 J0
X20.593 Y22.833 I-42.703 J-117.324
G3 X22.813 Y22.002 I44.922 J116.492
X23.105 Y22.206 I0.074 J0.205
G1 Y47.794
G3 X22.813 Y47.998 I-0.218 J0
X20.593 Y47.167 I42.704 J-117.329
G2 X18.373 Y46.335 I-44.821 J116.222
X9.06 Y52.856 I-2.373 J6.522
G1 Y53.223
X9.064 Y53.235
X9.075 Y53.242
X9.087 Y53.241
X10.57 Y52.687
X10.579 Y52.68
X10.583 Y52.669
G3 X17.854 Y47.763 I5.417 J0.187
G1 X24.333 Y50.169
G2 X24.625 Y49.965 I0.074 J-0.205
G1 Y20.035
G2 X24.333 Y19.831 I-0.218 J0
G1 X17.854 Y22.237
G3 X10.583 Y17.331 I-1.854 J-5.093
G1 X10.587 Y17.319
X10.596 Y17.311
X10.609
X12.187 Y17.753
X12.196 Y17.759
X12.201 Y17.769
G2 X17.317 Y20.762 I3.799 J-0.625
G1 X25.949 Y17.62
X25.996 Y17.611
X26.043 Y17.617
X26.086 Y17.638
X26.12 Y17.671
X26.142 Y17.714
X26.15 Y17.761
Y52.239
X26.142 Y52.286
X26.12 Y52.329
X26.086 Y52.362
X26.043 Y52.383
X25.996 Y52.389
X25.949 Y52.38
X17.317 Y49.238
G2 X12.201 Y52.232 I-1.317 J3.618
G1 X11.982 Y53.564
Z10
X229.347 Y36.819
Z5
Z3.07 F333.3
Z-1.983 F1000
X229.34 Y36.811
G2 X227.655 Y35.176 I-17.207 J16.045
G3 X227.655 Y34.824 I0.156 J-0.176
G2 X229.34 Y33.176 I-15.744 J-17.781
G1 X229.345 Y33.163
X229.376 Y30.856
X229.369 Y30.841
X229.354 Y30.836
X229.34 Y30.843
G3 X225.267 Y34.812 I-17.408 J-13.79
G2 X225.267 Y35.188 I0.141 J0.188
G3 X229.34 Y39.129 I-13.155 J17.668
G1 X229.344 Y39.141
X229.377 Y41.713
X229.37 Y41.729
X229.354 Y41.734
X229.34 Y41.725
G2 X222.481 Y35.151 I-17.248 J11.132
G3 X222.481 Y34.849 I0.089 J-0.151
G2 X229.34 Y28.237 I-10.528 J-17.785
G1 X229.343 Y28.226
X229.378 Y25.101
X229.374 Y25.089
X229.362 Y25.081
X229.349 Y25.083
X229.34 Y25.093
G3 X218.968 Y34.879 I-17.366 J-8.015
G1 X218.93 Y34.902
X218.902 Y34.936
X218.888 Y34.978
Y35.022
X218.902 Y35.064
X218.93 Y35.098
X218.968 Y35.121
G3 X229.34 Y44.863 I-6.898 J17.735
G1 X229.342 Y44.871
X229.38 Y49.963
X229.375 Y49.976
X229.361 Y49.983
X229.347 Y49.979
X229.34 Y49.966
G2 X215.864 Y35.752 I-17.282 J2.89
G3 X215.643 Y35.622 I0.093 J-0.412
G1 X215.638 Y35.609
Y34.391
X215.643 Y34.377
G3 X215.864 Y34.248 I0.314 J0.282
G2 X229.34 Y19.984 I-3.877 J-17.16
G1 Y19.976
X228.097 Y15.131
X228.089 Y15.119
X228.075 Y15.116
X228.063 Y15.123
X228.058 Y15.136
X228.06 Y17.144
G3 X214.285 Y32.995 I-16.068 J-0.052
G2 X214.022 Y33.243 I0.045 J0.312
G1 X214.012 Y33.256
X212.525 Y34.111
X212.511 Y34.113
X212.5 Y34.106
X212.495 Y34.093
Y31.932
G3 X212.793 Y31.617 I0.315 J0
G2 X226.54 Y17.144 I-0.796 J-14.521
G1 X226.537 Y14.468
Y14.458
Z5
X214.019 Y36.747
Z3.07 F333.3
Z-1.983 F1000
X214.022 Y36.757
G2 X214.285 Y37.005 I0.309 J-0.064
G3 X228.06 Y52.856 I-2.233 J15.851
G1 X228.058 Y54.864
X228.054 Y54.875
X228.046 Y54.882
X226.565 Y55.55
X226.552 Y55.551
X226.541 Y55.544
X226.537 Y55.532
X226.54 Y52.856
G2 X212.793 Y38.383 I-14.492 J0
G3 X212.495 Y38.068 I0.017 J-0.315
G1 Y35.906
G3 X213.635 Y35.38 I0.691 J0
G1 X215.955 Y37.355
X216.005 Y37.403
X227.569 Y49.449
G3 X227.933 Y50.435 I-0.95 J0.911
G1 X227.648 Y55.502
G3 X225.017 Y55.426 I-1.314 J-0.074
G1 X225.02 Y52.856
G2 X211.224 Y39.905 I-12.978 J0
G3 X210.975 Y39.67 I-0.014 J-0.235
G1 Y30.33
G3 X211.224 Y30.095 I0.235 J0
G2 X225.02 Y17.144 I0.778 J-12.994
G1 X225.017 Y14.573
X225.013 Y14.561
X225.003 Y14.554
X224.99 Y14.555
X223.511 Y15.099
X223.501 Y15.106
X223.498 Y15.118
X223.5 Y17.144
G3 X209.737 Y28.373 I-11.493 J-0.037
G2 X209.455 Y28.604 I-0.046 J0.231
G1 Y41.396
G2 X209.737 Y41.627 I0.235 J0
G3 X223.5 Y52.856 I2.301 J11.229
G1 X223.498 Y54.882
X223.494 Y54.894
X223.484 Y54.901
X223.471 Y54.9
X221.992 Y54.349
X221.982 Y54.341
X221.979 Y54.33
X221.98 Y52.856
G2 X208.598 Y43.509 I-9.956 J0
G1 X208.413 Y43.583
X208.227 Y43.657
G3 X207.935 Y43.452 I-0.074 J-0.205
G1 Y26.548
G3 X208.227 Y26.343 I0.218 J0
G1 X208.413 Y26.417
X208.598 Y26.491
G2 X221.98 Y17.144 I3.41 J-9.37
G1 X221.979 Y15.67
X221.975 Y15.658
X221.964 Y15.651
X221.952
X220.472 Y16.205
X220.463 Y16.212
X220.459 Y16.224
X220.46 Y17.144
G3 X209.107 Y25.094 I-8.46 J0
X207.907 Y24.633 I12.534 J-34.44
G2 X206.707 Y24.172 I-13.751 J34.025
X206.415 Y24.377 I-0.074 J0.205
G1 Y45.623
G2 X206.707 Y45.828 I0.218 J0
X207.907 Y45.367 I-12.55 J-34.482
G3 X209.107 Y44.906 I13.75 J34.021
X220.46 Y52.856 I2.893 J7.95
G1 X220.459 Y53.777
X220.455 Y53.789
X220.445 Y53.796
X220.432 Y53.795
X218.953 Y53.242
X218.943 Y53.235
X218.94 Y53.223
Y52.856
G2 X209.626 Y46.335 I-6.94 J0
X207.407 Y47.167 I42.702 J117.324
G3 X205.187 Y47.998 I-44.922 J-116.492
X204.895 Y47.794 I-0.074 J-0.205
G1 Y22.206
G3 X205.187 Y22.002 I0.218 J0
X207.407 Y22.833 I-42.705 J117.329
G2 X209.627 Y23.665 I44.818 J-116.215
X218.94 Y17.144 I2.373 J-6.522
G1 Y16.777
X218.936 Y16.765
X218.925 Y16.758
X218.913 Y16.759
X217.43 Y17.313
X217.421 Y17.32
X217.417 Y17.331
G3 X210.146 Y22.237 I-5.417 J-0.187
G1 X203.667 Y19.831
G2 X203.375 Y20.035 I-0.074 J0.205
G1 Y49.965
G2 X203.667 Y50.169 I0.218 J0
G1 X210.146 Y47.763
G3 X217.417 Y52.669 I1.854 J5.093
G1 X217.413 Y52.681
X217.404 Y52.689
X217.391
X215.813 Y52.247
X215.804 Y52.241
X215.799 Y52.231
G2 X210.683 Y49.238 I-3.799 J0.625
G1 X202.051 Y52.38
X202.004 Y52.389
X201.957 Y52.383
X201.914 Y52.362
X201.88 Y52.329
X201.858 Y52.286
X201.85 Y52.239
Y17.761
X201.858 Y17.714
X201.88 Y17.671
X201.914 Y17.638
X201.957 Y17.617
X202.004 Y17.611
X202.051 Y17.62
X210.683 Y20.762
G2 X215.799 Y17.768 I1.317 J-3.618
G1 X215.807 Y17.756
X215.821 Y17.751
X215.834 Y17.758
X229.347 Y33.141
X229.352 Y33.155
X229.347 Y33.168
Z-3.967
X229.34 Y33.176
G3 X227.655 Y34.824 I-17.429 J-16.133
G2 X227.655 Y35.176 I0.156 J0.176
G3 X229.34 Y36.811 I-15.522 J17.68
G1 X229.345 Y36.824
X229.376 Y39.117
X229.369 Y39.131
X229.354 Y39.137
X229.34 Y39.129
G2 X225.267 Y35.188 I-17.228 J13.727
G3 X225.267 Y34.812 I0.141 J-0.188
G2 X229.34 Y30.843 I-13.335 J-17.759
G1 X229.344 Y30.831
X229.377 Y28.248
X229.37 Y28.233
X229.354 Y28.228
X229.34 Y28.237
G3 X222.481 Y34.849 I-17.387 J-11.172
G2 X222.481 Y35.151 I0.089 J0.151
G3 X229.34 Y41.725 I-10.389 J17.706
G1 X229.343 Y41.735
X229.378 Y44.854
X229.374 Y44.867
X229.362 Y44.874
X229.349 Y44.873
X229.34 Y44.863
G2 X218.968 Y35.121 I-17.269 J7.993
G1 X218.93 Y35.098
X218.902 Y35.064
X218.888 Y35.022
Y34.978
X218.902 Y34.936
X218.93 Y34.902
X218.968 Y34.879
G2 X229.34 Y25.093 I-6.994 J-17.801
G1 X229.342 Y25.084
X229.38 Y19.988
X229.374 Y19.974
X229.361 Y19.968
X229.347 Y19.972
X229.34 Y19.984
G3 X215.864 Y34.248 I-17.353 J-2.897
G2 X215.643 Y34.377 I0.093 J0.412
G1 X215.638 Y34.391
Y35.609
X215.643 Y35.622
G2 X215.864 Y35.752 I0.314 J-0.282
G3 X229.34 Y49.966 I-3.807 J17.104
G1 Y49.974
X228.097 Y54.869
X228.089 Y54.881
X228.075 Y54.884
X228.063 Y54.877
X228.058 Y54.864
X228.06 Y52.856
G2 X214.285 Y37.005 I-16.008 J0
G3 X214.022 Y36.757 I0.045 J-0.312
G1 X214.012 Y36.744
X212.525 Y35.889
X212.512 Y35.887
X212.5 Y35.894
X212.495 Y35.906
Y38.068
G2 X212.793 Y38.383 I0.315 J0
G3 X226.54 Y52.856 I-0.746 J14.473
G1 X226.537 Y55.532
Y55.543
Z1.087
X214.019 Y33.253
Z-3.967
X214.022 Y33.243
G3 X214.285 Y32.995 I0.309 J0.064
G2 X228.06 Y17.144 I-2.293 J-15.903
G1 X228.058 Y15.136
X228.054 Y15.125
X228.046 Y15.118
X226.565 Y14.45
X226.552 Y14.449
X226.541 Y14.456
X226.537 Y14.468
X226.54 Y17.144
G3 X212.793 Y31.617 I-14.543 J-0.048
G2 X212.495 Y31.932 I0.017 J0.315
G1 Y34.093
G2 X213.635 Y34.62 I0.691 J0
G1 X215.955 Y32.645
X216.005 Y32.597
X227.569 Y20.55
G2 X227.933 Y19.564 I-0.95 J-0.911
G1 X227.648 Y14.498
G2 X225.017 Y14.573 I-1.314 J0.074
G1 X225.02 Y17.144
G3 X211.224 Y30.095 I-13.017 J-0.042
G2 X210.975 Y30.33 I-0.014 J0.235
G1 Y39.67
G2 X211.224 Y39.905 I0.235 J0
G3 X225.02 Y52.856 I0.818 J12.952
G1 X225.017 Y55.426
X225.013 Y55.438
X225.003 Y55.445
X224.99
X223.511 Y54.901
X223.501 Y54.893
X223.498 Y54.882
X223.5 Y52.856
G2 X209.737 Y41.627 I-11.462 J0
G3 X209.455 Y41.396 I-0.046 J-0.231
G1 Y28.604
G3 X209.737 Y28.373 I0.235 J0
G2 X223.5 Y17.144 I2.271 J-11.266
G1 X223.498 Y15.118
X223.494 Y15.106
X223.484 Y15.099
X223.471
X221.992 Y15.651
X221.982 Y15.659
X221.979 Y15.67
X221.98 Y17.144
G3 X208.598 Y26.491 I-9.972 J-0.023
G1 X208.413 Y26.417
X208.227 Y26.343
G2 X207.935 Y26.548 I-0.074 J0.205
G1 Y43.452
G2 X208.227 Y43.657 I0.218 J0
G1 X208.413 Y43.583
X208.598 Y43.509
G3 X221.98 Y52.856 I3.426 J9.348
G1 X221.979 Y54.33
X221.975 Y54.342
X221.964 Y54.349
X221.952
X220.472 Y53.795
X220.463 Y53.788
X220.459 Y53.777
X220.46 Y52.856
G2 X209.107 Y44.906 I-8.46 J0
X207.907 Y45.367 I12.55 J34.482
G3 X206.707 Y45.828 I-13.75 J-34.021
X206.415 Y45.623 I-0.074 J-0.205
G1 Y24.377
G3 X206.707 Y24.172 I0.218 J0
X207.907 Y24.633 I-12.552 J34.486
G2 X209.107 Y25.094 I13.734 J-33.98
X220.46 Y17.144 I2.893 J-7.95
G1 X220.459 Y16.224
X220.455 Y16.212
X220.445 Y16.205
X220.432
X218.953 Y16.758
X218.943 Y16.766
X218.94 Y16.777
Y17.144
G3 X209.627 Y23.665 I-6.94 J0
X207.407 Y22.833 I42.599 J-117.047
G2 X205.187 Y22.002 I-44.924 J116.498
X204.895 Y22.206 I-0.074 J0.205
G1 Y47.794
G2 X205.187 Y47.998 I0.218 J0
X207.407 Y47.167 I-42.703 J-117.324
G3 X209.626 Y46.335 I44.922 J116.492
X218.94 Y52.856 I2.374 J6.521
G1 Y53.223
X218.936 Y53.235
X218.925 Y53.243
X218.913 Y53.242
X217.43 Y52.687
X217.421 Y52.68
X217.417 Y52.669
G2 X210.146 Y47.763 I-5.417 J0.187
G1 X203.667 Y50.169
G3 X203.375 Y49.965 I-0.074 J-0.205
G1 Y20.035
G3 X203.667 Y19.831 I0.218 J0
G1 X210.146 Y22.237
G2 X217.417 Y17.331 I1.854 J-5.093
G1 X217.413 Y17.319
X217.404 Y17.311
X217.391
X215.813 Y17.752
X215.804 Y17.758
X215.799 Y17.768
G3 X210.683 Y20.762 I-3.799 J-0.624
G1 X202.051 Y17.62
X202.004 Y17.611
X201.957 Y17.617
X201.914 Y17.638
X201.88 Y17.671
X201.858 Y17.714
X201.85 Y17.761
Y52.239
X201.858 Y52.286
X201.88 Y52.329
X201.914 Y52.362
X201.957 Y52.383
X202.004 Y52.389
X202.051 Y52.38
X210.683 Y49.238
G3 X215.799 Y52.231 I1.317 J3.618
G1 X215.806 Y52.244
X215.821 Y52.248
X215.834 Y52.241
X229.347 Y36.845
X229.352 Y36.832
X229.347 Y36.819
Z-5.95
X229.34 Y36.811
G2 X227.655 Y35.176 I-17.207 J16.045
G3 X227.655 Y34.824 I0.156 J-0.176
G2 X229.34 Y33.176 I-15.744 J-17.781
G1 X229.345 Y33.163
X229.376 Y30.856
X229.369 Y30.841
X229.354 Y30.836
X229.34 Y30.843
G3 X225.267 Y34.812 I-17.408 J-13.79
G2 X225.267 Y35.188 I0.141 J0.188
G3 X229.34 Y39.129 I-13.155 J17.668
G1 X229.344 Y39.141
X229.377 Y41.713
X229.37 Y41.729
X229.354 Y41.734
X229.34 Y41.725
G2 X222.481 Y35.151 I-17.248 J11.132
G3 X222.481 Y34.849 I0.089 J-0.151
G2 X229.34 Y28.237 I-10.528 J-17.785
G1 X229.343 Y28.226
X229.378 Y25.101
X229.374 Y25.089
X229.362 Y25.081
X229.349 Y25.083
X229.34 Y25.093
G3 X218.968 Y34.879 I-17.366 J-8.015
G1 X218.93 Y34.902
X218.902 Y34.936
X218.888 Y34.978
Y35.022
X218.902 Y35.064
X218.93 Y35.098
X218.968 Y35.121
G3 X229.34 Y44.863 I-6.898 J17.735
G1 X229.342 Y44.871
X229.38 Y49.963
X229.375 Y49.976
X229.361 Y49.983
X229.347 Y49.979
X229.34 Y49.966
G2 X215.864 Y35.752 I-17.282 J2.89
G3 X215.643 Y35.622 I0.093 J-0.412
G1 X215.638 Y35.609
Y34.391
X215.643 Y34.377
G3 X215.864 Y34.248 I0.314 J0.282
G2 X229.34 Y19.984 I-3.877 J-17.16
G1 Y19.976
X228.097 Y15.131
X228.089 Y15.119
X228.075 Y15.116
X228.063 Y15.123
X228.058 Y15.136
X228.06 Y17.144
G3 X214.285 Y32.995 I-16.068 J-0.052
G2 X214.022 Y33.243 I0.045 J0.312
G1 X214.012 Y33.256
X212.525 Y34.111
X212.511 Y34.113
X212.5 Y34.106
X212.495 Y34.093
Y31.932
G3 X212.793 Y31.617 I0.315 J0
G2 X226.54 Y17.144 I-0.796 J-14.521
G1 X226.537 Y14.468
Y14.458
Z-0.897
X214.019 Y36.747
Z-5.95
X214.022 Y36.757
G2 X214.285 Y37.005 I0.309 J-0.064
G3 X228.06 Y52.856 I-2.233 J15.851
G1 X228.058 Y54.864
X228.054 Y54.875
X228.046 Y54.882
X226.565 Y55.55
X226.552 Y55.551
X226.541 Y55.544
X226.537 Y55.532
X226.54 Y52.856
G2 X212.793 Y38.383 I-14.492 J0
G3 X212.495 Y38.068 I0.017 J-0.315
G1 Y35.906
G3 X213.635 Y35.38 I0.691 J0
G1 X215.955 Y37.355
X216.005 Y37.403
X227.569 Y49.449
G3 X227.933 Y50.435 I-0.95 J0.911
G1 X227.648 Y55.502
G3 X225.017 Y55.426 I-1.314 J-0.074
G1 X225.02 Y52.856
G2 X211.224 Y39.905 I-12.978 J0
G3 X210.975 Y39.67 I-0.014 J-0.235
G1 Y30.33
G3 X211.224 Y30.095 I0.235 J0
G2 X225.02 Y17.144 I0.778 J-12.994
G1 X225.017 Y14.573
X225.013 Y14.561
X225.003 Y14.554
X224.99 Y14.555
X223.511 Y15.099
X223.501 Y15.106
X223.498 Y15.118
X223.5 Y17.144
G3 X209.737 Y28.373 I-11.493 J-0.037
G2 X209.455 Y28.604 I-0.046 J0.231
G1 Y41.396
G2 X209.737 Y41.627 I0.235 J0
G3 X223.5 Y52.856 I2.301 J11.229
G1 X223.498 Y54.882
X223.494 Y54.894
X223.484 Y54.901
X223.471 Y54.9
X221.992 Y54.349
X221.982 Y54.341
X221.979 Y54.33
X221.98 Y52.856
G2 X208.598 Y43.509 I-9.956 J0
G1 X208.413 Y43.583
X208.227 Y43.657
G3 X207.935 Y43.452 I-0.074 J-0.205
G1 Y26.548
G3 X208.227 Y26.343 I0.218 J0
G1 X208.413 Y26.417
X208.598 Y26.491
G2 X221.98 Y17.144 I3.41 J-9.37
G1 X221.979 Y15.67
X221.975 Y15.658
X221.964 Y15.651
X221.952
X220.472 Y16.205
X220.463 Y16.212
X220.459 Y16.224
X220.46 Y17.144
G3 X209.107 Y25.094 I-8.46 J0
X207.907 Y24.633 I12.534 J-34.44
G2 X206.707 Y24.172 I-13.751 J34.025
X206.415 Y24.377 I-0.074 J0.205
G1 Y45.623
G2 X206.707 Y45.828 I0.218 J0
X207.907 Y45.367 I-12.55 J-34.482
G3 X209.107 Y44.906 I13.75 J34.021
X220.46 Y52.856 I2.893 J7.95
G1 X220.459 Y53.777
X220.455 Y53.789
X220.445 Y53.796
X220.432 Y53.795
X218.953 Y53.242
X218.943 Y53.235
X218.94 Y53.223
Y52.856
G2 X209.626 Y46.335 I-6.94 J0
X207.407 Y47.167 I42.702 J117.324
G3 X205.187 Y47.998 I-44.922 J-116.492
X204.895 Y47.794 I-0.074 J-0.205
G1 Y22.206
G3 X205.187 Y22.002 I0.218 J0
X207.407 Y22.833 I-42.705 J117.329
G2 X209.627 Y23.665 I44.818 J-116.215
X218.94 Y17.144 I2.373 J-6.522
G1 Y16.777
X218.936 Y16.765
X218.925 Y16.758
X218.913 Y16.759
X217.43 Y17.313
X217.421 Y17.32
X217.417 Y17.331
G3 X210.146 Y22.237 I-5.417 J-0.187
G1 X203.667 Y19.831
G2 X203.375 Y20.035 I-0.074 J0.205
G1 Y49.965
G2 X203.667 Y50.169 I0.218 J0
G1 X210.146 Y47.763
G3 X217.417 Y52.669 I1.854 J5.093
G1 X217.413 Y52.681
X217.404 Y52.689
X217.391
X215.813 Y52.247
X215.804 Y52.241
X215.799 Y52.231
G2 X210.683 Y49.238 I-3.799 J0.625
G1 X202.051 Y52.38
X202.004 Y52.389
X201.957 Y52.383
X201.914 Y52.362
X201.88 Y52.329
X201.858 Y52.286
X201.85 Y52.239
Y17.761
X201.858 Y17.714
X201.88 Y17.671
X201.914 Y17.638
X201.957 Y17.617
X202.004 Y17.611
X202.051 Y17.62
X210.683 Y20.762
G2 X215.799 Y17.768 I1.317 J-3.618
G1 X216.018 Y16.436
Z10
(When using Fusion 360 for Personal Use, the feedrate of)
(rapid moves is reduced to match the feedrate of cutting)
(moves, which can increase machining time. Unrestricted rapid)
(moves are available with a Fusion 360 Subscription.)

(2D Contour tabs)
G0 X215.55 Y52.856
G1 Z10 F1000
Z5
Z3.07 F333.3
Z-1.983
G2 X210.786 Y49.52 I-3.55 J0 F1000
G1 X202.154 Y52.662
G3 X201.55 Y52.239 I-0.154 J-0.423
G1 Y17.761
G3 X202.154 Y17.338 I0.45 J0
G1 X210.786 Y20.48
G2 X215.55 Y17.144 I1.214 J-3.336
G1 Z5
Y52.856
Z1.087 F333.3
Z-3.967
G2 X210.786 Y49.52 I-3.55 J0 F1000
G1 X202.154 Y52.662
G3 X201.55 Y52.239 I-0.154 J-0.423
G1 Y17.761
G3 X202.154 Y17.338 I0.45 J0
G1 X210.786 Y20.48
G2 X215.55 Y17.144 I1.214 J-3.336
G1 Z5
Y52.856
Z-0.897 F333.3
Z-5.95
G2 X210.786 Y49.52 I-3.55 J0 F1000
G1 X202.154 Y52.662
G3 X201.55 Y52.239 I-0.154 J-0.423
G1 Y17.761
G3 X202.154 Y17.338 I0.45 J0
G1 X210.786 Y20.48
G2 X215.55 Y17.144 I1.214 J-3.336
G1 Z5
X215.35 Y52.856
Z-0.897 F333.3
Z-5.95
G2 X210.854 Y49.708 I-3.35 J0 F1000
G1 X202.222 Y52.85
G3 X201.35 Y52.239 I-0.222 J-0.611
G1 Y17.761
G3 X202.222 Y17.15 I0.65 J0
G1 X210.854 Y20.292
G2 X215.35 Y17.144 I1.146 J-3.148
G1 Z5
X12.45
Z3.07 F333.3
Z-1.983
G2 X17.214 Y20.48 I3.55 J0 F1000
G1 X25.846 Y17.338
G3 X26.45 Y17.761 I0.154 J0.423
G1 Y52.239
G3 X25.846 Y52.662 I-0.45 J0
G1 X17.214 Y49.52
G2 X12.45 Y52.856 I-1.214 J3.336
G1 Z5
Y17.144
Z1.087 F333.3
Z-3.967
G2 X17.214 Y20.48 I3.55 J0 F1000
G1 X25.846 Y17.338
G3 X26.45 Y17.761 I0.154 J0.423
G1 Y52.239
G3 X25.846 Y52.662 I-0.45 J0
G1 X17.214 Y49.52
G2 X12.45 Y52.856 I-1.214 J3.336
G1 Z5
Y17.144
Z-0.897 F333.3
Z-5.95
G2 X17.214 Y20.48 I3.55 J0 F1000
G1 X25.846 Y17.338
G3 X26.45 Y17.761 I0.154 J0.423
G1 Y52.239
G3 X25.846 Y52.662 I-0.45 J0
G1 X17.214 Y49.52
G2 X12.45 Y52.856 I-1.214 J3.336
G1 Z5
X12.65 Y17.144
Z-0.897 F333.3
Z-5.95
G2 X17.146 Y20.292 I3.35 J0 F1000
G1 X25.778 Y17.15
G3 X26.65 Y17.761 I0.222 J0.611
G1 Y52.239
G3 X25.778 Y52.85 I-0.65 J0
G1 X17.146 Y49.708
G2 X12.65 Y52.856 I-1.146 J3.148
G1 Z10
(When using Fusion 360 for Personal Use, the feedrate of)
(rapid moves is reduced to match the feedrate of cutting)
(moves, which can increase machining time. Unrestricted rapid)
(moves are available with a Fusion 360 Subscription.)

(2D Pocket btns)
G0 X92.745 Y71.35
G1 Z10 F1000
Z5
Z1 F333.3
Z-0.75 F1000
Y71.339
Y60.374
G3 X93.064 Y60.055 I0.319 J0
G1 X94.316
G3 X94.635 Y60.374 I0 J0.319
G1 Y71.339
X94.641 Y71.353
X94.655 Y71.359
X96.015
X96.029 Y71.353
X96.035 Y71.339
Y58.974
G2 X95.716 Y58.655 I-0.319 J0
G1 X91.664
G2 X91.345 Y58.974 I0 J0.319
G1 Y71.339
X91.339 Y71.353
X91.325 Y71.359
X89.965 Y71.36
X89.951 Y71.354
X89.945 Y71.34
Y57.574
G3 X90.264 Y57.255 I0.319 J0
G1 X97.116
G3 X97.435 Y57.574 I0 J0.319
G1 Y71.34
X97.441 Y71.354
X97.455 Y71.36
X98.82 Y71.359
X98.834 Y71.353
X98.84 Y71.339
Y57.2
G3 X99.425 Y55.85 I1.85 J0
G1 X87.955
G3 X88.54 Y57.2 I-1.265 J1.35
G1 Y70
Y71.339
Z10
X133.365 Y71.35
Z5
Z1 F333.3
Z-0.75 F1000
Y71.339
Y60.374
G3 X133.684 Y60.055 I0.319 J0
G1 X134.936
G3 X135.255 Y60.374 I0 J0.319
G1 Y71.339
X135.261 Y71.353
X135.275 Y71.359
X136.635
X136.649 Y71.353
X136.655 Y71.339
Y58.974
G2 X136.336 Y58.655 I-0.319 J0
G1 X132.284
G2 X131.965 Y58.974 I0 J0.319
G1 Y71.339
X131.959 Y71.353
X131.945 Y71.359
X130.585 Y71.36
X130.571 Y71.354
X130.565 Y71.34
Y57.574
G3 X130.884 Y57.255 I0.319 J0
G1 X137.736
G3 X138.055 Y57.574 I0 J0.319
G1 Y71.34
X138.061 Y71.354
X138.075 Y71.36
X139.44 Y71.359
X139.454 Y71.353
X139.46 Y71.339
Y57.2
G3 X140.045 Y55.85 I1.85 J0
G1 X128.575
G3 X129.16 Y57.2 I-1.265 J1.35
G1 Y70
Y71.339
Z10
X135.255 Y-1.35
Z5
Z1 F333.3
Z-0.75 F1000
Y-1.339
Y9.626
G3 X134.936 Y9.945 I-0.319 J0
G1 X133.684
G3 X133.365 Y9.626 I0 J-0.319
G1 Y-1.339
X133.359 Y-1.353
X133.345 Y-1.359
X131.985
X131.971 Y-1.353
X131.965 Y-1.339
Y11.026
G2 X132.284 Y11.345 I0.319 J0
G1 X136.336
G2 X136.655 Y11.026 I0 J-0.319
G1 Y-1.339
X136.661 Y-1.353
X136.675 Y-1.359
X138.035 Y-1.36
X138.049 Y-1.354
X138.055 Y-1.34
Y12.426
G3 X137.736 Y12.745 I-0.319 J0
G1 X130.884
G3 X130.565 Y12.426 I0 J-0.319
G1 Y-1.34
X130.559 Y-1.354
X130.545 Y-1.36
X129.18 Y-1.359
X129.166 Y-1.353
X129.16 Y-1.339
Y12.8
G3 X128.575 Y14.15 I-1.85 J0
G1 X140.045
G3 X139.46 Y12.8 I1.265 J-1.35
G1 Y0
Y-1.339
Z10
X94.635 Y-1.35
Z5
Z1 F333.3
Z-0.75 F1000
Y-1.339
Y9.626
G3 X94.316 Y9.945 I-0.319 J0
G1 X93.064
G3 X92.745 Y9.626 I0 J-0.319
G1 Y-1.339
X92.739 Y-1.353
X92.725 Y-1.359
X91.365
X91.351 Y-1.353
X91.345 Y-1.339
Y11.026
G2 X91.664 Y11.345 I0.319 J0
G1 X95.716
G2 X96.035 Y11.026 I0 J-0.319
G1 Y-1.339
X96.041 Y-1.353
X96.055 Y-1.359
X97.415 Y-1.36
X97.429 Y-1.354
X97.435 Y-1.34
Y12.426
G3 X97.116 Y12.745 I-0.319 J0
G1 X90.264
G3 X89.945 Y12.426 I0 J-0.319
G1 Y-1.34
X89.939 Y-1.354
X89.925 Y-1.36
X88.56 Y-1.359
X88.546 Y-1.353
X88.54 Y-1.339
Y12.8
G3 X87.955 Y14.15 I-1.85 J0
G1 X99.425
G3 X98.84 Y12.8 I1.265 J-1.35
G1 Y0
Y-1.339
Z10
(When using Fusion 360 for Personal Use, the feedrate of)
(rapid moves is reduced to match the feedrate of cutting)
(moves, which can increase machining time. Unrestricted rapid)
(moves are available with a Fusion 360 Subscription.)

(2D Contour10)
G0 X128.66 Y70
G1 Z10 F1000
Z5
Z1 F333.3
Z-0.75
Y57.2 F1000
G2 X127.31 Y55.85 I-1.35 J0
G1 X127.06
Y55.35
X141.56
Y55.85
X141.31
G2 X139.96 Y57.2 I0 J1.35
G1 Y70
Z5
X88.04
Z1 F333.3
Z-0.75
Y57.2 F1000
G2 X86.69 Y55.85 I-1.35 J0
G1 X86.44
Y55.35
X100.94
Y55.85
X100.69
G2 X99.34 Y57.2 I0 J1.35
G1 Y70
Z5
Y0
Z1 F333.3
Z-0.75
Y12.8 F1000
G2 X100.69 Y14.15 I1.35 J0
G1 X100.94
Y14.65
X86.44
Y14.15
X86.69
G2 X88.04 Y12.8 I0 J-1.35
G1 Y0
Z5
X139.96
Z1 F333.3
Z-0.75
Y12.8 F1000
G2 X141.31 Y14.15 I1.35 J0
G1 X141.56
Y14.65
X127.06
Y14.15
X127.31
G2 X128.66 Y12.8 I0 J-1.35
G1 Y0
Z10
(When using Fusion 360 for Personal Use, the feedrate of)
(rapid moves is reduced to match the feedrate of cutting)
(moves, which can increase machining time. Unrestricted rapid)
(moves are available with a Fusion 360 Subscription.)

(Bore1)
G0 X15.075 Y34.73
G1 Z10 F500
Z-3.95
Z-5.68
G18 G2 X15.345 Z-5.95 I0.27 K0
G1 X15.48
G17 G3 X15.75 Y35 I0 J0.27
X12.25 Y35 Z-6.45 I-1.75 J0
X15.75 Y35 Z-6.95 I1.75 J0
X12.25 Y35 Z-7.45 I-1.75 J0
X15.75 Y35 Z-7.95 I1.75 J0
X12.25 Y35 Z-8.45 I-1.75 J0
X15.75 Y35 Z-8.95 I1.75 J0
X12.25 Y35 Z-9.45 I-1.75 J0
X15.75 Y35 Z-9.95 I1.75 J0
X12.25 Y35 Z-10.45 I-1.75 J0
X15.75 Y35 Z-10.95 I1.75 J0
X12.25 Y35 Z-11.45 I-1.75 J0
X15.75 Y35 Z-11.95 I1.75 J0
X12.971 Y36.416 Z-12.3 I-1.75 J0
X15.029 Y33.584 I1.029 J-1.416
X12.971 Y36.416 I-1.029 J1.416
X12.912 Y36.039 I0.159 J-0.218
G1 X12.991 Y35.929
X13.026 Y35.881 Z-12.293
X13.06 Y35.835 Z-12.273
X13.09 Y35.793 Z-12.241
X13.115 Y35.759 Z-12.198
X13.134 Y35.733 Z-12.147
X13.146 Y35.716 Z-12.09
X13.15 Y35.711 Z-12.03
Z5
X134.3 Y61.875
Z0.98
Z-0.75
X134.435
X134.474 Y61.881
X134.508 Y61.899
X134.536 Y61.927
X134.554 Y61.961
X134.56 Y62
G3 X134.06 Y62 Z-1.25 I-0.25 J0
X134.56 Y62 Z-1.75 I0.25 J0
X134.06 Y62 Z-2.25 I-0.25 J0
X134.56 Y62 Z-2.75 I0.25 J0
X134.06 Y62 Z-3.25 I-0.25 J0
X134.56 Y62 Z-3.75 I0.25 J0
X134.06 Y62 Z-4.25 I-0.25 J0
X134.56 Y62 Z-4.75 I0.25 J0
X134.06 Y62 Z-5.25 I-0.25 J0
X134.56 Y62 Z-5.75 I0.25 J0
X134.06 Y62 Z-6.25 I-0.25 J0
X134.56 Y62 Z-6.75 I0.25 J0
X134.06 Y62 Z-7.25 I-0.25 J0
X134.56 Y62 Z-7.75 I0.25 J0
X134.06 Y62 Z-8.25 I-0.25 J0
X134.56 Y62 Z-8.75 I0.25 J0
X134.06 Y62 Z-9.25 I-0.25 J0
X134.56 Y62 Z-9.75 I0.25 J0
X134.06 Y62 Z-10.25 I-0.25 J0
X134.56 Y62 Z-10.75 I0.25 J0
X134.06 Y62 Z-11.25 I-0.25 J0
X134.56 Y62 Z-11.75 I0.25 J0
X134.271 Y62.247 Z-12.025 I-0.25 J0
X134.072 Y61.923 Z-12.3 I0.039 J-0.247
X134.548 Y62.077 I0.238 J0.077
X134.072 Y61.923 I-0.238 J-0.077
G1 X134.09 Y61.888
X134.118 Y61.86
X134.152 Y61.842
X134.191 Y61.836
X134.23 Y61.842
X134.358 Y61.884
Z5
X93.68 Y61.875
Z0.98
Z-0.75
X93.815
X93.854 Y61.881
X93.888 Y61.899
X93.916 Y61.927
X93.934 Y61.961
X93.94 Y62
G3 X93.44 Y62 Z-1.25 I-0.25 J0
X93.94 Y62 Z-1.75 I0.25 J0
X93.44 Y62 Z-2.25 I-0.25 J0
X93.94 Y62 Z-2.75 I0.25 J0
X93.44 Y62 Z-3.25 I-0.25 J0
X93.94 Y62 Z-3.75 I0.25 J0
X93.44 Y62 Z-4.25 I-0.25 J0
X93.94 Y62 Z-4.75 I0.25 J0
X93.44 Y62 Z-5.25 I-0.25 J0
X93.94 Y62 Z-5.75 I0.25 J0
X93.44 Y62 Z-6.25 I-0.25 J0
X93.94 Y62 Z-6.75 I0.25 J0
X93.44 Y62 Z-7.25 I-0.25 J0
X93.94 Y62 Z-7.75 I0.25 J0
X93.44 Y62 Z-8.25 I-0.25 J0
X93.94 Y62 Z-8.75 I0.25 J0
X93.44 Y62 Z-9.25 I-0.25 J0
X93.94 Y62 Z-9.75 I0.25 J0
X93.44 Y62 Z-10.25 I-0.25 J0
X93.94 Y62 Z-10.75 I0.25 J0
X93.44 Y62 Z-11.25 I-0.25 J0
X93.94 Y62 Z-11.75 I0.25 J0
X93.651 Y62.247 Z-12.025 I-0.25 J0
X93.452 Y61.923 Z-12.3 I0.039 J-0.247
X93.928 Y62.077 I0.238 J0.077
X93.452 Y61.923 I-0.238 J-0.077
G1 X93.47 Y61.888
X93.498 Y61.86
X93.532 Y61.842
X93.571 Y61.836
X93.61 Y61.842
X93.738 Y61.884
Z5
X93.68 Y7.875
Z0.98
Z-0.75
X93.815
X93.854 Y7.881
X93.888 Y7.899
X93.916 Y7.927
X93.934 Y7.961
X93.94 Y8
G3 X93.44 Y8 Z-1.25 I-0.25 J0
X93.94 Y8 Z-1.75 I0.25 J0
X93.44 Y8 Z-2.25 I-0.25 J0
X93.94 Y8 Z-2.75 I0.25 J0
X93.44 Y8 Z-3.25 I-0.25 J0
X93.94 Y8 Z-3.75 I0.25 J0
X93.44 Y8 Z-4.25 I-0.25 J0
X93.94 Y8 Z-4.75 I0.25 J0
X93.44 Y8 Z-5.25 I-0.25 J0
X93.94 Y8 Z-5.75 I0.25 J0
X93.44 Y8 Z-6.25 I-0.25 J0
X93.94 Y8 Z-6.75 I0.25 J0
X93.44 Y8 Z-7.25 I-0.25 J0
X93.94 Y8 Z-7.75 I0.25 J0
X93.44 Y8 Z-8.25 I-0.25 J0
X93.94 Y8 Z-8.75 I0.25 J0
X93.44 Y8 Z-9.25 I-0.25 J0
X93.94 Y8 Z-9.75 I0.25 J0
X93.44 Y8 Z-10.25 I-0.25 J0
X93.94 Y8 Z-10.75 I0.25 J0
X93.44 Y8 Z-11.25 I-0.25 J0
X93.94 Y8 Z-11.75 I0.25 J0
X93.651 Y8.247 Z-12.025 I-0.25 J0
X93.452 Y7.923 Z-12.3 I0.039 J-0.247
X93.928 Y8.077 I0.238 J0.077
X93.452 Y7.923 I-0.238 J-0.077
G1 X93.47 Y7.888
X93.498 Y7.86
X93.532 Y7.842
X93.571 Y7.836
X93.61 Y7.842
X93.738 Y7.884
Z5
X134.3 Y7.875
Z0.98
Z-0.75
X134.435
X134.474 Y7.881
X134.508 Y7.899
X134.536 Y7.927
X134.554 Y7.961
X134.56 Y8
G3 X134.06 Y8 Z-1.25 I-0.25 J0
X134.56 Y8 Z-1.75 I0.25 J0
X134.06 Y8 Z-2.25 I-0.25 J0
X134.56 Y8 Z-2.75 I0.25 J0
X134.06 Y8 Z-3.25 I-0.25 J0
X134.56 Y8 Z-3.75 I0.25 J0
X134.06 Y8 Z-4.25 I-0.25 J0
X134.56 Y8 Z-4.75 I0.25 J0
X134.06 Y8 Z-5.25 I-0.25 J0
X134.56 Y8 Z-5.75 I0.25 J0
X134.06 Y8 Z-6.25 I-0.25 J0
X134.56 Y8 Z-6.75 I0.25 J0
X134.06 Y8 Z-7.25 I-0.25 J0
X134.56 Y8 Z-7.75 I0.25 J0
X134.06 Y8 Z-8.25 I-0.25 J0
X134.56 Y8 Z-8.75 I0.25 J0
X134.06 Y8 Z-9.25 I-0.25 J0
X134.56 Y8 Z-9.75 I0.25 J0
X134.06 Y8 Z-10.25 I-0.25 J0
X134.56 Y8 Z-10.75 I0.25 J0
X134.06 Y8 Z-11.25 I-0.25 J0
X134.56 Y8 Z-11.75 I0.25 J0
X134.06 Y8 Z-12.25 I-0.25 J0
X134.072 Y7.923 Z-12.3 I0.25 J0
X134.548 Y8.077 I0.238 J0.077
X134.072 Y7.923 I-0.238 J-0.077
G1 X134.09 Y7.888
X134.118 Y7.86
X134.152 Y7.842
X134.191 Y7.836
X134.23 Y7.842
X134.358 Y7.884
Z5
X215.075 Y34.73
Z-3.95
Z-5.68
G18 G2 X215.345 Z-5.95 I0.27 K0
G1 X215.48
G17 G3 X215.75 Y35 I0 J0.27
X212.25 Y35 Z-6.45 I-1.75 J0
X215.75 Y35 Z-6.95 I1.75 J0
X212.25 Y35 Z-7.45 I-1.75 J0
X215.75 Y35 Z-7.95 I1.75 J0
X212.25 Y35 Z-8.45 I-1.75 J0
X215.75 Y35 Z-8.95 I1.75 J0
X212.25 Y35 Z-9.45 I-1.75 J0
X215.75 Y35 Z-9.95 I1.75 J0
X212.25 Y35 Z-10.45 I-1.75 J0
X215.75 Y35 Z-10.95 I1.75 J0
X212.25 Y35 Z-11.45 I-1.75 J0
X215.75 Y35 Z-11.95 I1.75 J0
X212.971 Y36.416 Z-12.3 I-1.75 J0
X215.029 Y33.584 I1.029 J-1.416
X212.971 Y36.416 I-1.029 J1.416
X212.912 Y36.039 I0.159 J-0.218
G1 X212.991 Y35.929
X213.026 Y35.881 Z-12.293
X213.06 Y35.835 Z-12.273
X213.09 Y35.793 Z-12.241
X213.115 Y35.759 Z-12.198
X213.134 Y35.733 Z-12.147
X213.146 Y35.716 Z-12.09
X213.15 Y35.711 Z-12.03
Z10
(When using Fusion 360 for Personal Use, the feedrate of)
(rapid moves is reduced to match the feedrate of cutting)
(moves, which can increase machining time. Unrestricted rapid)
(moves are available with a Fusion 360 Subscription.)

(2D Contour8)
G0 X154.276 Y61.55
G1 Z10 F1000
Z5
Z3 F333.3
Z-1.757
X160 F1000
G2 X161.549 Y60.05 I0 J-1.55
G1 X166.451
G2 X168 Y61.55 I1.549 J-0.05
G1 X174.05
Y61.65
X153.95
Y61.55
X154.276
Z-3.514 F333.3
X160 F1000
G2 X161.549 Y60.05 I0 J-1.55
G1 X166.451
G2 X168 Y61.55 I1.549 J-0.05
G1 X174.05
Y61.65
X153.95
Y61.55
X154.276
Z-5.271 F333.3
X160 F1000
G2 X161.549 Y60.05 I0 J-1.55
G1 X166.451
G2 X168 Y61.55 I1.549 J-0.05
G1 X174.05
Y61.65
X153.95
Y61.55
X154.276
Z-7.029 F333.3
X160 F1000
G2 X161.549 Y60.05 I0 J-1.55
G1 X166.451
G2 X168 Y61.55 I1.549 J-0.05
G1 X174.05
Y61.65
X153.95
Y61.55
X154.276
Z-8.786 F333.3
X160 F1000
G2 X161.549 Y60.05 I0 J-1.55
G1 X166.451
G2 X168 Y61.55 I1.549 J-0.05
G1 X174.05
Y61.65
X153.95
Y61.55
X154.276
Z-10.543 F333.3
X160 F1000
G2 X161.549 Y60.05 I0 J-1.55
G1 X166.451
G2 X168 Y61.55 I1.549 J-0.05
G1 X174.05
Y61.65
X153.95
Y61.55
X154.276
Z-12.3 F333.3
X160 F1000
G2 X161.549 Y60.05 I0 J-1.55
G1 X166.451
G2 X168 Y61.55 I1.549 J-0.05
G1 X174.05
Y61.65
X153.95
Y61.55
X154.276
X154.323 Y61.543
X154.366 Y61.523
X154.402 Y61.491
X154.426 Y61.45
X154.451 Y61.409
X154.486 Y61.377
X154.529 Y61.357
X154.576 Y61.35
X160
G2 X161.35 Y60 I0 J-1.35
G1 Y59.85
X166.65
Y60
G2 X168 Y61.35 I1.35 J0
G1 X174.25
Y61.85
X153.75
Y61.35
X154.576
Z5
X154.276 Y8.35
Z3 F333.3
Z-1.757
X174.05 F1000
Y8.45
X168
G2 X166.451 Y9.95 I0 J1.55
G1 X161.549
G2 X160 Y8.45 I-1.549 J0.05
G1 X153.95
Y8.35
X154.276
Z-3.514 F333.3
X174.05 F1000
Y8.45
X168
G2 X166.451 Y9.95 I0 J1.55
G1 X161.549
G2 X160 Y8.45 I-1.549 J0.05
G1 X153.95
Y8.35
X154.276
Z-5.271 F333.3
X174.05 F1000
Y8.45
X168
G2 X166.451 Y9.95 I0 J1.55
G1 X161.549
G2 X160 Y8.45 I-1.549 J0.05
G1 X153.95
Y8.35
X154.276
Z-7.029 F333.3
X174.05 F1000
Y8.45
X168
G2 X166.451 Y9.95 I0 J1.55
G1 X161.549
G2 X160 Y8.45 I-1.549 J0.05
G1 X153.95
Y8.35
X154.276
Z-8.786 F333.3
X174.05 F1000
Y8.45
X168
G2 X166.451 Y9.95 I0 J1.55
G1 X161.549
G2 X160 Y8.45 I-1.549 J0.05
G1 X153.95
Y8.35
X154.276
Z-10.543 F333.3
X174.05 F1000
Y8.45
X168
G2 X166.451 Y9.95 I0 J1.55
G1 X161.549
G2 X160 Y8.45 I-1.549 J0.05
G1 X153.95
Y8.35
X154.276
Z-12.3 F333.3
X168 F1000
X174.05
Y8.45
X168
G2 X166.451 Y9.95 I0 J1.55
G1 X161.549
G2 X160 Y8.45 I-1.549 J0.05
G1 X153.95
Y8.35
X154.276
X154.323 Y8.343
X154.366 Y8.323
X154.402 Y8.291
X154.426 Y8.25
X154.451 Y8.209
X154.486 Y8.177
X154.529 Y8.157
X154.576 Y8.15
X174.25
Y8.65
X168
G2 X166.65 Y10 I0 J1.35
G1 Y10.15
X161.35
Y10
G2 X160 Y8.65 I-1.35 J0
G1 X153.75
Y8.15
X154.576
Z5
X54.276 Y8.35
Z3 F333.3
Z-1.757
X74.05 F1000
Y8.45
X68
G2 X66.451 Y9.95 I0 J1.55
G1 X61.549
G2 X60 Y8.45 I-1.549 J0.05
G1 X53.95
Y8.35
X54.276
Z-3.514 F333.3
X74.05 F1000
Y8.45
X68
G2 X66.451 Y9.95 I0 J1.55
G1 X61.549
G2 X60 Y8.45 I-1.549 J0.05
G1 X53.95
Y8.35
X54.276
Z-5.271 F333.3
X74.05 F1000
Y8.45
X68
G2 X66.451 Y9.95 I0 J1.55
G1 X61.549
G2 X60 Y8.45 I-1.549 J0.05
G1 X53.95
Y8.35
X54.276
Z-7.029 F333.3
X74.05 F1000
Y8.45
X68
G2 X66.451 Y9.95 I0 J1.55
G1 X61.549
G2 X60 Y8.45 I-1.549 J0.05
G1 X53.95
Y8.35
X54.276
Z-8.786 F333.3
X74.05 F1000
Y8.45
X68
G2 X66.451 Y9.95 I0 J1.55
G1 X61.549
G2 X60 Y8.45 I-1.549 J0.05
G1 X53.95
Y8.35
X54.276
Z-10.543 F333.3
X74.05 F1000
Y8.45
X68
G2 X66.451 Y9.95 I0 J1.55
G1 X61.549
G2 X60 Y8.45 I-1.549 J0.05
G1 X53.95
Y8.35
X54.276
Z-12.3 F333.3
X74.05 F1000
Y8.45
X68
G2 X66.451 Y9.95 I0 J1.55
G1 X61.549
G2 X60 Y8.45 I-1.549 J0.05
G1 X53.95
Y8.35
X54.276
X54.323 Y8.343
X54.366 Y8.323
X54.402 Y8.291
X54.426 Y8.25
X54.451 Y8.209
X54.486 Y8.177
X54.529 Y8.157
X54.576 Y8.15
X74.25
Y8.65
X68
G2 X66.65 Y10 I0 J1.35
G1 Y10.15
X61.35
Y10
G2 X60 Y8.65 I-1.35 J0
G1 X53.75
Y8.15
X54.576
Z5
X54.276 Y61.55
Z3 F333.3
Z-1.757
X60 F1000
G2 X61.549 Y60.05 I0 J-1.55
G1 X66.451
G2 X68 Y61.55 I1.549 J-0.05
G1 X74.05
Y61.65
X53.95
Y61.55
X54.276
Z-3.514 F333.3
X60 F1000
G2 X61.549 Y60.05 I0 J-1.55
G1 X66.451
G2 X68 Y61.55 I1.549 J-0.05
G1 X74.05
Y61.65
X53.95
Y61.55
X54.276
Z-5.271 F333.3
X60 F1000
G2 X61.549 Y60.05 I0 J-1.55
G1 X66.451
G2 X68 Y61.55 I1.549 J-0.05
G1 X74.05
Y61.65
X53.95
Y61.55
X54.276
Z-7.029 F333.3
X60 F1000
G2 X61.549 Y60.05 I0 J-1.55
G1 X66.451
G2 X68 Y61.55 I1.549 J-0.05
G1 X74.05
Y61.65
X53.95
Y61.55
X54.276
Z-8.786 F333.3
X60 F1000
G2 X61.549 Y60.05 I0 J-1.55
G1 X66.451
G2 X68 Y61.55 I1.549 J-0.05
G1 X74.05
Y61.65
X53.95
Y61.55
X54.276
Z-10.543 F333.3
X60 F1000
G2 X61.549 Y60.05 I0 J-1.55
G1 X66.451
G2 X68 Y61.55 I1.549 J-0.05
G1 X74.05
Y61.65
X53.95
Y61.55
X54.276
Z-12.3 F333.3
X60 F1000
G2 X61.549 Y60.05 I0 J-1.55
G1 X66.451
G2 X68 Y61.55 I1.549 J-0.05
G1 X74.05
Y61.65
X53.95
Y61.55
X54.276
X54.323 Y61.543
X54.366 Y61.523
X54.402 Y61.491
X54.426 Y61.45
X54.451 Y61.409
X54.486 Y61.377
X54.529 Y61.357
X54.576 Y61.35
X60
G2 X61.35 Y60 I0 J-1.35
G1 Y59.85
X66.65
Y60
G2 X68 Y61.35 I1.35 J0
G1 X74.25
Y61.85
X53.75
Y61.35
X54.576
Z5
X19.56 Y-1.55
Z3 F333.3
Z-1.757
X14 F1000
G2 X12.45 Y0 I0 J1.55
G1 Y17.144
G3 X11.846 Y17.567 I-0.45 J0
G1 X3.214 Y14.425
G2 X-1.55 Y17.761 I-1.214 J3.336
G1 Y52.239
G2 X3.214 Y55.575 I3.55 J0
G1 X11.846 Y52.433
G3 X12.45 Y52.856 I0.154 J0.423
G1 Y70
G2 X14 Y71.55 I1.55 J0
G1 X107.69
G2 X109.24 Y70 I0 J-1.55
G1 Y38.05
G2 X107.69 Y36.5 I-1.55 J0
G1 X107.64
Y36.4
X120.36
Y36.5
X120.31
G2 X118.76 Y38.05 I0 J1.55
G1 Y70
G2 X120.31 Y71.55 I1.55 J0
G1 X214
G2 X215.55 Y70 I0 J-1.55
G1 Y52.856
G3 X216.154 Y52.433 I0.45 J0
G1 X224.786 Y55.575
G2 X229.55 Y52.239 I1.214 J-3.336
G1 Y17.761
G2 X224.786 Y14.425 I-3.55 J0
G1 X216.154 Y17.567
G3 X215.55 Y17.144 I-0.154 J-0.423
G1 Y0
G2 X214 Y-1.55 I-1.55 J0
G1 X19.56
Z-3.514 F333.3
X14 F1000
G2 X12.45 Y0 I0 J1.55
G1 Y17.144
G3 X11.846 Y17.567 I-0.45 J0
G1 X3.214 Y14.425
G2 X-1.55 Y17.761 I-1.214 J3.336
G1 Y52.239
G2 X3.214 Y55.575 I3.55 J0
G1 X11.846 Y52.433
G3 X12.45 Y52.856 I0.154 J0.423
G1 Y70
G2 X14 Y71.55 I1.55 J0
G1 X107.69
G2 X109.24 Y70 I0 J-1.55
G1 Y38.05
G2 X107.69 Y36.5 I-1.55 J0
G1 X107.64
Y36.4
X120.36
Y36.5
X120.31
G2 X118.76 Y38.05 I0 J1.55
G1 Y70
G2 X120.31 Y71.55 I1.55 J0
G1 X214
G2 X215.55 Y70 I0 J-1.55
G1 Y52.856
G3 X216.154 Y52.433 I0.45 J0
G1 X224.786 Y55.575
G2 X229.55 Y52.239 I1.214 J-3.336
G1 Y17.761
G2 X224.786 Y14.425 I-3.55 J0
G1 X216.154 Y17.567
G3 X215.55 Y17.144 I-0.154 J-0.423
G1 Y0
G2 X214 Y-1.55 I-1.55 J0
G1 X19.56
Z-5.271 F333.3
X14 F1000
G2 X12.45 Y0 I0 J1.55
G1 Y17.144
G3 X11.846 Y17.567 I-0.45 J0
G1 X3.214 Y14.425
G2 X-1.55 Y17.761 I-1.214 J3.336
G1 Y52.239
G2 X3.214 Y55.575 I3.55 J0
G1 X11.846 Y52.433
G3 X12.45 Y52.856 I0.154 J0.423
G1 Y70
G2 X14 Y71.55 I1.55 J0
G1 X107.69
G2 X109.24 Y70 I0 J-1.55
G1 Y38.05
G2 X107.69 Y36.5 I-1.55 J0
G1 X107.64
Y36.4
X120.36
Y36.5
X120.31
G2 X118.76 Y38.05 I0 J1.55
G1 Y70
G2 X120.31 Y71.55 I1.55 J0
G1 X214
G2 X215.55 Y70 I0 J-1.55
G1 Y52.856
G3 X216.154 Y52.433 I0.45 J0
G1 X224.786 Y55.575
G2 X229.55 Y52.239 I1.214 J-3.336
G1 Y17.761
G2 X224.786 Y14.425 I-3.55 J0
G1 X216.154 Y17.567
G3 X215.55 Y17.144 I-0.154 J-0.423
G1 Y0
G2 X214 Y-1.55 I-1.55 J0
G1 X19.56
Z-7.029 F333.3
X14 F1000
G2 X12.45 Y0 I0 J1.55
G1 Y17.144
G3 X11.846 Y17.567 I-0.45 J0
G1 X3.214 Y14.425
G2 X-1.55 Y17.761 I-1.214 J3.336
G1 Y52.239
G2 X3.214 Y55.575 I3.55 J0
G1 X11.846 Y52.433
G3 X12.45 Y52.856 I0.154 J0.423
G1 Y70
G2 X14 Y71.55 I1.55 J0
G1 X107.69
G2 X109.24 Y70 I0 J-1.55
G1 Y38.05
G2 X107.69 Y36.5 I-1.55 J0
G1 X107.64
Y36.4
X120.36
Y36.5
X120.31
G2 X118.76 Y38.05 I0 J1.55
G1 Y70
G2 X120.31 Y71.55 I1.55 J0
G1 X214
G2 X215.55 Y70 I0 J-1.55
G1 Y52.856
G3 X216.154 Y52.433 I0.45 J0
G1 X224.786 Y55.575
G2 X229.55 Y52.239 I1.214 J-3.336
G1 Y17.761
G2 X224.786 Y14.425 I-3.55 J0
G1 X216.154 Y17.567
G3 X215.55 Y17.144 I-0.154 J-0.423
G1 Y0
G2 X214 Y-1.55 I-1.55 J0
G1 X19.56
Z-8.786 F333.3
X14 F1000
G2 X12.45 Y0 I0 J1.55
G1 Y17.144
G3 X11.846 Y17.567 I-0.45 J0
G1 X3.214 Y14.425
G2 X-1.55 Y17.761 I-1.214 J3.336
G1 Y52.239
G2 X3.214 Y55.575 I3.55 J0
G1 X11.846 Y52.433
G3 X12.45 Y52.856 I0.154 J0.423
G1 Y70
G2 X14 Y71.55 I1.55 J0
G1 X107.69
G2 X109.24 Y70 I0 J-1.55
G1 Y38.05
G2 X107.69 Y36.5 I-1.55 J0
G1 X107.64
Y36.4
X120.36
Y36.5
X120.31
G2 X118.76 Y38.05 I0 J1.55
G1 Y70
G2 X120.31 Y71.55 I1.55 J0
G1 X214
G2 X215.55 Y70 I0 J-1.55
G1 Y52.856
G3 X216.154 Y52.433 I0.45 J0
G1 X224.786 Y55.575
G2 X229.55 Y52.239 I1.214 J-3.336
G1 Y17.761
G2 X224.786 Y14.425 I-3.55 J0
G1 X216.154 Y17.567
G3 X215.55 Y17.144 I-0.154 J-0.423
G1 Y0
G2 X214 Y-1.55 I-1.55 J0
G1 X19.56
Z-10.543 F333.3
X14 F1000
G2 X12.45 Y0 I0 J1.55
G1 Y6.56
Z-9.5
Y12.26
Z-10.543 F333.3
Y17.144 F1000
G3 X11.846 Y17.567 I-0.45 J0
G1 X3.214 Y14.425
G2 X-1.55 Y17.761 I-1.214 J3.336
G1 Y52.239
G2 X3.214 Y55.575 I3.55 J0
G1 X11.846 Y52.433
G3 X12.45 Y52.856 I0.154 J0.423
G1 Y59.653
Z-9.5
Y65.354
Z-10.543 F333.3
Y70 F1000
G2 X14 Y71.55 I1.55 J0
G1 X107.69
G2 X109.24 Y70 I0 J-1.55
G1 Y38.05
G2 X107.69 Y36.5 I-1.55 J0
G1 X107.64
Y36.4
X111.708
Z-9.5
X117.408
Z-10.543 F333.3
X120.36 F1000
Y36.5
X120.31
G2 X118.76 Y38.05 I0 J1.55
G1 Y70
G2 X120.31 Y71.55 I1.55 J0
G1 X214
G2 X215.55 Y70 I0 J-1.55
G1 Y64.034
Z-9.5
Y58.334
Z-10.543 F333.3
Y52.856 F1000
G3 X216.154 Y52.433 I0.45 J0
G1 X224.786 Y55.575
G2 X229.55 Y52.239 I1.214 J-3.336
G1 Y17.761
G2 X224.786 Y14.425 I-3.55 J0
G1 X216.154 Y17.567
G3 X215.55 Y17.144 I-0.154 J-0.423
G1 Y11.828
Z-9.5
Y6.128
Z-10.543 F333.3
Y0 F1000
G2 X214 Y-1.55 I-1.55 J0
G1 X19.56
Z-12.3 F333.3
X14 F1000
G2 X12.45 Y0 I0 J1.55
G1 Y6.56
Z-9.5
Y12.26
Z-12.3 F333.3
Y17.144 F1000
G3 X11.846 Y17.567 I-0.45 J0
G1 X3.214 Y14.425
G2 X-1.55 Y17.761 I-1.214 J3.336
G1 Y52.239
G2 X3.214 Y55.575 I3.55 J0
G1 X11.846 Y52.433
G3 X12.45 Y52.856 I0.154 J0.423
G1 Y59.653
Z-9.5
Y65.354
Z-12.3 F333.3
Y70 F1000
G2 X14 Y71.55 I1.55 J0
G1 X107.69
G2 X109.24 Y70 I0 J-1.55
G1 Y38.05
G2 X107.69 Y36.5 I-1.55 J0
G1 X107.64
Y36.4
X111.708
Z-9.5
X117.408
Z-12.3 F333.3
X120.36 F1000
Y36.5
X120.31
G2 X118.76 Y38.05 I0 J1.55
G1 Y70
G2 X120.31 Y71.55 I1.55 J0
G1 X214
G2 X215.55 Y70 I0 J-1.55
G1 Y64.034
Z-9.5
Y58.334
Z-12.3 F333.3
Y52.856 F1000
G3 X216.154 Y52.433 I0.45 J0
G1 X224.786 Y55.575
G2 X229.55 Y52.239 I1.214 J-3.336
G1 Y17.761
G2 X224.786 Y14.425 I-3.55 J0
G1 X216.154 Y17.567
G3 X215.55 Y17.144 I-0.154 J-0.423
G1 Y11.828
Z-9.5
Y6.128
Z-12.3 F333.3
Y0 F1000
G2 X214 Y-1.55 I-1.55 J0
G1 X19.56
X19.513 Y-1.543
X19.47 Y-1.523
X19.434 Y-1.491
X19.41 Y-1.45
X19.385 Y-1.409
X19.35 Y-1.377
X19.307 Y-1.357
X19.26 Y-1.35
X14
G2 X12.65 Y0 I0 J1.35
G1 Y6.56
Z-9.5
Y12.26
Z-12.3 F333.3
Y17.144 F1000
G3 X11.778 Y17.755 I-0.65 J0
G1 X3.146 Y14.613
G2 X-1.35 Y17.761 I-1.146 J3.148
G1 Y52.239
G2 X3.146 Y55.387 I3.35 J0
G1 X11.778 Y52.245
G3 X12.65 Y52.856 I0.222 J0.611
G1 Y59.653
Z-9.5
Y65.354
Z-12.3 F333.3
Y70 F1000
G2 X14 Y71.35 I1.35 J0
G1 X107.69
G2 X109.04 Y70 I0 J-1.35
G1 Y38.05
G2 X107.69 Y36.7 I-1.35 J0
G1 X107.44
Y36.2
X111.708
Z-9.5
X117.408
Z-12.3 F333.3
X120.56 F1000
Y36.7
X120.31
G2 X118.96 Y38.05 I0 J1.35
G1 Y70
G2 X120.31 Y71.35 I1.35 J0
G1 X214
G2 X215.35 Y70 I0 J-1.35
G1 Y64.034
Z-9.5
Y58.334
Z-12.3 F333.3
Y52.856 F1000
G3 X216.222 Y52.245 I0.65 J0
G1 X224.854 Y55.387
G2 X229.35 Y52.239 I1.146 J-3.148
G1 Y17.761
G2 X224.854 Y14.613 I-3.35 J0
G1 X216.222 Y17.755
G3 X215.35 Y17.144 I-0.222 J-0.611
G1 Y11.828
Z-9.5
Y6.128
Z-12.3 F333.3
Y0 F1000
G2 X214 Y-1.35 I-1.35 J0
G1 X19.26
Z10
M5
M30
