(1076_light_holes_fix)
(T1  D=2.7 CR=0 - ZMIN=-12.3 - flat end mill)
G90 G94
G17
G21
(When using Fusion 360 for Personal Use, the feedrate of)
(rapid moves is reduced to match the feedrate of cutting)
(moves, which can increase machining time. Unrestricted rapid)
(moves are available with a Fusion 360 Subscription.)

(2D Contour8 2)
T1
S5000 M3
G54
G0 X154.276 Y61.55
Z10
G1 Z5 F1000
Z3 F333.3
Z-1.757
X160 F1000
G2 X161.549 Y60.05 I0 J-1.55
G1 X166.451
G2 X168 Y61.55 I1.549 J-0.05
G1 X174.05
Y62.15
X153.95
Y61.55
X154.276
Z-3.514 F333.3
X160 F1000
G2 X161.549 Y60.05 I0 J-1.55
G1 X166.451
G2 X168 Y61.55 I1.549 J-0.05
G1 X174.05
Y62.15
X153.95
Y61.55
X154.276
Z-5.271 F333.3
X160 F1000
G2 X161.549 Y60.05 I0 J-1.55
G1 X166.451
G2 X168 Y61.55 I1.549 J-0.05
G1 X174.05
Y62.15
X153.95
Y61.55
X154.276
Z-7.029 F333.3
X160 F1000
G2 X161.549 Y60.05 I0 J-1.55
G1 X166.451
G2 X168 Y61.55 I1.549 J-0.05
G1 X174.05
Y62.15
X153.95
Y61.55
X154.276
Z-8.786 F333.3
X160 F1000
G2 X161.549 Y60.05 I0 J-1.55
G1 X166.451
G2 X168 Y61.55 I1.549 J-0.05
G1 X174.05
Y62.15
X153.95
Y61.55
X154.276
Z-10.543 F333.3
X160 F1000
G2 X161.549 Y60.05 I0 J-1.55
G1 X166.451
G2 X168 Y61.55 I1.549 J-0.05
G1 X172.5
Z-9.5
X174.05
Y62.15
X172.5
Z-10.543 F333.3
X153.95 F1000
Y61.55
X154.276
Z-12.3 F333.3
X160 F1000
G2 X161.549 Y60.05 I0 J-1.55
G1 X166.451
G2 X168 Y61.55 I1.549 J-0.05
G1 X172.5
Z-9.5
X174.05
Y62.15
X172.5
Z-12.3 F333.3
X153.95 F1000
Y61.55
X154.276
X154.323 Y61.543
X154.366 Y61.523
X154.402 Y61.491
X154.426 Y61.45
X154.451 Y61.409
X154.486 Y61.377
X154.529 Y61.357
X154.576 Y61.35
X160
G2 X161.35 Y60 I0 J-1.35
G1 Y59.85
X166.65
Y60
G2 X168 Y61.35 I1.35 J0
G1 X172.5
Z-9.5
X174.25
Y62.35
X172.5
Z-12.3 F333.3
X153.75 F1000
Y61.35
X154.576
Z5
X54.276 Y61.55
Z3 F333.3
Z-1.757
X60 F1000
G2 X61.549 Y60.05 I0 J-1.55
G1 X66.451
G2 X68 Y61.55 I1.549 J-0.05
G1 X74.05
Y62.15
X53.95
Y61.55
X54.276
Z-3.514 F333.3
X60 F1000
G2 X61.549 Y60.05 I0 J-1.55
G1 X66.451
G2 X68 Y61.55 I1.549 J-0.05
G1 X74.05
Y62.15
X53.95
Y61.55
X54.276
Z-5.271 F333.3
X60 F1000
G2 X61.549 Y60.05 I0 J-1.55
G1 X66.451
G2 X68 Y61.55 I1.549 J-0.05
G1 X74.05
Y62.15
X53.95
Y61.55
X54.276
Z-7.029 F333.3
X60 F1000
G2 X61.549 Y60.05 I0 J-1.55
G1 X66.451
G2 X68 Y61.55 I1.549 J-0.05
G1 X74.05
Y62.15
X53.95
Y61.55
X54.276
Z-8.786 F333.3
X60 F1000
G2 X61.549 Y60.05 I0 J-1.55
G1 X66.451
G2 X68 Y61.55 I1.549 J-0.05
G1 X74.05
Y62.15
X53.95
Y61.55
X54.276
Z-9.5 F333.3
X55.5 F1000
Z-10.543 F333.3
X60 F1000
G2 X61.549 Y60.05 I0 J-1.55
G1 X66.451
G2 X68 Y61.55 I1.549 J-0.05
G1 X74.05
Y62.15
X55.5
Z-9.5
X53.95
Y61.55
X54.276
X55.5
Z-12.3 F333.3
X60 F1000
G2 X61.549 Y60.05 I0 J-1.55
G1 X66.451
G2 X68 Y61.55 I1.549 J-0.05
G1 X74.05
Y62.15
X55.5
Z-9.5
X53.95
Y61.55
X54.276
X54.323 Y61.543
X54.366 Y61.523
X54.402 Y61.491
X54.426 Y61.45
X54.451 Y61.409
X54.486 Y61.377
X54.529 Y61.357
X54.576 Y61.35
X55.5
Z-12.3 F333.3
X60 F1000
G2 X61.35 Y60 I0 J-1.35
G1 Y59.85
X66.65
Y60
G2 X68 Y61.35 I1.35 J0
G1 X74.25
Y62.35
X55.5
Z-9.5
X53.75
Y61.35
X54.576
Z5
X54.276 Y7.85
Z3 F333.3
Z-1.757
X68 F1000
X74.05
Y8.45
X68
G2 X66.451 Y9.95 I0 J1.55
G1 X61.549
G2 X60 Y8.45 I-1.549 J0.05
G1 X53.95
Y7.85
X54.276
Z-3.514 F333.3
X68 F1000
X74.05
Y8.45
X68
G2 X66.451 Y9.95 I0 J1.55
G1 X61.549
G2 X60 Y8.45 I-1.549 J0.05
G1 X53.95
Y7.85
X54.276
Z-5.271 F333.3
X68 F1000
X74.05
Y8.45
X68
G2 X66.451 Y9.95 I0 J1.55
G1 X61.549
G2 X60 Y8.45 I-1.549 J0.05
G1 X53.95
Y7.85
X54.276
Z-7.029 F333.3
X68 F1000
X74.05
Y8.45
X68
G2 X66.451 Y9.95 I0 J1.55
G1 X61.549
G2 X60 Y8.45 I-1.549 J0.05
G1 X53.95
Y7.85
X54.276
Z-8.786 F333.3
X68 F1000
X74.05
Y8.45
X68
G2 X66.451 Y9.95 I0 J1.55
G1 X61.549
G2 X60 Y8.45 I-1.549 J0.05
G1 X53.95
Y7.85
X54.276
Z-9.5 F333.3
X55.5 F1000
Z-10.543 F333.3
X74.05 F1000
Y8.45
X68
G2 X66.451 Y9.95 I0 J1.55
G1 X61.549
G2 X60 Y8.45 I-1.549 J0.05
G1 X55.5
Z-9.5
X53.95
Y7.85
X54.276
X55.5
Z-12.3 F333.3
X74.05 F1000
Y8.45
X68
G2 X66.451 Y9.95 I0 J1.55
G1 X61.549
G2 X60 Y8.45 I-1.549 J0.05
G1 X55.5
Z-9.5
X53.95
Y7.85
X54.276
X54.323 Y7.843
X54.366 Y7.823
X54.402 Y7.791
X54.426 Y7.75
X54.451 Y7.709
X54.486 Y7.677
X54.529 Y7.657
X54.576 Y7.65
X55.5
Z-12.3 F333.3
X74.25 F1000
Y8.65
X68
G2 X66.65 Y10 I0 J1.35
G1 Y10.15
X61.35
Y10
G2 X60 Y8.65 I-1.35 J0
G1 X55.5
Z-9.5
X53.75
Y7.65
X54.576
Z5
X154.276 Y7.85
Z3 F333.3
Z-1.757
X174.05 F1000
Y8.45
X168
G2 X166.451 Y9.95 I0 J1.55
G1 X161.549
G2 X160 Y8.45 I-1.549 J0.05
G1 X153.95
Y7.85
X154.276
Z-3.514 F333.3
X174.05 F1000
Y8.45
X168
G2 X166.451 Y9.95 I0 J1.55
G1 X161.549
G2 X160 Y8.45 I-1.549 J0.05
G1 X153.95
Y7.85
X154.276
Z-5.271 F333.3
X174.05 F1000
Y8.45
X168
G2 X166.451 Y9.95 I0 J1.55
G1 X161.549
G2 X160 Y8.45 I-1.549 J0.05
G1 X153.95
Y7.85
X154.276
Z-7.029 F333.3
X174.05 F1000
Y8.45
X168
G2 X166.451 Y9.95 I0 J1.55
G1 X161.549
G2 X160 Y8.45 I-1.549 J0.05
G1 X153.95
Y7.85
X154.276
Z-8.786 F333.3
X174.05 F1000
Y8.45
X168
G2 X166.451 Y9.95 I0 J1.55
G1 X161.549
G2 X160 Y8.45 I-1.549 J0.05
G1 X153.95
Y7.85
X154.276
Z-9.5 F333.3
X155.5 F1000
Z-10.543 F333.3
X172.5 F1000
Z-9.5
X174.05
Y8.45
X172.5
Z-10.543 F333.3
X168 F1000
G2 X166.451 Y9.95 I0 J1.55
G1 X161.549
G2 X160 Y8.45 I-1.549 J0.05
G1 X155.5
Z-9.5
X153.95
Y7.85
X154.276
X155.5
Z-12.3 F333.3
X172.5 F1000
Z-9.5
X174.05
Y8.45
X172.5
Z-12.3 F333.3
X168 F1000
G2 X166.451 Y9.95 I0 J1.55
G1 X161.549
G2 X160 Y8.45 I-1.549 J0.05
G1 X155.5
Z-9.5
X153.95
Y7.85
X154.276
X154.323 Y7.843
X154.366 Y7.823
X154.402 Y7.791
X154.426 Y7.75
X154.451 Y7.709
X154.486 Y7.677
X154.529 Y7.657
X154.576 Y7.65
X155.5
Z-12.3 F333.3
X172.5 F1000
Z-9.5
X174.25
Y8.65
X172.5
Z-12.3 F333.3
X168 F1000
G2 X166.65 Y10 I0 J1.35
G1 Y10.15
X161.35
Y10
G2 X160 Y8.65 I-1.35 J0
G1 X155.5
Z-9.5
X153.75
Y7.65
X154.576
Z10
M5
M30
