(1077_bore_speed_test)
(T1  D=2.7 CR=0 - ZMIN=-13.3 - flat end mill)
G90 G94
G17
G21
(When using Fusion 360 for Personal Use, the feedrate of)
(rapid moves is reduced to match the feedrate of cutting)
(moves, which can increase machining time. Unrestricted rapid)
(moves are available with a Fusion 360 Subscription.)

(Bore1)
T1
S5000 M3
G54
G0 X215.075 Y34.73
Z10
G1 Z-3.95 F250
Z-5.68
G18 G2 X215.345 Z-5.95 I0.27 K0
G1 X215.48
G17 G3 X215.75 Y35 I0 J0.27
X212.25 Y35 Z-6.45 I-1.75 J0
X215.75 Y35 Z-6.95 I1.75 J0
X212.25 Y35 Z-7.45 I-1.75 J0
X215.75 Y35 Z-7.95 I1.75 J0
X212.25 Y35 Z-8.45 I-1.75 J0
X215.75 Y35 Z-8.95 I1.75 J0
X212.25 Y35 Z-9.45 I-1.75 J0
X215.75 Y35 Z-9.95 I1.75 J0
X212.25 Y35 Z-10.45 I-1.75 J0
X215.75 Y35 Z-10.95 I1.75 J0
X212.25 Y35 Z-11.45 I-1.75 J0
X215.75 Y35 Z-11.95 I1.75 J0
X212.25 Y35 Z-12.45 I-1.75 J0
X215.75 Y35 Z-12.95 I1.75 J0
X212.971 Y36.416 Z-13.3 I-1.75 J0
X215.029 Y33.584 I1.029 J-1.416
X212.971 Y36.416 I-1.029 J1.416
X212.912 Y36.039 I0.159 J-0.218
G1 X212.991 Y35.929
X213.026 Y35.881 Z-13.293
X213.06 Y35.835 Z-13.273
X213.09 Y35.793 Z-13.241
X213.115 Y35.759 Z-13.198
X213.134 Y35.733 Z-13.147
X213.146 Y35.716 Z-13.09
X213.15 Y35.711 Z-13.03
Z5
X134.3 Y61.875
Z0.98
Z-0.75
X134.435
X134.474 Y61.881
X134.508 Y61.899
X134.536 Y61.927
X134.554 Y61.961
X134.56 Y62
G3 X134.06 Y62 Z-1.25 I-0.25 J0
X134.56 Y62 Z-1.75 I0.25 J0
X134.06 Y62 Z-2.25 I-0.25 J0
X134.56 Y62 Z-2.75 I0.25 J0
X134.06 Y62 Z-3.25 I-0.25 J0
X134.56 Y62 Z-3.75 I0.25 J0
X134.06 Y62 Z-4.25 I-0.25 J0
X134.56 Y62 Z-4.75 I0.25 J0
X134.06 Y62 Z-5.25 I-0.25 J0
X134.56 Y62 Z-5.75 I0.25 J0
X134.06 Y62 Z-6.25 I-0.25 J0
X134.56 Y62 Z-6.75 I0.25 J0
X134.06 Y62 Z-7.25 I-0.25 J0
X134.56 Y62 Z-7.75 I0.25 J0
X134.06 Y62 Z-8.25 I-0.25 J0
X134.56 Y62 Z-8.75 I0.25 J0
X134.06 Y62 Z-9.25 I-0.25 J0
X134.56 Y62 Z-9.75 I0.25 J0
X134.06 Y62 Z-10.25 I-0.25 J0
X134.56 Y62 Z-10.75 I0.25 J0
X134.06 Y62 Z-11.25 I-0.25 J0
X134.56 Y62 Z-11.75 I0.25 J0
X134.06 Y62 Z-12.25 I-0.25 J0
X134.56 Y62 Z-12.75 I0.25 J0
X134.06 Y62 Z-13.25 I-0.25 J0
X134.072 Y61.923 Z-13.3 I0.25 J0
X134.548 Y62.077 I0.238 J0.077
X134.072 Y61.923 I-0.238 J-0.077
G1 X134.09 Y61.888
X134.118 Y61.86
X134.152 Y61.842
X134.191 Y61.836
X134.23 Y61.842
X134.358 Y61.884
Z5
X93.68 Y61.875
Z0.98
Z-0.75
X93.815
X93.854 Y61.881
X93.888 Y61.899
X93.916 Y61.927
X93.934 Y61.961
X93.94 Y62
G3 X93.44 Y62 Z-1.25 I-0.25 J0
X93.94 Y62 Z-1.75 I0.25 J0
X93.44 Y62 Z-2.25 I-0.25 J0
X93.94 Y62 Z-2.75 I0.25 J0
X93.44 Y62 Z-3.25 I-0.25 J0
X93.94 Y62 Z-3.75 I0.25 J0
X93.44 Y62 Z-4.25 I-0.25 J0
X93.94 Y62 Z-4.75 I0.25 J0
X93.44 Y62 Z-5.25 I-0.25 J0
X93.94 Y62 Z-5.75 I0.25 J0
X93.44 Y62 Z-6.25 I-0.25 J0
X93.94 Y62 Z-6.75 I0.25 J0
X93.44 Y62 Z-7.25 I-0.25 J0
X93.94 Y62 Z-7.75 I0.25 J0
X93.44 Y62 Z-8.25 I-0.25 J0
X93.94 Y62 Z-8.75 I0.25 J0
X93.44 Y62 Z-9.25 I-0.25 J0
X93.94 Y62 Z-9.75 I0.25 J0
X93.44 Y62 Z-10.25 I-0.25 J0
X93.94 Y62 Z-10.75 I0.25 J0
X93.44 Y62 Z-11.25 I-0.25 J0
X93.94 Y62 Z-11.75 I0.25 J0
X93.44 Y62 Z-12.25 I-0.25 J0
X93.94 Y62 Z-12.75 I0.25 J0
X93.651 Y62.247 Z-13.025 I-0.25 J0
X93.452 Y61.923 Z-13.3 I0.039 J-0.247
X93.928 Y62.077 I0.238 J0.077
X93.452 Y61.923 I-0.238 J-0.077
G1 X93.47 Y61.888
X93.498 Y61.86
X93.532 Y61.842
X93.571 Y61.836
X93.61 Y61.842
X93.738 Y61.884
Z5
X93.68 Y7.875
Z0.98
Z-0.75
X93.815
X93.854 Y7.881
X93.888 Y7.899
X93.916 Y7.927
X93.934 Y7.961
X93.94 Y8
G3 X93.44 Y8 Z-1.25 I-0.25 J0
X93.94 Y8 Z-1.75 I0.25 J0
X93.44 Y8 Z-2.25 I-0.25 J0
X93.94 Y8 Z-2.75 I0.25 J0
X93.44 Y8 Z-3.25 I-0.25 J0
X93.94 Y8 Z-3.75 I0.25 J0
X93.44 Y8 Z-4.25 I-0.25 J0
X93.94 Y8 Z-4.75 I0.25 J0
X93.44 Y8 Z-5.25 I-0.25 J0
X93.94 Y8 Z-5.75 I0.25 J0
X93.44 Y8 Z-6.25 I-0.25 J0
X93.94 Y8 Z-6.75 I0.25 J0
X93.44 Y8 Z-7.25 I-0.25 J0
X93.94 Y8 Z-7.75 I0.25 J0
X93.44 Y8 Z-8.25 I-0.25 J0
X93.94 Y8 Z-8.75 I0.25 J0
X93.44 Y8 Z-9.25 I-0.25 J0
X93.94 Y8 Z-9.75 I0.25 J0
X93.44 Y8 Z-10.25 I-0.25 J0
X93.94 Y8 Z-10.75 I0.25 J0
X93.44 Y8 Z-11.25 I-0.25 J0
X93.94 Y8 Z-11.75 I0.25 J0
X93.44 Y8 Z-12.25 I-0.25 J0
X93.94 Y8 Z-12.75 I0.25 J0
X93.651 Y8.247 Z-13.025 I-0.25 J0
X93.452 Y7.923 Z-13.3 I0.039 J-0.247
X93.928 Y8.077 I0.238 J0.077
X93.452 Y7.923 I-0.238 J-0.077
G1 X93.47 Y7.888
X93.498 Y7.86
X93.532 Y7.842
X93.571 Y7.836
X93.61 Y7.842
X93.738 Y7.884
Z5
X134.3 Y7.875
Z0.98
Z-0.75
X134.435
X134.474 Y7.881
X134.508 Y7.899
X134.536 Y7.927
X134.554 Y7.961
X134.56 Y8
G3 X134.06 Y8 Z-1.25 I-0.25 J0
X134.56 Y8 Z-1.75 I0.25 J0
X134.06 Y8 Z-2.25 I-0.25 J0
X134.56 Y8 Z-2.75 I0.25 J0
X134.06 Y8 Z-3.25 I-0.25 J0
X134.56 Y8 Z-3.75 I0.25 J0
X134.06 Y8 Z-4.25 I-0.25 J0
X134.56 Y8 Z-4.75 I0.25 J0
X134.06 Y8 Z-5.25 I-0.25 J0
X134.56 Y8 Z-5.75 I0.25 J0
X134.06 Y8 Z-6.25 I-0.25 J0
X134.56 Y8 Z-6.75 I0.25 J0
X134.06 Y8 Z-7.25 I-0.25 J0
X134.56 Y8 Z-7.75 I0.25 J0
X134.06 Y8 Z-8.25 I-0.25 J0
X134.56 Y8 Z-8.75 I0.25 J0
X134.06 Y8 Z-9.25 I-0.25 J0
X134.56 Y8 Z-9.75 I0.25 J0
X134.06 Y8 Z-10.25 I-0.25 J0
X134.56 Y8 Z-10.75 I0.25 J0
X134.06 Y8 Z-11.25 I-0.25 J0
X134.56 Y8 Z-11.75 I0.25 J0
X134.06 Y8 Z-12.25 I-0.25 J0
X134.56 Y8 Z-12.75 I0.25 J0
X134.06 Y8 Z-13.25 I-0.25 J0
X134.072 Y7.923 Z-13.3 I0.25 J0
X134.548 Y8.077 I0.238 J0.077
X134.072 Y7.923 I-0.238 J-0.077
G1 X134.09 Y7.888
X134.118 Y7.86
X134.152 Y7.842
X134.191 Y7.836
X134.23 Y7.842
X134.358 Y7.884
Z5
X15.075 Y34.73
Z-3.95
Z-5.68
G18 G2 X15.345 Z-5.95 I0.27 K0
G1 X15.48
G17 G3 X15.75 Y35 I0 J0.27
X12.25 Y35 Z-6.45 I-1.75 J0
X15.75 Y35 Z-6.95 I1.75 J0
X12.25 Y35 Z-7.45 I-1.75 J0
X15.75 Y35 Z-7.95 I1.75 J0
X12.25 Y35 Z-8.45 I-1.75 J0
X15.75 Y35 Z-8.95 I1.75 J0
X12.25 Y35 Z-9.45 I-1.75 J0
X15.75 Y35 Z-9.95 I1.75 J0
X12.25 Y35 Z-10.45 I-1.75 J0
X15.75 Y35 Z-10.95 I1.75 J0
X12.25 Y35 Z-11.45 I-1.75 J0
X15.75 Y35 Z-11.95 I1.75 J0
X12.25 Y35 Z-12.45 I-1.75 J0
X15.75 Y35 Z-12.95 I1.75 J0
X12.971 Y36.416 Z-13.3 I-1.75 J0
X15.029 Y33.584 I1.029 J-1.416
X12.971 Y36.416 I-1.029 J1.416
X12.912 Y36.039 I0.159 J-0.218
G1 X12.991 Y35.929
X13.026 Y35.881 Z-13.293
X13.06 Y35.835 Z-13.273
X13.09 Y35.793 Z-13.241
X13.115 Y35.759 Z-13.198
X13.134 Y35.733 Z-13.147
X13.146 Y35.716 Z-13.09
X13.15 Y35.711 Z-13.03
Z10
M5
M30
