(1079_light_holder_27bit)
(T1  D=2.7 CR=0 - ZMIN=-4 - flat end mill)
G90 G94
G17
G21
(When using Fusion 360 for Personal Use, the feedrate of)
(rapid moves is reduced to match the feedrate of cutting)
(moves, which can increase machining time. Unrestricted rapid)
(moves are available with a Fusion 360 Subscription.)

(2D Contour11)
T1
S5000 M3
G54
G0 X-2.36 Y14.73
Z10
G1 Z5 F1000
Z3.05 F333.3
Z-1.73
G18 G2 X-2.09 Z-2 I0.27 K0 F1000
G1 X-1.82
G17 G3 X-1.55 Y15 I0 J0.27
G2 X0 Y16.55 I1.55 J0
G1 X8.45
Y30
G2 X10 Y31.55 I1.55 J0
G1 X196
G2 X197.55 Y30 I0 J-1.55
G1 Y26.55
X206
G2 X207.55 Y25 I0 J-1.55
G1 Y15
G2 X206 Y13.45 I-1.55 J0
G1 X197.55
Y0
G2 X196 Y-1.55 I-1.55 J0
G1 X10
G2 X8.45 Y0 I0 J1.55
G1 Y3.45
X0
G2 X-1.55 Y5 I0 J1.55
G1 Y15
G3 X-1.82 Y15.27 I-0.27 J0
G1 X-2.09
G18 G3 X-2.36 Z-1.73 I0 K0.27
G1 Z5
Y14.73
Z1.05 F333.3
Z-3.73
G2 X-2.09 Z-4 I0.27 K0 F1000
G1 X-1.82
G17 G3 X-1.55 Y15 I0 J0.27
G2 X0 Y16.55 I1.55 J0
G1 X8.45
Y30
G2 X10 Y31.55 I1.55 J0
G1 X61.822
Z-2
X67.522
Z-4 F333.3
X155.417 F1000
Z-2
X161.117
Z-4 F333.3
X196 F1000
G2 X197.55 Y30 I0 J-1.55
G1 Y26.55
X206
G2 X207.55 Y25 I0 J-1.55
G1 Y15
G2 X206 Y13.45 I-1.55 J0
G1 X197.55
Y0
G2 X196 Y-1.55 I-1.55 J0
G1 X161.898
Z-2
X156.198
Z-4 F333.3
X64.498 F1000
Z-2
X58.798
Z-4 F333.3
X10 F1000
G2 X8.45 Y0 I0 J1.55
G1 Y3.45
X0
G2 X-1.55 Y5 I0 J1.55
G1 Y15
X-1.542 Y15.05
X-1.52 Y15.095
X-1.486 Y15.131
X-1.442 Y15.155
X-1.398 Y15.178
X-1.361 Y15.211
X-1.334 Y15.251
X-1.317 Y15.298
G2 X0 Y16.35 I1.317 J-0.298
G1 X8.65
Y30
G2 X10 Y31.35 I1.35 J0
G1 X61.822
Z-2
X67.522
Z-4 F333.3
X155.417 F1000
Z-2
X161.117
Z-4 F333.3
X196 F1000
G2 X197.35 Y30 I0 J-1.35
G1 Y26.35
X206
G2 X207.35 Y25 I0 J-1.35
G1 Y15
G2 X206 Y13.65 I-1.35 J0
G1 X197.35
Y0
G2 X196 Y-1.35 I-1.35 J0
G1 X161.898
Z-2
X156.198
Z-4 F333.3
X64.498 F1000
Z-2
X58.798
Z-4 F333.3
X10 F1000
G2 X8.65 Y0 I0 J1.35
G1 Y3.65
X0
G2 X-1.35 Y5 I0 J1.35
G1 Y15
G2 X-1.317 Y15.298 I1.35 J0
G3 X-1.521 Y15.62 I-0.263 J0.06
G1 X-1.784 Y15.68
X-1.843 Y15.693 Z-3.993
X-1.898 Y15.706 Z-3.973
X-1.948 Y15.717 Z-3.941
X-1.99 Y15.726 Z-3.898
X-2.021 Y15.734 Z-3.847
X-2.041 Y15.738 Z-3.79
X-2.047 Y15.739 Z-3.73
Z10
M5
M30
