(1080_light_holder_27bit_longer_thinner_extrude_no_lead)
(T1  D=2.7 CR=0 - ZMIN=-3.87 - flat end mill)
G90 G94
G17
G21
(When using Fusion 360 for Personal Use, the feedrate of)
(rapid moves is reduced to match the feedrate of cutting)
(moves, which can increase machining time. Unrestricted rapid)
(moves are available with a Fusion 360 Subscription.)

(2D Contour11)
T1
S5000 M3
G54
G0 X10 Y-1.55
Z10
G1 Z5 F1000
Z3.05 F333.3
Z-1.935
G2 X8.45 Y0 I0 J1.55 F1000
G1 Y3.45
X0
G2 X-1.55 Y5 I0 J1.55
G1 Y15
G2 X0 Y16.55 I1.55 J0
G1 X8.45
Y30
G2 X10 Y31.55 I1.55 J0
G1 X62.116
Z-1.87
X67.816
Z-1.935 F333.3
X156.214 F1000
Z-1.87
X161.914
Z-1.935 F333.3
X197 F1000
G2 X198.55 Y30 I0 J-1.55
G1 Y26.55
X207
G2 X208.55 Y25 I0 J-1.55
G1 Y15
G2 X207 Y13.45 I-1.55 J0
G1 X198.55
Y0
G2 X197 Y-1.55 I-1.55 J0
G1 X162.7
Z-1.87
X157
Z-1.935 F333.3
X64.775 F1000
Z-1.87
X59.075
Z-1.935 F333.3
X10 F1000
Z-3.87 F333.3
G2 X8.45 Y0 I0 J1.55 F1000
G1 Y3.45
X0
G2 X-1.55 Y5 I0 J1.55
G1 Y15
G2 X0 Y16.55 I1.55 J0
G1 X8.45
Y30
G2 X10 Y31.55 I1.55 J0
G1 X62.116
Z-1.87
X67.816
Z-3.87 F333.3
X156.214 F1000
Z-1.87
X161.914
Z-3.87 F333.3
X197 F1000
G2 X198.55 Y30 I0 J-1.55
G1 Y26.55
X207
G2 X208.55 Y25 I0 J-1.55
G1 Y15
G2 X207 Y13.45 I-1.55 J0
G1 X198.55
Y0
G2 X197 Y-1.55 I-1.55 J0
G1 X162.7
Z-1.87
X157
Z-3.87 F333.3
X64.775 F1000
Z-1.87
X59.075
Z-3.87 F333.3
X10 F1000
X9.95 Y-1.542
X9.905 Y-1.52
X9.869 Y-1.486
X9.845 Y-1.442
X9.822 Y-1.398
X9.789 Y-1.361
X9.749 Y-1.334
X9.702 Y-1.317
G2 X8.65 Y0 I0.298 J1.317
G1 Y3.65
X0
G2 X-1.35 Y5 I0 J1.35
G1 Y15
G2 X0 Y16.35 I1.35 J0
G1 X8.65
Y30
G2 X10 Y31.35 I1.35 J0
G1 X62.116
Z-1.87
X67.816
Z-3.87 F333.3
X156.214 F1000
Z-1.87
X161.914
Z-3.87 F333.3
X197 F1000
G2 X198.35 Y30 I0 J-1.35
G1 Y26.35
X207
G2 X208.35 Y25 I0 J-1.35
G1 Y15
G2 X207 Y13.65 I-1.35 J0
G1 X198.35
Y0
G2 X197 Y-1.35 I-1.35 J0
G1 X162.7
Z-1.87
X157
Z-3.87 F333.3
X64.775 F1000
Z-1.87
X59.075
Z-3.87 F333.3
X10 F1000
G2 X9.702 Y-1.317 I0 J1.35
G1 Z10
M5
M30
