(1080_light_holder_27bit_longer_thinner_extrude)
(T1  D=2.7 CR=0 - ZMIN=-3.87 - flat end mill)
G90 G94
G17
G21
(When using Fusion 360 for Personal Use, the feedrate of)
(rapid moves is reduced to match the feedrate of cutting)
(moves, which can increase machining time. Unrestricted rapid)
(moves are available with a Fusion 360 Subscription.)

(2D Contour11)
T1
S5000 M3
G54
G0 X208.55 Y15
Z10
G1 Z5 F1000
Z3.05 F333.3
Z-1.935
G2 X207 Y13.45 I-1.55 J0 F1000
G1 X198.55
Y0
G2 X197 Y-1.55 I-1.55 J0
G1 X162.7
Z-1.87
X157
Z-1.935 F333.3
X64.775 F1000
Z-1.87
X59.075
Z-1.935 F333.3
X10 F1000
G2 X8.45 Y0 I0 J1.55
G1 Y3.45
X0
G2 X-1.55 Y5 I0 J1.55
G1 Y15
G2 X0 Y16.55 I1.55 J0
G1 X8.45
Y30
G2 X10 Y31.55 I1.55 J0
G1 X62.116
Z-1.87
X67.816
Z-1.935 F333.3
X156.214 F1000
Z-1.87
X161.914
Z-1.935 F333.3
X197 F1000
G2 X198.55 Y30 I0 J-1.55
G1 Y26.55
X207
G2 X208.55 Y25 I0 J-1.55
G1 Y15
Z-3.87 F333.3
G2 X207 Y13.45 I-1.55 J0 F1000
G1 X198.55
Y0
G2 X197 Y-1.55 I-1.55 J0
G1 X162.7
Z-1.87
X157
Z-3.87 F333.3
X64.775 F1000
Z-1.87
X59.075
Z-3.87 F333.3
X10 F1000
G2 X8.45 Y0 I0 J1.55
G1 Y3.45
X0
G2 X-1.55 Y5 I0 J1.55
G1 Y15
G2 X0 Y16.55 I1.55 J0
G1 X8.45
Y30
G2 X10 Y31.55 I1.55 J0
G1 X62.116
Z-1.87
X67.816
Z-3.87 F333.3
X156.214 F1000
Z-1.87
X161.914
Z-3.87 F333.3
X197 F1000
G2 X198.55 Y30 I0 J-1.55
G1 Y26.55
X207
G2 X208.55 Y25 I0 J-1.55
G1 Y15
X208.542 Y14.95
X208.52 Y14.905
X208.486 Y14.869
X208.442 Y14.845
X208.398 Y14.822
X208.361 Y14.789
X208.334 Y14.749
X208.317 Y14.702
G2 X207 Y13.65 I-1.317 J0.298
G1 X198.35
Y0
G2 X197 Y-1.35 I-1.35 J0
G1 X162.7
Z-1.87
X157
Z-3.87 F333.3
X64.775 F1000
Z-1.87
X59.075
Z-3.87 F333.3
X10 F1000
G2 X8.65 Y0 I0 J1.35
G1 Y3.65
X0
G2 X-1.35 Y5 I0 J1.35
G1 Y15
G2 X0 Y16.35 I1.35 J0
G1 X8.65
Y30
G2 X10 Y31.35 I1.35 J0
G1 X62.116
Z-1.87
X67.816
Z-3.87 F333.3
X156.214 F1000
Z-1.87
X161.914
Z-3.87 F333.3
X197 F1000
G2 X198.35 Y30 I0 J-1.35
G1 Y26.35
X207
G2 X208.35 Y25 I0 J-1.35
G1 Y15
G2 X208.317 Y14.702 I-1.35 J0
G1 Z10
M5
M30
