(1082_light_holder_27bit_better_tabs)
(T1  D=2.7 CR=0 - ZMIN=-3.87 - flat end mill)
G90 G94
G17
G21
(When using Fusion 360 for Personal Use, the feedrate of)
(rapid moves is reduced to match the feedrate of cutting)
(moves, which can increase machining time. Unrestricted rapid)
(moves are available with a Fusion 360 Subscription.)

(2D Contour11)
T1
S5000 M3
G54
G0 X11 Y-1.55
Z10
G1 Z5 F1000
Z3.05 F333.3
Z-1.935
G2 X9.45 Y0 I0 J1.55 F1000
G1 Y0.95
Z-0.87
Y6.65
Z-1.935 F333.3
Y7.45 F1000
X0
G2 X-1.55 Y9 I0 J1.55
G1 Y15
G2 X0 Y16.55 I1.55 J0
G1 X9.45
Y19.45
X0
G2 X-1.55 Y21 I0 J1.55
G1 Y27
G2 X0 Y28.55 I1.55 J0
G1 X9.45
Y30
G2 X11 Y31.55 I1.55 J0
G1 X36.942
Z-0.87
X42.642
Z-1.935 F333.3
X91.921 F1000
Z-0.87
X97.621
Z-1.935 F333.3
X157.214 F1000
Z-0.87
X162.914
Z-1.935 F333.3
X198 F1000
G2 X199.55 Y30 I0 J-1.55
G1 Y28.096
Z-0.87
Y22.55
X201.1
Z-1.935 F333.3
X209 F1000
G2 X210.55 Y21 I0 J-1.55
G1 Y15
G2 X209 Y13.45 I-1.55 J0
G1 X199.55
Y10.55
X209
G2 X210.55 Y9 I0 J-1.55
G1 Y3
G2 X209 Y1.45 I-1.55 J0
G1 X199.55
Y0
G2 X198 Y-1.55 I-1.55 J0
G1 X184.597
Z-0.87
X178.897
Z-1.935 F333.3
X123.025 F1000
Z-0.87
X117.325
Z-1.935 F333.3
X58.092 F1000
Z-0.87
X52.392
Z-1.935 F333.3
X11 F1000
Z-3.87 F333.3
G2 X9.45 Y0 I0 J1.55 F1000
G1 Y0.95
Z-0.87
Y6.65
Z-3.87 F333.3
Y7.45 F1000
X0
G2 X-1.55 Y9 I0 J1.55
G1 Y15
G2 X0 Y16.55 I1.55 J0
G1 X9.45
Y19.45
X0
G2 X-1.55 Y21 I0 J1.55
G1 Y27
G2 X0 Y28.55 I1.55 J0
G1 X9.45
Y30
G2 X11 Y31.55 I1.55 J0
G1 X36.942
Z-0.87
X42.642
Z-3.87 F333.3
X91.921 F1000
Z-0.87
X97.621
Z-3.87 F333.3
X157.214 F1000
Z-0.87
X162.914
Z-3.87 F333.3
X198 F1000
G2 X199.55 Y30 I0 J-1.55
G1 Y28.096
Z-0.87
Y22.55
X201.1
Z-3.87 F333.3
X209 F1000
G2 X210.55 Y21 I0 J-1.55
G1 Y15
G2 X209 Y13.45 I-1.55 J0
G1 X199.55
Y10.55
X209
G2 X210.55 Y9 I0 J-1.55
G1 Y3
G2 X209 Y1.45 I-1.55 J0
G1 X199.55
Y0
G2 X198 Y-1.55 I-1.55 J0
G1 X184.597
Z-0.87
X178.897
Z-3.87 F333.3
X123.025 F1000
Z-0.87
X117.325
Z-3.87 F333.3
X58.092 F1000
Z-0.87
X52.392
Z-3.87 F333.3
X11 F1000
X10.95 Y-1.542
X10.905 Y-1.52
X10.869 Y-1.486
X10.845 Y-1.442
X10.822 Y-1.398
X10.789 Y-1.361
X10.749 Y-1.334
X10.702 Y-1.317
G2 X9.65 Y0 I0.298 J1.317
G1 Y0.95
Z-0.87
Y6.65
Z-3.87 F333.3
Y7.65 F1000
X0
G2 X-1.35 Y9 I0 J1.35
G1 Y15
G2 X0 Y16.35 I1.35 J0
G1 X9.65
Y19.65
X0
G2 X-1.35 Y21 I0 J1.35
G1 Y27
G2 X0 Y28.35 I1.35 J0
G1 X9.65
Y30
G2 X11 Y31.35 I1.35 J0
G1 X36.942
Z-0.87
X42.642
Z-3.87 F333.3
X91.921 F1000
Z-0.87
X97.621
Z-3.87 F333.3
X157.214 F1000
Z-0.87
X162.914
Z-3.87 F333.3
X198 F1000
G2 X199.35 Y30 I0 J-1.35
G1 Y28.096
Z-0.87
Y22.396
Z-3.87 F333.3
Y22.35 F1000
X209
G2 X210.35 Y21 I0 J-1.35
G1 Y15
G2 X209 Y13.65 I-1.35 J0
G1 X199.35
Y10.35
X209
G2 X210.35 Y9 I0 J-1.35
G1 Y3
G2 X209 Y1.65 I-1.35 J0
G1 X199.35
Y0
G2 X198 Y-1.35 I-1.35 J0
G1 X184.597
Z-0.87
X178.897
Z-3.87 F333.3
X123.025 F1000
Z-0.87
X117.325
Z-3.87 F333.3
X58.092 F1000
Z-0.87
X52.392
Z-3.87 F333.3
X11 F1000
G2 X10.702 Y-1.317 I0 J1.35
G1 Z10
M5
M30
