(1085_test_utab_365bit)
(T1  D=2.65 CR=0 - ZMIN=-12.3 - flat end mill)
G90 G94
G17
G21
(When using Fusion 360 for Personal Use, the feedrate of)
(rapid moves is reduced to match the feedrate of cutting)
(moves, which can increase machining time. Unrestricted rapid)
(moves are available with a Fusion 360 Subscription.)

(2D Pocket1)
T1
S5000 M3
G54
G0 X35.322 Y24.737
Z10
G1 Z5 F1000
Z3.06 F333.3
Z-1.983 F1000
X35.315 Y24.745
X35.284 Y24.775
G2 X35.284 Y25.225 I0.221 J0.225
G1 X35.314 Y25.254
X35.32 Y25.269
X35.35 Y27.382
X35.344 Y27.397
X35.329 Y27.403
X35.315 Y27.396
G2 X33.025 Y25.179 I-17.188 J15.46
G3 X33.025 Y24.821 I0.152 J-0.179
G2 X35.315 Y22.587 I-15.108 J-17.775
G1 X35.32 Y22.574
X35.351 Y20.261
X35.344 Y20.246
X35.329 Y20.241
X35.315 Y20.249
G3 X30.552 Y24.857 I-17.377 J-13.192
G2 X30.552 Y25.143 I0.101 J0.143
G3 X35.315 Y29.721 I-12.446 J17.713
G1 X35.319 Y29.733
X35.352 Y32.341
X35.345 Y32.356
X35.329 Y32.361
X35.315 Y32.351
G2 X27.77 Y25.153 I-17.228 J10.505
G3 X27.77 Y24.847 I0.085 J-0.153
G2 X35.315 Y17.609 I-9.812 J-17.779
G1 X35.318 Y17.599
X35.353 Y14.353
X35.349 Y14.34
X35.337 Y14.333
X35.324 Y14.335
X35.315 Y14.345
G3 X24.029 Y24.877 I-17.336 J-7.264
G1 X23.993 Y24.895
X23.965 Y24.924
X23.947 Y24.96
X23.941 Y25
X23.947 Y25.04
X23.965 Y25.076
X23.993 Y25.105
X24.029 Y25.123
G3 X35.315 Y35.61 I-5.963 J17.733
G1 X35.316 Y35.618
X35.324 Y42.689
X35.318 Y42.703
X35.304 Y42.709
X35.29 Y42.703
X35.284 Y42.689
G2 X21.575 Y25.991 I-17.228 J0.168
G3 X21.24 Y25.578 I0.088 J-0.413
G1 Y24.422
G3 X21.575 Y24.009 I0.422 J0
G2 X35.284 Y7.308 I-3.586 J-16.921
G1 X35.281 Y7.297
X33.829 Y4.966
X33.816 Y4.957
X33.799 Y4.962
X33.792 Y4.977
X33.795 Y7.144
G3 X20.025 Y22.763 I-15.802 J-0.051
G2 X19.75 Y23.076 I0.041 J0.313
G1 Y26.924
G2 X20.025 Y27.237 I0.315 J0
G3 X33.795 Y42.856 I-1.973 J15.619
G1 X33.792 Y45.024
X33.789 Y45.035
X33.779 Y45.043
X32.329 Y45.556
X32.316 Y45.557
X32.306 Y45.549
X32.302 Y45.538
X32.305 Y42.856
G2 X18.563 Y28.607 I-14.258 J0
G3 X18.26 Y28.292 I0.012 J-0.315
G1 Y21.708
G3 X18.563 Y21.393 I0.315 J0
G2 X32.305 Y7.144 I-0.565 J-14.296
G1 X32.302 Y4.463
X32.295 Y4.448
X32.279 Y4.443
X30.83 Y4.646
X30.817 Y4.653
X30.812 Y4.666
X30.815 Y7.144
G3 X17.023 Y19.876 I-12.812 J-0.042
G2 X16.77 Y20.111 I-0.018 J0.235
G1 Y29.889
G2 X17.023 Y30.124 I0.235 J0
G3 X30.815 Y42.856 I1.018 J12.733
G1 X30.812 Y45.334
X30.808 Y45.346
X30.798 Y45.353
X30.785
X29.336 Y44.811
X29.327 Y44.803
X29.323 Y44.792
X29.325 Y42.856
G2 X15.566 Y31.842 I-11.288 J0
G3 X15.28 Y31.612 I-0.051 J-0.23
G1 Y18.388
G3 X15.566 Y18.158 I0.235 J0
G2 X29.325 Y7.144 I2.442 J-11.05
G1 X29.323 Y5.208
X29.319 Y5.196
X29.309 Y5.189
X29.296
X27.847 Y5.731
X27.837 Y5.739
X27.834 Y5.75
X27.835 Y7.144
G3 X14.645 Y16.361 I-9.828 J-0.018
X14.364 Y16.249 I1.659 J-4.56
G2 X14.082 Y16.136 I-1.941 J4.448
X13.79 Y16.341 I-0.074 J0.205
G1 Y33.659
G2 X14.082 Y33.864 I0.218 J0
X14.364 Y33.751 I-1.659 J-4.559
G3 X14.645 Y33.639 I1.941 J4.447
X27.835 Y42.856 I3.374 J9.217
G1 X27.834 Y44.25
X27.83 Y44.262
X27.819 Y44.269
X27.807 Y44.268
X26.357 Y43.726
X26.348 Y43.719
X26.344 Y43.707
X26.345 Y42.856
G2 X15.146 Y35.015 I-8.345 J0
X13.869 Y35.503 I14.205 J39.029
G3 X12.592 Y35.992 I-15.482 J-38.54
X12.3 Y35.787 I-0.074 J-0.205
G1 Y14.213
G3 X12.592 Y14.008 I0.218 J0
X13.869 Y14.497 I-14.207 J39.032
G2 X15.146 Y14.985 I15.466 J-38.497
X26.345 Y7.144 I2.854 J-7.842
G1 X26.344 Y6.292
X26.34 Y6.28
X26.33 Y6.273
X26.317
X24.868 Y6.815
X24.858 Y6.823
X24.855 Y6.834
Y7.144
G3 X15.655 Y13.585 I-6.855 J0
X13.379 Y12.733 I44.917 J-123.41
G2 X11.102 Y11.88 I-47.194 J122.557
X10.81 Y12.085 I-0.074 J0.205
G1 Y37.915
G2 X11.102 Y38.12 I0.218 J0
X13.379 Y37.267 I-44.917 J-123.409
G3 X15.655 Y36.415 I47.194 J122.556
X24.855 Y42.856 I2.345 J6.442
G1 Y43.166
X24.851 Y43.178
X24.84 Y43.185
X24.828
X23.373 Y42.639
X23.364 Y42.632
X23.36 Y42.622
G2 X16.165 Y37.815 I-5.36 J0.235
G1 X9.612 Y40.248
G3 X9.32 Y40.043 I-0.074 J-0.205
G1 Y9.957
G3 X9.612 Y9.752 I0.218 J0
G1 X16.165 Y12.185
G2 X23.36 Y7.379 I1.835 J-5.041
G1 X23.357 Y7.367
X23.347 Y7.359
X23.335
X21.785 Y7.771
X21.775 Y7.777
X21.771 Y7.787
G3 X16.692 Y10.738 I-3.771 J-0.643
G1 X8.06 Y7.596
G2 X7.825 Y7.761 I-0.06 J0.164
G1 Y42.239
G2 X8.06 Y42.404 I0.175 J0
G1 X16.692 Y39.262
G3 X21.771 Y42.213 I1.308 J3.594
G1 X21.778 Y42.226
X21.793 Y42.23
X21.806 Y42.222
X35.323 Y25.289
X35.328 Y25.275
X35.322 Y25.262
Z-3.967
X35.314 Y25.254
X35.284 Y25.225
G3 X35.284 Y24.775 I0.221 J-0.225
G1 X35.315 Y24.745
X35.321 Y24.731
X35.35 Y22.6
X35.344 Y22.586
X35.329 Y22.58
X35.315 Y22.587
G3 X33.025 Y24.821 I-17.398 J-15.541
G2 X33.025 Y25.179 I0.152 J0.179
G3 X35.315 Y27.396 I-14.898 J17.677
G1 X35.32 Y27.409
X35.351 Y29.709
X35.344 Y29.723
X35.329 Y29.729
X35.315 Y29.721
G2 X30.552 Y25.143 I-17.208 J13.135
G3 X30.552 Y24.857 I0.101 J-0.143
G2 X35.315 Y20.249 I-12.614 J-17.801
G1 X35.319 Y20.237
X35.352 Y17.62
X35.345 Y17.604
X35.329 Y17.6
X35.315 Y17.609
G3 X27.77 Y24.847 I-17.357 J-10.542
G2 X27.77 Y25.153 I0.085 J0.153
G3 X35.315 Y32.351 I-9.683 J17.703
G1 X35.318 Y32.362
X35.353 Y35.602
X35.349 Y35.615
X35.337 Y35.622
X35.324 Y35.62
X35.315 Y35.61
G2 X24.029 Y25.123 I-17.248 J7.246
G1 X23.993 Y25.105
X23.965 Y25.076
X23.947 Y25.04
X23.941 Y25
X23.947 Y24.96
X23.965 Y24.924
X23.993 Y24.895
X24.029 Y24.877
G2 X35.315 Y14.345 I-6.051 J-17.796
G1 X35.316 Y14.337
X35.324 Y7.308
X35.318 Y7.294
X35.304 Y7.288
X35.29 Y7.294
X35.284 Y7.308
G3 X21.575 Y24.009 I-17.295 J-0.22
G2 X21.24 Y24.422 I0.088 J0.413
G1 Y25.578
G2 X21.575 Y25.991 I0.422 J0
G3 X35.284 Y42.689 I-3.518 J16.865
G1 X35.281 Y42.7
X33.829 Y45.034
X33.816 Y45.043
X33.799 Y45.039
X33.792 Y45.024
X33.795 Y42.856
G2 X20.025 Y27.237 I-15.743 J0
G3 X19.75 Y26.924 I0.041 J-0.313
G1 Y23.076
G3 X20.025 Y22.763 I0.315 J0
G2 X33.795 Y7.144 I-2.031 J-15.671
G1 X33.792 Y4.977
X33.789 Y4.965
X33.779 Y4.958
X32.329 Y4.444
X32.316
X32.306 Y4.451
X32.302 Y4.463
X32.305 Y7.144
G3 X18.563 Y21.393 I-14.307 J-0.047
G2 X18.26 Y21.708 I0.012 J0.315
G1 Y28.292
G2 X18.563 Y28.607 I0.315 J0
G3 X32.305 Y42.856 I-0.516 J14.249
G1 X32.302 Y45.538
X32.295 Y45.553
X32.279 Y45.557
X30.83 Y45.354
X30.817 Y45.347
X30.812 Y45.334
X30.815 Y42.856
G2 X17.023 Y30.124 I-12.773 J0
G3 X16.77 Y29.889 I-0.018 J-0.235
G1 Y20.111
G3 X17.023 Y19.876 I0.235 J0
G2 X30.815 Y7.144 I0.98 J-12.774
G1 X30.812 Y4.666
X30.808 Y4.654
X30.798 Y4.647
X30.785
X29.336 Y5.189
X29.327 Y5.196
X29.323 Y5.208
X29.325 Y7.144
G3 X15.566 Y18.158 I-11.317 J-0.036
G2 X15.28 Y18.388 I-0.051 J0.23
G1 Y31.612
G2 X15.566 Y31.842 I0.235 J0
G3 X29.325 Y42.856 I2.471 J11.014
G1 X29.323 Y44.792
X29.319 Y44.804
X29.309 Y44.811
X29.296
X27.847 Y44.268
X27.837 Y44.261
X27.834 Y44.25
X27.835 Y42.856
G2 X14.645 Y33.639 I-9.816 J0
X14.364 Y33.751 I1.659 J4.559
G3 X14.082 Y33.864 I-1.941 J-4.447
X13.79 Y33.659 I-0.074 J-0.205
G1 Y16.341
G3 X14.082 Y16.136 I0.218 J0
X14.364 Y16.249 I-1.66 J4.561
G2 X14.645 Y16.361 I1.941 J-4.447
X27.835 Y7.144 I3.361 J-9.236
G1 X27.834 Y5.75
X27.83 Y5.738
X27.819 Y5.731
X27.807
X26.357 Y6.273
X26.348 Y6.281
X26.344 Y6.292
X26.345 Y7.144
G3 X15.146 Y14.985 I-8.345 J0
X13.869 Y14.497 I14.189 J-38.986
G2 X12.592 Y14.008 I-15.483 J38.544
X12.3 Y14.213 I-0.074 J0.205
G1 Y35.787
G2 X12.592 Y35.992 I0.218 J0
X13.869 Y35.503 I-14.205 J-39.029
G3 X15.146 Y35.015 I15.482 J38.54
X26.345 Y42.856 I2.854 J7.842
G1 X26.344 Y43.707
X26.34 Y43.719
X26.33 Y43.727
X26.317 Y43.726
X24.868 Y43.185
X24.858 Y43.178
X24.855 Y43.166
Y42.856
G2 X15.655 Y36.415 I-6.855 J0
X13.379 Y37.267 I44.917 J123.409
G3 X11.102 Y38.12 I-47.194 J-122.556
X10.81 Y37.915 I-0.074 J-0.205
G1 Y12.085
G3 X11.102 Y11.88 I0.218 J0
X13.379 Y12.733 I-44.917 J123.41
G2 X15.655 Y13.585 I47.194 J-122.557
X24.855 Y7.144 I2.345 J-6.442
G1 Y6.834
X24.851 Y6.822
X24.84 Y6.815
X24.828
X23.373 Y7.361
X23.364 Y7.368
X23.36 Y7.379
G3 X16.165 Y12.185 I-5.36 J-0.235
G1 X9.612 Y9.752
G2 X9.32 Y9.957 I-0.074 J0.205
G1 Y40.043
G2 X9.612 Y40.248 I0.218 J0
G1 X16.165 Y37.815
G3 X23.36 Y42.622 I1.835 J5.041
G1 X23.357 Y42.633
X23.347 Y42.641
X23.335 Y42.642
X21.785 Y42.229
X21.776 Y42.223
X21.771 Y42.213
G2 X16.692 Y39.262 I-3.771 J0.643
G1 X8.06 Y42.404
G3 X7.825 Y42.239 I-0.06 J-0.164
G1 Y7.761
G3 X8.06 Y7.596 I0.175 J0
G1 X16.692 Y10.738
G2 X21.771 Y7.787 I1.308 J-3.594
G1 X21.778 Y7.774
X21.793 Y7.77
X21.806 Y7.778
X35.324 Y24.711
X35.328 Y24.724
X35.322 Y24.737
Z-5.95
X35.315 Y24.745
X35.284 Y24.775
G2 X35.284 Y25.225 I0.221 J0.225
G1 X35.314 Y25.254
X35.32 Y25.269
X35.35 Y27.382
X35.344 Y27.397
X35.329 Y27.403
X35.315 Y27.396
G2 X33.025 Y25.179 I-17.188 J15.46
G3 X33.025 Y24.821 I0.152 J-0.179
G2 X35.315 Y22.587 I-15.108 J-17.775
G1 X35.32 Y22.574
X35.351 Y20.261
X35.344 Y20.246
X35.329 Y20.241
X35.315 Y20.249
G3 X30.552 Y24.857 I-17.377 J-13.192
G2 X30.552 Y25.143 I0.101 J0.143
G3 X35.315 Y29.721 I-12.446 J17.713
G1 X35.319 Y29.733
X35.352 Y32.341
X35.345 Y32.356
X35.329 Y32.361
X35.315 Y32.351
G2 X27.77 Y25.153 I-17.228 J10.505
G3 X27.77 Y24.847 I0.085 J-0.153
G2 X35.315 Y17.609 I-9.812 J-17.779
G1 X35.318 Y17.599
X35.353 Y14.353
X35.349 Y14.34
X35.337 Y14.333
X35.324 Y14.335
X35.315 Y14.345
G3 X24.029 Y24.877 I-17.336 J-7.264
G1 X23.993 Y24.895
X23.965 Y24.924
X23.947 Y24.96
X23.941 Y25
X23.947 Y25.04
X23.965 Y25.076
X23.993 Y25.105
X24.029 Y25.123
G3 X35.315 Y35.61 I-5.963 J17.733
G1 X35.316 Y35.618
X35.324 Y42.689
X35.318 Y42.703
X35.304 Y42.709
X35.29 Y42.703
X35.284 Y42.689
G2 X21.575 Y25.991 I-17.228 J0.168
G3 X21.24 Y25.578 I0.088 J-0.413
G1 Y24.422
G3 X21.575 Y24.009 I0.422 J0
G2 X35.284 Y7.308 I-3.586 J-16.921
G1 X35.281 Y7.297
X33.829 Y4.966
X33.816 Y4.957
X33.799 Y4.962
X33.792 Y4.977
X33.795 Y7.144
G3 X20.025 Y22.763 I-15.802 J-0.051
G2 X19.75 Y23.076 I0.041 J0.313
G1 Y26.924
G2 X20.025 Y27.237 I0.315 J0
G3 X33.795 Y42.856 I-1.973 J15.619
G1 X33.792 Y45.024
X33.789 Y45.035
X33.779 Y45.043
X32.329 Y45.556
X32.316 Y45.557
X32.306 Y45.549
X32.302 Y45.538
X32.305 Y42.856
G2 X18.563 Y28.607 I-14.258 J0
G3 X18.26 Y28.292 I0.012 J-0.315
G1 Y21.708
G3 X18.563 Y21.393 I0.315 J0
G2 X32.305 Y7.144 I-0.565 J-14.296
G1 X32.302 Y4.463
X32.295 Y4.448
X32.279 Y4.443
X30.83 Y4.646
X30.817 Y4.653
X30.812 Y4.666
X30.815 Y7.144
G3 X17.023 Y19.876 I-12.812 J-0.042
G2 X16.77 Y20.111 I-0.018 J0.235
G1 Y29.889
G2 X17.023 Y30.124 I0.235 J0
G3 X30.815 Y42.856 I1.018 J12.733
G1 X30.812 Y45.334
X30.808 Y45.346
X30.798 Y45.353
X30.785
X29.336 Y44.811
X29.327 Y44.803
X29.323 Y44.792
X29.325 Y42.856
G2 X15.566 Y31.842 I-11.288 J0
G3 X15.28 Y31.612 I-0.051 J-0.23
G1 Y18.388
G3 X15.566 Y18.158 I0.235 J0
G2 X29.325 Y7.144 I2.442 J-11.05
G1 X29.323 Y5.208
X29.319 Y5.196
X29.309 Y5.189
X29.296
X27.847 Y5.731
X27.837 Y5.739
X27.834 Y5.75
X27.835 Y7.144
G3 X14.645 Y16.361 I-9.828 J-0.018
X14.364 Y16.249 I1.659 J-4.56
G2 X14.082 Y16.136 I-1.941 J4.448
X13.79 Y16.341 I-0.074 J0.205
G1 Y33.659
G2 X14.082 Y33.864 I0.218 J0
X14.364 Y33.751 I-1.659 J-4.559
G3 X14.645 Y33.639 I1.941 J4.447
X27.835 Y42.856 I3.374 J9.217
G1 X27.834 Y44.25
X27.83 Y44.262
X27.819 Y44.269
X27.807 Y44.268
X26.357 Y43.726
X26.348 Y43.719
X26.344 Y43.707
X26.345 Y42.856
G2 X15.146 Y35.015 I-8.345 J0
X13.869 Y35.503 I14.205 J39.029
G3 X12.592 Y35.992 I-15.482 J-38.54
X12.3 Y35.787 I-0.074 J-0.205
G1 Y14.213
G3 X12.592 Y14.008 I0.218 J0
X13.869 Y14.497 I-14.207 J39.032
G2 X15.146 Y14.985 I15.466 J-38.497
X26.345 Y7.144 I2.854 J-7.842
G1 X26.344 Y6.292
X26.34 Y6.28
X26.33 Y6.273
X26.317
X24.868 Y6.815
X24.858 Y6.823
X24.855 Y6.834
Y7.144
G3 X15.655 Y13.585 I-6.855 J0
X13.379 Y12.733 I44.917 J-123.41
G2 X11.102 Y11.88 I-47.194 J122.557
X10.81 Y12.085 I-0.074 J0.205
G1 Y37.915
G2 X11.102 Y38.12 I0.218 J0
X13.379 Y37.267 I-44.917 J-123.409
G3 X15.655 Y36.415 I47.194 J122.556
X24.855 Y42.856 I2.345 J6.442
G1 Y43.166
X24.851 Y43.178
X24.84 Y43.185
X24.828
X23.373 Y42.639
X23.364 Y42.632
X23.36 Y42.622
G2 X16.165 Y37.815 I-5.36 J0.235
G1 X9.612 Y40.248
G3 X9.32 Y40.043 I-0.074 J-0.205
G1 Y9.957
G3 X9.612 Y9.752 I0.218 J0
G1 X16.165 Y12.185
G2 X23.36 Y7.379 I1.835 J-5.041
G1 X23.357 Y7.367
X23.347 Y7.359
X23.335
X21.785 Y7.771
X21.775 Y7.777
X21.771 Y7.787
G3 X16.692 Y10.738 I-3.771 J-0.643
G1 X8.06 Y7.596
G2 X7.825 Y7.761 I-0.06 J0.164
G1 Y42.239
G2 X8.06 Y42.404 I0.175 J0
G1 X16.692 Y39.262
G3 X21.771 Y42.213 I1.308 J3.594
G1 X21.993 Y43.519
Z10
(When using Fusion 360 for Personal Use, the feedrate of)
(rapid moves is reduced to match the feedrate of cutting)
(moves, which can increase machining time. Unrestricted rapid)
(moves are available with a Fusion 360 Subscription.)

(2D Contour2 2)
G0 X21.525 Y42.856
G1 Z10 F1000
Z5
Z3.06 F333.3
Z-1.983
G2 X16.794 Y39.544 I-3.525 J0 F1000
G1 X8.162 Y42.686
G3 X7.525 Y42.239 I-0.162 J-0.446
G1 Y7.761
G3 X8.162 Y7.314 I0.475 J0
G1 X16.794 Y10.456
G2 X21.525 Y7.144 I1.206 J-3.312
G1 Z5
Y42.856
Z1.077 F333.3
Z-3.967
G2 X16.794 Y39.544 I-3.525 J0 F1000
G1 X8.162 Y42.686
G3 X7.525 Y42.239 I-0.162 J-0.446
G1 Y7.761
G3 X8.162 Y7.314 I0.475 J0
G1 X16.794 Y10.456
G2 X21.525 Y7.144 I1.206 J-3.312
G1 Z5
Y42.856
Z-0.907 F333.3
Z-5.95
G2 X16.794 Y39.544 I-3.525 J0 F1000
G1 X8.162 Y42.686
G3 X7.525 Y42.239 I-0.162 J-0.446
G1 Y7.761
G3 X8.162 Y7.314 I0.475 J0
G1 X16.794 Y10.456
G2 X21.525 Y7.144 I1.206 J-3.312
G1 Z5
X21.325 Y42.856
Z-0.907 F333.3
Z-5.95
G2 X16.863 Y39.732 I-3.325 J0 F1000
G1 X8.231 Y42.874
G3 X7.325 Y42.239 I-0.231 J-0.634
G1 Y7.761
G3 X8.231 Y7.126 I0.675 J0
G1 X16.863 Y10.268
G2 X21.325 Y7.144 I1.137 J-3.124
G1 Z10
(When using Fusion 360 for Personal Use, the feedrate of)
(rapid moves is reduced to match the feedrate of cutting)
(moves, which can increase machining time. Unrestricted rapid)
(moves are available with a Fusion 360 Subscription.)

(2D Contour3 2)
G0 X-1.525 Y0
G1 Z10 F1000
Z5
Z3 F333.3
Z-1.757
Y50 F1000
G2 X0 Y51.525 I1.525 J0
G1 X20
G2 X21.525 Y50 I0 J-1.525
G1 Y42.856
G3 X22.162 Y42.41 I0.475 J0
G1 X30.794 Y45.552
G2 X35.525 Y42.239 I1.206 J-3.312
G1 Y7.761
G2 X30.794 Y4.448 I-3.525 J0
G1 X22.162 Y7.59
G3 X21.525 Y7.144 I-0.162 J-0.446
G1 Y0
G2 X20 Y-1.525 I-1.525 J0
G1 X0
G2 X-1.525 Y0 I0 J1.525
G1 Z-3.514 F333.3
Y50 F1000
G2 X0 Y51.525 I1.525 J0
G1 X20
G2 X21.525 Y50 I0 J-1.525
G1 Y42.856
G3 X22.162 Y42.41 I0.475 J0
G1 X30.794 Y45.552
G2 X35.525 Y42.239 I1.206 J-3.312
G1 Y7.761
G2 X30.794 Y4.448 I-3.525 J0
G1 X22.162 Y7.59
G3 X21.525 Y7.144 I-0.162 J-0.446
G1 Y0
G2 X20 Y-1.525 I-1.525 J0
G1 X0
G2 X-1.525 Y0 I0 J1.525
G1 Z-5.271 F333.3
Y50 F1000
G2 X0 Y51.525 I1.525 J0
G1 X20
G2 X21.525 Y50 I0 J-1.525
G1 Y42.856
G3 X22.162 Y42.41 I0.475 J0
G1 X30.794 Y45.552
G2 X35.525 Y42.239 I1.206 J-3.312
G1 Y7.761
G2 X30.794 Y4.448 I-3.525 J0
G1 X22.162 Y7.59
G3 X21.525 Y7.144 I-0.162 J-0.446
G1 Y0
G2 X20 Y-1.525 I-1.525 J0
G1 X0
G2 X-1.525 Y0 I0 J1.525
G1 Z-7.029 F333.3
Y50 F1000
G2 X0 Y51.525 I1.525 J0
G1 X20
G2 X21.525 Y50 I0 J-1.525
G1 Y42.856
G3 X22.162 Y42.41 I0.475 J0
G1 X30.794 Y45.552
G2 X35.525 Y42.239 I1.206 J-3.312
G1 Y7.761
G2 X30.794 Y4.448 I-3.525 J0
G1 X22.162 Y7.59
G3 X21.525 Y7.144 I-0.162 J-0.446
G1 Y0
G2 X20 Y-1.525 I-1.525 J0
G1 X0
G2 X-1.525 Y0 I0 J1.525
G1 Z-8.786 F333.3
Y50 F1000
G2 X0 Y51.525 I1.525 J0
G1 X20
G2 X21.525 Y50 I0 J-1.525
G1 Y42.856
G3 X22.162 Y42.41 I0.475 J0
G1 X30.794 Y45.552
G2 X35.525 Y42.239 I1.206 J-3.312
G1 Y7.761
G2 X30.794 Y4.448 I-3.525 J0
G1 X22.162 Y7.59
G3 X21.525 Y7.144 I-0.162 J-0.446
G1 Y0
G2 X20 Y-1.525 I-1.525 J0
G1 X0
G2 X-1.525 Y0 I0 J1.525
G1 Z-10.543 F333.3
Y21.112 F1000
Z-8.8
Y26.763
Z-10.543 F333.3
Y50 F1000
G2 X0 Y51.525 I1.525 J0
G1 X8.048
Z-8.8
X13.698
Z-10.543 F333.3
X20 F1000
G2 X21.525 Y50 I0 J-1.525
G1 Y42.856
G3 X22.162 Y42.41 I0.475 J0
G1 X30.794 Y45.552
G2 X35.525 Y42.239 I1.206 J-3.312
G1 Y27.73
Z-8.8
Y22.08
Z-10.543 F333.3
Y7.761 F1000
G2 X30.794 Y4.448 I-3.525 J0
G1 X22.162 Y7.59
G3 X21.525 Y7.144 I-0.162 J-0.446
G1 Y0
G2 X20 Y-1.525 I-1.525 J0
G1 X12.306
Z-8.8
X6.656
Z-10.543 F333.3
X0 F1000
G2 X-1.525 Y0 I0 J1.525
G1 Z-12.3 F333.3
Y21.112 F1000
Z-8.8
Y26.763
Z-12.3 F333.3
Y50 F1000
G2 X0 Y51.525 I1.525 J0
G1 X8.048
Z-8.8
X13.698
Z-12.3 F333.3
X20 F1000
G2 X21.525 Y50 I0 J-1.525
G1 Y42.856
G3 X22.162 Y42.41 I0.475 J0
G1 X30.794 Y45.552
G2 X35.525 Y42.239 I1.206 J-3.312
G1 Y27.73
Z-8.8
Y22.08
Z-12.3 F333.3
Y7.761 F1000
G2 X30.794 Y4.448 I-3.525 J0
G1 X22.162 Y7.59
G3 X21.525 Y7.144 I-0.162 J-0.446
G1 Y0
G2 X20 Y-1.525 I-1.525 J0
G1 X12.306
Z-8.8
X6.656
Z-12.3 F333.3
X0 F1000
G2 X-1.525 Y0 I0 J1.525
G1 X-1.518 Y0.047
X-1.498 Y0.09
X-1.466 Y0.125
X-1.425 Y0.15
X-1.384 Y0.175
X-1.352 Y0.21
X-1.332 Y0.253
X-1.325 Y0.3
Y21.112
Z-8.8
Y26.763
Z-12.3 F333.3
Y50 F1000
G2 X0 Y51.325 I1.325 J0
G1 X8.048
Z-8.8
X13.698
Z-12.3 F333.3
X20 F1000
G2 X21.325 Y50 I0 J-1.325
G1 Y42.856
G3 X22.231 Y42.222 I0.675 J0
G1 X30.863 Y45.364
G2 X35.325 Y42.239 I1.137 J-3.124
G1 Y27.73
Z-8.8
Y22.08
Z-12.3 F333.3
Y7.761 F1000
G2 X30.863 Y4.636 I-3.325 J0
G1 X22.231 Y7.778
G3 X21.325 Y7.144 I-0.231 J-0.634
G1 Y0
G2 X20 Y-1.325 I-1.325 J0
G1 X12.306
Z-8.8
X6.656
Z-12.3 F333.3
X0 F1000
G2 X-1.325 Y0 I0 J1.325
G1 Y0.3
Z10
M5
M30
