(1086_test_utab_26bit_2_finish_pass_at_018)
(T1  D=2.6 CR=0 - ZMIN=-12.3 - flat end mill)
G90 G94
G17
G21
(When using Fusion 360 for Personal Use, the feedrate of)
(rapid moves is reduced to match the feedrate of cutting)
(moves, which can increase machining time. Unrestricted rapid)
(moves are available with a Fusion 360 Subscription.)

(2D Pocket1)
T1
S5000 M3
G54
G0 X35.297 Y25.861
Z10
G1 Z5 F1000
Z3.06 F333.3
Z-1.983 F1000
X35.29 Y25.854
G2 X34.585 Y25.172 I-17.148 J17.003
G3 X34.585 Y24.828 I0.161 J-0.172
G2 X35.29 Y24.141 I-16.683 J-17.789
G1 X35.295 Y24.127
X35.325 Y22
X35.319 Y21.985
X35.304 Y21.98
X35.29 Y21.986
G3 X32.38 Y24.818 I-17.367 J-14.938
G2 X32.38 Y25.182 I0.148 J0.182
G3 X35.29 Y27.993 I-14.259 J17.674
G1 X35.295 Y28.006
X35.326 Y30.317
X35.319 Y30.332
X35.304 Y30.337
X35.289 Y30.329
G2 X29.878 Y25.146 I-17.188 J12.527
G3 X29.878 Y24.854 I0.098 J-0.146
G2 X35.29 Y19.637 I-11.935 J-17.795
G1 X35.294 Y19.626
X35.327 Y16.963
X35.32 Y16.947
X35.304 Y16.943
X35.29 Y16.953
G3 X27.018 Y24.844 I-17.327 J-9.883
G2 X27.018 Y25.156 I0.08 J0.156
G3 X35.289 Y33.005 I-8.936 J17.7
G1 X35.292 Y33.014
X35.329 Y36.421
X35.324 Y36.434
X35.312 Y36.441
X35.299 Y36.439
X35.29 Y36.428
G2 X22.935 Y25.125 I-17.228 J6.428
G3 X22.935 Y24.875 I0.035 J-0.125
G2 X35.29 Y13.527 I-4.952 J-17.79
G1 X35.291 Y13.52
X35.029 Y6.39
X35.023 Y6.376
X35.009 Y6.371
X34.995 Y6.377
X34.989 Y6.391
X34.99 Y7.144
G3 X21.285 Y23.767 I-17.001 J-0.055
G2 X20.945 Y24.181 I0.082 J0.414
G1 Y25.819
G2 X21.285 Y26.233 I0.422 J0
G3 X34.99 Y42.856 I-3.23 J16.623
G1 X34.989 Y43.61
X34.984 Y43.623
X33.562 Y45.165
X33.548 Y45.171
X33.533 Y45.166
X33.527 Y45.151
X33.53 Y42.856
G2 X19.764 Y27.472 I-15.479 J0
G3 X19.485 Y27.159 I0.036 J-0.313
G1 Y22.841
G3 X19.764 Y22.528 I0.315 J0
G2 X33.53 Y7.144 I-1.77 J-15.435
G1 X33.527 Y4.848
X33.523 Y4.836
X33.512 Y4.829
X32.092 Y4.456
X32.08 Y4.457
X32.071 Y4.464
X32.067 Y4.476
X32.07 Y7.144
G3 X18.333 Y21.165 I-14.071 J-0.046
G2 X18.025 Y21.48 I0.007 J0.315
G1 Y28.52
G2 X18.333 Y28.835 I0.315 J0
G3 X32.07 Y42.856 I-0.287 J14.021
G1 X32.067 Y45.525
X32.06 Y45.54
X32.043 Y45.545
X30.623 Y45.253
X30.612 Y45.246
X30.607 Y45.234
X30.61 Y42.856
G2 X16.822 Y30.347 I-12.569 J0
G3 X16.565 Y30.112 I-0.022 J-0.234
G1 Y19.888
G3 X16.822 Y19.653 I0.235 J0
G2 X30.61 Y7.144 I1.182 J-12.551
G1 X30.607 Y4.767
X30.603 Y4.755
X30.593 Y4.748
X30.58 Y4.749
X29.161 Y5.279
X29.152 Y5.287
X29.148 Y5.298
X29.15 Y7.144
G3 X15.395 Y17.939 I-11.141 J-0.035
G2 X15.105 Y18.168 I-0.055 J0.229
G1 Y31.832
G2 X15.395 Y32.061 I0.235 J0
G3 X29.15 Y42.856 I2.641 J10.795
G1 X29.148 Y44.702
X29.144 Y44.714
X29.134 Y44.721
X29.121
X27.702 Y44.189
X27.692 Y44.182
X27.689 Y44.17
X27.69 Y42.856
G2 X14.693 Y33.769 I-9.675 J0
X14.315 Y33.92 I2.227 J6.118
G3 X13.937 Y34.071 I-2.604 J-5.967
X13.645 Y33.866 I-0.074 J-0.205
G1 Y16.134
G3 X13.937 Y15.929 I0.218 J0
X14.315 Y16.08 I-2.227 J6.119
G2 X14.693 Y16.231 I2.603 J-5.963
X27.69 Y7.144 I3.312 J-9.101
G1 X27.689 Y5.83
X27.685 Y5.818
X27.674 Y5.811
X27.662
X26.242 Y6.342
X26.233 Y6.349
X26.229 Y6.36
X26.23 Y7.144
G3 X15.185 Y14.877 I-8.23 J0
X13.831 Y14.361 I15.947 J-43.815
G2 X12.477 Y13.844 I-17.318 J43.345
X12.185 Y14.049 I-0.074 J0.205
G1 Y35.951
G2 X12.477 Y36.156 I0.218 J0
X13.831 Y35.639 I-15.963 J-43.858
G3 X15.185 Y35.123 I17.317 J43.341
X26.23 Y42.856 I2.815 J7.734
G1 X26.229 Y43.639
X26.225 Y43.651
X26.215 Y43.658
X26.202
X24.783 Y43.127
X24.773 Y43.12
X24.77 Y43.109
Y42.856
G2 X15.685 Y36.495 I-6.77 J0
X13.351 Y37.368 I47.188 J129.648
G3 X11.017 Y38.241 I-49.522 J-128.775
X10.725 Y38.037 I-0.074 J-0.205
G1 Y11.963
G3 X11.017 Y11.759 I0.218 J0
X13.351 Y12.632 I-47.188 J129.649
G2 X15.685 Y13.505 I49.522 J-128.775
X24.77 Y7.144 I2.315 J-6.362
G1 Y6.892
X24.766 Y6.88
X24.755 Y6.873
X24.743 Y6.874
X23.315 Y7.408
X23.306 Y7.415
X23.303 Y7.425
G3 X16.184 Y12.133 I-5.302 J-0.282
G1 X9.557 Y9.674
G2 X9.265 Y9.878 I-0.074 J0.205
G1 Y40.122
G2 X9.557 Y40.326 I0.218 J0
G1 X16.184 Y37.866
G3 X23.303 Y42.575 I1.816 J4.99
G1 X23.299 Y42.587
X23.29 Y42.594
X23.278 Y42.595
X21.757 Y42.214
X21.748 Y42.208
X21.743 Y42.198
G2 X16.7 Y39.285 I-3.743 J0.658
G1 X8.068 Y42.427
G3 X7.8 Y42.239 I-0.068 J-0.188
G1 Y7.761
G3 X8.068 Y7.573 I0.2 J0
G1 X16.7 Y10.715
G2 X21.743 Y7.801 I1.3 J-3.571
G1 X21.75 Y7.788
X21.765 Y7.785
X21.778 Y7.792
X35.298 Y24.107
X35.302 Y24.12
X35.297 Y24.133
Z-3.967
X35.29 Y24.141
G3 X34.585 Y24.828 I-17.388 J-17.101
G2 X34.585 Y25.172 I0.161 J0.172
G3 X35.29 Y25.854 I-16.444 J17.685
G1 X35.295 Y25.867
X35.325 Y27.979
X35.319 Y27.994
X35.304 Y28
X35.29 Y27.993
G2 X32.38 Y25.182 I-17.168 J14.864
G3 X32.38 Y24.818 I0.148 J-0.182
G2 X35.29 Y21.986 I-14.458 J-17.769
G1 X35.295 Y21.974
X35.326 Y19.649
X35.32 Y19.634
X35.304 Y19.629
X35.29 Y19.637
G3 X29.878 Y24.854 I-17.347 J-12.578
G2 X29.878 Y25.146 I0.098 J0.146
G3 X35.289 Y30.329 I-11.777 J17.711
G1 X35.293 Y30.341
X35.327 Y32.995
X35.32 Y33.01
X35.303 Y33.015
X35.289 Y33.005
G2 X27.018 Y25.156 I-17.207 J9.852
G3 X27.018 Y24.844 I0.08 J-0.156
G2 X35.29 Y16.953 I-9.055 J-17.774
G1 X35.293 Y16.943
X35.328 Y13.535
X35.324 Y13.522
X35.312 Y13.515
X35.298 Y13.517
X35.29 Y13.527
G3 X22.935 Y24.875 I-17.306 J-6.443
G2 X22.935 Y25.125 I0.035 J0.125
G3 X35.29 Y36.428 I-4.874 J17.731
G1 X35.291 Y36.436
X35.029 Y43.61
X35.023 Y43.624
X35.009 Y43.63
X34.995 Y43.624
X34.989 Y43.61
X34.99 Y42.856
G2 X21.285 Y26.233 I-16.934 J0
G3 X20.945 Y25.819 I0.082 J-0.414
G1 Y24.181
G3 X21.285 Y23.767 I0.422 J0
G2 X34.99 Y7.144 I-3.296 J-16.678
G1 X34.989 Y6.391
X34.984 Y6.377
X33.562 Y4.834
X33.548 Y4.828
X33.533 Y4.834
X33.527 Y4.848
X33.53 Y7.144
G3 X19.764 Y22.528 I-15.536 J-0.051
G2 X19.485 Y22.841 I0.036 J0.313
G1 Y27.159
G2 X19.764 Y27.472 I0.315 J0
G3 X33.53 Y42.856 I-1.714 J15.384
G1 X33.527 Y45.151
X33.523 Y45.164
X33.512 Y45.171
X32.092 Y45.544
X32.08
X32.071 Y45.536
X32.067 Y45.525
X32.07 Y42.856
G2 X18.333 Y28.835 I-14.024 J0
G3 X18.025 Y28.52 I0.007 J-0.315
G1 Y21.48
G3 X18.333 Y21.165 I0.315 J0
G2 X32.07 Y7.144 I-0.334 J-14.067
G1 X32.067 Y4.476
X32.06 Y4.46
X32.043 Y4.456
X30.623 Y4.748
X30.612 Y4.755
X30.607 Y4.767
X30.61 Y7.144
G3 X16.822 Y19.653 I-12.606 J-0.041
G2 X16.565 Y19.888 I-0.022 J0.234
G1 Y30.112
G2 X16.822 Y30.347 I0.235 J0
G3 X30.61 Y42.856 I1.219 J12.51
G1 X30.607 Y45.234
X30.603 Y45.246
X30.593 Y45.253
X30.58 Y45.252
X29.161 Y44.721
X29.152 Y44.713
X29.148 Y44.702
X29.15 Y42.856
G2 X15.395 Y32.061 I-11.114 J0
G3 X15.105 Y31.832 I-0.055 J-0.229
G1 Y18.168
G3 X15.395 Y17.939 I0.235 J0
G2 X29.15 Y7.144 I2.613 J-10.831
G1 X29.148 Y5.298
X29.144 Y5.286
X29.134 Y5.279
X29.121
X27.702 Y5.811
X27.692 Y5.818
X27.689 Y5.83
X27.69 Y7.144
G3 X14.693 Y16.231 I-9.685 J-0.014
X14.315 Y16.08 I2.225 J-6.114
G2 X13.937 Y15.929 I-2.605 J5.968
X13.645 Y16.134 I-0.074 J0.205
G1 Y33.866
G2 X13.937 Y34.071 I0.218 J0
X14.315 Y33.92 I-2.227 J-6.118
G3 X14.693 Y33.769 I2.604 J5.967
X27.69 Y42.856 I3.322 J9.087
G1 X27.689 Y44.17
X27.685 Y44.182
X27.674 Y44.19
X27.662 Y44.189
X26.242 Y43.658
X26.233 Y43.65
X26.229 Y43.639
X26.23 Y42.856
G2 X15.185 Y35.123 I-8.23 J0
X13.831 Y35.639 I15.963 J43.858
G3 X12.477 Y36.156 I-17.317 J-43.341
X12.185 Y35.951 I-0.074 J-0.205
G1 Y14.049
G3 X12.477 Y13.844 I0.218 J0
X13.831 Y14.361 I-15.964 J43.861
G2 X15.185 Y14.877 I17.301 J-43.299
X26.23 Y7.144 I2.815 J-7.734
G1 X26.229 Y6.36
X26.225 Y6.348
X26.215 Y6.341
X26.202 Y6.342
X24.783 Y6.873
X24.773 Y6.881
X24.77 Y6.892
Y7.144
G3 X15.685 Y13.505 I-6.77 J0
X13.351 Y12.632 I47.188 J-129.649
G2 X11.017 Y11.759 I-49.522 J128.775
X10.725 Y11.963 I-0.074 J0.205
G1 Y38.037
G2 X11.017 Y38.241 I0.218 J0
X13.351 Y37.368 I-47.188 J-129.648
G3 X15.685 Y36.495 I49.522 J128.775
X24.77 Y42.856 I2.315 J6.362
G1 Y43.109
X24.766 Y43.121
X24.755 Y43.128
X24.743 Y43.127
X23.315 Y42.592
X23.306 Y42.586
X23.303 Y42.575
G2 X16.184 Y37.866 I-5.303 J0.282
G1 X9.557 Y40.326
G3 X9.265 Y40.122 I-0.074 J-0.205
G1 Y9.878
G3 X9.557 Y9.674 I0.218 J0
G1 X16.184 Y12.133
G2 X23.303 Y7.425 I1.816 J-4.99
G1 X23.299 Y7.414
X23.29 Y7.406
X23.278 Y7.405
X21.758 Y7.785
X21.748 Y7.791
X21.743 Y7.801
G3 X16.7 Y10.715 I-3.743 J-0.657
G1 X8.068 Y7.573
G2 X7.8 Y7.761 I-0.068 J0.188
G1 Y42.239
G2 X8.068 Y42.427 I0.2 J0
G1 X16.7 Y39.285
G3 X21.743 Y42.198 I1.3 J3.571
G1 X21.75 Y42.211
X21.765 Y42.215
X21.778 Y42.208
X35.298 Y25.888
X35.303 Y25.874
X35.297 Y25.861
Z-5.95
X35.29 Y25.854
G2 X34.585 Y25.172 I-17.148 J17.003
G3 X34.585 Y24.828 I0.161 J-0.172
G2 X35.29 Y24.141 I-16.683 J-17.789
G1 X35.295 Y24.127
X35.325 Y22
X35.319 Y21.985
X35.304 Y21.98
X35.29 Y21.986
G3 X32.38 Y24.818 I-17.367 J-14.938
G2 X32.38 Y25.182 I0.148 J0.182
G3 X35.29 Y27.993 I-14.259 J17.674
G1 X35.295 Y28.006
X35.326 Y30.317
X35.319 Y30.332
X35.304 Y30.337
X35.289 Y30.329
G2 X29.878 Y25.146 I-17.188 J12.527
G3 X29.878 Y24.854 I0.098 J-0.146
G2 X35.29 Y19.637 I-11.935 J-17.795
G1 X35.294 Y19.626
X35.327 Y16.963
X35.32 Y16.947
X35.304 Y16.943
X35.29 Y16.953
G3 X27.018 Y24.844 I-17.327 J-9.883
G2 X27.018 Y25.156 I0.08 J0.156
G3 X35.289 Y33.005 I-8.936 J17.7
G1 X35.292 Y33.014
X35.329 Y36.421
X35.324 Y36.434
X35.312 Y36.441
X35.299 Y36.439
X35.29 Y36.428
G2 X22.935 Y25.125 I-17.228 J6.428
G3 X22.935 Y24.875 I0.035 J-0.125
G2 X35.29 Y13.527 I-4.952 J-17.79
G1 X35.291 Y13.52
X35.029 Y6.39
X35.023 Y6.376
X35.009 Y6.371
X34.995 Y6.377
X34.989 Y6.391
X34.99 Y7.144
G3 X21.285 Y23.767 I-17.001 J-0.055
G2 X20.945 Y24.181 I0.082 J0.414
G1 Y25.819
G2 X21.285 Y26.233 I0.422 J0
G3 X34.99 Y42.856 I-3.23 J16.623
G1 X34.989 Y43.61
X34.984 Y43.623
X33.562 Y45.165
X33.548 Y45.171
X33.533 Y45.166
X33.527 Y45.151
X33.53 Y42.856
G2 X19.764 Y27.472 I-15.479 J0
G3 X19.485 Y27.159 I0.036 J-0.313
G1 Y22.841
G3 X19.764 Y22.528 I0.315 J0
G2 X33.53 Y7.144 I-1.77 J-15.435
G1 X33.527 Y4.848
X33.523 Y4.836
X33.512 Y4.829
X32.092 Y4.456
X32.08 Y4.457
X32.071 Y4.464
X32.067 Y4.476
X32.07 Y7.144
G3 X18.333 Y21.165 I-14.071 J-0.046
G2 X18.025 Y21.48 I0.007 J0.315
G1 Y28.52
G2 X18.333 Y28.835 I0.315 J0
G3 X32.07 Y42.856 I-0.287 J14.021
G1 X32.067 Y45.525
X32.06 Y45.54
X32.043 Y45.545
X30.623 Y45.253
X30.612 Y45.246
X30.607 Y45.234
X30.61 Y42.856
G2 X16.822 Y30.347 I-12.569 J0
G3 X16.565 Y30.112 I-0.022 J-0.234
G1 Y19.888
G3 X16.822 Y19.653 I0.235 J0
G2 X30.61 Y7.144 I1.182 J-12.551
G1 X30.607 Y4.767
X30.603 Y4.755
X30.593 Y4.748
X30.58 Y4.749
X29.161 Y5.279
X29.152 Y5.287
X29.148 Y5.298
X29.15 Y7.144
G3 X15.395 Y17.939 I-11.141 J-0.035
G2 X15.105 Y18.168 I-0.055 J0.229
G1 Y31.832
G2 X15.395 Y32.061 I0.235 J0
G3 X29.15 Y42.856 I2.641 J10.795
G1 X29.148 Y44.702
X29.144 Y44.714
X29.134 Y44.721
X29.121
X27.702 Y44.189
X27.692 Y44.182
X27.689 Y44.17
X27.69 Y42.856
G2 X14.693 Y33.769 I-9.675 J0
X14.315 Y33.92 I2.227 J6.118
G3 X13.937 Y34.071 I-2.604 J-5.967
X13.645 Y33.866 I-0.074 J-0.205
G1 Y16.134
G3 X13.937 Y15.929 I0.218 J0
X14.315 Y16.08 I-2.227 J6.119
G2 X14.693 Y16.231 I2.603 J-5.963
X27.69 Y7.144 I3.312 J-9.101
G1 X27.689 Y5.83
X27.685 Y5.818
X27.674 Y5.811
X27.662
X26.242 Y6.342
X26.233 Y6.349
X26.229 Y6.36
X26.23 Y7.144
G3 X15.185 Y14.877 I-8.23 J0
X13.831 Y14.361 I15.947 J-43.815
G2 X12.477 Y13.844 I-17.318 J43.345
X12.185 Y14.049 I-0.074 J0.205
G1 Y35.951
G2 X12.477 Y36.156 I0.218 J0
X13.831 Y35.639 I-15.963 J-43.858
G3 X15.185 Y35.123 I17.317 J43.341
X26.23 Y42.856 I2.815 J7.734
G1 X26.229 Y43.639
X26.225 Y43.651
X26.215 Y43.658
X26.202
X24.783 Y43.127
X24.773 Y43.12
X24.77 Y43.109
Y42.856
G2 X15.685 Y36.495 I-6.77 J0
X13.351 Y37.368 I47.188 J129.648
G3 X11.017 Y38.241 I-49.522 J-128.775
X10.725 Y38.037 I-0.074 J-0.205
G1 Y11.963
G3 X11.017 Y11.759 I0.218 J0
X13.351 Y12.632 I-47.188 J129.649
G2 X15.685 Y13.505 I49.522 J-128.775
X24.77 Y7.144 I2.315 J-6.362
G1 Y6.892
X24.766 Y6.88
X24.755 Y6.873
X24.743 Y6.874
X23.315 Y7.408
X23.306 Y7.415
X23.303 Y7.425
G3 X16.184 Y12.133 I-5.302 J-0.282
G1 X9.557 Y9.674
G2 X9.265 Y9.878 I-0.074 J0.205
G1 Y40.122
G2 X9.557 Y40.326 I0.218 J0
G1 X16.184 Y37.866
G3 X23.303 Y42.575 I1.816 J4.99
G1 X23.299 Y42.587
X23.29 Y42.594
X23.278 Y42.595
X21.757 Y42.214
X21.748 Y42.208
X21.743 Y42.198
G2 X16.7 Y39.285 I-3.743 J0.658
G1 X8.068 Y42.427
G3 X7.8 Y42.239 I-0.068 J-0.188
G1 Y7.761
G3 X8.068 Y7.573 I0.2 J0
G1 X16.7 Y10.715
G2 X21.743 Y7.801 I1.3 J-3.571
G1 X21.968 Y6.521
Z10
(When using Fusion 360 for Personal Use, the feedrate of)
(rapid moves is reduced to match the feedrate of cutting)
(moves, which can increase machining time. Unrestricted rapid)
(moves are available with a Fusion 360 Subscription.)

(2D Contour2 2)
G0 X21.66 Y42.856
G1 Z10 F1000
Z5
Z3.06 F333.3
Z-1.983
G2 X16.748 Y39.417 I-3.66 J0 F1000
G1 X8.116 Y42.559
G3 X7.66 Y42.239 I-0.116 J-0.32
G1 Y7.761
G3 X8.116 Y7.441 I0.34 J0
G1 X16.748 Y10.583
G2 X21.66 Y7.144 I1.252 J-3.439
G1 Z5
Y42.856
Z1.077 F333.3
Z-3.967
G2 X16.748 Y39.417 I-3.66 J0 F1000
G1 X8.116 Y42.559
G3 X7.66 Y42.239 I-0.116 J-0.32
G1 Y7.761
G3 X8.116 Y7.441 I0.34 J0
G1 X16.748 Y10.583
G2 X21.66 Y7.144 I1.252 J-3.439
G1 Z5
Y42.856
Z-0.907 F333.3
Z-5.95
G2 X16.748 Y39.417 I-3.66 J0 F1000
G1 X8.116 Y42.559
G3 X7.66 Y42.239 I-0.116 J-0.32
G1 Y7.761
G3 X8.116 Y7.441 I0.34 J0
G1 X16.748 Y10.583
G2 X21.66 Y7.144 I1.252 J-3.439
G1 Z5
X21.48 Y42.856
Z-0.907 F333.3
Z-5.95
G2 X16.81 Y39.586 I-3.48 J0 F1000
G1 X8.178 Y42.728
G3 X7.48 Y42.239 I-0.178 J-0.489
G1 Y7.761
G3 X8.178 Y7.272 I0.52 J0
G1 X16.81 Y10.414
G2 X21.48 Y7.144 I1.19 J-3.27
G1 Z5
X21.3 Y42.856
Z-0.907 F333.3
Z-5.95
G2 X16.871 Y39.755 I-3.3 J0 F1000
G1 X8.239 Y42.897
G3 X7.3 Y42.239 I-0.239 J-0.658
G1 Y7.761
G3 X8.239 Y7.103 I0.7 J0
G1 X16.871 Y10.245
G2 X21.3 Y7.144 I1.129 J-3.101
G1 Z10
(When using Fusion 360 for Personal Use, the feedrate of)
(rapid moves is reduced to match the feedrate of cutting)
(moves, which can increase machining time. Unrestricted rapid)
(moves are available with a Fusion 360 Subscription.)

(2D Contour3 2)
G0 X-1.66 Y50.019
G1 Z10 F1000
Z5
Z3 F333.3
Z-1.757
G2 X0 Y51.66 I1.66 J-0.019 F1000
G1 X20
G2 X21.66 Y50 I0 J-1.66
G1 Y42.856
G3 X22.116 Y42.537 I0.34 J0
G1 X30.748 Y45.679
G2 X35.66 Y42.239 I1.252 J-3.439
G1 Y7.761
G2 X30.748 Y4.321 I-3.66 J0
G1 X22.116 Y7.463
G3 X21.66 Y7.144 I-0.116 J-0.319
G1 Y0
G2 X20 Y-1.66 I-1.66 J0
G1 X0
G2 X-1.66 Y0 I0 J1.66
G1 Y50
Y50.019
Z-3.514 F333.3
G2 X0 Y51.66 I1.66 J-0.019 F1000
G1 X20
G2 X21.66 Y50 I0 J-1.66
G1 Y42.856
G3 X22.116 Y42.537 I0.34 J0
G1 X30.748 Y45.679
G2 X35.66 Y42.239 I1.252 J-3.439
G1 Y7.761
G2 X30.748 Y4.321 I-3.66 J0
G1 X22.116 Y7.463
G3 X21.66 Y7.144 I-0.116 J-0.319
G1 Y0
G2 X20 Y-1.66 I-1.66 J0
G1 X0
G2 X-1.66 Y0 I0 J1.66
G1 Y50
Y50.019
Z-5.271 F333.3
G2 X0 Y51.66 I1.66 J-0.019 F1000
G1 X20
G2 X21.66 Y50 I0 J-1.66
G1 Y42.856
G3 X22.116 Y42.537 I0.34 J0
G1 X30.748 Y45.679
G2 X35.66 Y42.239 I1.252 J-3.439
G1 Y7.761
G2 X30.748 Y4.321 I-3.66 J0
G1 X22.116 Y7.463
G3 X21.66 Y7.144 I-0.116 J-0.319
G1 Y0
G2 X20 Y-1.66 I-1.66 J0
G1 X0
G2 X-1.66 Y0 I0 J1.66
G1 Y50
Y50.019
Z-7.029 F333.3
G2 X0 Y51.66 I1.66 J-0.019 F1000
G1 X20
G2 X21.66 Y50 I0 J-1.66
G1 Y42.856
G3 X22.116 Y42.537 I0.34 J0
G1 X30.748 Y45.679
G2 X35.66 Y42.239 I1.252 J-3.439
G1 Y7.761
G2 X30.748 Y4.321 I-3.66 J0
G1 X22.116 Y7.463
G3 X21.66 Y7.144 I-0.116 J-0.319
G1 Y0
G2 X20 Y-1.66 I-1.66 J0
G1 X0
G2 X-1.66 Y0 I0 J1.66
G1 Y50
Y50.019
Z-8.786 F333.3
G2 X0 Y51.66 I1.66 J-0.019 F1000
G1 X20
G2 X21.66 Y50 I0 J-1.66
G1 Y42.856
G3 X22.116 Y42.537 I0.34 J0
G1 X30.748 Y45.679
G2 X35.66 Y42.239 I1.252 J-3.439
G1 Y7.761
G2 X30.748 Y4.321 I-3.66 J0
G1 X22.116 Y7.463
G3 X21.66 Y7.144 I-0.116 J-0.319
G1 Y0
G2 X20 Y-1.66 I-1.66 J0
G1 X0
G2 X-1.66 Y0 I0 J1.66
G1 Y50
Y50.019
Z-10.543 F333.3
G2 X0 Y51.66 I1.66 J-0.019 F1000
G1 X8.073
Z-8.8
X13.673
Z-10.543 F333.3
X20 F1000
G2 X21.66 Y50 I0 J-1.66
G1 Y42.856
G3 X22.116 Y42.537 I0.34 J0
G1 X30.748 Y45.679
G2 X35.66 Y42.239 I1.252 J-3.439
G1 Y27.705
Z-8.8
Y22.105
Z-10.543 F333.3
Y7.761 F1000
G2 X30.748 Y4.321 I-3.66 J0
G1 X22.116 Y7.463
G3 X21.66 Y7.144 I-0.116 J-0.319
G1 Y0
G2 X20 Y-1.66 I-1.66 J0
G1 X12.281
Z-8.8
X6.681
Z-10.543 F333.3
X0 F1000
G2 X-1.66 Y0 I0 J1.66
G1 Y21.138
Z-8.8
Y26.737
Z-10.543 F333.3
Y50 F1000
Y50.019
Z5
Y0
Z-7.543 F333.3
Z-12.3
Y21.138 F1000
Z-8.8
Y26.737
Z-12.3 F333.3
Y50 F1000
G2 X0 Y51.66 I1.66 J0
G1 X8.073
Z-8.8
X13.673
Z-12.3 F333.3
X20 F1000
G2 X21.66 Y50 I0 J-1.66
G1 Y42.856
G3 X22.116 Y42.537 I0.34 J0
G1 X30.748 Y45.679
G2 X35.66 Y42.239 I1.252 J-3.439
G1 Y27.705
Z-8.8
Y22.105
Z-12.3 F333.3
Y7.761 F1000
G2 X30.748 Y4.321 I-3.66 J0
G1 X22.116 Y7.463
G3 X21.66 Y7.144 I-0.116 J-0.319
G1 Y0
G2 X20 Y-1.66 I-1.66 J0
G1 X12.281
Z-8.8
X6.681
Z-12.3 F333.3
X0 F1000
G2 X-1.66 Y0 I0 J1.66
G1 X-1.654 Y0.042
X-1.635 Y0.081
X-1.607 Y0.113
X-1.57 Y0.135
X-1.533 Y0.157
X-1.505 Y0.189
X-1.486 Y0.228
X-1.48 Y0.27
Y21.138
Z-8.8
Y26.737
Z-12.3 F333.3
Y50 F1000
G2 X0 Y51.48 I1.48 J0
G1 X8.073
Z-8.8
X13.673
Z-12.3 F333.3
X20 F1000
G2 X21.48 Y50 I0 J-1.48
G1 Y42.856
G3 X22.178 Y42.368 I0.52 J0
G1 X30.81 Y45.509
G2 X35.48 Y42.239 I1.19 J-3.27
G1 Y27.705
Z-8.8
Y22.105
Z-12.3 F333.3
Y7.761 F1000
G2 X30.81 Y4.491 I-3.48 J0
G1 X22.178 Y7.632
G3 X21.48 Y7.144 I-0.178 J-0.489
G1 Y0
G2 X20 Y-1.48 I-1.48 J0
G1 X12.281
Z-8.8
X6.681
Z-12.3 F333.3
X0 F1000
G2 X-1.48 Y0 I0 J1.48
G1 Y0.27
X-1.474 Y0.312
X-1.455 Y0.351
X-1.427 Y0.383
X-1.39 Y0.405
X-1.353 Y0.427
X-1.325 Y0.459
X-1.306 Y0.498
X-1.3 Y0.54
Y21.138
Z-8.8
Y26.737
Z-12.3 F333.3
Y50 F1000
G2 X0 Y51.3 I1.3 J0
G1 X8.073
Z-8.8
X13.673
Z-12.3 F333.3
X20 F1000
G2 X21.3 Y50 I0 J-1.3
G1 Y42.856
G3 X22.239 Y42.199 I0.7 J0
G1 X30.871 Y45.34
G2 X35.3 Y42.239 I1.129 J-3.101
G1 Y27.705
Z-8.8
Y22.105
Z-12.3 F333.3
Y7.761 F1000
G2 X30.871 Y4.66 I-3.3 J0
G1 X22.239 Y7.801
G3 X21.3 Y7.144 I-0.239 J-0.658
G1 Y0
G2 X20 Y-1.3 I-1.3 J0
G1 X12.281
Z-8.8
X6.681
Z-12.3 F333.3
X0 F1000
G2 X-1.3 Y0 I0 J1.3
G1 Y0.54
Z10
M5
M30
