(1087_utab_test_28bit_1_finish_at_02)
(T1  D=2.8 CR=0 - ZMIN=-12.3 - flat end mill)
G90 G94
G17
G21
(When using Fusion 360 for Personal Use, the feedrate of)
(rapid moves is reduced to match the feedrate of cutting)
(moves, which can increase machining time. Unrestricted rapid)
(moves are available with a Fusion 360 Subscription.)

(2D Pocket1)
T1
S5000 M3
G54
G0 X35.398 Y24.316
Z10
G1 Z5 F1000
Z3.06 F333.3
Z-1.983 F1000
X35.39 Y24.324
G3 X34.935 Y24.773 I-17.492 J-17.286
G2 X34.935 Y25.227 I0.218 J0.227
G3 X35.389 Y25.672 I-16.789 J17.629
G1 X35.395 Y25.686
X35.425 Y27.973
X35.419 Y27.987
X35.404 Y27.993
X35.389 Y27.986
G2 X32.506 Y25.182 I-17.267 J14.87
G3 X32.506 Y24.818 I0.149 J-0.182
G2 X35.39 Y21.992 I-14.584 J-17.77
G1 X35.395 Y21.98
X35.426 Y19.441
X35.419 Y19.426
X35.404 Y19.421
X35.39 Y19.429
G3 X29.806 Y24.854 I-17.446 J-12.37
G2 X29.806 Y25.146 I0.097 J0.146
G3 X35.39 Y30.537 I-11.706 J17.711
G1 X35.393 Y30.548
X35.427 Y33.504
X35.42 Y33.52
X35.404 Y33.524
X35.39 Y33.514
G2 X26.58 Y25.117 I-17.31 J9.342
G1 X26.546 Y25.093
X26.521 Y25.06
X26.508 Y25.021
Y24.979
X26.521 Y24.94
X26.546 Y24.907
X26.58 Y24.883
G2 X35.39 Y16.443 I-8.614 J-17.811
G1 X35.392 Y16.434
X35.429 Y12.361
X35.424 Y12.348
X35.412 Y12.341
X35.398 Y12.344
X35.39 Y12.355
G3 X22.304 Y24.75 I-17.404 J-5.269
G2 X22.125 Y24.979 I0.056 J0.229
G1 Y25.021
G2 X22.304 Y25.25 I0.235 J0
G3 X35.39 Y37.597 I-4.246 J17.606
G1 Y37.605
X34.628 Y44.428
X34.621 Y44.441
X34.607 Y44.446
X34.594 Y44.439
X34.588 Y44.426
X34.59 Y42.856
G2 X20.807 Y26.551 I-16.536 J0
G3 X20.545 Y26.24 I0.054 J-0.311
G1 Y23.76
G3 X20.807 Y23.449 I0.315 J0
G2 X34.59 Y7.144 I-2.816 J-16.359
G1 X34.588 Y5.574
X34.586 Y5.565
X34.579 Y5.557
X33.038 Y4.511
X33.025 Y4.507
X33.012 Y4.514
X33.007 Y4.527
X33.01 Y7.144
G3 X19.254 Y22.056 I-15.014 J-0.049
G2 X18.965 Y22.37 I0.026 J0.314
G1 Y27.63
G2 X19.254 Y27.944 I0.315 J0
G3 X33.01 Y42.856 I-1.205 J14.912
G1 X33.007 Y45.473
X33.002 Y45.487
X32.988 Y45.493
X31.448 Y45.596
X31.433 Y45.591
X31.427 Y45.576
X31.43 Y42.856
G2 X17.707 Y29.475 I-13.386 J0
G3 X17.385 Y29.159 I-0.007 J-0.315
G1 Y20.841
G3 X17.707 Y20.525 I0.315 J0
G2 X31.43 Y7.144 I0.294 J-13.426
G1 X31.427 Y4.424
X31.423 Y4.412
X31.413 Y4.405
X31.401
X29.861 Y4.918
X29.851 Y4.925
X29.848 Y4.937
X29.85 Y7.144
G3 X16.079 Y18.791 I-11.844 J-0.038
G2 X15.805 Y19.023 I-0.038 J0.232
G1 Y30.977
G2 X16.079 Y31.209 I0.235 J0
G3 X29.85 Y42.856 I1.96 J11.648
G1 X29.848 Y45.063
X29.844 Y45.075
X29.833 Y45.082
X29.821
X28.281 Y44.507
X28.272 Y44.5
X28.268 Y44.488
X28.27 Y42.856
G2 X14.502 Y33.247 I-10.238 J0
G1 X14.481 Y33.255
X14.46 Y33.263
G3 X14.225 Y33.099 I-0.06 J-0.165
G1 Y16.901
G3 X14.46 Y16.736 I0.175 J0
G1 X14.481 Y16.745
X14.503 Y16.753
G2 X28.27 Y7.144 I3.509 J-9.64
G1 X28.268 Y5.513
X28.264 Y5.501
X28.254 Y5.493
X28.241 Y5.494
X26.702 Y6.068
X26.693 Y6.075
X26.689 Y6.087
X26.69 Y7.144
G3 X15.028 Y15.31 I-8.69 J0
X13.983 Y14.905 I9.541 J-26.214
G2 X12.937 Y14.501 I-10.594 J25.831
X12.645 Y14.705 I-0.074 J0.205
G1 Y35.295
G2 X12.937 Y35.499 I0.218 J0
X13.983 Y35.095 I-9.548 J-26.232
G3 X15.028 Y34.69 I10.593 J25.828
X26.69 Y42.856 I2.972 J8.166
G1 X26.689 Y43.913
X26.685 Y43.925
X26.675 Y43.932
X26.662 Y43.931
X25.123 Y43.357
X25.113 Y43.35
X25.11 Y43.338
Y42.856
G2 X15.568 Y36.175 I-7.11 J0
X13.463 Y36.965 I38.441 J105.615
G3 X11.357 Y37.756 I-40.546 J-104.824
X11.065 Y37.551 I-0.074 J-0.205
G1 Y12.449
G3 X11.357 Y12.244 I0.218 J0
X13.463 Y13.035 I-38.441 J105.615
G2 X15.568 Y13.825 I40.546 J-104.825
X25.11 Y7.144 I2.432 J-6.681
G1 Y6.662
X25.106 Y6.65
X25.095 Y6.643
X25.083
X23.542 Y7.218
X23.533 Y7.225
X23.529 Y7.236
G3 X16.109 Y12.34 I-5.529 J-0.093
G1 X9.777 Y9.988
G2 X9.485 Y10.193 I-0.074 J0.205
G1 Y39.807
G2 X9.777 Y40.012 I0.218 J0
G1 X16.109 Y37.66
G3 X23.529 Y42.764 I1.891 J5.197
G1 X23.526 Y42.775
X23.516 Y42.783
X23.503
X21.869 Y42.284
X21.86 Y42.277
X21.855 Y42.267
G2 X16.666 Y39.191 I-3.855 J0.589
G1 X8.034 Y42.333
X7.997 Y42.339
X7.959 Y42.331
X7.928 Y42.309
X7.907 Y42.277
X7.9 Y42.239
Y7.761
X7.907 Y7.723
X7.928 Y7.691
X7.959 Y7.669
X7.997 Y7.661
X8.034 Y7.667
X16.666 Y10.809
G2 X21.855 Y7.732 I1.334 J-3.665
G1 X21.863 Y7.719
X21.877 Y7.715
X21.891 Y7.723
X35.399 Y24.289
X35.403 Y24.303
X35.398 Y24.316
Z-3.967
X35.39 Y24.324
G3 X34.935 Y24.773 I-17.492 J-17.286
G2 X34.935 Y25.227 I0.218 J0.227
G3 X35.389 Y25.672 I-16.789 J17.629
G1 X35.395 Y25.686
X35.425 Y27.973
X35.419 Y27.987
X35.404 Y27.993
X35.389 Y27.986
G2 X32.506 Y25.182 I-17.267 J14.87
G3 X32.506 Y24.818 I0.149 J-0.182
G2 X35.39 Y21.992 I-14.584 J-17.77
G1 X35.395 Y21.98
X35.426 Y19.441
X35.419 Y19.426
X35.404 Y19.421
X35.39 Y19.429
G3 X29.806 Y24.854 I-17.446 J-12.37
G2 X29.806 Y25.146 I0.097 J0.146
G3 X35.39 Y30.537 I-11.706 J17.711
G1 X35.393 Y30.548
X35.427 Y33.504
X35.42 Y33.52
X35.404 Y33.524
X35.39 Y33.514
G2 X26.58 Y25.117 I-17.31 J9.342
G1 X26.546 Y25.093
X26.521 Y25.06
X26.508 Y25.021
Y24.979
X26.521 Y24.94
X26.546 Y24.907
X26.58 Y24.883
G2 X35.39 Y16.443 I-8.614 J-17.811
G1 X35.392 Y16.434
X35.429 Y12.361
X35.424 Y12.348
X35.412 Y12.341
X35.398 Y12.344
X35.39 Y12.355
G3 X22.304 Y24.75 I-17.404 J-5.269
G2 X22.125 Y24.979 I0.056 J0.229
G1 Y25.021
G2 X22.304 Y25.25 I0.235 J0
G3 X35.39 Y37.597 I-4.246 J17.606
G1 Y37.605
X34.628 Y44.428
X34.621 Y44.441
X34.607 Y44.446
X34.594 Y44.439
X34.588 Y44.426
X34.59 Y42.856
G2 X20.807 Y26.551 I-16.536 J0
G3 X20.545 Y26.24 I0.054 J-0.311
G1 Y23.76
G3 X20.807 Y23.449 I0.315 J0
G2 X34.59 Y7.144 I-2.816 J-16.359
G1 X34.588 Y5.574
X34.586 Y5.565
X34.579 Y5.557
X33.038 Y4.511
X33.025 Y4.507
X33.012 Y4.514
X33.007 Y4.527
X33.01 Y7.144
G3 X19.254 Y22.056 I-15.014 J-0.049
G2 X18.965 Y22.37 I0.026 J0.314
G1 Y27.63
G2 X19.254 Y27.944 I0.315 J0
G3 X33.01 Y42.856 I-1.205 J14.912
G1 X33.007 Y45.473
X33.002 Y45.487
X32.988 Y45.493
X31.448 Y45.596
X31.433 Y45.591
X31.427 Y45.576
X31.43 Y42.856
G2 X17.707 Y29.475 I-13.386 J0
G3 X17.385 Y29.159 I-0.007 J-0.315
G1 Y20.841
G3 X17.707 Y20.525 I0.315 J0
G2 X31.43 Y7.144 I0.294 J-13.426
G1 X31.427 Y4.424
X31.423 Y4.412
X31.413 Y4.405
X31.401
X29.861 Y4.918
X29.851 Y4.925
X29.848 Y4.937
X29.85 Y7.144
G3 X16.079 Y18.791 I-11.844 J-0.038
G2 X15.805 Y19.023 I-0.038 J0.232
G1 Y30.977
G2 X16.079 Y31.209 I0.235 J0
G3 X29.85 Y42.856 I1.96 J11.648
G1 X29.848 Y45.063
X29.844 Y45.075
X29.833 Y45.082
X29.821
X28.281 Y44.507
X28.272 Y44.5
X28.268 Y44.488
X28.27 Y42.856
G2 X14.502 Y33.247 I-10.238 J0
G1 X14.481 Y33.255
X14.46 Y33.263
G3 X14.225 Y33.099 I-0.06 J-0.165
G1 Y16.901
G3 X14.46 Y16.736 I0.175 J0
G1 X14.481 Y16.745
X14.503 Y16.753
G2 X28.27 Y7.144 I3.509 J-9.64
G1 X28.268 Y5.513
X28.264 Y5.501
X28.254 Y5.493
X28.241 Y5.494
X26.702 Y6.068
X26.693 Y6.075
X26.689 Y6.087
X26.69 Y7.144
G3 X15.028 Y15.31 I-8.69 J0
X13.983 Y14.905 I9.541 J-26.214
G2 X12.937 Y14.501 I-10.594 J25.831
X12.645 Y14.705 I-0.074 J0.205
G1 Y35.295
G2 X12.937 Y35.499 I0.218 J0
X13.983 Y35.095 I-9.548 J-26.232
G3 X15.028 Y34.69 I10.593 J25.828
X26.69 Y42.856 I2.972 J8.166
G1 X26.689 Y43.913
X26.685 Y43.925
X26.675 Y43.932
X26.662 Y43.931
X25.123 Y43.357
X25.113 Y43.35
X25.11 Y43.338
Y42.856
G2 X15.568 Y36.175 I-7.11 J0
X13.463 Y36.965 I38.441 J105.615
G3 X11.357 Y37.756 I-40.546 J-104.824
X11.065 Y37.551 I-0.074 J-0.205
G1 Y12.449
G3 X11.357 Y12.244 I0.218 J0
X13.463 Y13.035 I-38.441 J105.615
G2 X15.568 Y13.825 I40.546 J-104.825
X25.11 Y7.144 I2.432 J-6.681
G1 Y6.662
X25.106 Y6.65
X25.095 Y6.643
X25.083
X23.542 Y7.218
X23.533 Y7.225
X23.529 Y7.236
G3 X16.109 Y12.34 I-5.529 J-0.093
G1 X9.777 Y9.988
G2 X9.485 Y10.193 I-0.074 J0.205
G1 Y39.807
G2 X9.777 Y40.012 I0.218 J0
G1 X16.109 Y37.66
G3 X23.529 Y42.764 I1.891 J5.197
G1 X23.526 Y42.775
X23.516 Y42.783
X23.503
X21.869 Y42.284
X21.86 Y42.277
X21.855 Y42.267
G2 X16.666 Y39.191 I-3.855 J0.589
G1 X8.034 Y42.333
X7.997 Y42.339
X7.959 Y42.331
X7.928 Y42.309
X7.907 Y42.277
X7.9 Y42.239
Y7.761
X7.907 Y7.723
X7.928 Y7.691
X7.959 Y7.669
X7.997 Y7.661
X8.034 Y7.667
X16.666 Y10.809
G2 X21.855 Y7.732 I1.334 J-3.665
G1 X21.863 Y7.719
X21.877 Y7.715
X21.891 Y7.723
X35.399 Y24.289
X35.403 Y24.303
X35.398 Y24.316
Z-5.95
X35.39 Y24.324
G3 X34.935 Y24.773 I-17.492 J-17.286
G2 X34.935 Y25.227 I0.218 J0.227
G3 X35.389 Y25.672 I-16.789 J17.629
G1 X35.395 Y25.686
X35.425 Y27.973
X35.419 Y27.987
X35.404 Y27.993
X35.389 Y27.986
G2 X32.506 Y25.182 I-17.267 J14.87
G3 X32.506 Y24.818 I0.149 J-0.182
G2 X35.39 Y21.992 I-14.584 J-17.77
G1 X35.395 Y21.98
X35.426 Y19.441
X35.419 Y19.426
X35.404 Y19.421
X35.39 Y19.429
G3 X29.806 Y24.854 I-17.446 J-12.37
G2 X29.806 Y25.146 I0.097 J0.146
G3 X35.39 Y30.537 I-11.706 J17.711
G1 X35.393 Y30.548
X35.427 Y33.504
X35.42 Y33.52
X35.404 Y33.524
X35.39 Y33.514
G2 X26.58 Y25.117 I-17.31 J9.342
G1 X26.546 Y25.093
X26.521 Y25.06
X26.508 Y25.021
Y24.979
X26.521 Y24.94
X26.546 Y24.907
X26.58 Y24.883
G2 X35.39 Y16.443 I-8.614 J-17.811
G1 X35.392 Y16.434
X35.429 Y12.361
X35.424 Y12.348
X35.412 Y12.341
X35.398 Y12.344
X35.39 Y12.355
G3 X22.304 Y24.75 I-17.404 J-5.269
G2 X22.125 Y24.979 I0.056 J0.229
G1 Y25.021
G2 X22.304 Y25.25 I0.235 J0
G3 X35.39 Y37.597 I-4.246 J17.606
G1 Y37.605
X34.628 Y44.428
X34.621 Y44.441
X34.607 Y44.446
X34.594 Y44.439
X34.588 Y44.426
X34.59 Y42.856
G2 X20.807 Y26.551 I-16.536 J0
G3 X20.545 Y26.24 I0.054 J-0.311
G1 Y23.76
G3 X20.807 Y23.449 I0.315 J0
G2 X34.59 Y7.144 I-2.816 J-16.359
G1 X34.588 Y5.574
X34.586 Y5.565
X34.579 Y5.557
X33.038 Y4.511
X33.025 Y4.507
X33.012 Y4.514
X33.007 Y4.527
X33.01 Y7.144
G3 X19.254 Y22.056 I-15.014 J-0.049
G2 X18.965 Y22.37 I0.026 J0.314
G1 Y27.63
G2 X19.254 Y27.944 I0.315 J0
G3 X33.01 Y42.856 I-1.205 J14.912
G1 X33.007 Y45.473
X33.002 Y45.487
X32.988 Y45.493
X31.448 Y45.596
X31.433 Y45.591
X31.427 Y45.576
X31.43 Y42.856
G2 X17.707 Y29.475 I-13.386 J0
G3 X17.385 Y29.159 I-0.007 J-0.315
G1 Y20.841
G3 X17.707 Y20.525 I0.315 J0
G2 X31.43 Y7.144 I0.294 J-13.426
G1 X31.427 Y4.424
X31.423 Y4.412
X31.413 Y4.405
X31.401
X29.861 Y4.918
X29.851 Y4.925
X29.848 Y4.937
X29.85 Y7.144
G3 X16.079 Y18.791 I-11.844 J-0.038
G2 X15.805 Y19.023 I-0.038 J0.232
G1 Y30.977
G2 X16.079 Y31.209 I0.235 J0
G3 X29.85 Y42.856 I1.96 J11.648
G1 X29.848 Y45.063
X29.844 Y45.075
X29.833 Y45.082
X29.821
X28.281 Y44.507
X28.272 Y44.5
X28.268 Y44.488
X28.27 Y42.856
G2 X14.502 Y33.247 I-10.238 J0
G1 X14.481 Y33.255
X14.46 Y33.263
G3 X14.225 Y33.099 I-0.06 J-0.165
G1 Y16.901
G3 X14.46 Y16.736 I0.175 J0
G1 X14.481 Y16.745
X14.503 Y16.753
G2 X28.27 Y7.144 I3.509 J-9.64
G1 X28.268 Y5.513
X28.264 Y5.501
X28.254 Y5.493
X28.241 Y5.494
X26.702 Y6.068
X26.693 Y6.075
X26.689 Y6.087
X26.69 Y7.144
G3 X15.028 Y15.31 I-8.69 J0
X13.983 Y14.905 I9.541 J-26.214
G2 X12.937 Y14.501 I-10.594 J25.831
X12.645 Y14.705 I-0.074 J0.205
G1 Y35.295
G2 X12.937 Y35.499 I0.218 J0
X13.983 Y35.095 I-9.548 J-26.232
G3 X15.028 Y34.69 I10.593 J25.828
X26.69 Y42.856 I2.972 J8.166
G1 X26.689 Y43.913
X26.685 Y43.925
X26.675 Y43.932
X26.662 Y43.931
X25.123 Y43.357
X25.113 Y43.35
X25.11 Y43.338
Y42.856
G2 X15.568 Y36.175 I-7.11 J0
X13.463 Y36.965 I38.441 J105.615
G3 X11.357 Y37.756 I-40.546 J-104.824
X11.065 Y37.551 I-0.074 J-0.205
G1 Y12.449
G3 X11.357 Y12.244 I0.218 J0
X13.463 Y13.035 I-38.441 J105.615
G2 X15.568 Y13.825 I40.546 J-104.825
X25.11 Y7.144 I2.432 J-6.681
G1 Y6.662
X25.106 Y6.65
X25.095 Y6.643
X25.083
X23.542 Y7.218
X23.533 Y7.225
X23.529 Y7.236
G3 X16.109 Y12.34 I-5.529 J-0.093
G1 X9.777 Y9.988
G2 X9.485 Y10.193 I-0.074 J0.205
G1 Y39.807
G2 X9.777 Y40.012 I0.218 J0
G1 X16.109 Y37.66
G3 X23.529 Y42.764 I1.891 J5.197
G1 X23.526 Y42.775
X23.516 Y42.783
X23.503
X21.869 Y42.284
X21.86 Y42.277
X21.855 Y42.267
G2 X16.666 Y39.191 I-3.855 J0.589
G1 X8.034 Y42.333
X7.997 Y42.339
X7.959 Y42.331
X7.928 Y42.309
X7.907 Y42.277
X7.9 Y42.239
Y7.761
X7.907 Y7.723
X7.928 Y7.691
X7.959 Y7.669
X7.997 Y7.661
X8.034 Y7.667
X16.666 Y10.809
G2 X21.855 Y7.732 I1.334 J-3.665
G1 X22.067 Y6.348
Z10
(When using Fusion 360 for Personal Use, the feedrate of)
(rapid moves is reduced to match the feedrate of cutting)
(moves, which can increase machining time. Unrestricted rapid)
(moves are available with a Fusion 360 Subscription.)

(2D Contour2 2)
G0 X21.6 Y42.856
G1 Z10 F1000
Z5
Z3.06 F333.3
Z-1.983
G2 X16.769 Y39.473 I-3.6 J0 F1000
G1 X8.137 Y42.615
G3 X7.6 Y42.239 I-0.137 J-0.376
G1 Y7.761
G3 X8.137 Y7.385 I0.4 J0
G1 X16.769 Y10.527
G2 X21.6 Y7.144 I1.231 J-3.383
G1 Z5
Y42.856
Z1.077 F333.3
Z-3.967
G2 X16.769 Y39.473 I-3.6 J0 F1000
G1 X8.137 Y42.615
G3 X7.6 Y42.239 I-0.137 J-0.376
G1 Y7.761
G3 X8.137 Y7.385 I0.4 J0
G1 X16.769 Y10.527
G2 X21.6 Y7.144 I1.231 J-3.383
G1 Z5
Y42.856
Z-0.907 F333.3
Z-5.95
G2 X16.769 Y39.473 I-3.6 J0 F1000
G1 X8.137 Y42.615
G3 X7.6 Y42.239 I-0.137 J-0.376
G1 Y7.761
G3 X8.137 Y7.385 I0.4 J0
G1 X16.769 Y10.527
G2 X21.6 Y7.144 I1.231 J-3.383
G1 Z5
X21.4 Y42.856
Z-0.907 F333.3
Z-5.95
G2 X16.837 Y39.661 I-3.4 J0 F1000
G1 X8.205 Y42.803
G3 X7.4 Y42.239 I-0.205 J-0.564
G1 Y7.761
G3 X8.205 Y7.197 I0.6 J0
G1 X16.837 Y10.339
G2 X21.4 Y7.144 I1.163 J-3.195
G1 Z10
(When using Fusion 360 for Personal Use, the feedrate of)
(rapid moves is reduced to match the feedrate of cutting)
(moves, which can increase machining time. Unrestricted rapid)
(moves are available with a Fusion 360 Subscription.)

(2D Contour3 2)
G0 X-1.6 Y0
G1 Z10 F1000
Z5
Z3 F333.3
Z-1.757
Y50 F1000
G2 X0 Y51.6 I1.6 J0
G1 X20
G2 X21.6 Y50 I0 J-1.6
G1 Y42.856
G3 X22.137 Y42.48 I0.4 J0
G1 X30.769 Y45.622
G2 X35.6 Y42.239 I1.231 J-3.383
G1 Y7.761
G2 X30.769 Y4.378 I-3.6 J0
G1 X22.137 Y7.52
G3 X21.6 Y7.144 I-0.137 J-0.376
G1 Y0
G2 X20 Y-1.6 I-1.6 J0
G1 X0
G2 X-1.6 Y0 I0 J1.6
G1 Z-3.514 F333.3
Y50 F1000
G2 X0 Y51.6 I1.6 J0
G1 X20
G2 X21.6 Y50 I0 J-1.6
G1 Y42.856
G3 X22.137 Y42.48 I0.4 J0
G1 X30.769 Y45.622
G2 X35.6 Y42.239 I1.231 J-3.383
G1 Y7.761
G2 X30.769 Y4.378 I-3.6 J0
G1 X22.137 Y7.52
G3 X21.6 Y7.144 I-0.137 J-0.376
G1 Y0
G2 X20 Y-1.6 I-1.6 J0
G1 X0
G2 X-1.6 Y0 I0 J1.6
G1 Z-5.271 F333.3
Y50 F1000
G2 X0 Y51.6 I1.6 J0
G1 X20
G2 X21.6 Y50 I0 J-1.6
G1 Y42.856
G3 X22.137 Y42.48 I0.4 J0
G1 X30.769 Y45.622
G2 X35.6 Y42.239 I1.231 J-3.383
G1 Y7.761
G2 X30.769 Y4.378 I-3.6 J0
G1 X22.137 Y7.52
G3 X21.6 Y7.144 I-0.137 J-0.376
G1 Y0
G2 X20 Y-1.6 I-1.6 J0
G1 X0
G2 X-1.6 Y0 I0 J1.6
G1 Z-7.029 F333.3
Y50 F1000
G2 X0 Y51.6 I1.6 J0
G1 X20
G2 X21.6 Y50 I0 J-1.6
G1 Y42.856
G3 X22.137 Y42.48 I0.4 J0
G1 X30.769 Y45.622
G2 X35.6 Y42.239 I1.231 J-3.383
G1 Y7.761
G2 X30.769 Y4.378 I-3.6 J0
G1 X22.137 Y7.52
G3 X21.6 Y7.144 I-0.137 J-0.376
G1 Y0
G2 X20 Y-1.6 I-1.6 J0
G1 X0
G2 X-1.6 Y0 I0 J1.6
G1 Z-8.786 F333.3
Y50 F1000
G2 X0 Y51.6 I1.6 J0
G1 X20
G2 X21.6 Y50 I0 J-1.6
G1 Y42.856
G3 X22.137 Y42.48 I0.4 J0
G1 X30.769 Y45.622
G2 X35.6 Y42.239 I1.231 J-3.383
G1 Y7.761
G2 X30.769 Y4.378 I-3.6 J0
G1 X22.137 Y7.52
G3 X21.6 Y7.144 I-0.137 J-0.376
G1 Y0
G2 X20 Y-1.6 I-1.6 J0
G1 X0
G2 X-1.6 Y0 I0 J1.6
G1 Z-10.543 F333.3
Y21.038 F1000
Z-8.8
Y26.837
Z-10.543 F333.3
Y50 F1000
G2 X0 Y51.6 I1.6 J0
G1 X7.973
Z-8.8
X13.773
Z-10.543 F333.3
X20 F1000
G2 X21.6 Y50 I0 J-1.6
G1 Y42.856
G3 X22.137 Y42.48 I0.4 J0
G1 X30.769 Y45.622
G2 X35.6 Y42.239 I1.231 J-3.383
G1 Y27.805
Z-8.8
Y22.005
Z-10.543 F333.3
Y7.761 F1000
G2 X30.769 Y4.378 I-3.6 J0
G1 X22.137 Y7.52
G3 X21.6 Y7.144 I-0.137 J-0.376
G1 Y0
G2 X20 Y-1.6 I-1.6 J0
G1 X12.381
Z-8.8
X6.581
Z-10.543 F333.3
X0 F1000
G2 X-1.6 Y0 I0 J1.6
G1 Z-12.3 F333.3
Y21.038 F1000
Z-8.8
Y26.837
Z-12.3 F333.3
Y50 F1000
G2 X0 Y51.6 I1.6 J0
G1 X7.973
Z-8.8
X13.773
Z-12.3 F333.3
X20 F1000
G2 X21.6 Y50 I0 J-1.6
G1 Y42.856
G3 X22.137 Y42.48 I0.4 J0
G1 X30.769 Y45.622
G2 X35.6 Y42.239 I1.231 J-3.383
G1 Y27.805
Z-8.8
Y22.005
Z-12.3 F333.3
Y7.761 F1000
G2 X30.769 Y4.378 I-3.6 J0
G1 X22.137 Y7.52
G3 X21.6 Y7.144 I-0.137 J-0.376
G1 Y0
G2 X20 Y-1.6 I-1.6 J0
G1 X12.381
Z-8.8
X6.581
Z-12.3 F333.3
X0 F1000
G2 X-1.6 Y0 I0 J1.6
G1 X-1.593 Y0.047
X-1.573 Y0.09
X-1.541 Y0.125
X-1.5 Y0.15
X-1.459 Y0.175
X-1.427 Y0.21
X-1.407 Y0.253
X-1.4 Y0.3
Y21.038
Z-8.8
Y26.837
Z-12.3 F333.3
Y50 F1000
G2 X0 Y51.4 I1.4 J0
G1 X7.973
Z-8.8
X13.773
Z-12.3 F333.3
X20 F1000
G2 X21.4 Y50 I0 J-1.4
G1 Y42.856
G3 X22.205 Y42.292 I0.6 J0
G1 X30.837 Y45.434
G2 X35.4 Y42.239 I1.163 J-3.195
G1 Y27.805
Z-8.8
Y22.005
Z-12.3 F333.3
Y7.761 F1000
G2 X30.837 Y4.566 I-3.4 J0
G1 X22.205 Y7.708
G3 X21.4 Y7.144 I-0.205 J-0.564
G1 Y0
G2 X20 Y-1.4 I-1.4 J0
G1 X12.381
Z-8.8
X6.581
Z-12.3 F333.3
X0 F1000
G2 X-1.4 Y0 I0 J1.4
G1 Y0.3
Z10
M5
M30
