(1088_utab_test_27bit_2_finish_pass_018)
(T1  D=2.7 CR=0 - ZMIN=-12.3 - flat end mill)
G90 G94
G17
G21
(When using Fusion 360 for Personal Use, the feedrate of)
(rapid moves is reduced to match the feedrate of cutting)
(moves, which can increase machining time. Unrestricted rapid)
(moves are available with a Fusion 360 Subscription.)

(2D Pocket1)
T1
S5000 M3
G54
G0 X35.347 Y26.819
Z10
G1 Z5 F1000
Z3.06 F333.3
Z-1.983 F1000
X35.34 Y26.811
G2 X33.655 Y25.176 I-17.207 J16.045
G3 X33.655 Y24.824 I0.156 J-0.176
G2 X35.34 Y23.176 I-15.744 J-17.781
G1 X35.345 Y23.163
X35.376 Y20.856
X35.369 Y20.841
X35.354 Y20.836
X35.34 Y20.843
G3 X31.267 Y24.812 I-17.408 J-13.79
G2 X31.267 Y25.188 I0.141 J0.188
G3 X35.34 Y29.129 I-13.155 J17.668
G1 X35.344 Y29.141
X35.377 Y31.713
X35.37 Y31.729
X35.354 Y31.734
X35.34 Y31.725
G2 X28.481 Y25.151 I-17.248 J11.132
G3 X28.481 Y24.849 I0.089 J-0.151
G2 X35.34 Y18.237 I-10.528 J-17.785
G1 X35.343 Y18.226
X35.378 Y15.101
X35.374 Y15.089
X35.362 Y15.081
X35.349 Y15.083
X35.34 Y15.093
G3 X24.968 Y24.879 I-17.366 J-8.015
G1 X24.93 Y24.902
X24.902 Y24.936
X24.888 Y24.978
Y25.022
X24.902 Y25.064
X24.93 Y25.098
X24.968 Y25.121
G3 X35.34 Y34.863 I-6.898 J17.735
G1 X35.342 Y34.871
X35.38 Y39.963
X35.375 Y39.976
X35.361 Y39.983
X35.347 Y39.979
X35.34 Y39.966
G2 X21.864 Y25.752 I-17.282 J2.89
G3 X21.535 Y25.341 I0.093 J-0.412
G1 Y24.659
G3 X21.864 Y24.248 I0.422 J0
G2 X35.34 Y9.984 I-3.877 J-17.16
G1 Y9.976
X34.097 Y5.131
X34.089 Y5.119
X34.075 Y5.116
X34.063 Y5.123
X34.058 Y5.136
X34.06 Y7.144
G3 X20.285 Y22.995 I-16.068 J-0.052
G2 X20.015 Y23.307 I0.045 J0.312
G1 Y26.693
G2 X20.285 Y27.005 I0.315 J0
G3 X34.06 Y42.856 I-2.233 J15.851
G1 X34.058 Y44.864
X34.054 Y44.875
X34.046 Y44.882
X32.565 Y45.55
X32.552 Y45.551
X32.541 Y45.544
X32.537 Y45.532
X32.54 Y42.856
G2 X18.793 Y28.383 I-14.492 J0
G3 X18.495 Y28.068 I0.017 J-0.315
G1 Y21.932
G3 X18.793 Y21.617 I0.315 J0
G2 X32.54 Y7.144 I-0.796 J-14.521
G1 X32.537 Y4.468
X32.531 Y4.454
X32.516 Y4.448
X31.036 Y4.553
X31.023 Y4.56
X31.017 Y4.573
X31.02 Y7.144
G3 X17.224 Y20.095 I-13.017 J-0.042
G2 X16.975 Y20.33 I-0.014 J0.235
G1 Y29.67
G2 X17.224 Y29.905 I0.235 J0
G3 X31.02 Y42.856 I0.818 J12.952
G1 X31.017 Y45.427
X31.013 Y45.439
X31.003 Y45.446
X30.99
X29.511 Y44.901
X29.501 Y44.894
X29.498 Y44.883
X29.5 Y42.856
G2 X15.737 Y31.627 I-11.462 J0
G3 X15.455 Y31.396 I-0.046 J-0.231
G1 Y18.604
G3 X15.737 Y18.373 I0.235 J0
G2 X29.5 Y7.144 I2.271 J-11.266
G1 X29.498 Y5.118
X29.494 Y5.106
X29.484 Y5.099
X29.471
X27.992 Y5.651
X27.982 Y5.659
X27.979 Y5.67
X27.98 Y7.144
G3 X14.598 Y16.491 I-9.972 J-0.023
G1 X14.413 Y16.417
X14.227 Y16.343
G2 X13.935 Y16.548 I-0.074 J0.205
G1 Y33.452
G2 X14.227 Y33.657 I0.218 J0
G1 X14.413 Y33.583
X14.598 Y33.509
G3 X27.98 Y42.856 I3.426 J9.348
G1 X27.979 Y44.329
X27.975 Y44.341
X27.964 Y44.349
X27.952 Y44.348
X26.472 Y43.795
X26.463 Y43.788
X26.459 Y43.776
X26.46 Y42.856
G2 X15.107 Y34.906 I-8.46 J0
X13.907 Y35.367 I12.55 J34.482
G3 X12.707 Y35.828 I-13.75 J-34.021
X12.415 Y35.623 I-0.074 J-0.205
G1 Y14.377
G3 X12.707 Y14.172 I0.218 J0
X13.907 Y14.633 I-12.551 J34.485
G2 X15.107 Y15.094 I13.739 J-33.992
X26.46 Y7.144 I2.893 J-7.95
G1 X26.459 Y6.224
X26.455 Y6.212
X26.445 Y6.205
X26.432
X24.953 Y6.758
X24.943 Y6.766
X24.94 Y6.777
Y7.144
G3 X15.626 Y13.665 I-6.94 J0
X13.407 Y12.833 I42.702 J-117.324
G2 X11.187 Y12.002 I-44.922 J116.493
X10.895 Y12.206 I-0.074 J0.205
G1 Y37.794
G2 X11.187 Y37.998 I0.218 J0
X13.407 Y37.167 I-42.703 J-117.324
G3 X15.626 Y36.335 I44.922 J116.492
X24.94 Y42.856 I2.374 J6.521
G1 Y43.223
X24.936 Y43.235
X24.925 Y43.242
X24.913
X23.43 Y42.687
X23.421 Y42.68
X23.417 Y42.669
G2 X16.146 Y37.763 I-5.417 J0.187
G1 X9.667 Y40.169
G3 X9.375 Y39.965 I-0.074 J-0.205
G1 Y10.035
G3 X9.667 Y9.831 I0.218 J0
G1 X16.146 Y12.237
G2 X23.417 Y7.331 I1.854 J-5.093
G1 X23.413 Y7.319
X23.404 Y7.311
X23.391
X21.813 Y7.752
X21.804 Y7.758
X21.799 Y7.768
G3 X16.683 Y10.762 I-3.799 J-0.624
G1 X8.051 Y7.62
X8.004 Y7.611
X7.957 Y7.617
X7.914 Y7.638
X7.88 Y7.671
X7.858 Y7.714
X7.85 Y7.761
Y42.239
X7.858 Y42.286
X7.88 Y42.329
X7.914 Y42.362
X7.957 Y42.383
X8.004 Y42.389
X8.051 Y42.38
X16.683 Y39.238
G3 X21.799 Y42.231 I1.317 J3.618
G1 X21.806 Y42.244
X21.821 Y42.248
X21.834 Y42.241
X35.347 Y26.845
X35.352 Y26.832
X35.347 Y26.819
Z-3.967
X35.34 Y26.811
G2 X33.655 Y25.176 I-17.207 J16.045
G3 X33.655 Y24.824 I0.156 J-0.176
G2 X35.34 Y23.176 I-15.744 J-17.781
G1 X35.345 Y23.163
X35.376 Y20.856
X35.369 Y20.841
X35.354 Y20.836
X35.34 Y20.843
G3 X31.267 Y24.812 I-17.408 J-13.79
G2 X31.267 Y25.188 I0.141 J0.188
G3 X35.34 Y29.129 I-13.155 J17.668
G1 X35.344 Y29.141
X35.377 Y31.713
X35.37 Y31.729
X35.354 Y31.734
X35.34 Y31.725
G2 X28.481 Y25.151 I-17.248 J11.132
G3 X28.481 Y24.849 I0.089 J-0.151
G2 X35.34 Y18.237 I-10.528 J-17.785
G1 X35.343 Y18.226
X35.378 Y15.101
X35.374 Y15.089
X35.362 Y15.081
X35.349 Y15.083
X35.34 Y15.093
G3 X24.968 Y24.879 I-17.366 J-8.015
G1 X24.93 Y24.902
X24.902 Y24.936
X24.888 Y24.978
Y25.022
X24.902 Y25.064
X24.93 Y25.098
X24.968 Y25.121
G3 X35.34 Y34.863 I-6.898 J17.735
G1 X35.342 Y34.871
X35.38 Y39.963
X35.375 Y39.976
X35.361 Y39.983
X35.347 Y39.979
X35.34 Y39.966
G2 X21.864 Y25.752 I-17.282 J2.89
G3 X21.535 Y25.341 I0.093 J-0.412
G1 Y24.659
G3 X21.864 Y24.248 I0.422 J0
G2 X35.34 Y9.984 I-3.877 J-17.16
G1 Y9.976
X34.097 Y5.131
X34.089 Y5.119
X34.075 Y5.116
X34.063 Y5.123
X34.058 Y5.136
X34.06 Y7.144
G3 X20.285 Y22.995 I-16.068 J-0.052
G2 X20.015 Y23.307 I0.045 J0.312
G1 Y26.693
G2 X20.285 Y27.005 I0.315 J0
G3 X34.06 Y42.856 I-2.233 J15.851
G1 X34.058 Y44.864
X34.054 Y44.875
X34.046 Y44.882
X32.565 Y45.55
X32.552 Y45.551
X32.541 Y45.544
X32.537 Y45.532
X32.54 Y42.856
G2 X18.793 Y28.383 I-14.492 J0
G3 X18.495 Y28.068 I0.017 J-0.315
G1 Y21.932
G3 X18.793 Y21.617 I0.315 J0
G2 X32.54 Y7.144 I-0.796 J-14.521
G1 X32.537 Y4.468
X32.531 Y4.454
X32.516 Y4.448
X31.036 Y4.553
X31.023 Y4.56
X31.017 Y4.573
X31.02 Y7.144
G3 X17.224 Y20.095 I-13.017 J-0.042
G2 X16.975 Y20.33 I-0.014 J0.235
G1 Y29.67
G2 X17.224 Y29.905 I0.235 J0
G3 X31.02 Y42.856 I0.818 J12.952
G1 X31.017 Y45.427
X31.013 Y45.439
X31.003 Y45.446
X30.99
X29.511 Y44.901
X29.501 Y44.894
X29.498 Y44.883
X29.5 Y42.856
G2 X15.737 Y31.627 I-11.462 J0
G3 X15.455 Y31.396 I-0.046 J-0.231
G1 Y18.604
G3 X15.737 Y18.373 I0.235 J0
G2 X29.5 Y7.144 I2.271 J-11.266
G1 X29.498 Y5.118
X29.494 Y5.106
X29.484 Y5.099
X29.471
X27.992 Y5.651
X27.982 Y5.659
X27.979 Y5.67
X27.98 Y7.144
G3 X14.598 Y16.491 I-9.972 J-0.023
G1 X14.413 Y16.417
X14.227 Y16.343
G2 X13.935 Y16.548 I-0.074 J0.205
G1 Y33.452
G2 X14.227 Y33.657 I0.218 J0
G1 X14.413 Y33.583
X14.598 Y33.509
G3 X27.98 Y42.856 I3.426 J9.348
G1 X27.979 Y44.329
X27.975 Y44.341
X27.964 Y44.349
X27.952 Y44.348
X26.472 Y43.795
X26.463 Y43.788
X26.459 Y43.776
X26.46 Y42.856
G2 X15.107 Y34.906 I-8.46 J0
X13.907 Y35.367 I12.55 J34.482
G3 X12.707 Y35.828 I-13.75 J-34.021
X12.415 Y35.623 I-0.074 J-0.205
G1 Y14.377
G3 X12.707 Y14.172 I0.218 J0
X13.907 Y14.633 I-12.551 J34.485
G2 X15.107 Y15.094 I13.739 J-33.992
X26.46 Y7.144 I2.893 J-7.95
G1 X26.459 Y6.224
X26.455 Y6.212
X26.445 Y6.205
X26.432
X24.953 Y6.758
X24.943 Y6.766
X24.94 Y6.777
Y7.144
G3 X15.626 Y13.665 I-6.94 J0
X13.407 Y12.833 I42.702 J-117.324
G2 X11.187 Y12.002 I-44.922 J116.493
X10.895 Y12.206 I-0.074 J0.205
G1 Y37.794
G2 X11.187 Y37.998 I0.218 J0
X13.407 Y37.167 I-42.703 J-117.324
G3 X15.626 Y36.335 I44.922 J116.492
X24.94 Y42.856 I2.374 J6.521
G1 Y43.223
X24.936 Y43.235
X24.925 Y43.242
X24.913
X23.43 Y42.687
X23.421 Y42.68
X23.417 Y42.669
G2 X16.146 Y37.763 I-5.417 J0.187
G1 X9.667 Y40.169
G3 X9.375 Y39.965 I-0.074 J-0.205
G1 Y10.035
G3 X9.667 Y9.831 I0.218 J0
G1 X16.146 Y12.237
G2 X23.417 Y7.331 I1.854 J-5.093
G1 X23.413 Y7.319
X23.404 Y7.311
X23.391
X21.813 Y7.752
X21.804 Y7.758
X21.799 Y7.768
G3 X16.683 Y10.762 I-3.799 J-0.624
G1 X8.051 Y7.62
X8.004 Y7.611
X7.957 Y7.617
X7.914 Y7.638
X7.88 Y7.671
X7.858 Y7.714
X7.85 Y7.761
Y42.239
X7.858 Y42.286
X7.88 Y42.329
X7.914 Y42.362
X7.957 Y42.383
X8.004 Y42.389
X8.051 Y42.38
X16.683 Y39.238
G3 X21.799 Y42.231 I1.317 J3.618
G1 X21.806 Y42.244
X21.821 Y42.248
X21.834 Y42.241
X35.347 Y26.845
X35.352 Y26.832
X35.347 Y26.819
Z-5.95
X35.34 Y26.811
G2 X33.655 Y25.176 I-17.207 J16.045
G3 X33.655 Y24.824 I0.156 J-0.176
G2 X35.34 Y23.176 I-15.744 J-17.781
G1 X35.345 Y23.163
X35.376 Y20.856
X35.369 Y20.841
X35.354 Y20.836
X35.34 Y20.843
G3 X31.267 Y24.812 I-17.408 J-13.79
G2 X31.267 Y25.188 I0.141 J0.188
G3 X35.34 Y29.129 I-13.155 J17.668
G1 X35.344 Y29.141
X35.377 Y31.713
X35.37 Y31.729
X35.354 Y31.734
X35.34 Y31.725
G2 X28.481 Y25.151 I-17.248 J11.132
G3 X28.481 Y24.849 I0.089 J-0.151
G2 X35.34 Y18.237 I-10.528 J-17.785
G1 X35.343 Y18.226
X35.378 Y15.101
X35.374 Y15.089
X35.362 Y15.081
X35.349 Y15.083
X35.34 Y15.093
G3 X24.968 Y24.879 I-17.366 J-8.015
G1 X24.93 Y24.902
X24.902 Y24.936
X24.888 Y24.978
Y25.022
X24.902 Y25.064
X24.93 Y25.098
X24.968 Y25.121
G3 X35.34 Y34.863 I-6.898 J17.735
G1 X35.342 Y34.871
X35.38 Y39.963
X35.375 Y39.976
X35.361 Y39.983
X35.347 Y39.979
X35.34 Y39.966
G2 X21.864 Y25.752 I-17.282 J2.89
G3 X21.535 Y25.341 I0.093 J-0.412
G1 Y24.659
G3 X21.864 Y24.248 I0.422 J0
G2 X35.34 Y9.984 I-3.877 J-17.16
G1 Y9.976
X34.097 Y5.131
X34.089 Y5.119
X34.075 Y5.116
X34.063 Y5.123
X34.058 Y5.136
X34.06 Y7.144
G3 X20.285 Y22.995 I-16.068 J-0.052
G2 X20.015 Y23.307 I0.045 J0.312
G1 Y26.693
G2 X20.285 Y27.005 I0.315 J0
G3 X34.06 Y42.856 I-2.233 J15.851
G1 X34.058 Y44.864
X34.054 Y44.875
X34.046 Y44.882
X32.565 Y45.55
X32.552 Y45.551
X32.541 Y45.544
X32.537 Y45.532
X32.54 Y42.856
G2 X18.793 Y28.383 I-14.492 J0
G3 X18.495 Y28.068 I0.017 J-0.315
G1 Y21.932
G3 X18.793 Y21.617 I0.315 J0
G2 X32.54 Y7.144 I-0.796 J-14.521
G1 X32.537 Y4.468
X32.531 Y4.454
X32.516 Y4.448
X31.036 Y4.553
X31.023 Y4.56
X31.017 Y4.573
X31.02 Y7.144
G3 X17.224 Y20.095 I-13.017 J-0.042
G2 X16.975 Y20.33 I-0.014 J0.235
G1 Y29.67
G2 X17.224 Y29.905 I0.235 J0
G3 X31.02 Y42.856 I0.818 J12.952
G1 X31.017 Y45.427
X31.013 Y45.439
X31.003 Y45.446
X30.99
X29.511 Y44.901
X29.501 Y44.894
X29.498 Y44.883
X29.5 Y42.856
G2 X15.737 Y31.627 I-11.462 J0
G3 X15.455 Y31.396 I-0.046 J-0.231
G1 Y18.604
G3 X15.737 Y18.373 I0.235 J0
G2 X29.5 Y7.144 I2.271 J-11.266
G1 X29.498 Y5.118
X29.494 Y5.106
X29.484 Y5.099
X29.471
X27.992 Y5.651
X27.982 Y5.659
X27.979 Y5.67
X27.98 Y7.144
G3 X14.598 Y16.491 I-9.972 J-0.023
G1 X14.413 Y16.417
X14.227 Y16.343
G2 X13.935 Y16.548 I-0.074 J0.205
G1 Y33.452
G2 X14.227 Y33.657 I0.218 J0
G1 X14.413 Y33.583
X14.598 Y33.509
G3 X27.98 Y42.856 I3.426 J9.348
G1 X27.979 Y44.329
X27.975 Y44.341
X27.964 Y44.349
X27.952 Y44.348
X26.472 Y43.795
X26.463 Y43.788
X26.459 Y43.776
X26.46 Y42.856
G2 X15.107 Y34.906 I-8.46 J0
X13.907 Y35.367 I12.55 J34.482
G3 X12.707 Y35.828 I-13.75 J-34.021
X12.415 Y35.623 I-0.074 J-0.205
G1 Y14.377
G3 X12.707 Y14.172 I0.218 J0
X13.907 Y14.633 I-12.551 J34.485
G2 X15.107 Y15.094 I13.739 J-33.992
X26.46 Y7.144 I2.893 J-7.95
G1 X26.459 Y6.224
X26.455 Y6.212
X26.445 Y6.205
X26.432
X24.953 Y6.758
X24.943 Y6.766
X24.94 Y6.777
Y7.144
G3 X15.626 Y13.665 I-6.94 J0
X13.407 Y12.833 I42.702 J-117.324
G2 X11.187 Y12.002 I-44.922 J116.493
X10.895 Y12.206 I-0.074 J0.205
G1 Y37.794
G2 X11.187 Y37.998 I0.218 J0
X13.407 Y37.167 I-42.703 J-117.324
G3 X15.626 Y36.335 I44.922 J116.492
X24.94 Y42.856 I2.374 J6.521
G1 Y43.223
X24.936 Y43.235
X24.925 Y43.242
X24.913
X23.43 Y42.687
X23.421 Y42.68
X23.417 Y42.669
G2 X16.146 Y37.763 I-5.417 J0.187
G1 X9.667 Y40.169
G3 X9.375 Y39.965 I-0.074 J-0.205
G1 Y10.035
G3 X9.667 Y9.831 I0.218 J0
G1 X16.146 Y12.237
G2 X23.417 Y7.331 I1.854 J-5.093
G1 X23.413 Y7.319
X23.404 Y7.311
X23.391
X21.813 Y7.752
X21.804 Y7.758
X21.799 Y7.768
G3 X16.683 Y10.762 I-3.799 J-0.624
G1 X8.051 Y7.62
X8.004 Y7.611
X7.957 Y7.617
X7.914 Y7.638
X7.88 Y7.671
X7.858 Y7.714
X7.85 Y7.761
Y42.239
X7.858 Y42.286
X7.88 Y42.329
X7.914 Y42.362
X7.957 Y42.383
X8.004 Y42.389
X8.051 Y42.38
X16.683 Y39.238
G3 X21.799 Y42.231 I1.317 J3.618
G1 X22.018 Y43.563
Z10
(When using Fusion 360 for Personal Use, the feedrate of)
(rapid moves is reduced to match the feedrate of cutting)
(moves, which can increase machining time. Unrestricted rapid)
(moves are available with a Fusion 360 Subscription.)

(2D Contour2 2)
G0 X21.71 Y42.856
G1 Z10 F1000
Z5
Z3.06 F333.3
Z-1.983
G2 X16.731 Y39.37 I-3.71 J0 F1000
G1 X8.099 Y42.512
G3 X7.71 Y42.239 I-0.099 J-0.273
G1 Y7.761
G3 X8.099 Y7.488 I0.29 J0
G1 X16.731 Y10.63
G2 X21.71 Y7.144 I1.269 J-3.486
G1 Z5
Y42.856
Z1.077 F333.3
Z-3.967
G2 X16.731 Y39.37 I-3.71 J0 F1000
G1 X8.099 Y42.512
G3 X7.71 Y42.239 I-0.099 J-0.273
G1 Y7.761
G3 X8.099 Y7.488 I0.29 J0
G1 X16.731 Y10.63
G2 X21.71 Y7.144 I1.269 J-3.486
G1 Z5
Y42.856
Z-0.907 F333.3
Z-5.95
G2 X16.731 Y39.37 I-3.71 J0 F1000
G1 X8.099 Y42.512
G3 X7.71 Y42.239 I-0.099 J-0.273
G1 Y7.761
G3 X8.099 Y7.488 I0.29 J0
G1 X16.731 Y10.63
G2 X21.71 Y7.144 I1.269 J-3.486
G1 Z5
X21.53 Y42.856
Z-0.907 F333.3
Z-5.95
G2 X16.793 Y39.539 I-3.53 J0 F1000
G1 X8.161 Y42.681
G3 X7.53 Y42.239 I-0.161 J-0.442
G1 Y7.761
G3 X8.161 Y7.319 I0.47 J0
G1 X16.793 Y10.461
G2 X21.53 Y7.144 I1.207 J-3.317
G1 Z5
X21.35 Y42.856
Z-0.907 F333.3
Z-5.95
G2 X16.854 Y39.708 I-3.35 J0 F1000
G1 X8.222 Y42.85
G3 X7.35 Y42.239 I-0.222 J-0.611
G1 Y7.761
G3 X8.222 Y7.15 I0.65 J0
G1 X16.854 Y10.292
G2 X21.35 Y7.144 I1.146 J-3.148
G1 Z10
(When using Fusion 360 for Personal Use, the feedrate of)
(rapid moves is reduced to match the feedrate of cutting)
(moves, which can increase machining time. Unrestricted rapid)
(moves are available with a Fusion 360 Subscription.)

(2D Contour3 2)
G0 X-1.707 Y50.105
G1 Z10 F1000
Z5
Z3 F333.3
Z-1.757
G2 X0 Y51.71 I1.707 J-0.105 F1000
G1 X20
G2 X21.71 Y50 I0 J-1.71
G1 Y42.856
G3 X22.099 Y42.584 I0.29 J0
G1 X30.731 Y45.726
G2 X35.71 Y42.239 I1.269 J-3.486
G1 Y7.761
G2 X30.731 Y4.274 I-3.71 J0
G1 X22.099 Y7.416
G3 X21.71 Y7.144 I-0.099 J-0.273
G1 Y0
G2 X20 Y-1.71 I-1.71 J0
G1 X0
G2 X-1.71 Y0 I0 J1.71
G1 Y50
X-1.707 Y50.105
Z-3.514 F333.3
G2 X0 Y51.71 I1.707 J-0.105 F1000
G1 X20
G2 X21.71 Y50 I0 J-1.71
G1 Y42.856
G3 X22.099 Y42.584 I0.29 J0
G1 X30.731 Y45.726
G2 X35.71 Y42.239 I1.269 J-3.486
G1 Y7.761
G2 X30.731 Y4.274 I-3.71 J0
G1 X22.099 Y7.416
G3 X21.71 Y7.144 I-0.099 J-0.273
G1 Y0
G2 X20 Y-1.71 I-1.71 J0
G1 X0
G2 X-1.71 Y0 I0 J1.71
G1 Y50
X-1.707 Y50.105
Z-5.271 F333.3
G2 X0 Y51.71 I1.707 J-0.105 F1000
G1 X20
G2 X21.71 Y50 I0 J-1.71
G1 Y42.856
G3 X22.099 Y42.584 I0.29 J0
G1 X30.731 Y45.726
G2 X35.71 Y42.239 I1.269 J-3.486
G1 Y7.761
G2 X30.731 Y4.274 I-3.71 J0
G1 X22.099 Y7.416
G3 X21.71 Y7.144 I-0.099 J-0.273
G1 Y0
G2 X20 Y-1.71 I-1.71 J0
G1 X0
G2 X-1.71 Y0 I0 J1.71
G1 Y50
X-1.707 Y50.105
Z-7.029 F333.3
G2 X0 Y51.71 I1.707 J-0.105 F1000
G1 X20
G2 X21.71 Y50 I0 J-1.71
G1 Y42.856
G3 X22.099 Y42.584 I0.29 J0
G1 X30.731 Y45.726
G2 X35.71 Y42.239 I1.269 J-3.486
G1 Y7.761
G2 X30.731 Y4.274 I-3.71 J0
G1 X22.099 Y7.416
G3 X21.71 Y7.144 I-0.099 J-0.273
G1 Y0
G2 X20 Y-1.71 I-1.71 J0
G1 X0
G2 X-1.71 Y0 I0 J1.71
G1 Y50
X-1.707 Y50.105
Z-8.786 F333.3
G2 X0 Y51.71 I1.707 J-0.105 F1000
G1 X20
G2 X21.71 Y50 I0 J-1.71
G1 Y42.856
G3 X22.099 Y42.584 I0.29 J0
G1 X30.731 Y45.726
G2 X35.71 Y42.239 I1.269 J-3.486
G1 Y7.761
G2 X30.731 Y4.274 I-3.71 J0
G1 X22.099 Y7.416
G3 X21.71 Y7.144 I-0.099 J-0.273
G1 Y0
G2 X20 Y-1.71 I-1.71 J0
G1 X0
G2 X-1.71 Y0 I0 J1.71
G1 Y50
X-1.707 Y50.105
Z-10.543 F333.3
G2 X0 Y51.71 I1.707 J-0.105 F1000
G1 X8.023
Z-8.8
X13.723
Z-10.543 F333.3
X20 F1000
G2 X21.71 Y50 I0 J-1.71
G1 Y42.856
G3 X22.099 Y42.584 I0.29 J0
G1 X30.731 Y45.726
G2 X35.71 Y42.239 I1.269 J-3.486
G1 Y27.755
Z-8.8
Y22.055
Z-10.543 F333.3
Y7.761 F1000
G2 X30.731 Y4.274 I-3.71 J0
G1 X22.099 Y7.416
G3 X21.71 Y7.144 I-0.099 J-0.273
G1 Y0
G2 X20 Y-1.71 I-1.71 J0
G1 X12.331
Z-8.8
X6.631
Z-10.543 F333.3
X0 F1000
G2 X-1.71 Y0 I0 J1.71
G1 Y21.087
Z-8.8
Y26.788
Z-10.543 F333.3
Y50 F1000
X-1.707 Y50.105
Z5
X-1.71 Y0
Z-7.543 F333.3
Z-12.3
Y21.087 F1000
Z-8.8
Y26.788
Z-12.3 F333.3
Y50 F1000
G2 X0 Y51.71 I1.71 J0
G1 X8.023
Z-8.8
X13.723
Z-12.3 F333.3
X20 F1000
G2 X21.71 Y50 I0 J-1.71
G1 Y42.856
G3 X22.099 Y42.584 I0.29 J0
G1 X30.731 Y45.726
G2 X35.71 Y42.239 I1.269 J-3.486
G1 Y27.755
Z-8.8
Y22.055
Z-12.3 F333.3
Y7.761 F1000
G2 X30.731 Y4.274 I-3.71 J0
G1 X22.099 Y7.416
G3 X21.71 Y7.144 I-0.099 J-0.273
G1 Y0
G2 X20 Y-1.71 I-1.71 J0
G1 X12.331
Z-8.8
X6.631
Z-12.3 F333.3
X0 F1000
G2 X-1.71 Y0 I0 J1.71
G1 X-1.704 Y0.042
X-1.685 Y0.081
X-1.657 Y0.113
X-1.62 Y0.135
X-1.583 Y0.157
X-1.555 Y0.189
X-1.536 Y0.228
X-1.53 Y0.27
Y21.087
Z-8.8
Y26.788
Z-12.3 F333.3
Y50 F1000
G2 X0 Y51.53 I1.53 J0
G1 X8.023
Z-8.8
X13.723
Z-12.3 F333.3
X20 F1000
G2 X21.53 Y50 I0 J-1.53
G1 Y42.856
G3 X22.161 Y42.415 I0.47 J0
G1 X30.793 Y45.556
G2 X35.53 Y42.239 I1.207 J-3.317
G1 Y27.755
Z-8.8
Y22.055
Z-12.3 F333.3
Y7.761 F1000
G2 X30.793 Y4.444 I-3.53 J0
G1 X22.161 Y7.585
G3 X21.53 Y7.144 I-0.161 J-0.442
G1 Y0
G2 X20 Y-1.53 I-1.53 J0
G1 X12.331
Z-8.8
X6.631
Z-12.3 F333.3
X0 F1000
G2 X-1.53 Y0 I0 J1.53
G1 Y0.27
X-1.524 Y0.312
X-1.505 Y0.351
X-1.477 Y0.383
X-1.44 Y0.405
X-1.403 Y0.427
X-1.375 Y0.459
X-1.356 Y0.498
X-1.35 Y0.54
Y21.087
Z-8.8
Y26.788
Z-12.3 F333.3
Y50 F1000
G2 X0 Y51.35 I1.35 J0
G1 X8.023
Z-8.8
X13.723
Z-12.3 F333.3
X20 F1000
G2 X21.35 Y50 I0 J-1.35
G1 Y42.856
G3 X22.222 Y42.245 I0.65 J0
G1 X30.854 Y45.387
G2 X35.35 Y42.239 I1.146 J-3.148
G1 Y27.755
Z-8.8
Y22.055
Z-12.3 F333.3
Y7.761 F1000
G2 X30.854 Y4.613 I-3.35 J0
G1 X22.222 Y7.754
G3 X21.35 Y7.144 I-0.222 J-0.611
G1 Y0
G2 X20 Y-1.35 I-1.35 J0
G1 X12.331
Z-8.8
X6.631
Z-12.3 F333.3
X0 F1000
G2 X-1.35 Y0 I0 J1.35
G1 Y0.54
Z10
M5
M30
