(1090_utab_tes_25bit_1mm_deep_pass)
(T1  D=2.5 CR=0 - ZMIN=-12.3 - flat end mill)
G90 G94
G17
G21
(When using Fusion 360 for Personal Use, the feedrate of)
(rapid moves is reduced to match the feedrate of cutting)
(moves, which can increase machining time. Unrestricted rapid)
(moves are available with a Fusion 360 Subscription.)

(2D Pocket1)
T1
S5000 M3
G54
G0 X35.246 Y27.091
Z10
G1 Z5 F1000
Z3.06 F333.3
Z-1.983 F1000
X35.239 Y27.084
G2 X33.262 Y25.178 I-17.11 J15.772
G3 X33.262 Y24.822 I0.154 J-0.178
G2 X35.239 Y22.901 I-15.348 J-17.777
G1 X35.244 Y22.888
X35.276 Y20.757
X35.269 Y20.742
X35.254 Y20.737
X35.24 Y20.745
G3 X31.035 Y24.811 I-17.306 J-13.69
G2 X31.035 Y25.189 I0.14 J0.189
G3 X35.239 Y29.227 I-12.924 J17.667
G1 X35.244 Y29.239
X35.277 Y31.596
X35.27 Y31.612
X35.254 Y31.616
X35.24 Y31.608
G2 X28.442 Y25.151 I-17.149 J11.249
G3 X28.442 Y24.849 I0.089 J-0.151
G2 X35.24 Y18.355 I-10.488 J-17.784
G1 X35.243 Y18.344
X35.277 Y15.544
X35.27 Y15.529
X35.253 Y15.525
X35.239 Y15.535
G3 X25.236 Y24.879 I-17.267 J-8.459
G1 X25.199 Y24.903
X25.171 Y24.937
X25.157 Y24.978
Y25.022
X25.171 Y25.063
X25.199 Y25.097
X25.236 Y25.121
G3 X35.24 Y34.421 I-7.164 J17.736
G1 X35.242 Y34.43
X35.279 Y38.428
X35.274 Y38.441
X35.262 Y38.448
X35.248 Y38.445
X35.24 Y38.433
G2 X22.08 Y25.576 I-17.182 J4.423
G3 X21.755 Y25.166 I0.097 J-0.411
G1 Y24.834
G3 X22.08 Y24.424 I0.422 J0
G2 X35.24 Y11.519 I-4.094 J-17.337
G1 Y11.511
X34.438 Y5.586
X34.431 Y5.574
X34.417 Y5.569
X34.404 Y5.576
X34.398 Y5.589
X34.4 Y7.144
G3 X20.62 Y23.287 I-16.409 J-0.053
G2 X20.355 Y23.599 I0.051 J0.311
G1 Y26.401
G2 X20.62 Y26.712 I0.315 J0
G3 X34.4 Y42.856 I-2.566 J16.144
G1 X34.398 Y44.411
X34.396 Y44.421
X34.389 Y44.428
X33.028 Y45.336
X33.015 Y45.339
X33.002 Y45.333
X32.997 Y45.319
X33 Y42.856
G2 X19.244 Y27.953 I-14.951 J0
G3 X18.955 Y27.639 I0.026 J-0.314
G1 Y22.361
G3 X19.244 Y22.047 I0.315 J0
G2 X33 Y7.144 I-1.248 J-14.952
G1 X32.997 Y4.681
X32.992 Y4.667
X32.979 Y4.661
X31.619 Y4.531
X31.604 Y4.536
X31.597 Y4.551
X31.6 Y7.144
G3 X17.873 Y20.698 I-13.6 J-0.045
G2 X17.555 Y21.013 I-0.003 J0.315
G1 Y28.987
G2 X17.873 Y29.302 I0.315 J0
G3 X31.6 Y42.856 I0.171 J13.554
G1 X31.597 Y45.45
X31.593 Y45.461
X31.584 Y45.469
X31.571
X30.212 Y45.049
X30.202 Y45.042
X30.198 Y45.03
X30.2 Y42.856
G2 X16.421 Y30.804 I-12.16 J0
G3 X16.155 Y30.571 I-0.031 J-0.233
G1 Y19.429
G3 X16.421 Y19.196 I0.235 J0
G2 X30.2 Y7.144 I1.584 J-12.092
G1 X30.198 Y4.969
X30.194 Y4.957
X30.183 Y4.95
X30.171
X28.811 Y5.459
X28.802 Y5.467
X28.798 Y5.478
X28.8 Y7.144
G3 X15.055 Y17.488 I-10.79 J-0.034
G2 X14.755 Y17.714 I-0.064 J0.226
G1 Y32.286
G2 X15.055 Y32.512 I0.235 J0
G3 X28.8 Y42.856 I2.981 J10.344
G1 X28.798 Y44.522
X28.794 Y44.534
X28.784 Y44.541
X28.771 Y44.54
X27.412 Y44.031
X27.402 Y44.024
X27.399 Y44.012
X27.4 Y42.856
G2 X14.787 Y34.029 I-9.395 J0
X14.217 Y34.257 I3.361 J9.234
G3 X13.647 Y34.485 I-3.931 J-9.006
X13.355 Y34.281 I-0.074 J-0.205
G1 Y15.719
G3 X13.647 Y15.515 I0.218 J0
X14.217 Y15.743 I-3.361 J9.235
G2 X14.787 Y15.971 I3.931 J-9.005
X27.4 Y7.144 I3.214 J-8.831
G1 X27.399 Y5.989
X27.395 Y5.977
X27.384 Y5.969
X27.372 Y5.97
X26.012 Y6.479
X26.003 Y6.486
X25.999 Y6.498
X26 Y7.144
G3 X15.264 Y14.661 I-8 J0
X13.756 Y14.088 I19.786 J-54.361
G2 X12.247 Y13.515 I-21.294 J53.788
X11.955 Y13.72 I-0.074 J0.205
G1 Y36.28
G2 X12.247 Y36.485 I0.218 J0
X13.756 Y35.912 I-19.786 J-54.36
G3 X15.264 Y35.339 I21.294 J53.787
X26 Y42.856 I2.736 J7.518
G1 X25.999 Y43.503
X25.995 Y43.515
X25.985 Y43.522
X25.972 Y43.521
X24.613 Y43.011
X24.603 Y43.004
X24.6 Y42.993
Y42.856
G2 X15.743 Y36.654 I-6.6 J0
X13.295 Y37.569 I51.898 J142.588
G3 X10.847 Y38.484 I-54.346 J-141.673
X10.555 Y38.279 I-0.074 J-0.205
G1 Y11.721
G3 X10.847 Y11.516 I0.218 J0
G1 X15.743 Y13.346
G2 X24.6 Y7.144 I2.257 J-6.202
G1 Y7.007
X24.596 Y6.995
X24.585 Y6.988
X24.573
X23.199 Y7.503
X23.19 Y7.51
X23.186 Y7.521
G3 X16.222 Y12.03 I-5.186 J-0.377
G1 X9.447 Y9.517
G2 X9.155 Y9.721 I-0.074 J0.205
G1 Y40.279
G2 X9.447 Y40.483 I0.218 J0
G1 X16.222 Y37.97
G3 X23.186 Y42.478 I1.778 J4.886
G1 X23.183 Y42.49
X23.174 Y42.498
X23.162 Y42.499
X21.702 Y42.185
X21.692 Y42.179
X21.686 Y42.169
G2 X16.718 Y39.332 I-3.686 J0.688
G1 X8.086 Y42.474
G3 X7.75 Y42.239 I-0.086 J-0.235
G1 Y7.761
G3 X8.086 Y7.526 I0.25 J0
G1 X16.717 Y10.668
G2 X21.686 Y7.831 I1.283 J-3.524
G1 X21.694 Y7.819
X21.708 Y7.815
X21.721 Y7.822
X35.246 Y22.867
X35.251 Y22.881
X35.246 Y22.894
Z-3.967
X35.239 Y22.901
G3 X33.262 Y24.822 I-17.324 J-15.857
G2 X33.262 Y25.178 I0.154 J0.178
G3 X35.239 Y27.084 I-15.133 J17.678
G1 X35.245 Y27.097
X35.275 Y29.214
X35.269 Y29.229
X35.254 Y29.235
X35.239 Y29.227
G2 X31.035 Y25.189 I-17.129 J13.629
G3 X31.035 Y24.811 I0.14 J-0.189
G2 X35.24 Y20.745 I-13.101 J-17.756
G1 X35.244 Y20.732
X35.277 Y18.366
X35.27 Y18.351
X35.254 Y18.346
X35.24 Y18.355
G3 X28.442 Y24.849 I-17.287 J-11.29
G2 X28.442 Y25.151 I0.089 J0.151
G3 X35.24 Y31.608 I-10.35 J17.705
G1 X35.243 Y31.618
X35.278 Y34.412
X35.27 Y34.428
X35.253 Y34.432
X35.24 Y34.421
G2 X25.236 Y25.121 I-17.168 J8.435
G1 X25.199 Y25.097
X25.171 Y25.063
X25.157 Y25.022
Y24.978
X25.171 Y24.937
X25.199 Y24.903
X25.236 Y24.879
G2 X35.239 Y15.535 I-7.263 J-17.803
G1 X35.242 Y15.527
X35.279 Y11.524
X35.274 Y11.51
X35.262 Y11.504
X35.248 Y11.507
X35.24 Y11.519
G3 X22.08 Y24.424 I-17.253 J-4.432
G2 X21.755 Y24.834 I0.097 J0.411
G1 Y25.166
G2 X22.08 Y25.576 I0.422 J0
G3 X35.24 Y38.433 I-4.022 J17.28
G1 Y38.441
X34.438 Y44.414
X34.431 Y44.427
X34.417 Y44.431
X34.404 Y44.425
X34.398 Y44.411
X34.4 Y42.856
G2 X20.62 Y26.712 I-16.347 J0
G3 X20.355 Y26.401 I0.051 J-0.311
G1 Y23.599
G3 X20.62 Y23.287 I0.315 J0
G2 X34.4 Y7.144 I-2.628 J-16.197
G1 X34.398 Y5.589
X34.396 Y5.58
X34.389 Y5.573
X33.028 Y4.664
X33.015 Y4.661
X33.002 Y4.667
X32.997 Y4.681
X33 Y7.144
G3 X19.244 Y22.047 I-15.004 J-0.049
G2 X18.955 Y22.361 I0.026 J0.314
G1 Y27.639
G2 X19.244 Y27.953 I0.315 J0
G3 X33 Y42.856 I-1.195 J14.903
G1 X32.997 Y45.319
X32.992 Y45.333
X32.979 Y45.339
X31.619 Y45.47
X31.604 Y45.465
X31.597 Y45.45
X31.6 Y42.856
G2 X17.873 Y29.302 I-13.555 J0
G3 X17.555 Y28.987 I-0.003 J-0.315
G1 Y21.013
G3 X17.873 Y20.698 I0.315 J0
G2 X31.6 Y7.144 I0.127 J-13.599
G1 X31.597 Y4.551
X31.593 Y4.54
X31.584 Y4.532
X31.571
X30.212 Y4.95
X30.202 Y4.957
X30.198 Y4.969
X30.2 Y7.144
G3 X16.421 Y19.196 I-12.195 J-0.04
G2 X16.155 Y19.429 I-0.031 J0.233
G1 Y30.571
G2 X16.421 Y30.804 I0.235 J0
G3 X30.2 Y42.856 I1.619 J12.052
G1 X30.198 Y45.03
X30.194 Y45.042
X30.183 Y45.049
X30.171
X28.811 Y44.54
X28.802 Y44.533
X28.798 Y44.522
X28.8 Y42.856
G2 X15.055 Y32.512 I-10.765 J0
G3 X14.755 Y32.286 I-0.064 J-0.226
G1 Y17.714
G3 X15.055 Y17.488 I0.235 J0
G2 X28.8 Y7.144 I2.955 J-10.378
G1 X28.798 Y5.478
X28.794 Y5.466
X28.784 Y5.459
X28.771 Y5.46
X27.412 Y5.97
X27.402 Y5.977
X27.399 Y5.989
X27.4 Y7.144
G3 X14.787 Y15.971 I-9.398 J-0.005
X14.217 Y15.743 I3.361 J-9.233
G2 X13.647 Y15.515 I-3.931 J9.007
X13.355 Y15.719 I-0.074 J0.205
G1 Y34.281
G2 X13.647 Y34.485 I0.218 J0
X14.217 Y34.257 I-3.361 J-9.234
G3 X14.787 Y34.029 I3.931 J9.006
X27.4 Y42.856 I3.218 J8.827
G1 X27.399 Y44.012
X27.395 Y44.024
X27.384 Y44.031
X27.372
X26.012 Y43.521
X26.003 Y43.514
X25.999 Y43.503
X26 Y42.856
G2 X15.264 Y35.339 I-8 J0
X13.756 Y35.912 I19.786 J54.36
G3 X12.247 Y36.485 I-21.294 J-53.787
X11.955 Y36.28 I-0.074 J-0.205
G1 Y13.72
G3 X12.247 Y13.515 I0.218 J0
X13.756 Y14.088 I-19.786 J54.361
G2 X15.264 Y14.661 I21.294 J-53.788
X26 Y7.144 I2.736 J-7.518
G1 X25.999 Y6.498
X25.995 Y6.486
X25.985 Y6.479
X25.972
X24.613 Y6.988
X24.603 Y6.995
X24.6 Y7.007
Y7.144
G3 X15.743 Y13.346 I-6.6 J0
G1 X10.847 Y11.516
G2 X10.555 Y11.721 I-0.074 J0.205
G1 Y38.279
G2 X10.847 Y38.484 I0.218 J0
X13.295 Y37.569 I-51.898 J-142.588
G3 X15.743 Y36.654 I54.346 J141.673
X24.6 Y42.856 I2.257 J6.202
G1 Y42.993
X24.596 Y43.005
X24.585 Y43.012
X24.573 Y43.011
X23.199 Y42.495
X23.19 Y42.489
X23.186 Y42.478
G2 X16.222 Y37.97 I-5.186 J0.378
G1 X9.447 Y40.483
G3 X9.155 Y40.279 I-0.074 J-0.205
G1 Y9.721
G3 X9.447 Y9.517 I0.218 J0
G1 X16.222 Y12.03
G2 X23.186 Y7.521 I1.778 J-4.886
G1 X23.183 Y7.509
X23.174 Y7.501
X23.162 Y7.5
X21.702 Y7.815
X21.692 Y7.821
X21.686 Y7.831
G3 X16.717 Y10.668 I-3.686 J-0.688
G1 X8.086 Y7.526
G2 X7.75 Y7.761 I-0.086 J0.235
G1 Y42.239
G2 X8.086 Y42.474 I0.25 J0
G1 X16.718 Y39.332
G3 X21.686 Y42.169 I1.282 J3.524
G1 X21.694 Y42.181
X21.708 Y42.185
X21.721 Y42.178
X35.246 Y27.118
X35.251 Y27.104
X35.246 Y27.091
Z-5.95
X35.239 Y27.084
G2 X33.262 Y25.178 I-17.11 J15.772
G3 X33.262 Y24.822 I0.154 J-0.178
G2 X35.239 Y22.901 I-15.348 J-17.777
G1 X35.244 Y22.888
X35.276 Y20.757
X35.269 Y20.742
X35.254 Y20.737
X35.24 Y20.745
G3 X31.035 Y24.811 I-17.306 J-13.69
G2 X31.035 Y25.189 I0.14 J0.189
G3 X35.239 Y29.227 I-12.924 J17.667
G1 X35.244 Y29.239
X35.277 Y31.596
X35.27 Y31.612
X35.254 Y31.616
X35.24 Y31.608
G2 X28.442 Y25.151 I-17.149 J11.249
G3 X28.442 Y24.849 I0.089 J-0.151
G2 X35.24 Y18.355 I-10.488 J-17.784
G1 X35.243 Y18.344
X35.277 Y15.544
X35.27 Y15.529
X35.253 Y15.525
X35.239 Y15.535
G3 X25.236 Y24.879 I-17.267 J-8.459
G1 X25.199 Y24.903
X25.171 Y24.937
X25.157 Y24.978
Y25.022
X25.171 Y25.063
X25.199 Y25.097
X25.236 Y25.121
G3 X35.24 Y34.421 I-7.164 J17.736
G1 X35.242 Y34.43
X35.279 Y38.428
X35.274 Y38.441
X35.262 Y38.448
X35.248 Y38.445
X35.24 Y38.433
G2 X22.08 Y25.576 I-17.182 J4.423
G3 X21.755 Y25.166 I0.097 J-0.411
G1 Y24.834
G3 X22.08 Y24.424 I0.422 J0
G2 X35.24 Y11.519 I-4.094 J-17.337
G1 Y11.511
X34.438 Y5.586
X34.431 Y5.574
X34.417 Y5.569
X34.404 Y5.576
X34.398 Y5.589
X34.4 Y7.144
G3 X20.62 Y23.287 I-16.409 J-0.053
G2 X20.355 Y23.599 I0.051 J0.311
G1 Y26.401
G2 X20.62 Y26.712 I0.315 J0
G3 X34.4 Y42.856 I-2.566 J16.144
G1 X34.398 Y44.411
X34.396 Y44.421
X34.389 Y44.428
X33.028 Y45.336
X33.015 Y45.339
X33.002 Y45.333
X32.997 Y45.319
X33 Y42.856
G2 X19.244 Y27.953 I-14.951 J0
G3 X18.955 Y27.639 I0.026 J-0.314
G1 Y22.361
G3 X19.244 Y22.047 I0.315 J0
G2 X33 Y7.144 I-1.248 J-14.952
G1 X32.997 Y4.681
X32.992 Y4.667
X32.979 Y4.661
X31.619 Y4.531
X31.604 Y4.536
X31.597 Y4.551
X31.6 Y7.144
G3 X17.873 Y20.698 I-13.6 J-0.045
G2 X17.555 Y21.013 I-0.003 J0.315
G1 Y28.987
G2 X17.873 Y29.302 I0.315 J0
G3 X31.6 Y42.856 I0.171 J13.554
G1 X31.597 Y45.45
X31.593 Y45.461
X31.584 Y45.469
X31.571
X30.212 Y45.049
X30.202 Y45.042
X30.198 Y45.03
X30.2 Y42.856
G2 X16.421 Y30.804 I-12.16 J0
G3 X16.155 Y30.571 I-0.031 J-0.233
G1 Y19.429
G3 X16.421 Y19.196 I0.235 J0
G2 X30.2 Y7.144 I1.584 J-12.092
G1 X30.198 Y4.969
X30.194 Y4.957
X30.183 Y4.95
X30.171
X28.811 Y5.459
X28.802 Y5.467
X28.798 Y5.478
X28.8 Y7.144
G3 X15.055 Y17.488 I-10.79 J-0.034
G2 X14.755 Y17.714 I-0.064 J0.226
G1 Y32.286
G2 X15.055 Y32.512 I0.235 J0
G3 X28.8 Y42.856 I2.981 J10.344
G1 X28.798 Y44.522
X28.794 Y44.534
X28.784 Y44.541
X28.771 Y44.54
X27.412 Y44.031
X27.402 Y44.024
X27.399 Y44.012
X27.4 Y42.856
G2 X14.787 Y34.029 I-9.395 J0
X14.217 Y34.257 I3.361 J9.234
G3 X13.647 Y34.485 I-3.931 J-9.006
X13.355 Y34.281 I-0.074 J-0.205
G1 Y15.719
G3 X13.647 Y15.515 I0.218 J0
X14.217 Y15.743 I-3.361 J9.235
G2 X14.787 Y15.971 I3.931 J-9.005
X27.4 Y7.144 I3.214 J-8.831
G1 X27.399 Y5.989
X27.395 Y5.977
X27.384 Y5.969
X27.372 Y5.97
X26.012 Y6.479
X26.003 Y6.486
X25.999 Y6.498
X26 Y7.144
G3 X15.264 Y14.661 I-8 J0
X13.756 Y14.088 I19.786 J-54.361
G2 X12.247 Y13.515 I-21.294 J53.788
X11.955 Y13.72 I-0.074 J0.205
G1 Y36.28
G2 X12.247 Y36.485 I0.218 J0
X13.756 Y35.912 I-19.786 J-54.36
G3 X15.264 Y35.339 I21.294 J53.787
X26 Y42.856 I2.736 J7.518
G1 X25.999 Y43.503
X25.995 Y43.515
X25.985 Y43.522
X25.972 Y43.521
X24.613 Y43.011
X24.603 Y43.004
X24.6 Y42.993
Y42.856
G2 X15.743 Y36.654 I-6.6 J0
X13.295 Y37.569 I51.898 J142.588
G3 X10.847 Y38.484 I-54.346 J-141.673
X10.555 Y38.279 I-0.074 J-0.205
G1 Y11.721
G3 X10.847 Y11.516 I0.218 J0
G1 X15.743 Y13.346
G2 X24.6 Y7.144 I2.257 J-6.202
G1 Y7.007
X24.596 Y6.995
X24.585 Y6.988
X24.573
X23.199 Y7.503
X23.19 Y7.51
X23.186 Y7.521
G3 X16.222 Y12.03 I-5.186 J-0.377
G1 X9.447 Y9.517
G2 X9.155 Y9.721 I-0.074 J0.205
G1 Y40.279
G2 X9.447 Y40.483 I0.218 J0
G1 X16.222 Y37.97
G3 X23.186 Y42.478 I1.778 J4.886
G1 X23.183 Y42.49
X23.174 Y42.498
X23.162 Y42.499
X21.702 Y42.185
X21.692 Y42.179
X21.686 Y42.169
G2 X16.718 Y39.332 I-3.686 J0.688
G1 X8.086 Y42.474
G3 X7.75 Y42.239 I-0.086 J-0.235
G1 Y7.761
G3 X8.086 Y7.526 I0.25 J0
G1 X16.717 Y10.668
G2 X21.686 Y7.831 I1.283 J-3.524
G1 X21.916 Y6.603
Z10
(When using Fusion 360 for Personal Use, the feedrate of)
(rapid moves is reduced to match the feedrate of cutting)
(moves, which can increase machining time. Unrestricted rapid)
(moves are available with a Fusion 360 Subscription.)

(2D Contour2 2)
G0 X21.45 Y42.856
G1 Z10 F1000
Z5
Z3.06 F333.3
Z-1.983
G2 X16.82 Y39.614 I-3.45 J0 F1000
G1 X8.188 Y42.756
G3 X7.45 Y42.239 I-0.188 J-0.517
G1 Y7.761
G3 X8.188 Y7.244 I0.55 J0
G1 X16.82 Y10.386
G2 X21.45 Y7.144 I1.18 J-3.242
G1 Z5
Y42.856
Z1.077 F333.3
Z-3.967
G2 X16.82 Y39.614 I-3.45 J0 F1000
G1 X8.188 Y42.756
G3 X7.45 Y42.239 I-0.188 J-0.517
G1 Y7.761
G3 X8.188 Y7.244 I0.55 J0
G1 X16.82 Y10.386
G2 X21.45 Y7.144 I1.18 J-3.242
G1 Z5
Y42.856
Z-0.907 F333.3
Z-5.95
G2 X16.82 Y39.614 I-3.45 J0 F1000
G1 X8.188 Y42.756
G3 X7.45 Y42.239 I-0.188 J-0.517
G1 Y7.761
G3 X8.188 Y7.244 I0.55 J0
G1 X16.82 Y10.386
G2 X21.45 Y7.144 I1.18 J-3.242
G1 Z5
X21.25 Y42.856
Z-0.907 F333.3
Z-5.95
G2 X16.889 Y39.802 I-3.25 J0 F1000
G1 X8.257 Y42.944
G3 X7.25 Y42.239 I-0.257 J-0.705
G1 Y7.761
G3 X8.257 Y7.056 I0.75 J0
G1 X16.888 Y10.198
G2 X21.25 Y7.144 I1.112 J-3.054
G1 Z10
(When using Fusion 360 for Personal Use, the feedrate of)
(rapid moves is reduced to match the feedrate of cutting)
(moves, which can increase machining time. Unrestricted rapid)
(moves are available with a Fusion 360 Subscription.)

(2D Contour3 2)
G0 X-1.45 Y0
G1 Z10 F1000
Z5
Z2.05 F333.3
Z-1.025
Y50 F1000
G2 X0 Y51.45 I1.45 J0
G1 X20
G2 X21.45 Y50 I0 J-1.45
G1 Y42.856
G3 X22.188 Y42.339 I0.55 J0
G1 X30.82 Y45.481
G2 X35.45 Y42.239 I1.18 J-3.242
G1 Y7.761
G2 X30.82 Y4.519 I-3.45 J0
G1 X22.188 Y7.661
G3 X21.45 Y7.144 I-0.188 J-0.517
G1 Y0
G2 X20 Y-1.45 I-1.45 J0
G1 X0
G2 X-1.45 Y0 I0 J1.45
G1 Z-2.05 F333.3
Y50 F1000
G2 X0 Y51.45 I1.45 J0
G1 X20
G2 X21.45 Y50 I0 J-1.45
G1 Y42.856
G3 X22.188 Y42.339 I0.55 J0
G1 X30.82 Y45.481
G2 X35.45 Y42.239 I1.18 J-3.242
G1 Y7.761
G2 X30.82 Y4.519 I-3.45 J0
G1 X22.188 Y7.661
G3 X21.45 Y7.144 I-0.188 J-0.517
G1 Y0
G2 X20 Y-1.45 I-1.45 J0
G1 X0
G2 X-1.45 Y0 I0 J1.45
G1 Z-3.075 F333.3
Y50 F1000
G2 X0 Y51.45 I1.45 J0
G1 X20
G2 X21.45 Y50 I0 J-1.45
G1 Y42.856
G3 X22.188 Y42.339 I0.55 J0
G1 X30.82 Y45.481
G2 X35.45 Y42.239 I1.18 J-3.242
G1 Y7.761
G2 X30.82 Y4.519 I-3.45 J0
G1 X22.188 Y7.661
G3 X21.45 Y7.144 I-0.188 J-0.517
G1 Y0
G2 X20 Y-1.45 I-1.45 J0
G1 X0
G2 X-1.45 Y0 I0 J1.45
G1 Z-4.1 F333.3
Y50 F1000
G2 X0 Y51.45 I1.45 J0
G1 X20
G2 X21.45 Y50 I0 J-1.45
G1 Y42.856
G3 X22.188 Y42.339 I0.55 J0
G1 X30.82 Y45.481
G2 X35.45 Y42.239 I1.18 J-3.242
G1 Y7.761
G2 X30.82 Y4.519 I-3.45 J0
G1 X22.188 Y7.661
G3 X21.45 Y7.144 I-0.188 J-0.517
G1 Y0
G2 X20 Y-1.45 I-1.45 J0
G1 X0
G2 X-1.45 Y0 I0 J1.45
G1 Z-5.125 F333.3
Y50 F1000
G2 X0 Y51.45 I1.45 J0
G1 X20
G2 X21.45 Y50 I0 J-1.45
G1 Y42.856
G3 X22.188 Y42.339 I0.55 J0
G1 X30.82 Y45.481
G2 X35.45 Y42.239 I1.18 J-3.242
G1 Y7.761
G2 X30.82 Y4.519 I-3.45 J0
G1 X22.188 Y7.661
G3 X21.45 Y7.144 I-0.188 J-0.517
G1 Y0
G2 X20 Y-1.45 I-1.45 J0
G1 X0
G2 X-1.45 Y0 I0 J1.45
G1 Z-6.15 F333.3
Y50 F1000
G2 X0 Y51.45 I1.45 J0
G1 X20
G2 X21.45 Y50 I0 J-1.45
G1 Y42.856
G3 X22.188 Y42.339 I0.55 J0
G1 X30.82 Y45.481
G2 X35.45 Y42.239 I1.18 J-3.242
G1 Y7.761
G2 X30.82 Y4.519 I-3.45 J0
G1 X22.188 Y7.661
G3 X21.45 Y7.144 I-0.188 J-0.517
G1 Y0
G2 X20 Y-1.45 I-1.45 J0
G1 X0
G2 X-1.45 Y0 I0 J1.45
G1 Z-7.175 F333.3
Y50 F1000
G2 X0 Y51.45 I1.45 J0
G1 X20
G2 X21.45 Y50 I0 J-1.45
G1 Y42.856
G3 X22.188 Y42.339 I0.55 J0
G1 X30.82 Y45.481
G2 X35.45 Y42.239 I1.18 J-3.242
G1 Y7.761
G2 X30.82 Y4.519 I-3.45 J0
G1 X22.188 Y7.661
G3 X21.45 Y7.144 I-0.188 J-0.517
G1 Y0
G2 X20 Y-1.45 I-1.45 J0
G1 X0
G2 X-1.45 Y0 I0 J1.45
G1 Z-8.2 F333.3
Y50 F1000
G2 X0 Y51.45 I1.45 J0
G1 X20
G2 X21.45 Y50 I0 J-1.45
G1 Y42.856
G3 X22.188 Y42.339 I0.55 J0
G1 X30.82 Y45.481
G2 X35.45 Y42.239 I1.18 J-3.242
G1 Y7.761
G2 X30.82 Y4.519 I-3.45 J0
G1 X22.188 Y7.661
G3 X21.45 Y7.144 I-0.188 J-0.517
G1 Y0
G2 X20 Y-1.45 I-1.45 J0
G1 X0
G2 X-1.45 Y0 I0 J1.45
G1 Z-9.225 F333.3
Y21.188 F1000
Z-8.8
Y26.688
Z-9.225 F333.3
Y50 F1000
G2 X0 Y51.45 I1.45 J0
G1 X8.123
Z-8.8
X13.623
Z-9.225 F333.3
X20 F1000
G2 X21.45 Y50 I0 J-1.45
G1 Y42.856
G3 X22.188 Y42.339 I0.55 J0
G1 X30.82 Y45.481
G2 X35.45 Y42.239 I1.18 J-3.242
G1 Y27.655
Z-8.8
Y22.155
Z-9.225 F333.3
Y7.761 F1000
G2 X30.82 Y4.519 I-3.45 J0
G1 X22.188 Y7.661
G3 X21.45 Y7.144 I-0.188 J-0.517
G1 Y0
G2 X20 Y-1.45 I-1.45 J0
G1 X12.231
Z-8.8
X6.731
Z-9.225 F333.3
X0 F1000
G2 X-1.45 Y0 I0 J1.45
G1 Z-10.25 F333.3
Y21.188 F1000
Z-8.8
Y26.688
Z-10.25 F333.3
Y50 F1000
G2 X0 Y51.45 I1.45 J0
G1 X8.123
Z-8.8
X13.623
Z-10.25 F333.3
X20 F1000
G2 X21.45 Y50 I0 J-1.45
G1 Y42.856
G3 X22.188 Y42.339 I0.55 J0
G1 X30.82 Y45.481
G2 X35.45 Y42.239 I1.18 J-3.242
G1 Y27.655
Z-8.8
Y22.155
Z-10.25 F333.3
Y7.761 F1000
G2 X30.82 Y4.519 I-3.45 J0
G1 X22.188 Y7.661
G3 X21.45 Y7.144 I-0.188 J-0.517
G1 Y0
G2 X20 Y-1.45 I-1.45 J0
G1 X12.231
Z-8.8
X6.731
Z-10.25 F333.3
X0 F1000
G2 X-1.45 Y0 I0 J1.45
G1 Z-11.275 F333.3
Y21.188 F1000
Z-8.8
Y26.688
Z-11.275 F333.3
Y50 F1000
G2 X0 Y51.45 I1.45 J0
G1 X8.123
Z-8.8
X13.623
Z-11.275 F333.3
X20 F1000
G2 X21.45 Y50 I0 J-1.45
G1 Y42.856
G3 X22.188 Y42.339 I0.55 J0
G1 X30.82 Y45.481
G2 X35.45 Y42.239 I1.18 J-3.242
G1 Y27.655
Z-8.8
Y22.155
Z-11.275 F333.3
Y7.761 F1000
G2 X30.82 Y4.519 I-3.45 J0
G1 X22.188 Y7.661
G3 X21.45 Y7.144 I-0.188 J-0.517
G1 Y0
G2 X20 Y-1.45 I-1.45 J0
G1 X12.231
Z-8.8
X6.731
Z-11.275 F333.3
X0 F1000
G2 X-1.45 Y0 I0 J1.45
G1 Z-12.3 F333.3
Y21.188 F1000
Z-8.8
Y26.688
Z-12.3 F333.3
Y50 F1000
G2 X0 Y51.45 I1.45 J0
G1 X8.123
Z-8.8
X13.623
Z-12.3 F333.3
X20 F1000
G2 X21.45 Y50 I0 J-1.45
G1 Y42.856
G3 X22.188 Y42.339 I0.55 J0
G1 X30.82 Y45.481
G2 X35.45 Y42.239 I1.18 J-3.242
G1 Y27.655
Z-8.8
Y22.155
Z-12.3 F333.3
Y7.761 F1000
G2 X30.82 Y4.519 I-3.45 J0
G1 X22.188 Y7.661
G3 X21.45 Y7.144 I-0.188 J-0.517
G1 Y0
G2 X20 Y-1.45 I-1.45 J0
G1 X12.231
Z-8.8
X6.731
Z-12.3 F333.3
X0 F1000
G2 X-1.45 Y0 I0 J1.45
G1 X-1.443 Y0.047
X-1.423 Y0.09
X-1.391 Y0.125
X-1.35 Y0.15
X-1.309 Y0.175
X-1.277 Y0.21
X-1.257 Y0.253
X-1.25 Y0.3
Y21.188
Z-8.8
Y26.688
Z-12.3 F333.3
Y50 F1000
G2 X0 Y51.25 I1.25 J0
G1 X8.123
Z-8.8
X13.623
Z-12.3 F333.3
X20 F1000
G2 X21.25 Y50 I0 J-1.25
G1 Y42.856
G3 X22.256 Y42.152 I0.75 J0
G1 X30.888 Y45.293
G2 X35.25 Y42.239 I1.112 J-3.054
G1 Y27.655
Z-8.8
Y22.155
Z-12.3 F333.3
Y7.761 F1000
G2 X30.888 Y4.707 I-3.25 J0
G1 X22.256 Y7.848
G3 X21.25 Y7.144 I-0.256 J-0.705
G1 Y0
G2 X20 Y-1.25 I-1.25 J0
G1 X12.231
Z-8.8
X6.731
Z-12.3 F333.3
X0 F1000
G2 X-1.25 Y0 I0 J1.25
G1 Y0.3
Z10
M5
M30
