(1091_wall_25bit_1mm_stepdown)
(T1  D=2.5 CR=0 - ZMIN=-13.3 - flat end mill)
G90 G94
G17
G21
(When using Fusion 360 for Personal Use, the feedrate of)
(rapid moves is reduced to match the feedrate of cutting)
(moves, which can increase machining time. Unrestricted rapid)
(moves are available with a Fusion 360 Subscription.)

(2D Pocket tabs)
T1
S5000 M3
G54
G0 X-1.246 Y32.909
Z10
G1 Z5 F1000
Z2.07 F333.3
Z-0.992 F1000
X-1.239 Y32.916
G2 X0.738 Y34.822 I17.11 J-15.772
G3 X0.738 Y35.178 I-0.154 J0.178
G2 X-1.239 Y37.099 I15.348 J17.777
G1 X-1.244 Y37.112
X-1.276 Y39.243
X-1.269 Y39.258
X-1.254 Y39.263
X-1.24 Y39.255
G3 X2.965 Y35.189 I17.306 J13.69
G2 X2.965 Y34.811 I-0.14 J-0.189
G3 X-1.239 Y30.773 I12.924 J-17.667
G1 X-1.244 Y30.761
X-1.277 Y28.404
X-1.27 Y28.388
X-1.254 Y28.384
X-1.24 Y28.392
G2 X5.558 Y34.849 I17.149 J-11.249
G3 X5.558 Y35.151 I-0.089 J0.151
G2 X-1.24 Y41.645 I10.488 J17.784
G1 X-1.243 Y41.656
X-1.277 Y44.456
X-1.27 Y44.471
X-1.253 Y44.475
X-1.239 Y44.465
G3 X8.764 Y35.121 I17.267 J8.459
G1 X8.801 Y35.097
X8.829 Y35.063
X8.843 Y35.022
Y34.978
X8.829 Y34.937
X8.801 Y34.903
X8.764 Y34.879
G3 X-1.24 Y25.579 I7.164 J-17.736
G1 X-1.242 Y25.57
X-1.279 Y21.572
X-1.274 Y21.559
X-1.262 Y21.552
X-1.248 Y21.555
X-1.24 Y21.567
G2 X11.92 Y34.424 I17.182 J-4.423
G3 X12.221 Y34.694 I-0.097 J0.411
G1 X12.222 Y34.7
Y35.3
X12.221 Y35.307
G3 X11.92 Y35.576 I-0.398 J-0.141
G2 X-1.24 Y48.481 I4.094 J17.337
G1 Y48.489
X-0.438 Y54.414
X-0.431 Y54.426
X-0.417 Y54.431
X-0.404 Y54.425
X-0.398 Y54.411
X-0.4 Y52.856
G3 X13.38 Y36.712 I16.409 J0.053
G1 X13.405 Y36.707
X15.022 Y36.453
X15.038 Y36.457
X15.045 Y36.472
Y37.639
G3 X14.756 Y37.953 I-0.315 J0
G2 X1 Y52.856 I1.248 J14.952
G1 X1.003 Y55.319
Y55.329
Z5
X13.414 Y33.295
Z2.07 F333.3
Z-0.992 F1000
X13.404 Y33.292
X13.38 Y33.288
G3 X-0.4 Y17.144 I2.566 J-16.144
G1 X-0.398 Y15.589
X-0.396 Y15.579
X-0.389 Y15.572
X0.972 Y14.664
X0.985 Y14.661
X0.998 Y14.667
X1.003 Y14.681
X1 Y17.144
G2 X14.756 Y32.047 I14.951 J0
G3 X15.045 Y32.361 I-0.026 J0.314
G1 Y33.527
Y33.537
Z5
X2.403 Y14.541
Z2.07 F333.3
Z-0.992 F1000
Y14.55
X2.4 Y17.144
G2 X16.127 Y30.698 I13.555 J0
G3 X16.445 Y31.013 I0.003 J0.315
G1 Y38.987
G3 X16.127 Y39.302 I-0.315 J0
G2 X2.4 Y52.856 I-0.127 J13.599
G1 X2.403 Y55.449
X2.407 Y55.461
X2.416 Y55.468
X2.429
X3.788 Y55.05
X3.798 Y55.043
X3.802 Y55.031
X3.8 Y52.856
G3 X17.579 Y40.804 I12.195 J0.04
G2 X17.845 Y40.571 I0.031 J-0.233
G1 Y29.429
G2 X17.579 Y29.196 I-0.235 J0
G3 X3.8 Y17.144 I-1.619 J-12.052
G1 X3.802 Y14.97
X3.806 Y14.958
X3.817 Y14.951
X3.829
X5.189 Y15.46
X5.198 Y15.467
X5.202 Y15.478
X5.2 Y17.144
G2 X18.945 Y27.488 I10.765 J0
G3 X19.245 Y27.714 I0.064 J0.226
G1 Y42.286
G3 X18.945 Y42.512 I-0.235 J0
G2 X5.2 Y52.856 I-2.955 J10.378
G1 X5.202 Y54.522
X5.206 Y54.534
X5.216 Y54.541
X5.229
X6.588 Y54.03
X6.598 Y54.023
X6.601 Y54.011
X6.6 Y52.856
G3 X19.213 Y44.029 I9.398 J0.005
X19.783 Y44.257 I-3.359 J9.229
G2 X20.353 Y44.485 I3.932 J-9.008
X20.645 Y44.281 I0.074 J-0.205
G1 Y25.719
G2 X20.353 Y25.515 I-0.218 J0
X19.783 Y25.743 I3.361 J9.234
G3 X19.213 Y25.971 I-3.931 J-9.006
X6.6 Y17.144 I-3.218 J-8.827
G1 X6.601 Y15.988
X6.605 Y15.976
X6.616 Y15.969
X6.628
X7.988 Y16.479
X7.997 Y16.486
X8.001 Y16.497
X8 Y17.144
G2 X18.736 Y24.661 I8 J0
X20.244 Y24.088 I-19.786 J-54.36
G3 X21.753 Y23.515 I21.294 J53.788
X22.045 Y23.72 I0.074 J0.205
G1 Y46.28
G3 X21.753 Y46.485 I-0.218 J0
X20.244 Y45.912 I19.787 J-54.365
G2 X18.736 Y45.339 I-21.263 J53.705
X8 Y52.856 I-2.736 J7.518
G1 X8.001 Y53.502
X8.005 Y53.514
X8.015 Y53.521
X8.028
X9.387 Y53.012
X9.397 Y53.005
X9.4 Y52.993
Y52.856
G3 X18.257 Y46.654 I6.6 J0
G1 X23.153 Y48.484
G2 X23.445 Y48.279 I0.074 J-0.205
G1 Y21.721
G2 X23.153 Y21.516 I-0.218 J0
X20.705 Y22.431 I51.898 J142.588
G3 X18.257 Y23.346 I-54.346 J-141.673
X9.4 Y17.144 I-2.257 J-6.202
G1 Y17.006
X9.404 Y16.994
X9.415 Y16.987
X9.427
X10.801 Y17.505
X10.81 Y17.511
X10.814 Y17.522
G2 X17.778 Y22.03 I5.186 J-0.378
G1 X24.553 Y19.517
G3 X24.845 Y19.721 I0.074 J0.205
G1 Y50.279
G3 X24.553 Y50.483 I-0.218 J0
G1 X17.778 Y47.97
G2 X10.814 Y52.479 I-1.778 J4.886
G1 X10.817 Y52.491
X10.826 Y52.499
X10.838 Y52.5
X12.298 Y52.185
X12.308 Y52.179
X12.314 Y52.169
G3 X17.283 Y49.332 I3.686 J0.688
G1 X25.915 Y52.474
G2 X26.25 Y52.239 I0.085 J-0.235
G1 Y17.761
G2 X25.915 Y17.526 I-0.25 J0
G1 X17.282 Y20.668
G3 X12.314 Y17.831 I-1.282 J-3.524
G1 X12.306 Y17.819
X12.292 Y17.815
X12.279 Y17.822
X-1.246 Y32.882
X-1.251 Y32.896
X-1.246 Y32.909
Z-1.983
X-1.239 Y32.916
G2 X0.738 Y34.822 I17.11 J-15.772
G3 X0.738 Y35.178 I-0.154 J0.178
G2 X-1.239 Y37.099 I15.348 J17.777
G1 X-1.244 Y37.112
X-1.276 Y39.243
X-1.269 Y39.258
X-1.254 Y39.263
X-1.24 Y39.255
G3 X2.965 Y35.189 I17.306 J13.69
G2 X2.965 Y34.811 I-0.14 J-0.189
G3 X-1.239 Y30.773 I12.924 J-17.667
G1 X-1.244 Y30.761
X-1.277 Y28.404
X-1.27 Y28.388
X-1.254 Y28.384
X-1.24 Y28.392
G2 X5.558 Y34.849 I17.149 J-11.249
G3 X5.558 Y35.151 I-0.089 J0.151
G2 X-1.24 Y41.645 I10.488 J17.784
G1 X-1.243 Y41.656
X-1.277 Y44.456
X-1.27 Y44.471
X-1.253 Y44.475
X-1.239 Y44.465
G3 X8.764 Y35.121 I17.267 J8.459
G1 X8.801 Y35.097
X8.829 Y35.063
X8.843 Y35.022
Y34.978
X8.829 Y34.937
X8.801 Y34.903
X8.764 Y34.879
G3 X-1.24 Y25.579 I7.164 J-17.736
G1 X-1.242 Y25.57
X-1.279 Y21.572
X-1.274 Y21.559
X-1.262 Y21.552
X-1.248 Y21.555
X-1.24 Y21.567
G2 X11.92 Y34.424 I17.182 J-4.423
G3 X12.221 Y34.694 I-0.097 J0.411
G1 X12.222 Y34.7
Y35.3
X12.221 Y35.307
G3 X11.92 Y35.576 I-0.398 J-0.141
G2 X-1.24 Y48.481 I4.094 J17.337
G1 Y48.489
X-0.438 Y54.414
X-0.431 Y54.426
X-0.417 Y54.431
X-0.404 Y54.425
X-0.398 Y54.411
X-0.4 Y52.856
G3 X13.38 Y36.712 I16.409 J0.053
G1 X13.405 Y36.707
X15.022 Y36.453
X15.038 Y36.457
X15.045 Y36.472
Y37.639
G3 X14.756 Y37.953 I-0.315 J0
G2 X1 Y52.856 I1.248 J14.952
G1 X1.003 Y55.319
Y55.329
Z1.078
X13.414 Y33.295
Z-1.983
X13.404 Y33.292
X13.38 Y33.288
G3 X-0.4 Y17.144 I2.566 J-16.144
G1 X-0.398 Y15.589
X-0.396 Y15.579
X-0.389 Y15.572
X0.972 Y14.664
X0.985 Y14.661
X0.998 Y14.667
X1.003 Y14.681
X1 Y17.144
G2 X14.756 Y32.047 I14.951 J0
G3 X15.045 Y32.361 I-0.026 J0.314
G1 Y33.527
Y33.537
Z1.078
X2.403 Y14.541
Z-1.983
Y14.55
X2.4 Y17.144
G2 X16.127 Y30.698 I13.555 J0
G3 X16.445 Y31.013 I0.003 J0.315
G1 Y38.987
G3 X16.127 Y39.302 I-0.315 J0
G2 X2.4 Y52.856 I-0.127 J13.599
G1 X2.403 Y55.449
X2.407 Y55.461
X2.416 Y55.468
X2.429
X3.788 Y55.05
X3.798 Y55.043
X3.802 Y55.031
X3.8 Y52.856
G3 X17.579 Y40.804 I12.195 J0.04
G2 X17.845 Y40.571 I0.031 J-0.233
G1 Y29.429
G2 X17.579 Y29.196 I-0.235 J0
G3 X3.8 Y17.144 I-1.619 J-12.052
G1 X3.802 Y14.97
X3.806 Y14.958
X3.817 Y14.951
X3.829
X5.189 Y15.46
X5.198 Y15.467
X5.202 Y15.478
X5.2 Y17.144
G2 X18.945 Y27.488 I10.765 J0
G3 X19.245 Y27.714 I0.064 J0.226
G1 Y42.286
G3 X18.945 Y42.512 I-0.235 J0
G2 X5.2 Y52.856 I-2.955 J10.378
G1 X5.202 Y54.522
X5.206 Y54.534
X5.216 Y54.541
X5.229
X6.588 Y54.03
X6.598 Y54.023
X6.601 Y54.011
X6.6 Y52.856
G3 X19.213 Y44.029 I9.398 J0.005
X19.783 Y44.257 I-3.359 J9.229
G2 X20.353 Y44.485 I3.932 J-9.008
X20.645 Y44.281 I0.074 J-0.205
G1 Y25.719
G2 X20.353 Y25.515 I-0.218 J0
X19.783 Y25.743 I3.361 J9.234
G3 X19.213 Y25.971 I-3.931 J-9.006
X6.6 Y17.144 I-3.218 J-8.827
G1 X6.601 Y15.988
X6.605 Y15.976
X6.616 Y15.969
X6.628
X7.988 Y16.479
X7.997 Y16.486
X8.001 Y16.497
X8 Y17.144
G2 X18.736 Y24.661 I8 J0
X20.244 Y24.088 I-19.786 J-54.36
G3 X21.753 Y23.515 I21.294 J53.788
X22.045 Y23.72 I0.074 J0.205
G1 Y46.28
G3 X21.753 Y46.485 I-0.218 J0
X20.244 Y45.912 I19.787 J-54.365
G2 X18.736 Y45.339 I-21.263 J53.705
X8 Y52.856 I-2.736 J7.518
G1 X8.001 Y53.502
X8.005 Y53.514
X8.015 Y53.521
X8.028
X9.387 Y53.012
X9.397 Y53.005
X9.4 Y52.993
Y52.856
G3 X18.257 Y46.654 I6.6 J0
G1 X23.153 Y48.484
G2 X23.445 Y48.279 I0.074 J-0.205
G1 Y21.721
G2 X23.153 Y21.516 I-0.218 J0
X20.705 Y22.431 I51.898 J142.588
G3 X18.257 Y23.346 I-54.346 J-141.673
X9.4 Y17.144 I-2.257 J-6.202
G1 Y17.006
X9.404 Y16.994
X9.415 Y16.987
X9.427
X10.801 Y17.505
X10.81 Y17.511
X10.814 Y17.522
G2 X17.778 Y22.03 I5.186 J-0.378
G1 X24.553 Y19.517
G3 X24.845 Y19.721 I0.074 J0.205
G1 Y50.279
G3 X24.553 Y50.483 I-0.218 J0
G1 X17.778 Y47.97
G2 X10.814 Y52.479 I-1.778 J4.886
G1 X10.817 Y52.491
X10.826 Y52.499
X10.838 Y52.5
X12.298 Y52.185
X12.308 Y52.179
X12.314 Y52.169
G3 X17.283 Y49.332 I3.686 J0.688
G1 X25.915 Y52.474
G2 X26.25 Y52.239 I0.085 J-0.235
G1 Y17.761
G2 X25.915 Y17.526 I-0.25 J0
G1 X17.282 Y20.668
G3 X12.314 Y17.831 I-1.282 J-3.524
G1 X12.306 Y17.819
X12.292 Y17.815
X12.279 Y17.822
X-1.246 Y32.882
X-1.251 Y32.896
X-1.246 Y32.909
Z-2.975
X-1.239 Y32.916
G2 X0.738 Y34.822 I17.11 J-15.772
G3 X0.738 Y35.178 I-0.154 J0.178
G2 X-1.239 Y37.099 I15.348 J17.777
G1 X-1.244 Y37.112
X-1.276 Y39.243
X-1.269 Y39.258
X-1.254 Y39.263
X-1.24 Y39.255
G3 X2.965 Y35.189 I17.306 J13.69
G2 X2.965 Y34.811 I-0.14 J-0.189
G3 X-1.239 Y30.773 I12.924 J-17.667
G1 X-1.244 Y30.761
X-1.277 Y28.404
X-1.27 Y28.388
X-1.254 Y28.384
X-1.24 Y28.392
G2 X5.558 Y34.849 I17.149 J-11.249
G3 X5.558 Y35.151 I-0.089 J0.151
G2 X-1.24 Y41.645 I10.488 J17.784
G1 X-1.243 Y41.656
X-1.277 Y44.456
X-1.27 Y44.471
X-1.253 Y44.475
X-1.239 Y44.465
G3 X8.764 Y35.121 I17.267 J8.459
G1 X8.801 Y35.097
X8.829 Y35.063
X8.843 Y35.022
Y34.978
X8.829 Y34.937
X8.801 Y34.903
X8.764 Y34.879
G3 X-1.24 Y25.579 I7.164 J-17.736
G1 X-1.242 Y25.57
X-1.279 Y21.572
X-1.274 Y21.559
X-1.262 Y21.552
X-1.248 Y21.555
X-1.24 Y21.567
G2 X11.92 Y34.424 I17.182 J-4.423
G3 X12.221 Y34.694 I-0.097 J0.411
G1 X12.222 Y34.7
Y35.3
X12.221 Y35.307
G3 X11.92 Y35.576 I-0.398 J-0.141
G2 X-1.24 Y48.481 I4.094 J17.337
G1 Y48.489
X-0.438 Y54.414
X-0.431 Y54.426
X-0.417 Y54.431
X-0.404 Y54.425
X-0.398 Y54.411
X-0.4 Y52.856
G3 X13.38 Y36.712 I16.409 J0.053
G1 X13.405 Y36.707
X15.022 Y36.453
X15.038 Y36.457
X15.045 Y36.472
Y37.639
G3 X14.756 Y37.953 I-0.315 J0
G2 X1 Y52.856 I1.248 J14.952
G1 X1.003 Y55.319
Y55.329
Z0.087
X13.414 Y33.295
Z-2.975
X13.404 Y33.292
X13.38 Y33.288
G3 X-0.4 Y17.144 I2.566 J-16.144
G1 X-0.398 Y15.589
X-0.396 Y15.579
X-0.389 Y15.572
X0.972 Y14.664
X0.985 Y14.661
X0.998 Y14.667
X1.003 Y14.681
X1 Y17.144
G2 X14.756 Y32.047 I14.951 J0
G3 X15.045 Y32.361 I-0.026 J0.314
G1 Y33.527
Y33.537
Z0.087
X2.403 Y14.541
Z-2.975
Y14.55
X2.4 Y17.144
G2 X16.127 Y30.698 I13.555 J0
G3 X16.445 Y31.013 I0.003 J0.315
G1 Y38.987
G3 X16.127 Y39.302 I-0.315 J0
G2 X2.4 Y52.856 I-0.127 J13.599
G1 X2.403 Y55.449
X2.407 Y55.461
X2.416 Y55.468
X2.429
X3.788 Y55.05
X3.798 Y55.043
X3.802 Y55.031
X3.8 Y52.856
G3 X17.579 Y40.804 I12.195 J0.04
G2 X17.845 Y40.571 I0.031 J-0.233
G1 Y29.429
G2 X17.579 Y29.196 I-0.235 J0
G3 X3.8 Y17.144 I-1.619 J-12.052
G1 X3.802 Y14.97
X3.806 Y14.958
X3.817 Y14.951
X3.829
X5.189 Y15.46
X5.198 Y15.467
X5.202 Y15.478
X5.2 Y17.144
G2 X18.945 Y27.488 I10.765 J0
G3 X19.245 Y27.714 I0.064 J0.226
G1 Y42.286
G3 X18.945 Y42.512 I-0.235 J0
G2 X5.2 Y52.856 I-2.955 J10.378
G1 X5.202 Y54.522
X5.206 Y54.534
X5.216 Y54.541
X5.229
X6.588 Y54.03
X6.598 Y54.023
X6.601 Y54.011
X6.6 Y52.856
G3 X19.213 Y44.029 I9.398 J0.005
X19.783 Y44.257 I-3.359 J9.229
G2 X20.353 Y44.485 I3.932 J-9.008
X20.645 Y44.281 I0.074 J-0.205
G1 Y25.719
G2 X20.353 Y25.515 I-0.218 J0
X19.783 Y25.743 I3.361 J9.234
G3 X19.213 Y25.971 I-3.931 J-9.006
X6.6 Y17.144 I-3.218 J-8.827
G1 X6.601 Y15.988
X6.605 Y15.976
X6.616 Y15.969
X6.628
X7.988 Y16.479
X7.997 Y16.486
X8.001 Y16.497
X8 Y17.144
G2 X18.736 Y24.661 I8 J0
X20.244 Y24.088 I-19.786 J-54.36
G3 X21.753 Y23.515 I21.294 J53.788
X22.045 Y23.72 I0.074 J0.205
G1 Y46.28
G3 X21.753 Y46.485 I-0.218 J0
X20.244 Y45.912 I19.787 J-54.365
G2 X18.736 Y45.339 I-21.263 J53.705
X8 Y52.856 I-2.736 J7.518
G1 X8.001 Y53.502
X8.005 Y53.514
X8.015 Y53.521
X8.028
X9.387 Y53.012
X9.397 Y53.005
X9.4 Y52.993
Y52.856
G3 X18.257 Y46.654 I6.6 J0
G1 X23.153 Y48.484
G2 X23.445 Y48.279 I0.074 J-0.205
G1 Y21.721
G2 X23.153 Y21.516 I-0.218 J0
X20.705 Y22.431 I51.898 J142.588
G3 X18.257 Y23.346 I-54.346 J-141.673
X9.4 Y17.144 I-2.257 J-6.202
G1 Y17.006
X9.404 Y16.994
X9.415 Y16.987
X9.427
X10.801 Y17.505
X10.81 Y17.511
X10.814 Y17.522
G2 X17.778 Y22.03 I5.186 J-0.378
G1 X24.553 Y19.517
G3 X24.845 Y19.721 I0.074 J0.205
G1 Y50.279
G3 X24.553 Y50.483 I-0.218 J0
G1 X17.778 Y47.97
G2 X10.814 Y52.479 I-1.778 J4.886
G1 X10.817 Y52.491
X10.826 Y52.499
X10.838 Y52.5
X12.298 Y52.185
X12.308 Y52.179
X12.314 Y52.169
G3 X17.283 Y49.332 I3.686 J0.688
G1 X25.915 Y52.474
G2 X26.25 Y52.239 I0.085 J-0.235
G1 Y17.761
G2 X25.915 Y17.526 I-0.25 J0
G1 X17.282 Y20.668
G3 X12.314 Y17.831 I-1.282 J-3.524
G1 X12.306 Y17.819
X12.292 Y17.815
X12.279 Y17.822
X-1.246 Y32.882
X-1.251 Y32.896
X-1.246 Y32.909
Z-3.967
X-1.239 Y32.916
G2 X0.738 Y34.822 I17.11 J-15.772
G3 X0.738 Y35.178 I-0.154 J0.178
G2 X-1.239 Y37.099 I15.348 J17.777
G1 X-1.244 Y37.112
X-1.276 Y39.243
X-1.269 Y39.258
X-1.254 Y39.263
X-1.24 Y39.255
G3 X2.965 Y35.189 I17.306 J13.69
G2 X2.965 Y34.811 I-0.14 J-0.189
G3 X-1.239 Y30.773 I12.924 J-17.667
G1 X-1.244 Y30.761
X-1.277 Y28.404
X-1.27 Y28.388
X-1.254 Y28.384
X-1.24 Y28.392
G2 X5.558 Y34.849 I17.149 J-11.249
G3 X5.558 Y35.151 I-0.089 J0.151
G2 X-1.24 Y41.645 I10.488 J17.784
G1 X-1.243 Y41.656
X-1.277 Y44.456
X-1.27 Y44.471
X-1.253 Y44.475
X-1.239 Y44.465
G3 X8.764 Y35.121 I17.267 J8.459
G1 X8.801 Y35.097
X8.829 Y35.063
X8.843 Y35.022
Y34.978
X8.829 Y34.937
X8.801 Y34.903
X8.764 Y34.879
G3 X-1.24 Y25.579 I7.164 J-17.736
G1 X-1.242 Y25.57
X-1.279 Y21.572
X-1.274 Y21.559
X-1.262 Y21.552
X-1.248 Y21.555
X-1.24 Y21.567
G2 X11.92 Y34.424 I17.182 J-4.423
G3 X12.221 Y34.694 I-0.097 J0.411
G1 X12.222 Y34.7
Y35.3
X12.221 Y35.307
G3 X11.92 Y35.576 I-0.398 J-0.141
G2 X-1.24 Y48.481 I4.094 J17.337
G1 Y48.489
X-0.438 Y54.414
X-0.431 Y54.426
X-0.417 Y54.431
X-0.404 Y54.425
X-0.398 Y54.411
X-0.4 Y52.856
G3 X13.38 Y36.712 I16.409 J0.053
G1 X13.405 Y36.707
X15.022 Y36.453
X15.038 Y36.457
X15.045 Y36.472
Y37.639
G3 X14.756 Y37.953 I-0.315 J0
G2 X1 Y52.856 I1.248 J14.952
G1 X1.003 Y55.319
Y55.329
Z-0.905
X13.414 Y33.295
Z-3.967
X13.404 Y33.292
X13.38 Y33.288
G3 X-0.4 Y17.144 I2.566 J-16.144
G1 X-0.398 Y15.589
X-0.396 Y15.579
X-0.389 Y15.572
X0.972 Y14.664
X0.985 Y14.661
X0.998 Y14.667
X1.003 Y14.681
X1 Y17.144
G2 X14.756 Y32.047 I14.951 J0
G3 X15.045 Y32.361 I-0.026 J0.314
G1 Y33.527
Y33.537
Z-0.905
X2.403 Y14.541
Z-3.967
Y14.55
X2.4 Y17.144
G2 X16.127 Y30.698 I13.555 J0
G3 X16.445 Y31.013 I0.003 J0.315
G1 Y38.987
G3 X16.127 Y39.302 I-0.315 J0
G2 X2.4 Y52.856 I-0.127 J13.599
G1 X2.403 Y55.449
X2.407 Y55.461
X2.416 Y55.468
X2.429
X3.788 Y55.05
X3.798 Y55.043
X3.802 Y55.031
X3.8 Y52.856
G3 X17.579 Y40.804 I12.195 J0.04
G2 X17.845 Y40.571 I0.031 J-0.233
G1 Y29.429
G2 X17.579 Y29.196 I-0.235 J0
G3 X3.8 Y17.144 I-1.619 J-12.052
G1 X3.802 Y14.97
X3.806 Y14.958
X3.817 Y14.951
X3.829
X5.189 Y15.46
X5.198 Y15.467
X5.202 Y15.478
X5.2 Y17.144
G2 X18.945 Y27.488 I10.765 J0
G3 X19.245 Y27.714 I0.064 J0.226
G1 Y42.286
G3 X18.945 Y42.512 I-0.235 J0
G2 X5.2 Y52.856 I-2.955 J10.378
G1 X5.202 Y54.522
X5.206 Y54.534
X5.216 Y54.541
X5.229
X6.588 Y54.03
X6.598 Y54.023
X6.601 Y54.011
X6.6 Y52.856
G3 X19.213 Y44.029 I9.398 J0.005
X19.783 Y44.257 I-3.359 J9.229
G2 X20.353 Y44.485 I3.932 J-9.008
X20.645 Y44.281 I0.074 J-0.205
G1 Y25.719
G2 X20.353 Y25.515 I-0.218 J0
X19.783 Y25.743 I3.361 J9.234
G3 X19.213 Y25.971 I-3.931 J-9.006
X6.6 Y17.144 I-3.218 J-8.827
G1 X6.601 Y15.988
X6.605 Y15.976
X6.616 Y15.969
X6.628
X7.988 Y16.479
X7.997 Y16.486
X8.001 Y16.497
X8 Y17.144
G2 X18.736 Y24.661 I8 J0
X20.244 Y24.088 I-19.786 J-54.36
G3 X21.753 Y23.515 I21.294 J53.788
X22.045 Y23.72 I0.074 J0.205
G1 Y46.28
G3 X21.753 Y46.485 I-0.218 J0
X20.244 Y45.912 I19.787 J-54.365
G2 X18.736 Y45.339 I-21.263 J53.705
X8 Y52.856 I-2.736 J7.518
G1 X8.001 Y53.502
X8.005 Y53.514
X8.015 Y53.521
X8.028
X9.387 Y53.012
X9.397 Y53.005
X9.4 Y52.993
Y52.856
G3 X18.257 Y46.654 I6.6 J0
G1 X23.153 Y48.484
G2 X23.445 Y48.279 I0.074 J-0.205
G1 Y21.721
G2 X23.153 Y21.516 I-0.218 J0
X20.705 Y22.431 I51.898 J142.588
G3 X18.257 Y23.346 I-54.346 J-141.673
X9.4 Y17.144 I-2.257 J-6.202
G1 Y17.006
X9.404 Y16.994
X9.415 Y16.987
X9.427
X10.801 Y17.505
X10.81 Y17.511
X10.814 Y17.522
G2 X17.778 Y22.03 I5.186 J-0.378
G1 X24.553 Y19.517
G3 X24.845 Y19.721 I0.074 J0.205
G1 Y50.279
G3 X24.553 Y50.483 I-0.218 J0
G1 X17.778 Y47.97
G2 X10.814 Y52.479 I-1.778 J4.886
G1 X10.817 Y52.491
X10.826 Y52.499
X10.838 Y52.5
X12.298 Y52.185
X12.308 Y52.179
X12.314 Y52.169
G3 X17.283 Y49.332 I3.686 J0.688
G1 X25.915 Y52.474
G2 X26.25 Y52.239 I0.085 J-0.235
G1 Y17.761
G2 X25.915 Y17.526 I-0.25 J0
G1 X17.282 Y20.668
G3 X12.314 Y17.831 I-1.282 J-3.524
G1 X12.306 Y17.819
X12.292 Y17.815
X12.279 Y17.822
X-1.246 Y32.882
X-1.251 Y32.896
X-1.246 Y32.909
Z-4.958
X-1.239 Y32.916
G2 X0.738 Y34.822 I17.11 J-15.772
G3 X0.738 Y35.178 I-0.154 J0.178
G2 X-1.239 Y37.099 I15.348 J17.777
G1 X-1.244 Y37.112
X-1.276 Y39.243
X-1.269 Y39.258
X-1.254 Y39.263
X-1.24 Y39.255
G3 X2.965 Y35.189 I17.306 J13.69
G2 X2.965 Y34.811 I-0.14 J-0.189
G3 X-1.239 Y30.773 I12.924 J-17.667
G1 X-1.244 Y30.761
X-1.277 Y28.404
X-1.27 Y28.388
X-1.254 Y28.384
X-1.24 Y28.392
G2 X5.558 Y34.849 I17.149 J-11.249
G3 X5.558 Y35.151 I-0.089 J0.151
G2 X-1.24 Y41.645 I10.488 J17.784
G1 X-1.243 Y41.656
X-1.277 Y44.456
X-1.27 Y44.471
X-1.253 Y44.475
X-1.239 Y44.465
G3 X8.764 Y35.121 I17.267 J8.459
G1 X8.801 Y35.097
X8.829 Y35.063
X8.843 Y35.022
Y34.978
X8.829 Y34.937
X8.801 Y34.903
X8.764 Y34.879
G3 X-1.24 Y25.579 I7.164 J-17.736
G1 X-1.242 Y25.57
X-1.279 Y21.572
X-1.274 Y21.559
X-1.262 Y21.552
X-1.248 Y21.555
X-1.24 Y21.567
G2 X11.92 Y34.424 I17.182 J-4.423
G3 X12.221 Y34.694 I-0.097 J0.411
G1 X12.222 Y34.7
Y35.3
X12.221 Y35.307
G3 X11.92 Y35.576 I-0.398 J-0.141
G2 X-1.24 Y48.481 I4.094 J17.337
G1 Y48.489
X-0.438 Y54.414
X-0.431 Y54.426
X-0.417 Y54.431
X-0.404 Y54.425
X-0.398 Y54.411
X-0.4 Y52.856
G3 X13.38 Y36.712 I16.409 J0.053
G1 X13.405 Y36.707
X15.022 Y36.453
X15.038 Y36.457
X15.045 Y36.472
Y37.639
G3 X14.756 Y37.953 I-0.315 J0
G2 X1 Y52.856 I1.248 J14.952
G1 X1.003 Y55.319
Y55.329
Z-1.897
X13.414 Y33.295
Z-4.958
X13.404 Y33.292
X13.38 Y33.288
G3 X-0.4 Y17.144 I2.566 J-16.144
G1 X-0.398 Y15.589
X-0.396 Y15.579
X-0.389 Y15.572
X0.972 Y14.664
X0.985 Y14.661
X0.998 Y14.667
X1.003 Y14.681
X1 Y17.144
G2 X14.756 Y32.047 I14.951 J0
G3 X15.045 Y32.361 I-0.026 J0.314
G1 Y33.527
Y33.537
Z-1.897
X2.403 Y14.541
Z-4.958
Y14.55
X2.4 Y17.144
G2 X16.127 Y30.698 I13.555 J0
G3 X16.445 Y31.013 I0.003 J0.315
G1 Y38.987
G3 X16.127 Y39.302 I-0.315 J0
G2 X2.4 Y52.856 I-0.127 J13.599
G1 X2.403 Y55.449
X2.407 Y55.461
X2.416 Y55.468
X2.429
X3.788 Y55.05
X3.798 Y55.043
X3.802 Y55.031
X3.8 Y52.856
G3 X17.579 Y40.804 I12.195 J0.04
G2 X17.845 Y40.571 I0.031 J-0.233
G1 Y29.429
G2 X17.579 Y29.196 I-0.235 J0
G3 X3.8 Y17.144 I-1.619 J-12.052
G1 X3.802 Y14.97
X3.806 Y14.958
X3.817 Y14.951
X3.829
X5.189 Y15.46
X5.198 Y15.467
X5.202 Y15.478
X5.2 Y17.144
G2 X18.945 Y27.488 I10.765 J0
G3 X19.245 Y27.714 I0.064 J0.226
G1 Y42.286
G3 X18.945 Y42.512 I-0.235 J0
G2 X5.2 Y52.856 I-2.955 J10.378
G1 X5.202 Y54.522
X5.206 Y54.534
X5.216 Y54.541
X5.229
X6.588 Y54.03
X6.598 Y54.023
X6.601 Y54.011
X6.6 Y52.856
G3 X19.213 Y44.029 I9.398 J0.005
X19.783 Y44.257 I-3.359 J9.229
G2 X20.353 Y44.485 I3.932 J-9.008
X20.645 Y44.281 I0.074 J-0.205
G1 Y25.719
G2 X20.353 Y25.515 I-0.218 J0
X19.783 Y25.743 I3.361 J9.234
G3 X19.213 Y25.971 I-3.931 J-9.006
X6.6 Y17.144 I-3.218 J-8.827
G1 X6.601 Y15.988
X6.605 Y15.976
X6.616 Y15.969
X6.628
X7.988 Y16.479
X7.997 Y16.486
X8.001 Y16.497
X8 Y17.144
G2 X18.736 Y24.661 I8 J0
X20.244 Y24.088 I-19.786 J-54.36
G3 X21.753 Y23.515 I21.294 J53.788
X22.045 Y23.72 I0.074 J0.205
G1 Y46.28
G3 X21.753 Y46.485 I-0.218 J0
X20.244 Y45.912 I19.787 J-54.365
G2 X18.736 Y45.339 I-21.263 J53.705
X8 Y52.856 I-2.736 J7.518
G1 X8.001 Y53.502
X8.005 Y53.514
X8.015 Y53.521
X8.028
X9.387 Y53.012
X9.397 Y53.005
X9.4 Y52.993
Y52.856
G3 X18.257 Y46.654 I6.6 J0
G1 X23.153 Y48.484
G2 X23.445 Y48.279 I0.074 J-0.205
G1 Y21.721
G2 X23.153 Y21.516 I-0.218 J0
X20.705 Y22.431 I51.898 J142.588
G3 X18.257 Y23.346 I-54.346 J-141.673
X9.4 Y17.144 I-2.257 J-6.202
G1 Y17.006
X9.404 Y16.994
X9.415 Y16.987
X9.427
X10.801 Y17.505
X10.81 Y17.511
X10.814 Y17.522
G2 X17.778 Y22.03 I5.186 J-0.378
G1 X24.553 Y19.517
G3 X24.845 Y19.721 I0.074 J0.205
G1 Y50.279
G3 X24.553 Y50.483 I-0.218 J0
G1 X17.778 Y47.97
G2 X10.814 Y52.479 I-1.778 J4.886
G1 X10.817 Y52.491
X10.826 Y52.499
X10.838 Y52.5
X12.298 Y52.185
X12.308 Y52.179
X12.314 Y52.169
G3 X17.283 Y49.332 I3.686 J0.688
G1 X25.915 Y52.474
G2 X26.25 Y52.239 I0.085 J-0.235
G1 Y17.761
G2 X25.915 Y17.526 I-0.25 J0
G1 X17.282 Y20.668
G3 X12.314 Y17.831 I-1.282 J-3.524
G1 X12.306 Y17.819
X12.292 Y17.815
X12.279 Y17.822
X-1.246 Y32.882
X-1.251 Y32.896
X-1.246 Y32.909
Z-5.95
X-1.239 Y32.916
G2 X0.738 Y34.822 I17.11 J-15.772
G3 X0.738 Y35.178 I-0.154 J0.178
G2 X-1.239 Y37.099 I15.348 J17.777
G1 X-1.244 Y37.112
X-1.276 Y39.243
X-1.269 Y39.258
X-1.254 Y39.263
X-1.24 Y39.255
G3 X2.965 Y35.189 I17.306 J13.69
G2 X2.965 Y34.811 I-0.14 J-0.189
G3 X-1.239 Y30.773 I12.924 J-17.667
G1 X-1.244 Y30.761
X-1.277 Y28.404
X-1.27 Y28.388
X-1.254 Y28.384
X-1.24 Y28.392
G2 X5.558 Y34.849 I17.149 J-11.249
G3 X5.558 Y35.151 I-0.089 J0.151
G2 X-1.24 Y41.645 I10.488 J17.784
G1 X-1.243 Y41.656
X-1.277 Y44.456
X-1.27 Y44.471
X-1.253 Y44.475
X-1.239 Y44.465
G3 X8.764 Y35.121 I17.267 J8.459
G1 X8.801 Y35.097
X8.829 Y35.063
X8.843 Y35.022
Y34.978
X8.829 Y34.937
X8.801 Y34.903
X8.764 Y34.879
G3 X-1.24 Y25.579 I7.164 J-17.736
G1 X-1.242 Y25.57
X-1.279 Y21.572
X-1.274 Y21.559
X-1.262 Y21.552
X-1.248 Y21.555
X-1.24 Y21.567
G2 X11.92 Y34.424 I17.182 J-4.423
G3 X12.221 Y34.694 I-0.097 J0.411
G1 X12.222 Y34.7
Y35.3
X12.221 Y35.307
G3 X11.92 Y35.576 I-0.398 J-0.141
G2 X-1.24 Y48.481 I4.094 J17.337
G1 Y48.489
X-0.438 Y54.414
X-0.431 Y54.426
X-0.417 Y54.431
X-0.404 Y54.425
X-0.398 Y54.411
X-0.4 Y52.856
G3 X13.38 Y36.712 I16.409 J0.053
G1 X13.405 Y36.707
X15.022 Y36.453
X15.038 Y36.457
X15.045 Y36.472
Y37.639
G3 X14.756 Y37.953 I-0.315 J0
G2 X1 Y52.856 I1.248 J14.952
G1 X1.003 Y55.319
Y55.329
Z-2.888
X13.414 Y33.295
Z-5.95
X13.404 Y33.292
X13.38 Y33.288
G3 X-0.4 Y17.144 I2.566 J-16.144
G1 X-0.398 Y15.589
X-0.396 Y15.579
X-0.389 Y15.572
X0.972 Y14.664
X0.985 Y14.661
X0.998 Y14.667
X1.003 Y14.681
X1 Y17.144
G2 X14.756 Y32.047 I14.951 J0
G3 X15.045 Y32.361 I-0.026 J0.314
G1 Y33.527
Y33.537
Z-2.888
X2.403 Y14.541
Z-5.95
Y14.55
X2.4 Y17.144
G2 X16.127 Y30.698 I13.555 J0
G3 X16.445 Y31.013 I0.003 J0.315
G1 Y38.987
G3 X16.127 Y39.302 I-0.315 J0
G2 X2.4 Y52.856 I-0.127 J13.599
G1 X2.403 Y55.449
X2.407 Y55.461
X2.416 Y55.468
X2.429
X3.788 Y55.05
X3.798 Y55.043
X3.802 Y55.031
X3.8 Y52.856
G3 X17.579 Y40.804 I12.195 J0.04
G2 X17.845 Y40.571 I0.031 J-0.233
G1 Y29.429
G2 X17.579 Y29.196 I-0.235 J0
G3 X3.8 Y17.144 I-1.619 J-12.052
G1 X3.802 Y14.97
X3.806 Y14.958
X3.817 Y14.951
X3.829
X5.189 Y15.46
X5.198 Y15.467
X5.202 Y15.478
X5.2 Y17.144
G2 X18.945 Y27.488 I10.765 J0
G3 X19.245 Y27.714 I0.064 J0.226
G1 Y42.286
G3 X18.945 Y42.512 I-0.235 J0
G2 X5.2 Y52.856 I-2.955 J10.378
G1 X5.202 Y54.522
X5.206 Y54.534
X5.216 Y54.541
X5.229
X6.588 Y54.03
X6.598 Y54.023
X6.601 Y54.011
X6.6 Y52.856
G3 X19.213 Y44.029 I9.398 J0.005
X19.783 Y44.257 I-3.359 J9.229
G2 X20.353 Y44.485 I3.932 J-9.008
X20.645 Y44.281 I0.074 J-0.205
G1 Y25.719
G2 X20.353 Y25.515 I-0.218 J0
X19.783 Y25.743 I3.361 J9.234
G3 X19.213 Y25.971 I-3.931 J-9.006
X6.6 Y17.144 I-3.218 J-8.827
G1 X6.601 Y15.988
X6.605 Y15.976
X6.616 Y15.969
X6.628
X7.988 Y16.479
X7.997 Y16.486
X8.001 Y16.497
X8 Y17.144
G2 X18.736 Y24.661 I8 J0
X20.244 Y24.088 I-19.786 J-54.36
G3 X21.753 Y23.515 I21.294 J53.788
X22.045 Y23.72 I0.074 J0.205
G1 Y46.28
G3 X21.753 Y46.485 I-0.218 J0
X20.244 Y45.912 I19.787 J-54.365
G2 X18.736 Y45.339 I-21.263 J53.705
X8 Y52.856 I-2.736 J7.518
G1 X8.001 Y53.502
X8.005 Y53.514
X8.015 Y53.521
X8.028
X9.387 Y53.012
X9.397 Y53.005
X9.4 Y52.993
Y52.856
G3 X18.257 Y46.654 I6.6 J0
G1 X23.153 Y48.484
G2 X23.445 Y48.279 I0.074 J-0.205
G1 Y21.721
G2 X23.153 Y21.516 I-0.218 J0
X20.705 Y22.431 I51.898 J142.588
G3 X18.257 Y23.346 I-54.346 J-141.673
X9.4 Y17.144 I-2.257 J-6.202
G1 Y17.006
X9.404 Y16.994
X9.415 Y16.987
X9.427
X10.801 Y17.505
X10.81 Y17.511
X10.814 Y17.522
G2 X17.778 Y22.03 I5.186 J-0.378
G1 X24.553 Y19.517
G3 X24.845 Y19.721 I0.074 J0.205
G1 Y50.279
G3 X24.553 Y50.483 I-0.218 J0
G1 X17.778 Y47.97
G2 X10.814 Y52.479 I-1.778 J4.886
G1 X10.817 Y52.491
X10.826 Y52.499
X10.838 Y52.5
X12.298 Y52.185
X12.308 Y52.179
X12.314 Y52.169
G3 X17.283 Y49.332 I3.686 J0.688
G1 X25.915 Y52.474
G2 X26.25 Y52.239 I0.085 J-0.235
G1 Y17.761
G2 X25.915 Y17.526 I-0.25 J0
G1 X17.282 Y20.668
G3 X12.314 Y17.831 I-1.282 J-3.524
G1 X12.084 Y16.603
Z10
X229.246 Y37.091
Z5
Z2.07 F333.3
Z-0.992 F1000
X229.239 Y37.084
G2 X227.262 Y35.178 I-17.11 J15.772
G3 X227.262 Y34.822 I0.154 J-0.178
G2 X229.239 Y32.901 I-15.348 J-17.777
G1 X229.244 Y32.888
X229.276 Y30.757
X229.269 Y30.742
X229.254 Y30.737
X229.24 Y30.745
G3 X225.035 Y34.811 I-17.306 J-13.69
G2 X225.035 Y35.189 I0.14 J0.189
G3 X229.239 Y39.227 I-12.924 J17.667
G1 X229.244 Y39.239
X229.277 Y41.596
X229.27 Y41.612
X229.254 Y41.616
X229.24 Y41.608
G2 X222.442 Y35.151 I-17.149 J11.249
G3 X222.442 Y34.849 I0.089 J-0.151
G2 X229.24 Y28.355 I-10.488 J-17.784
G1 X229.243 Y28.344
X229.277 Y25.544
X229.27 Y25.529
X229.253 Y25.525
X229.239 Y25.535
G3 X219.236 Y34.879 I-17.267 J-8.459
G1 X219.199 Y34.903
X219.171 Y34.937
X219.157 Y34.978
Y35.022
X219.171 Y35.063
X219.199 Y35.097
X219.236 Y35.121
G3 X229.24 Y44.421 I-7.164 J17.736
G1 X229.242 Y44.43
X229.279 Y48.428
X229.274 Y48.441
X229.262 Y48.448
X229.248 Y48.445
X229.24 Y48.433
G2 X216.08 Y35.576 I-17.182 J4.423
G3 X215.78 Y35.308 I0.097 J-0.411
G1 X215.778 Y35.301
Y34.7
X215.779 Y34.693
G3 X216.08 Y34.424 I0.398 J0.141
G2 X229.24 Y21.519 I-4.094 J-17.337
G1 Y21.511
X228.438 Y15.586
X228.431 Y15.574
X228.417 Y15.569
X228.404 Y15.575
X228.398 Y15.589
X228.4 Y17.144
G3 X214.62 Y33.288 I-16.409 J-0.053
G1 X214.595 Y33.293
X212.978 Y33.547
X212.962 Y33.543
X212.955 Y33.528
Y32.361
G3 X213.244 Y32.047 I0.315 J0
G2 X227 Y17.144 I-1.248 J-14.952
G1 X226.997 Y14.681
Y14.671
Z5
X214.585 Y36.705
Z2.07 F333.3
Z-0.992 F1000
X214.594 Y36.707
X214.62 Y36.712
G3 X228.4 Y52.856 I-2.566 J16.144
G1 X228.398 Y54.411
X228.396 Y54.42
X228.389 Y54.427
X227.028 Y55.337
X227.015 Y55.34
X227.002 Y55.333
X226.997 Y55.32
X227 Y52.856
G2 X213.244 Y37.953 I-14.951 J0
G3 X212.955 Y37.639 I0.026 J-0.314
G1 Y36.473
Y36.463
Z5
X225.597 Y55.459
Z2.07 F333.3
Z-0.992 F1000
Y55.449
X225.6 Y52.856
G2 X211.873 Y39.302 I-13.555 J0
G3 X211.555 Y38.987 I-0.003 J-0.315
G1 Y31.013
G3 X211.873 Y30.698 I0.315 J0
G2 X225.6 Y17.144 I0.127 J-13.599
G1 X225.597 Y14.551
X225.593 Y14.539
X225.584 Y14.532
X225.571
X224.212 Y14.95
X224.202 Y14.957
X224.198 Y14.969
X224.2 Y17.144
G3 X210.421 Y29.196 I-12.195 J-0.04
G2 X210.155 Y29.429 I-0.031 J0.233
G1 Y40.571
G2 X210.421 Y40.804 I0.235 J0
G3 X224.2 Y52.856 I1.619 J12.052
G1 X224.198 Y55.03
X224.194 Y55.042
X224.183 Y55.05
X224.171 Y55.049
X222.811 Y54.54
X222.802 Y54.532
X222.798 Y54.521
X222.8 Y52.856
G2 X209.055 Y42.512 I-10.765 J0
G3 X208.755 Y42.286 I-0.064 J-0.226
G1 Y27.714
G3 X209.055 Y27.488 I0.235 J0
G2 X222.8 Y17.144 I2.955 J-10.378
G1 X222.798 Y15.478
X222.794 Y15.466
X222.784 Y15.459
X222.771
X221.412 Y15.97
X221.402 Y15.977
X221.399 Y15.989
X221.4 Y17.144
G3 X208.787 Y25.971 I-9.398 J-0.005
X208.217 Y25.743 I3.359 J-9.229
G2 X207.647 Y25.515 I-3.932 J9.008
X207.355 Y25.719 I-0.074 J0.205
G1 Y44.281
G2 X207.647 Y44.485 I0.218 J0
X208.217 Y44.257 I-3.361 J-9.234
G3 X208.787 Y44.029 I3.931 J9.006
X221.4 Y52.856 I3.218 J8.827
G1 X221.399 Y54.013
X221.395 Y54.025
X221.384 Y54.032
X221.372 Y54.031
X220.012 Y53.522
X220.003 Y53.514
X219.999 Y53.503
X220 Y52.856
G2 X209.264 Y45.339 I-8 J0
X207.756 Y45.912 I19.786 J54.36
G3 X206.247 Y46.485 I-21.294 J-53.788
X205.955 Y46.28 I-0.074 J-0.205
G1 Y23.72
G3 X206.247 Y23.515 I0.218 J0
X207.756 Y24.088 I-19.787 J54.365
G2 X209.264 Y24.661 I21.263 J-53.705
X220 Y17.144 I2.736 J-7.518
G1 X219.999 Y16.498
X219.995 Y16.486
X219.985 Y16.479
X219.972
X218.613 Y16.988
X218.603 Y16.995
X218.6 Y17.007
Y17.144
G3 X209.743 Y23.346 I-6.6 J0
G1 X204.847 Y21.516
G2 X204.555 Y21.721 I-0.074 J0.205
G1 Y48.279
G2 X204.847 Y48.484 I0.218 J0
X207.295 Y47.569 I-51.898 J-142.588
G3 X209.743 Y46.654 I54.346 J141.673
X218.6 Y52.856 I2.257 J6.202
G1 Y52.993
X218.596 Y53.005
X218.585 Y53.012
X218.573
X217.199 Y52.495
X217.19 Y52.489
X217.186 Y52.478
G2 X210.222 Y47.97 I-5.186 J0.378
G1 X203.447 Y50.483
G3 X203.155 Y50.279 I-0.074 J-0.205
G1 Y19.721
G3 X203.447 Y19.517 I0.218 J0
G1 X210.222 Y22.03
G2 X217.186 Y17.521 I1.779 J-4.886
G1 X217.183 Y17.509
X217.174 Y17.501
X217.162 Y17.5
X215.702 Y17.815
X215.692 Y17.821
X215.686 Y17.831
G3 X210.717 Y20.668 I-3.686 J-0.688
G1 X202.085 Y17.526
G2 X201.75 Y17.761 I-0.085 J0.235
G1 Y52.239
G2 X202.085 Y52.474 I0.25 J0
G1 X210.717 Y49.332
G3 X215.686 Y52.169 I1.283 J3.524
G1 X215.694 Y52.181
X215.708 Y52.185
X215.721 Y52.178
X229.246 Y37.118
X229.251 Y37.105
X229.246 Y37.091
Z-1.983
X229.239 Y37.084
G2 X227.262 Y35.178 I-17.11 J15.772
G3 X227.262 Y34.822 I0.154 J-0.178
G2 X229.239 Y32.901 I-15.348 J-17.777
G1 X229.244 Y32.888
X229.276 Y30.757
X229.269 Y30.742
X229.254 Y30.737
X229.24 Y30.745
G3 X225.035 Y34.811 I-17.306 J-13.69
G2 X225.035 Y35.189 I0.14 J0.189
G3 X229.239 Y39.227 I-12.924 J17.667
G1 X229.244 Y39.239
X229.277 Y41.596
X229.27 Y41.612
X229.254 Y41.616
X229.24 Y41.608
G2 X222.442 Y35.151 I-17.149 J11.249
G3 X222.442 Y34.849 I0.089 J-0.151
G2 X229.24 Y28.355 I-10.488 J-17.784
G1 X229.243 Y28.344
X229.277 Y25.544
X229.27 Y25.529
X229.253 Y25.525
X229.239 Y25.535
G3 X219.236 Y34.879 I-17.267 J-8.459
G1 X219.199 Y34.903
X219.171 Y34.937
X219.157 Y34.978
Y35.022
X219.171 Y35.063
X219.199 Y35.097
X219.236 Y35.121
G3 X229.24 Y44.421 I-7.164 J17.736
G1 X229.242 Y44.43
X229.279 Y48.428
X229.274 Y48.441
X229.262 Y48.448
X229.248 Y48.445
X229.24 Y48.433
G2 X216.08 Y35.576 I-17.182 J4.423
G3 X215.78 Y35.308 I0.097 J-0.411
G1 X215.778 Y35.301
Y34.7
X215.779 Y34.693
G3 X216.08 Y34.424 I0.398 J0.141
G2 X229.24 Y21.519 I-4.094 J-17.337
G1 Y21.511
X228.438 Y15.586
X228.431 Y15.574
X228.417 Y15.569
X228.404 Y15.575
X228.398 Y15.589
X228.4 Y17.144
G3 X214.62 Y33.288 I-16.409 J-0.053
G1 X214.595 Y33.293
X212.978 Y33.547
X212.962 Y33.543
X212.955 Y33.528
Y32.361
G3 X213.244 Y32.047 I0.315 J0
G2 X227 Y17.144 I-1.248 J-14.952
G1 X226.997 Y14.681
Y14.671
Z1.078
X214.585 Y36.705
Z-1.983
X214.594 Y36.707
X214.62 Y36.712
G3 X228.4 Y52.856 I-2.566 J16.144
G1 X228.398 Y54.411
X228.396 Y54.42
X228.389 Y54.427
X227.028 Y55.337
X227.015 Y55.34
X227.002 Y55.333
X226.997 Y55.32
X227 Y52.856
G2 X213.244 Y37.953 I-14.951 J0
G3 X212.955 Y37.639 I0.026 J-0.314
G1 Y36.473
Y36.463
Z1.078
X225.597 Y55.459
Z-1.983
Y55.449
X225.6 Y52.856
G2 X211.873 Y39.302 I-13.555 J0
G3 X211.555 Y38.987 I-0.003 J-0.315
G1 Y31.013
G3 X211.873 Y30.698 I0.315 J0
G2 X225.6 Y17.144 I0.127 J-13.599
G1 X225.597 Y14.551
X225.593 Y14.539
X225.584 Y14.532
X225.571
X224.212 Y14.95
X224.202 Y14.957
X224.198 Y14.969
X224.2 Y17.144
G3 X210.421 Y29.196 I-12.195 J-0.04
G2 X210.155 Y29.429 I-0.031 J0.233
G1 Y40.571
G2 X210.421 Y40.804 I0.235 J0
G3 X224.2 Y52.856 I1.619 J12.052
G1 X224.198 Y55.03
X224.194 Y55.042
X224.183 Y55.05
X224.171 Y55.049
X222.811 Y54.54
X222.802 Y54.532
X222.798 Y54.521
X222.8 Y52.856
G2 X209.055 Y42.512 I-10.765 J0
G3 X208.755 Y42.286 I-0.064 J-0.226
G1 Y27.714
G3 X209.055 Y27.488 I0.235 J0
G2 X222.8 Y17.144 I2.955 J-10.378
G1 X222.798 Y15.478
X222.794 Y15.466
X222.784 Y15.459
X222.771
X221.412 Y15.97
X221.402 Y15.977
X221.399 Y15.989
X221.4 Y17.144
G3 X208.787 Y25.971 I-9.398 J-0.005
X208.217 Y25.743 I3.359 J-9.229
G2 X207.647 Y25.515 I-3.932 J9.008
X207.355 Y25.719 I-0.074 J0.205
G1 Y44.281
G2 X207.647 Y44.485 I0.218 J0
X208.217 Y44.257 I-3.361 J-9.234
G3 X208.787 Y44.029 I3.931 J9.006
X221.4 Y52.856 I3.218 J8.827
G1 X221.399 Y54.013
X221.395 Y54.025
X221.384 Y54.032
X221.372 Y54.031
X220.012 Y53.522
X220.003 Y53.514
X219.999 Y53.503
X220 Y52.856
G2 X209.264 Y45.339 I-8 J0
X207.756 Y45.912 I19.786 J54.36
G3 X206.247 Y46.485 I-21.294 J-53.788
X205.955 Y46.28 I-0.074 J-0.205
G1 Y23.72
G3 X206.247 Y23.515 I0.218 J0
X207.756 Y24.088 I-19.787 J54.365
G2 X209.264 Y24.661 I21.263 J-53.705
X220 Y17.144 I2.736 J-7.518
G1 X219.999 Y16.498
X219.995 Y16.486
X219.985 Y16.479
X219.972
X218.613 Y16.988
X218.603 Y16.995
X218.6 Y17.007
Y17.144
G3 X209.743 Y23.346 I-6.6 J0
G1 X204.847 Y21.516
G2 X204.555 Y21.721 I-0.074 J0.205
G1 Y48.279
G2 X204.847 Y48.484 I0.218 J0
X207.295 Y47.569 I-51.898 J-142.588
G3 X209.743 Y46.654 I54.346 J141.673
X218.6 Y52.856 I2.257 J6.202
G1 Y52.993
X218.596 Y53.005
X218.585 Y53.012
X218.573
X217.199 Y52.495
X217.19 Y52.489
X217.186 Y52.478
G2 X210.222 Y47.97 I-5.186 J0.378
G1 X203.447 Y50.483
G3 X203.155 Y50.279 I-0.074 J-0.205
G1 Y19.721
G3 X203.447 Y19.517 I0.218 J0
G1 X210.222 Y22.03
G2 X217.186 Y17.521 I1.779 J-4.886
G1 X217.183 Y17.509
X217.174 Y17.501
X217.162 Y17.5
X215.702 Y17.815
X215.692 Y17.821
X215.686 Y17.831
G3 X210.717 Y20.668 I-3.686 J-0.688
G1 X202.085 Y17.526
G2 X201.75 Y17.761 I-0.085 J0.235
G1 Y52.239
G2 X202.085 Y52.474 I0.25 J0
G1 X210.717 Y49.332
G3 X215.686 Y52.169 I1.283 J3.524
G1 X215.694 Y52.181
X215.708 Y52.185
X215.721 Y52.178
X229.246 Y37.118
X229.251 Y37.105
X229.246 Y37.091
Z-2.975
X229.239 Y37.084
G2 X227.262 Y35.178 I-17.11 J15.772
G3 X227.262 Y34.822 I0.154 J-0.178
G2 X229.239 Y32.901 I-15.348 J-17.777
G1 X229.244 Y32.888
X229.276 Y30.757
X229.269 Y30.742
X229.254 Y30.737
X229.24 Y30.745
G3 X225.035 Y34.811 I-17.306 J-13.69
G2 X225.035 Y35.189 I0.14 J0.189
G3 X229.239 Y39.227 I-12.924 J17.667
G1 X229.244 Y39.239
X229.277 Y41.596
X229.27 Y41.612
X229.254 Y41.616
X229.24 Y41.608
G2 X222.442 Y35.151 I-17.149 J11.249
G3 X222.442 Y34.849 I0.089 J-0.151
G2 X229.24 Y28.355 I-10.488 J-17.784
G1 X229.243 Y28.344
X229.277 Y25.544
X229.27 Y25.529
X229.253 Y25.525
X229.239 Y25.535
G3 X219.236 Y34.879 I-17.267 J-8.459
G1 X219.199 Y34.903
X219.171 Y34.937
X219.157 Y34.978
Y35.022
X219.171 Y35.063
X219.199 Y35.097
X219.236 Y35.121
G3 X229.24 Y44.421 I-7.164 J17.736
G1 X229.242 Y44.43
X229.279 Y48.428
X229.274 Y48.441
X229.262 Y48.448
X229.248 Y48.445
X229.24 Y48.433
G2 X216.08 Y35.576 I-17.182 J4.423
G3 X215.78 Y35.308 I0.097 J-0.411
G1 X215.778 Y35.301
Y34.7
X215.779 Y34.693
G3 X216.08 Y34.424 I0.398 J0.141
G2 X229.24 Y21.519 I-4.094 J-17.337
G1 Y21.511
X228.438 Y15.586
X228.431 Y15.574
X228.417 Y15.569
X228.404 Y15.575
X228.398 Y15.589
X228.4 Y17.144
G3 X214.62 Y33.288 I-16.409 J-0.053
G1 X214.595 Y33.293
X212.978 Y33.547
X212.962 Y33.543
X212.955 Y33.528
Y32.361
G3 X213.244 Y32.047 I0.315 J0
G2 X227 Y17.144 I-1.248 J-14.952
G1 X226.997 Y14.681
Y14.671
Z0.087
X214.585 Y36.705
Z-2.975
X214.594 Y36.707
X214.62 Y36.712
G3 X228.4 Y52.856 I-2.566 J16.144
G1 X228.398 Y54.411
X228.396 Y54.42
X228.389 Y54.427
X227.028 Y55.337
X227.015 Y55.34
X227.002 Y55.333
X226.997 Y55.32
X227 Y52.856
G2 X213.244 Y37.953 I-14.951 J0
G3 X212.955 Y37.639 I0.026 J-0.314
G1 Y36.473
Y36.463
Z0.087
X225.597 Y55.459
Z-2.975
Y55.449
X225.6 Y52.856
G2 X211.873 Y39.302 I-13.555 J0
G3 X211.555 Y38.987 I-0.003 J-0.315
G1 Y31.013
G3 X211.873 Y30.698 I0.315 J0
G2 X225.6 Y17.144 I0.127 J-13.599
G1 X225.597 Y14.551
X225.593 Y14.539
X225.584 Y14.532
X225.571
X224.212 Y14.95
X224.202 Y14.957
X224.198 Y14.969
X224.2 Y17.144
G3 X210.421 Y29.196 I-12.195 J-0.04
G2 X210.155 Y29.429 I-0.031 J0.233
G1 Y40.571
G2 X210.421 Y40.804 I0.235 J0
G3 X224.2 Y52.856 I1.619 J12.052
G1 X224.198 Y55.03
X224.194 Y55.042
X224.183 Y55.05
X224.171 Y55.049
X222.811 Y54.54
X222.802 Y54.532
X222.798 Y54.521
X222.8 Y52.856
G2 X209.055 Y42.512 I-10.765 J0
G3 X208.755 Y42.286 I-0.064 J-0.226
G1 Y27.714
G3 X209.055 Y27.488 I0.235 J0
G2 X222.8 Y17.144 I2.955 J-10.378
G1 X222.798 Y15.478
X222.794 Y15.466
X222.784 Y15.459
X222.771
X221.412 Y15.97
X221.402 Y15.977
X221.399 Y15.989
X221.4 Y17.144
G3 X208.787 Y25.971 I-9.398 J-0.005
X208.217 Y25.743 I3.359 J-9.229
G2 X207.647 Y25.515 I-3.932 J9.008
X207.355 Y25.719 I-0.074 J0.205
G1 Y44.281
G2 X207.647 Y44.485 I0.218 J0
X208.217 Y44.257 I-3.361 J-9.234
G3 X208.787 Y44.029 I3.931 J9.006
X221.4 Y52.856 I3.218 J8.827
G1 X221.399 Y54.013
X221.395 Y54.025
X221.384 Y54.032
X221.372 Y54.031
X220.012 Y53.522
X220.003 Y53.514
X219.999 Y53.503
X220 Y52.856
G2 X209.264 Y45.339 I-8 J0
X207.756 Y45.912 I19.786 J54.36
G3 X206.247 Y46.485 I-21.294 J-53.788
X205.955 Y46.28 I-0.074 J-0.205
G1 Y23.72
G3 X206.247 Y23.515 I0.218 J0
X207.756 Y24.088 I-19.787 J54.365
G2 X209.264 Y24.661 I21.263 J-53.705
X220 Y17.144 I2.736 J-7.518
G1 X219.999 Y16.498
X219.995 Y16.486
X219.985 Y16.479
X219.972
X218.613 Y16.988
X218.603 Y16.995
X218.6 Y17.007
Y17.144
G3 X209.743 Y23.346 I-6.6 J0
G1 X204.847 Y21.516
G2 X204.555 Y21.721 I-0.074 J0.205
G1 Y48.279
G2 X204.847 Y48.484 I0.218 J0
X207.295 Y47.569 I-51.898 J-142.588
G3 X209.743 Y46.654 I54.346 J141.673
X218.6 Y52.856 I2.257 J6.202
G1 Y52.993
X218.596 Y53.005
X218.585 Y53.012
X218.573
X217.199 Y52.495
X217.19 Y52.489
X217.186 Y52.478
G2 X210.222 Y47.97 I-5.186 J0.378
G1 X203.447 Y50.483
G3 X203.155 Y50.279 I-0.074 J-0.205
G1 Y19.721
G3 X203.447 Y19.517 I0.218 J0
G1 X210.222 Y22.03
G2 X217.186 Y17.521 I1.779 J-4.886
G1 X217.183 Y17.509
X217.174 Y17.501
X217.162 Y17.5
X215.702 Y17.815
X215.692 Y17.821
X215.686 Y17.831
G3 X210.717 Y20.668 I-3.686 J-0.688
G1 X202.085 Y17.526
G2 X201.75 Y17.761 I-0.085 J0.235
G1 Y52.239
G2 X202.085 Y52.474 I0.25 J0
G1 X210.717 Y49.332
G3 X215.686 Y52.169 I1.283 J3.524
G1 X215.694 Y52.181
X215.708 Y52.185
X215.721 Y52.178
X229.246 Y37.118
X229.251 Y37.105
X229.246 Y37.091
Z-3.967
X229.239 Y37.084
G2 X227.262 Y35.178 I-17.11 J15.772
G3 X227.262 Y34.822 I0.154 J-0.178
G2 X229.239 Y32.901 I-15.348 J-17.777
G1 X229.244 Y32.888
X229.276 Y30.757
X229.269 Y30.742
X229.254 Y30.737
X229.24 Y30.745
G3 X225.035 Y34.811 I-17.306 J-13.69
G2 X225.035 Y35.189 I0.14 J0.189
G3 X229.239 Y39.227 I-12.924 J17.667
G1 X229.244 Y39.239
X229.277 Y41.596
X229.27 Y41.612
X229.254 Y41.616
X229.24 Y41.608
G2 X222.442 Y35.151 I-17.149 J11.249
G3 X222.442 Y34.849 I0.089 J-0.151
G2 X229.24 Y28.355 I-10.488 J-17.784
G1 X229.243 Y28.344
X229.277 Y25.544
X229.27 Y25.529
X229.253 Y25.525
X229.239 Y25.535
G3 X219.236 Y34.879 I-17.267 J-8.459
G1 X219.199 Y34.903
X219.171 Y34.937
X219.157 Y34.978
Y35.022
X219.171 Y35.063
X219.199 Y35.097
X219.236 Y35.121
G3 X229.24 Y44.421 I-7.164 J17.736
G1 X229.242 Y44.43
X229.279 Y48.428
X229.274 Y48.441
X229.262 Y48.448
X229.248 Y48.445
X229.24 Y48.433
G2 X216.08 Y35.576 I-17.182 J4.423
G3 X215.78 Y35.308 I0.097 J-0.411
G1 X215.778 Y35.301
Y34.7
X215.779 Y34.693
G3 X216.08 Y34.424 I0.398 J0.141
G2 X229.24 Y21.519 I-4.094 J-17.337
G1 Y21.511
X228.438 Y15.586
X228.431 Y15.574
X228.417 Y15.569
X228.404 Y15.575
X228.398 Y15.589
X228.4 Y17.144
G3 X214.62 Y33.288 I-16.409 J-0.053
G1 X214.595 Y33.293
X212.978 Y33.547
X212.962 Y33.543
X212.955 Y33.528
Y32.361
G3 X213.244 Y32.047 I0.315 J0
G2 X227 Y17.144 I-1.248 J-14.952
G1 X226.997 Y14.681
Y14.671
Z-0.905
X214.585 Y36.705
Z-3.967
X214.594 Y36.707
X214.62 Y36.712
G3 X228.4 Y52.856 I-2.566 J16.144
G1 X228.398 Y54.411
X228.396 Y54.42
X228.389 Y54.427
X227.028 Y55.337
X227.015 Y55.34
X227.002 Y55.333
X226.997 Y55.32
X227 Y52.856
G2 X213.244 Y37.953 I-14.951 J0
G3 X212.955 Y37.639 I0.026 J-0.314
G1 Y36.473
Y36.463
Z-0.905
X225.597 Y55.459
Z-3.967
Y55.449
X225.6 Y52.856
G2 X211.873 Y39.302 I-13.555 J0
G3 X211.555 Y38.987 I-0.003 J-0.315
G1 Y31.013
G3 X211.873 Y30.698 I0.315 J0
G2 X225.6 Y17.144 I0.127 J-13.599
G1 X225.597 Y14.551
X225.593 Y14.539
X225.584 Y14.532
X225.571
X224.212 Y14.95
X224.202 Y14.957
X224.198 Y14.969
X224.2 Y17.144
G3 X210.421 Y29.196 I-12.195 J-0.04
G2 X210.155 Y29.429 I-0.031 J0.233
G1 Y40.571
G2 X210.421 Y40.804 I0.235 J0
G3 X224.2 Y52.856 I1.619 J12.052
G1 X224.198 Y55.03
X224.194 Y55.042
X224.183 Y55.05
X224.171 Y55.049
X222.811 Y54.54
X222.802 Y54.532
X222.798 Y54.521
X222.8 Y52.856
G2 X209.055 Y42.512 I-10.765 J0
G3 X208.755 Y42.286 I-0.064 J-0.226
G1 Y27.714
G3 X209.055 Y27.488 I0.235 J0
G2 X222.8 Y17.144 I2.955 J-10.378
G1 X222.798 Y15.478
X222.794 Y15.466
X222.784 Y15.459
X222.771
X221.412 Y15.97
X221.402 Y15.977
X221.399 Y15.989
X221.4 Y17.144
G3 X208.787 Y25.971 I-9.398 J-0.005
X208.217 Y25.743 I3.359 J-9.229
G2 X207.647 Y25.515 I-3.932 J9.008
X207.355 Y25.719 I-0.074 J0.205
G1 Y44.281
G2 X207.647 Y44.485 I0.218 J0
X208.217 Y44.257 I-3.361 J-9.234
G3 X208.787 Y44.029 I3.931 J9.006
X221.4 Y52.856 I3.218 J8.827
G1 X221.399 Y54.013
X221.395 Y54.025
X221.384 Y54.032
X221.372 Y54.031
X220.012 Y53.522
X220.003 Y53.514
X219.999 Y53.503
X220 Y52.856
G2 X209.264 Y45.339 I-8 J0
X207.756 Y45.912 I19.786 J54.36
G3 X206.247 Y46.485 I-21.294 J-53.788
X205.955 Y46.28 I-0.074 J-0.205
G1 Y23.72
G3 X206.247 Y23.515 I0.218 J0
X207.756 Y24.088 I-19.787 J54.365
G2 X209.264 Y24.661 I21.263 J-53.705
X220 Y17.144 I2.736 J-7.518
G1 X219.999 Y16.498
X219.995 Y16.486
X219.985 Y16.479
X219.972
X218.613 Y16.988
X218.603 Y16.995
X218.6 Y17.007
Y17.144
G3 X209.743 Y23.346 I-6.6 J0
G1 X204.847 Y21.516
G2 X204.555 Y21.721 I-0.074 J0.205
G1 Y48.279
G2 X204.847 Y48.484 I0.218 J0
X207.295 Y47.569 I-51.898 J-142.588
G3 X209.743 Y46.654 I54.346 J141.673
X218.6 Y52.856 I2.257 J6.202
G1 Y52.993
X218.596 Y53.005
X218.585 Y53.012
X218.573
X217.199 Y52.495
X217.19 Y52.489
X217.186 Y52.478
G2 X210.222 Y47.97 I-5.186 J0.378
G1 X203.447 Y50.483
G3 X203.155 Y50.279 I-0.074 J-0.205
G1 Y19.721
G3 X203.447 Y19.517 I0.218 J0
G1 X210.222 Y22.03
G2 X217.186 Y17.521 I1.779 J-4.886
G1 X217.183 Y17.509
X217.174 Y17.501
X217.162 Y17.5
X215.702 Y17.815
X215.692 Y17.821
X215.686 Y17.831
G3 X210.717 Y20.668 I-3.686 J-0.688
G1 X202.085 Y17.526
G2 X201.75 Y17.761 I-0.085 J0.235
G1 Y52.239
G2 X202.085 Y52.474 I0.25 J0
G1 X210.717 Y49.332
G3 X215.686 Y52.169 I1.283 J3.524
G1 X215.694 Y52.181
X215.708 Y52.185
X215.721 Y52.178
X229.246 Y37.118
X229.251 Y37.105
X229.246 Y37.091
Z-4.958
X229.239 Y37.084
G2 X227.262 Y35.178 I-17.11 J15.772
G3 X227.262 Y34.822 I0.154 J-0.178
G2 X229.239 Y32.901 I-15.348 J-17.777
G1 X229.244 Y32.888
X229.276 Y30.757
X229.269 Y30.742
X229.254 Y30.737
X229.24 Y30.745
G3 X225.035 Y34.811 I-17.306 J-13.69
G2 X225.035 Y35.189 I0.14 J0.189
G3 X229.239 Y39.227 I-12.924 J17.667
G1 X229.244 Y39.239
X229.277 Y41.596
X229.27 Y41.612
X229.254 Y41.616
X229.24 Y41.608
G2 X222.442 Y35.151 I-17.149 J11.249
G3 X222.442 Y34.849 I0.089 J-0.151
G2 X229.24 Y28.355 I-10.488 J-17.784
G1 X229.243 Y28.344
X229.277 Y25.544
X229.27 Y25.529
X229.253 Y25.525
X229.239 Y25.535
G3 X219.236 Y34.879 I-17.267 J-8.459
G1 X219.199 Y34.903
X219.171 Y34.937
X219.157 Y34.978
Y35.022
X219.171 Y35.063
X219.199 Y35.097
X219.236 Y35.121
G3 X229.24 Y44.421 I-7.164 J17.736
G1 X229.242 Y44.43
X229.279 Y48.428
X229.274 Y48.441
X229.262 Y48.448
X229.248 Y48.445
X229.24 Y48.433
G2 X216.08 Y35.576 I-17.182 J4.423
G3 X215.78 Y35.308 I0.097 J-0.411
G1 X215.778 Y35.301
Y34.7
X215.779 Y34.693
G3 X216.08 Y34.424 I0.398 J0.141
G2 X229.24 Y21.519 I-4.094 J-17.337
G1 Y21.511
X228.438 Y15.586
X228.431 Y15.574
X228.417 Y15.569
X228.404 Y15.575
X228.398 Y15.589
X228.4 Y17.144
G3 X214.62 Y33.288 I-16.409 J-0.053
G1 X214.595 Y33.293
X212.978 Y33.547
X212.962 Y33.543
X212.955 Y33.528
Y32.361
G3 X213.244 Y32.047 I0.315 J0
G2 X227 Y17.144 I-1.248 J-14.952
G1 X226.997 Y14.681
Y14.671
Z-1.897
X214.585 Y36.705
Z-4.958
X214.594 Y36.707
X214.62 Y36.712
G3 X228.4 Y52.856 I-2.566 J16.144
G1 X228.398 Y54.411
X228.396 Y54.42
X228.389 Y54.427
X227.028 Y55.337
X227.015 Y55.34
X227.002 Y55.333
X226.997 Y55.32
X227 Y52.856
G2 X213.244 Y37.953 I-14.951 J0
G3 X212.955 Y37.639 I0.026 J-0.314
G1 Y36.473
Y36.463
Z-1.897
X225.597 Y55.459
Z-4.958
Y55.449
X225.6 Y52.856
G2 X211.873 Y39.302 I-13.555 J0
G3 X211.555 Y38.987 I-0.003 J-0.315
G1 Y31.013
G3 X211.873 Y30.698 I0.315 J0
G2 X225.6 Y17.144 I0.127 J-13.599
G1 X225.597 Y14.551
X225.593 Y14.539
X225.584 Y14.532
X225.571
X224.212 Y14.95
X224.202 Y14.957
X224.198 Y14.969
X224.2 Y17.144
G3 X210.421 Y29.196 I-12.195 J-0.04
G2 X210.155 Y29.429 I-0.031 J0.233
G1 Y40.571
G2 X210.421 Y40.804 I0.235 J0
G3 X224.2 Y52.856 I1.619 J12.052
G1 X224.198 Y55.03
X224.194 Y55.042
X224.183 Y55.05
X224.171 Y55.049
X222.811 Y54.54
X222.802 Y54.532
X222.798 Y54.521
X222.8 Y52.856
G2 X209.055 Y42.512 I-10.765 J0
G3 X208.755 Y42.286 I-0.064 J-0.226
G1 Y27.714
G3 X209.055 Y27.488 I0.235 J0
G2 X222.8 Y17.144 I2.955 J-10.378
G1 X222.798 Y15.478
X222.794 Y15.466
X222.784 Y15.459
X222.771
X221.412 Y15.97
X221.402 Y15.977
X221.399 Y15.989
X221.4 Y17.144
G3 X208.787 Y25.971 I-9.398 J-0.005
X208.217 Y25.743 I3.359 J-9.229
G2 X207.647 Y25.515 I-3.932 J9.008
X207.355 Y25.719 I-0.074 J0.205
G1 Y44.281
G2 X207.647 Y44.485 I0.218 J0
X208.217 Y44.257 I-3.361 J-9.234
G3 X208.787 Y44.029 I3.931 J9.006
X221.4 Y52.856 I3.218 J8.827
G1 X221.399 Y54.013
X221.395 Y54.025
X221.384 Y54.032
X221.372 Y54.031
X220.012 Y53.522
X220.003 Y53.514
X219.999 Y53.503
X220 Y52.856
G2 X209.264 Y45.339 I-8 J0
X207.756 Y45.912 I19.786 J54.36
G3 X206.247 Y46.485 I-21.294 J-53.788
X205.955 Y46.28 I-0.074 J-0.205
G1 Y23.72
G3 X206.247 Y23.515 I0.218 J0
X207.756 Y24.088 I-19.787 J54.365
G2 X209.264 Y24.661 I21.263 J-53.705
X220 Y17.144 I2.736 J-7.518
G1 X219.999 Y16.498
X219.995 Y16.486
X219.985 Y16.479
X219.972
X218.613 Y16.988
X218.603 Y16.995
X218.6 Y17.007
Y17.144
G3 X209.743 Y23.346 I-6.6 J0
G1 X204.847 Y21.516
G2 X204.555 Y21.721 I-0.074 J0.205
G1 Y48.279
G2 X204.847 Y48.484 I0.218 J0
X207.295 Y47.569 I-51.898 J-142.588
G3 X209.743 Y46.654 I54.346 J141.673
X218.6 Y52.856 I2.257 J6.202
G1 Y52.993
X218.596 Y53.005
X218.585 Y53.012
X218.573
X217.199 Y52.495
X217.19 Y52.489
X217.186 Y52.478
G2 X210.222 Y47.97 I-5.186 J0.378
G1 X203.447 Y50.483
G3 X203.155 Y50.279 I-0.074 J-0.205
G1 Y19.721
G3 X203.447 Y19.517 I0.218 J0
G1 X210.222 Y22.03
G2 X217.186 Y17.521 I1.779 J-4.886
G1 X217.183 Y17.509
X217.174 Y17.501
X217.162 Y17.5
X215.702 Y17.815
X215.692 Y17.821
X215.686 Y17.831
G3 X210.717 Y20.668 I-3.686 J-0.688
G1 X202.085 Y17.526
G2 X201.75 Y17.761 I-0.085 J0.235
G1 Y52.239
G2 X202.085 Y52.474 I0.25 J0
G1 X210.717 Y49.332
G3 X215.686 Y52.169 I1.283 J3.524
G1 X215.694 Y52.181
X215.708 Y52.185
X215.721 Y52.178
X229.246 Y37.118
X229.251 Y37.105
X229.246 Y37.091
Z-5.95
X229.239 Y37.084
G2 X227.262 Y35.178 I-17.11 J15.772
G3 X227.262 Y34.822 I0.154 J-0.178
G2 X229.239 Y32.901 I-15.348 J-17.777
G1 X229.244 Y32.888
X229.276 Y30.757
X229.269 Y30.742
X229.254 Y30.737
X229.24 Y30.745
G3 X225.035 Y34.811 I-17.306 J-13.69
G2 X225.035 Y35.189 I0.14 J0.189
G3 X229.239 Y39.227 I-12.924 J17.667
G1 X229.244 Y39.239
X229.277 Y41.596
X229.27 Y41.612
X229.254 Y41.616
X229.24 Y41.608
G2 X222.442 Y35.151 I-17.149 J11.249
G3 X222.442 Y34.849 I0.089 J-0.151
G2 X229.24 Y28.355 I-10.488 J-17.784
G1 X229.243 Y28.344
X229.277 Y25.544
X229.27 Y25.529
X229.253 Y25.525
X229.239 Y25.535
G3 X219.236 Y34.879 I-17.267 J-8.459
G1 X219.199 Y34.903
X219.171 Y34.937
X219.157 Y34.978
Y35.022
X219.171 Y35.063
X219.199 Y35.097
X219.236 Y35.121
G3 X229.24 Y44.421 I-7.164 J17.736
G1 X229.242 Y44.43
X229.279 Y48.428
X229.274 Y48.441
X229.262 Y48.448
X229.248 Y48.445
X229.24 Y48.433
G2 X216.08 Y35.576 I-17.182 J4.423
G3 X215.78 Y35.308 I0.097 J-0.411
G1 X215.778 Y35.301
Y34.7
X215.779 Y34.693
G3 X216.08 Y34.424 I0.398 J0.141
G2 X229.24 Y21.519 I-4.094 J-17.337
G1 Y21.511
X228.438 Y15.586
X228.431 Y15.574
X228.417 Y15.569
X228.404 Y15.575
X228.398 Y15.589
X228.4 Y17.144
G3 X214.62 Y33.288 I-16.409 J-0.053
G1 X214.595 Y33.293
X212.978 Y33.547
X212.962 Y33.543
X212.955 Y33.528
Y32.361
G3 X213.244 Y32.047 I0.315 J0
G2 X227 Y17.144 I-1.248 J-14.952
G1 X226.997 Y14.681
Y14.671
Z-2.888
X214.585 Y36.705
Z-5.95
X214.594 Y36.707
X214.62 Y36.712
G3 X228.4 Y52.856 I-2.566 J16.144
G1 X228.398 Y54.411
X228.396 Y54.42
X228.389 Y54.427
X227.028 Y55.337
X227.015 Y55.34
X227.002 Y55.333
X226.997 Y55.32
X227 Y52.856
G2 X213.244 Y37.953 I-14.951 J0
G3 X212.955 Y37.639 I0.026 J-0.314
G1 Y36.473
Y36.463
Z-2.888
X225.597 Y55.459
Z-5.95
Y55.449
X225.6 Y52.856
G2 X211.873 Y39.302 I-13.555 J0
G3 X211.555 Y38.987 I-0.003 J-0.315
G1 Y31.013
G3 X211.873 Y30.698 I0.315 J0
G2 X225.6 Y17.144 I0.127 J-13.599
G1 X225.597 Y14.551
X225.593 Y14.539
X225.584 Y14.532
X225.571
X224.212 Y14.95
X224.202 Y14.957
X224.198 Y14.969
X224.2 Y17.144
G3 X210.421 Y29.196 I-12.195 J-0.04
G2 X210.155 Y29.429 I-0.031 J0.233
G1 Y40.571
G2 X210.421 Y40.804 I0.235 J0
G3 X224.2 Y52.856 I1.619 J12.052
G1 X224.198 Y55.03
X224.194 Y55.042
X224.183 Y55.05
X224.171 Y55.049
X222.811 Y54.54
X222.802 Y54.532
X222.798 Y54.521
X222.8 Y52.856
G2 X209.055 Y42.512 I-10.765 J0
G3 X208.755 Y42.286 I-0.064 J-0.226
G1 Y27.714
G3 X209.055 Y27.488 I0.235 J0
G2 X222.8 Y17.144 I2.955 J-10.378
G1 X222.798 Y15.478
X222.794 Y15.466
X222.784 Y15.459
X222.771
X221.412 Y15.97
X221.402 Y15.977
X221.399 Y15.989
X221.4 Y17.144
G3 X208.787 Y25.971 I-9.398 J-0.005
X208.217 Y25.743 I3.359 J-9.229
G2 X207.647 Y25.515 I-3.932 J9.008
X207.355 Y25.719 I-0.074 J0.205
G1 Y44.281
G2 X207.647 Y44.485 I0.218 J0
X208.217 Y44.257 I-3.361 J-9.234
G3 X208.787 Y44.029 I3.931 J9.006
X221.4 Y52.856 I3.218 J8.827
G1 X221.399 Y54.013
X221.395 Y54.025
X221.384 Y54.032
X221.372 Y54.031
X220.012 Y53.522
X220.003 Y53.514
X219.999 Y53.503
X220 Y52.856
G2 X209.264 Y45.339 I-8 J0
X207.756 Y45.912 I19.786 J54.36
G3 X206.247 Y46.485 I-21.294 J-53.788
X205.955 Y46.28 I-0.074 J-0.205
G1 Y23.72
G3 X206.247 Y23.515 I0.218 J0
X207.756 Y24.088 I-19.787 J54.365
G2 X209.264 Y24.661 I21.263 J-53.705
X220 Y17.144 I2.736 J-7.518
G1 X219.999 Y16.498
X219.995 Y16.486
X219.985 Y16.479
X219.972
X218.613 Y16.988
X218.603 Y16.995
X218.6 Y17.007
Y17.144
G3 X209.743 Y23.346 I-6.6 J0
G1 X204.847 Y21.516
G2 X204.555 Y21.721 I-0.074 J0.205
G1 Y48.279
G2 X204.847 Y48.484 I0.218 J0
X207.295 Y47.569 I-51.898 J-142.588
G3 X209.743 Y46.654 I54.346 J141.673
X218.6 Y52.856 I2.257 J6.202
G1 Y52.993
X218.596 Y53.005
X218.585 Y53.012
X218.573
X217.199 Y52.495
X217.19 Y52.489
X217.186 Y52.478
G2 X210.222 Y47.97 I-5.186 J0.378
G1 X203.447 Y50.483
G3 X203.155 Y50.279 I-0.074 J-0.205
G1 Y19.721
G3 X203.447 Y19.517 I0.218 J0
G1 X210.222 Y22.03
G2 X217.186 Y17.521 I1.779 J-4.886
G1 X217.183 Y17.509
X217.174 Y17.501
X217.162 Y17.5
X215.702 Y17.815
X215.692 Y17.821
X215.686 Y17.831
G3 X210.717 Y20.668 I-3.686 J-0.688
G1 X202.085 Y17.526
G2 X201.75 Y17.761 I-0.085 J0.235
G1 Y52.239
G2 X202.085 Y52.474 I0.25 J0
G1 X210.717 Y49.332
G3 X215.686 Y52.169 I1.283 J3.524
G1 X215.916 Y53.397
Z10
(When using Fusion 360 for Personal Use, the feedrate of)
(rapid moves is reduced to match the feedrate of cutting)
(moves, which can increase machining time. Unrestricted rapid)
(moves are available with a Fusion 360 Subscription.)

(2D Contour tabs)
G0 X215.45 Y52.856
G1 Z10 F1000
Z5
Z3.07 F333.3
Z-1.983
G2 X210.82 Y49.614 I-3.45 J0 F1000
G1 X202.188 Y52.756
G3 X201.45 Y52.239 I-0.188 J-0.517
G1 Y17.761
G3 X202.188 Y17.244 I0.55 J0
G1 X210.82 Y20.386
G2 X215.45 Y17.144 I1.18 J-3.242
G1 Z5
Y52.856
Z1.087 F333.3
Z-3.967
G2 X210.82 Y49.614 I-3.45 J0 F1000
G1 X202.188 Y52.756
G3 X201.45 Y52.239 I-0.188 J-0.517
G1 Y17.761
G3 X202.188 Y17.244 I0.55 J0
G1 X210.82 Y20.386
G2 X215.45 Y17.144 I1.18 J-3.242
G1 Z5
Y52.856
Z-0.897 F333.3
Z-5.95
G2 X210.82 Y49.614 I-3.45 J0 F1000
G1 X202.188 Y52.756
G3 X201.45 Y52.239 I-0.188 J-0.517
G1 Y17.761
G3 X202.188 Y17.244 I0.55 J0
G1 X210.82 Y20.386
G2 X215.45 Y17.144 I1.18 J-3.242
G1 Z5
X215.25 Y52.856
Z-0.897 F333.3
Z-5.95
G2 X210.889 Y49.802 I-3.25 J0 F1000
G1 X202.256 Y52.944
G3 X201.25 Y52.239 I-0.256 J-0.705
G1 Y17.761
G3 X202.256 Y17.056 I0.75 J0
G1 X210.888 Y20.198
G2 X215.25 Y17.144 I1.112 J-3.054
G1 Z5
X12.55
Z3.07 F333.3
Z-1.983
G2 X17.18 Y20.386 I3.45 J0 F1000
G1 X25.812 Y17.244
G3 X26.55 Y17.761 I0.188 J0.517
G1 Y52.239
G3 X25.812 Y52.756 I-0.55 J0
G1 X17.18 Y49.614
G2 X12.55 Y52.856 I-1.18 J3.242
G1 Z5
Y17.144
Z1.087 F333.3
Z-3.967
G2 X17.18 Y20.386 I3.45 J0 F1000
G1 X25.812 Y17.244
G3 X26.55 Y17.761 I0.188 J0.517
G1 Y52.239
G3 X25.812 Y52.756 I-0.55 J0
G1 X17.18 Y49.614
G2 X12.55 Y52.856 I-1.18 J3.242
G1 Z5
Y17.144
Z-0.897 F333.3
Z-5.95
G2 X17.18 Y20.386 I3.45 J0 F1000
G1 X25.812 Y17.244
G3 X26.55 Y17.761 I0.188 J0.517
G1 Y52.239
G3 X25.812 Y52.756 I-0.55 J0
G1 X17.18 Y49.614
G2 X12.55 Y52.856 I-1.18 J3.242
G1 Z5
X12.75 Y17.144
Z-0.897 F333.3
Z-5.95
G2 X17.111 Y20.198 I3.25 J0 F1000
G1 X25.744 Y17.056
G3 X26.75 Y17.761 I0.256 J0.705
G1 Y52.239
G3 X25.744 Y52.944 I-0.75 J0
G1 X17.112 Y49.802
G2 X12.75 Y52.856 I-1.112 J3.054
G1 Z10
(When using Fusion 360 for Personal Use, the feedrate of)
(rapid moves is reduced to match the feedrate of cutting)
(moves, which can increase machining time. Unrestricted rapid)
(moves are available with a Fusion 360 Subscription.)

(Bore1)
G0 X215.175 Y34.75
G1 Z10 F1000
Z-3.95
Z-5.7
G18 G2 X215.425 Z-5.95 I0.25 K0
G1 X215.55
G17 G3 X215.8 Y35 I0 J0.25
X212.2 Y35 Z-6.45 I-1.8 J0
X215.8 Y35 Z-6.95 I1.8 J0
X212.2 Y35 Z-7.45 I-1.8 J0
X215.8 Y35 Z-7.95 I1.8 J0
X212.2 Y35 Z-8.45 I-1.8 J0
X215.8 Y35 Z-8.95 I1.8 J0
X212.2 Y35 Z-9.45 I-1.8 J0
X215.8 Y35 Z-9.95 I1.8 J0
X212.2 Y35 Z-10.45 I-1.8 J0
X215.8 Y35 Z-10.95 I1.8 J0
X212.2 Y35 Z-11.45 I-1.8 J0
X215.8 Y35 Z-11.95 I1.8 J0
X212.2 Y35 Z-12.45 I-1.8 J0
X215.8 Y35 Z-12.95 I1.8 J0
X212.942 Y36.456 Z-13.3 I-1.8 J0
X215.058 Y33.544 I1.058 J-1.456
X212.942 Y36.456 I-1.058 J1.456
X212.887 Y36.107 I0.147 J-0.202
G1 X212.96 Y36.006
X212.993 Y35.961 Z-13.294
X213.024 Y35.918 Z-13.275
X213.052 Y35.88 Z-13.245
X213.075 Y35.848 Z-13.206
X213.093 Y35.824 Z-13.158
X213.103 Y35.809 Z-13.106
X213.107 Y35.804 Z-13.05
Z5
X154.125 Y34.75
Z2
Z0.25
G18 G2 X154.375 Z0 I0.25 K0
G1 X154.5
G17 G3 X154.75 Y35 I0 J0.25
X153.25 Y35 Z-0.5 I-0.75 J0
X154.75 Y35 Z-1 I0.75 J0
X153.25 Y35 Z-1.5 I-0.75 J0
X154.75 Y35 Z-2 I0.75 J0
X153.25 Y35 Z-2.5 I-0.75 J0
X154.75 Y35 Z-3 I0.75 J0
X153.25 Y35 Z-3.5 I-0.75 J0
X154.75 Y35 Z-4 I0.75 J0
X153.25 Y35 Z-4.5 I-0.75 J0
X154.75 Y35 Z-5 I0.75 J0
X153.25 Y35 Z-5.5 I-0.75 J0
X154.75 Y35 Z-6 I0.75 J0
X153.25 Y35 Z-6.5 I-0.75 J0
X154.75 Y35 Z-7 I0.75 J0
X153.25 Y35 Z-7.5 I-0.75 J0
X154.75 Y35 Z-8 I0.75 J0
X153.25 Y35 Z-8.5 I-0.75 J0
X154.75 Y35 Z-9 I0.75 J0
X153.25 Y35 Z-9.5 I-0.75 J0
X154.75 Y35 Z-10 I0.75 J0
X153.25 Y35 Z-10.5 I-0.75 J0
X154.75 Y35 Z-11 I0.75 J0
X153.25 Y35 Z-11.5 I-0.75 J0
X154.75 Y35 Z-12 I0.75 J0
X153.25 Y35 Z-12.5 I-0.75 J0
X154.75 Y35 Z-13 I0.75 J0
X153.768 Y35.713 Z-13.3 I-0.75 J0
X154.232 Y34.287 I0.232 J-0.713
X153.768 Y35.713 I-0.232 J0.713
X153.608 Y35.398 I0.077 J-0.238
G1 X153.646 Y35.279
X153.664 Y35.226 Z-13.294
X153.68 Y35.176 Z-13.275
X153.695 Y35.131 Z-13.245
X153.707 Y35.093 Z-13.206
X153.716 Y35.065 Z-13.158
X153.722 Y35.048 Z-13.106
X153.724 Y35.042 Z-13.05
Z5
X136.125 Y34.75
Z2
Z0.25
G18 G2 X136.375 Z0 I0.25 K0
G1 X136.5
G17 G3 X136.75 Y35 I0 J0.25
X135.25 Y35 Z-0.5 I-0.75 J0
X136.75 Y35 Z-1 I0.75 J0
X135.25 Y35 Z-1.5 I-0.75 J0
X136.75 Y35 Z-2 I0.75 J0
X135.25 Y35 Z-2.5 I-0.75 J0
X136.75 Y35 Z-3 I0.75 J0
X135.25 Y35 Z-3.5 I-0.75 J0
X136.75 Y35 Z-4 I0.75 J0
X135.25 Y35 Z-4.5 I-0.75 J0
X136.75 Y35 Z-5 I0.75 J0
X135.25 Y35 Z-5.5 I-0.75 J0
X136.75 Y35 Z-6 I0.75 J0
X135.25 Y35 Z-6.5 I-0.75 J0
X136.75 Y35 Z-7 I0.75 J0
X135.25 Y35 Z-7.5 I-0.75 J0
X136.75 Y35 Z-8 I0.75 J0
X135.25 Y35 Z-8.5 I-0.75 J0
X136.75 Y35 Z-9 I0.75 J0
X135.25 Y35 Z-9.5 I-0.75 J0
X136.75 Y35 Z-10 I0.75 J0
X135.25 Y35 Z-10.5 I-0.75 J0
X136.75 Y35 Z-11 I0.75 J0
X135.25 Y35 Z-11.5 I-0.75 J0
X136.75 Y35 Z-12 I0.75 J0
X135.25 Y35 Z-12.5 I-0.75 J0
X136.75 Y35 Z-13 I0.75 J0
X135.768 Y35.713 Z-13.3 I-0.75 J0
X136.232 Y34.287 I0.232 J-0.713
X135.768 Y35.713 I-0.232 J0.713
X135.608 Y35.398 I0.077 J-0.238
G1 X135.646 Y35.279
X135.664 Y35.226 Z-13.294
X135.68 Y35.176 Z-13.275
X135.695 Y35.131 Z-13.245
X135.707 Y35.093 Z-13.206
X135.716 Y35.065 Z-13.158
X135.722 Y35.048 Z-13.106
X135.724 Y35.042 Z-13.05
Z5
X92.125 Y34.75
Z2
Z0.25
G18 G2 X92.375 Z0 I0.25 K0
G1 X92.5
G17 G3 X92.75 Y35 I0 J0.25
X91.25 Y35 Z-0.5 I-0.75 J0
X92.75 Y35 Z-1 I0.75 J0
X91.25 Y35 Z-1.5 I-0.75 J0
X92.75 Y35 Z-2 I0.75 J0
X91.25 Y35 Z-2.5 I-0.75 J0
X92.75 Y35 Z-3 I0.75 J0
X91.25 Y35 Z-3.5 I-0.75 J0
X92.75 Y35 Z-4 I0.75 J0
X91.25 Y35 Z-4.5 I-0.75 J0
X92.75 Y35 Z-5 I0.75 J0
X91.25 Y35 Z-5.5 I-0.75 J0
X92.75 Y35 Z-6 I0.75 J0
X91.25 Y35 Z-6.5 I-0.75 J0
X92.75 Y35 Z-7 I0.75 J0
X91.25 Y35 Z-7.5 I-0.75 J0
X92.75 Y35 Z-8 I0.75 J0
X91.25 Y35 Z-8.5 I-0.75 J0
X92.75 Y35 Z-9 I0.75 J0
X91.25 Y35 Z-9.5 I-0.75 J0
X92.75 Y35 Z-10 I0.75 J0
X91.25 Y35 Z-10.5 I-0.75 J0
X92.75 Y35 Z-11 I0.75 J0
X91.25 Y35 Z-11.5 I-0.75 J0
X92.75 Y35 Z-12 I0.75 J0
X91.25 Y35 Z-12.5 I-0.75 J0
X92.75 Y35 Z-13 I0.75 J0
X91.768 Y35.713 Z-13.3 I-0.75 J0
X92.232 Y34.287 I0.232 J-0.713
X91.768 Y35.713 I-0.232 J0.713
X91.608 Y35.398 I0.077 J-0.238
G1 X91.646 Y35.279
X91.664 Y35.226 Z-13.294
X91.68 Y35.176 Z-13.275
X91.695 Y35.131 Z-13.245
X91.707 Y35.093 Z-13.206
X91.716 Y35.065 Z-13.158
X91.722 Y35.048 Z-13.106
X91.724 Y35.042 Z-13.05
Z5
X74.125 Y34.75
Z2
Z0.25
G18 G2 X74.375 Z0 I0.25 K0
G1 X74.5
G17 G3 X74.75 Y35 I0 J0.25
X73.25 Y35 Z-0.5 I-0.75 J0
X74.75 Y35 Z-1 I0.75 J0
X73.25 Y35 Z-1.5 I-0.75 J0
X74.75 Y35 Z-2 I0.75 J0
X73.25 Y35 Z-2.5 I-0.75 J0
X74.75 Y35 Z-3 I0.75 J0
X73.25 Y35 Z-3.5 I-0.75 J0
X74.75 Y35 Z-4 I0.75 J0
X73.25 Y35 Z-4.5 I-0.75 J0
X74.75 Y35 Z-5 I0.75 J0
X73.25 Y35 Z-5.5 I-0.75 J0
X74.75 Y35 Z-6 I0.75 J0
X73.25 Y35 Z-6.5 I-0.75 J0
X74.75 Y35 Z-7 I0.75 J0
X73.25 Y35 Z-7.5 I-0.75 J0
X74.75 Y35 Z-8 I0.75 J0
X73.25 Y35 Z-8.5 I-0.75 J0
X74.75 Y35 Z-9 I0.75 J0
X73.25 Y35 Z-9.5 I-0.75 J0
X74.75 Y35 Z-10 I0.75 J0
X73.25 Y35 Z-10.5 I-0.75 J0
X74.75 Y35 Z-11 I0.75 J0
X73.25 Y35 Z-11.5 I-0.75 J0
X74.75 Y35 Z-12 I0.75 J0
X73.25 Y35 Z-12.5 I-0.75 J0
X74.75 Y35 Z-13 I0.75 J0
X73.768 Y35.713 Z-13.3 I-0.75 J0
X74.232 Y34.287 I0.232 J-0.713
X73.768 Y35.713 I-0.232 J0.713
X73.608 Y35.398 I0.077 J-0.238
G1 X73.646 Y35.279
X73.664 Y35.226 Z-13.294
X73.68 Y35.176 Z-13.275
X73.695 Y35.131 Z-13.245
X73.707 Y35.093 Z-13.206
X73.716 Y35.065 Z-13.158
X73.722 Y35.048 Z-13.106
X73.724 Y35.042 Z-13.05
Z5
X15.175 Y34.75
Z-3.95
Z-5.7
G18 G2 X15.425 Z-5.95 I0.25 K0
G1 X15.55
G17 G3 X15.8 Y35 I0 J0.25
X12.2 Y35 Z-6.45 I-1.8 J0
X15.8 Y35 Z-6.95 I1.8 J0
X12.2 Y35 Z-7.45 I-1.8 J0
X15.8 Y35 Z-7.95 I1.8 J0
X12.2 Y35 Z-8.45 I-1.8 J0
X15.8 Y35 Z-8.95 I1.8 J0
X12.2 Y35 Z-9.45 I-1.8 J0
X15.8 Y35 Z-9.95 I1.8 J0
X12.2 Y35 Z-10.45 I-1.8 J0
X15.8 Y35 Z-10.95 I1.8 J0
X12.2 Y35 Z-11.45 I-1.8 J0
X15.8 Y35 Z-11.95 I1.8 J0
X12.2 Y35 Z-12.45 I-1.8 J0
X15.8 Y35 Z-12.95 I1.8 J0
X12.942 Y36.456 Z-13.3 I-1.8 J0
X15.058 Y33.544 I1.058 J-1.456
X12.942 Y36.456 I-1.058 J1.456
X12.887 Y36.107 I0.147 J-0.202
G1 X12.96 Y36.006
X12.993 Y35.961 Z-13.294
X13.024 Y35.918 Z-13.275
X13.052 Y35.88 Z-13.245
X13.075 Y35.848 Z-13.206
X13.093 Y35.824 Z-13.158
X13.103 Y35.809 Z-13.106
X13.107 Y35.804 Z-13.05
Z10
(When using Fusion 360 for Personal Use, the feedrate of)
(rapid moves is reduced to match the feedrate of cutting)
(moves, which can increase machining time. Unrestricted rapid)
(moves are available with a Fusion 360 Subscription.)

(2D Contour8)
G0 X152.165 Y61.45
G1 Z10 F1000
Z5
Z2.05 F333.3
Z-1.025
X159.5 F500
G2 X160.95 Y60 I0 J-1.45
G1 Y59.25
X167.05
Y60
G2 X168.5 Y61.45 I1.45 J0
G1 X176.15
Y62.2
X151.85
Y61.45
X152.165
Z-2.05 F333.3
X159.5 F500
G2 X160.95 Y60 I0 J-1.45
G1 Y59.25
X167.05
Y60
G2 X168.5 Y61.45 I1.45 J0
G1 X176.15
Y62.2
X151.85
Y61.45
X152.165
Z-3.075 F333.3
X159.5 F500
G2 X160.95 Y60 I0 J-1.45
G1 Y59.25
X167.05
Y60
G2 X168.5 Y61.45 I1.45 J0
G1 X176.15
Y62.2
X151.85
Y61.45
X152.165
Z-4.1 F333.3
X159.5 F500
G2 X160.95 Y60 I0 J-1.45
G1 Y59.25
X167.05
Y60
G2 X168.5 Y61.45 I1.45 J0
G1 X176.15
Y62.2
X151.85
Y61.45
X152.165
Z-5.125 F333.3
X159.5 F500
G2 X160.95 Y60 I0 J-1.45
G1 Y59.25
X167.05
Y60
G2 X168.5 Y61.45 I1.45 J0
G1 X176.15
Y62.2
X151.85
Y61.45
X152.165
Z-6.15 F333.3
X159.5 F500
G2 X160.95 Y60 I0 J-1.45
G1 Y59.25
X167.05
Y60
G2 X168.5 Y61.45 I1.45 J0
G1 X176.15
Y62.2
X151.85
Y61.45
X152.165
Z-7.175 F333.3
X159.5 F500
G2 X160.95 Y60 I0 J-1.45
G1 Y59.25
X167.05
Y60
G2 X168.5 Y61.45 I1.45 J0
G1 X176.15
Y62.2
X151.85
Y61.45
X152.165
Z-8.2 F333.3
X159.5 F500
G2 X160.95 Y60 I0 J-1.45
G1 Y59.25
X167.05
Y60
G2 X168.5 Y61.45 I1.45 J0
G1 X176.15
Y62.2
X151.85
Y61.45
X152.165
Z-9.225 F333.3
X159.5 F500
G2 X160.95 Y60 I0 J-1.45
G1 Y59.25
X167.05
Y60
G2 X168.5 Y61.45 I1.45 J0
G1 X176.15
Y62.2
X151.85
Y61.45
X152.165
Z-10.25 F333.3
X159.5 F500
G2 X160.95 Y60 I0 J-1.45
G1 Y59.25
X167.05
Y60
G2 X168.5 Y61.45 I1.45 J0
G1 X176.15
Y62.2
X151.85
Y61.45
X152.165
Z-11.275 F333.3
X159.5 F500
G2 X160.95 Y60 I0 J-1.45
G1 Y59.25
X167.05
Y60
G2 X168.5 Y61.45 I1.45 J0
G1 X176.15
Y62.2
X151.85
Y61.45
X152.165
Z-12.3 F333.3
X159.5 F1000
G2 X160.95 Y60 I0 J-1.45
G1 Y59.25
X167.05
Y60
G2 X168.5 Y61.45 I1.45 J0
G1 X176.15
Y62.2
X151.85
Y61.45
X152.165
X152.212 Y61.443
X152.255 Y61.423
X152.291 Y61.391
X152.315 Y61.35
X152.34 Y61.309
X152.375 Y61.277
X152.418 Y61.257
X152.465 Y61.25
X159.5 F500
G2 X160.75 Y60 I0 J-1.25
G1 Y59.05
X167.25
Y60
G2 X168.5 Y61.25 I1.25 J0
G1 X176.35
Y62.4
X151.65
Y61.25
X152.465
Z5 F1000
X152.165 Y7.8
Z2.05 F333.3
Z-1.025
X176.15 F500
Y8.55
X168.5
G2 X167.05 Y10 I0 J1.45
G1 Y10.75
X160.95
Y10
G2 X159.5 Y8.55 I-1.45 J0
G1 X151.85
Y7.8
X152.165
Z-2.05 F333.3
X176.15 F500
Y8.55
X168.5
G2 X167.05 Y10 I0 J1.45
G1 Y10.75
X160.95
Y10
G2 X159.5 Y8.55 I-1.45 J0
G1 X151.85
Y7.8
X152.165
Z-3.075 F333.3
X176.15 F500
Y8.55
X168.5
G2 X167.05 Y10 I0 J1.45
G1 Y10.75
X160.95
Y10
G2 X159.5 Y8.55 I-1.45 J0
G1 X151.85
Y7.8
X152.165
Z-4.1 F333.3
X176.15 F500
Y8.55
X168.5
G2 X167.05 Y10 I0 J1.45
G1 Y10.75
X160.95
Y10
G2 X159.5 Y8.55 I-1.45 J0
G1 X151.85
Y7.8
X152.165
Z-5.125 F333.3
X176.15 F500
Y8.55
X168.5
G2 X167.05 Y10 I0 J1.45
G1 Y10.75
X160.95
Y10
G2 X159.5 Y8.55 I-1.45 J0
G1 X151.85
Y7.8
X152.165
Z-6.15 F333.3
X176.15 F500
Y8.55
X168.5
G2 X167.05 Y10 I0 J1.45
G1 Y10.75
X160.95
Y10
G2 X159.5 Y8.55 I-1.45 J0
G1 X151.85
Y7.8
X152.165
Z-7.175 F333.3
X176.15 F500
Y8.55
X168.5
G2 X167.05 Y10 I0 J1.45
G1 Y10.75
X160.95
Y10
G2 X159.5 Y8.55 I-1.45 J0
G1 X151.85
Y7.8
X152.165
Z-8.2 F333.3
X176.15 F500
Y8.55
X168.5
G2 X167.05 Y10 I0 J1.45
G1 Y10.75
X160.95
Y10
G2 X159.5 Y8.55 I-1.45 J0
G1 X151.85
Y7.8
X152.165
Z-9.225 F333.3
X176.15 F500
Y8.55
X168.5
G2 X167.05 Y10 I0 J1.45
G1 Y10.75
X160.95
Y10
G2 X159.5 Y8.55 I-1.45 J0
G1 X151.85
Y7.8
X152.165
Z-10.25 F333.3
X176.15 F500
Y8.55
X168.5
G2 X167.05 Y10 I0 J1.45
G1 Y10.75
X160.95
Y10
G2 X159.5 Y8.55 I-1.45 J0
G1 X151.85
Y7.8
X152.165
Z-11.275 F333.3
X176.15 F500
Y8.55
X168.5
G2 X167.05 Y10 I0 J1.45
G1 Y10.75
X160.95
Y10
G2 X159.5 Y8.55 I-1.45 J0
G1 X151.85
Y7.8
X152.165
Z-12.3 F333.3
X176.15 F1000
Y8.55
X168.5
G2 X167.05 Y10 I0 J1.45
G1 Y10.75
X160.95
Y10
G2 X159.5 Y8.55 I-1.45 J0
G1 X151.85
Y7.8
X152.165
X152.212 Y7.793
X152.255 Y7.773
X152.291 Y7.741
X152.315 Y7.7
X152.34 Y7.659
X152.375 Y7.627
X152.418 Y7.607
X152.465 Y7.6
X176.35 F500
Y8.75
X168.5
G2 X167.25 Y10 I0 J1.25
G1 Y10.95
X160.75
Y10
G2 X159.5 Y8.75 I-1.25 J0
G1 X151.65
Y7.6
X152.465
Z5 F1000
X52.165 Y7.8
Z2.05 F333.3
Z-1.025
X76.15 F500
Y8.55
X68.5
G2 X67.05 Y10 I0 J1.45
G1 Y10.75
X60.95
Y10
G2 X59.5 Y8.55 I-1.45 J0
G1 X51.85
Y7.8
X52.165
Z-2.05 F333.3
X76.15 F500
Y8.55
X68.5
G2 X67.05 Y10 I0 J1.45
G1 Y10.75
X60.95
Y10
G2 X59.5 Y8.55 I-1.45 J0
G1 X51.85
Y7.8
X52.165
Z-3.075 F333.3
X76.15 F500
Y8.55
X68.5
G2 X67.05 Y10 I0 J1.45
G1 Y10.75
X60.95
Y10
G2 X59.5 Y8.55 I-1.45 J0
G1 X51.85
Y7.8
X52.165
Z-4.1 F333.3
X76.15 F500
Y8.55
X68.5
G2 X67.05 Y10 I0 J1.45
G1 Y10.75
X60.95
Y10
G2 X59.5 Y8.55 I-1.45 J0
G1 X51.85
Y7.8
X52.165
Z-5.125 F333.3
X76.15 F500
Y8.55
X68.5
G2 X67.05 Y10 I0 J1.45
G1 Y10.75
X60.95
Y10
G2 X59.5 Y8.55 I-1.45 J0
G1 X51.85
Y7.8
X52.165
Z-6.15 F333.3
X76.15 F500
Y8.55
X68.5
G2 X67.05 Y10 I0 J1.45
G1 Y10.75
X60.95
Y10
G2 X59.5 Y8.55 I-1.45 J0
G1 X51.85
Y7.8
X52.165
Z-7.175 F333.3
X76.15 F500
Y8.55
X68.5
G2 X67.05 Y10 I0 J1.45
G1 Y10.75
X60.95
Y10
G2 X59.5 Y8.55 I-1.45 J0
G1 X51.85
Y7.8
X52.165
Z-8.2 F333.3
X76.15 F500
Y8.55
X68.5
G2 X67.05 Y10 I0 J1.45
G1 Y10.75
X60.95
Y10
G2 X59.5 Y8.55 I-1.45 J0
G1 X51.85
Y7.8
X52.165
Z-9.225 F333.3
X76.15 F500
Y8.55
X68.5
G2 X67.05 Y10 I0 J1.45
G1 Y10.75
X60.95
Y10
G2 X59.5 Y8.55 I-1.45 J0
G1 X51.85
Y7.8
X52.165
Z-10.25 F333.3
X76.15 F500
Y8.55
X68.5
G2 X67.05 Y10 I0 J1.45
G1 Y10.75
X60.95
Y10
G2 X59.5 Y8.55 I-1.45 J0
G1 X51.85
Y7.8
X52.165
Z-11.275 F333.3
X76.15 F500
Y8.55
X68.5
G2 X67.05 Y10 I0 J1.45
G1 Y10.75
X60.95
Y10
G2 X59.5 Y8.55 I-1.45 J0
G1 X51.85
Y7.8
X52.165
Z-12.3 F333.3
X76.15 F1000
Y8.55
X68.5
G2 X67.05 Y10 I0 J1.45
G1 Y10.75
X60.95
Y10
G2 X59.5 Y8.55 I-1.45 J0
G1 X51.85
Y7.8
X52.165
X52.212 Y7.793
X52.255 Y7.773
X52.291 Y7.741
X52.315 Y7.7
X52.34 Y7.659
X52.375 Y7.627
X52.418 Y7.607
X52.465 Y7.6
X76.35 F500
Y8.75
X68.5
G2 X67.25 Y10 I0 J1.25
G1 Y10.95
X60.75
Y10
G2 X59.5 Y8.75 I-1.25 J0
G1 X51.65
Y7.6
X52.465
Z5 F1000
X52.165 Y61.45
Z2.05 F333.3
Z-1.025
X59.5 F500
G2 X60.95 Y60 I0 J-1.45
G1 Y59.25
X67.05
Y60
G2 X68.5 Y61.45 I1.45 J0
G1 X76.15
Y62.2
X51.85
Y61.45
X52.165
Z-2.05 F333.3
X59.5 F500
G2 X60.95 Y60 I0 J-1.45
G1 Y59.25
X67.05
Y60
G2 X68.5 Y61.45 I1.45 J0
G1 X76.15
Y62.2
X51.85
Y61.45
X52.165
Z-3.075 F333.3
X59.5 F500
G2 X60.95 Y60 I0 J-1.45
G1 Y59.25
X67.05
Y60
G2 X68.5 Y61.45 I1.45 J0
G1 X76.15
Y62.2
X51.85
Y61.45
X52.165
Z-4.1 F333.3
X59.5 F500
G2 X60.95 Y60 I0 J-1.45
G1 Y59.25
X67.05
Y60
G2 X68.5 Y61.45 I1.45 J0
G1 X76.15
Y62.2
X51.85
Y61.45
X52.165
Z-5.125 F333.3
X59.5 F500
G2 X60.95 Y60 I0 J-1.45
G1 Y59.25
X67.05
Y60
G2 X68.5 Y61.45 I1.45 J0
G1 X76.15
Y62.2
X51.85
Y61.45
X52.165
Z-6.15 F333.3
X59.5 F500
G2 X60.95 Y60 I0 J-1.45
G1 Y59.25
X67.05
Y60
G2 X68.5 Y61.45 I1.45 J0
G1 X76.15
Y62.2
X51.85
Y61.45
X52.165
Z-7.175 F333.3
X59.5 F500
G2 X60.95 Y60 I0 J-1.45
G1 Y59.25
X67.05
Y60
G2 X68.5 Y61.45 I1.45 J0
G1 X76.15
Y62.2
X51.85
Y61.45
X52.165
Z-8.2 F333.3
X59.5 F500
G2 X60.95 Y60 I0 J-1.45
G1 Y59.25
X67.05
Y60
G2 X68.5 Y61.45 I1.45 J0
G1 X76.15
Y62.2
X51.85
Y61.45
X52.165
Z-9.225 F333.3
X59.5 F500
G2 X60.95 Y60 I0 J-1.45
G1 Y59.25
X67.05
Y60
G2 X68.5 Y61.45 I1.45 J0
G1 X76.15
Y62.2
X51.85
Y61.45
X52.165
Z-10.25 F333.3
X59.5 F500
G2 X60.95 Y60 I0 J-1.45
G1 Y59.25
X67.05
Y60
G2 X68.5 Y61.45 I1.45 J0
G1 X76.15
Y62.2
X51.85
Y61.45
X52.165
Z-11.275 F333.3
X59.5 F500
G2 X60.95 Y60 I0 J-1.45
G1 Y59.25
X67.05
Y60
G2 X68.5 Y61.45 I1.45 J0
G1 X76.15
Y62.2
X51.85
Y61.45
X52.165
Z-12.3 F333.3
X59.5 F1000
G2 X60.95 Y60 I0 J-1.45
G1 Y59.25
X67.05
Y60
G2 X68.5 Y61.45 I1.45 J0
G1 X76.15
Y62.2
X51.85
Y61.45
X52.165
X52.212 Y61.443
X52.255 Y61.423
X52.291 Y61.391
X52.315 Y61.35
X52.34 Y61.309
X52.375 Y61.277
X52.418 Y61.257
X52.465 Y61.25
X59.5 F500
G2 X60.75 Y60 I0 J-1.25
G1 Y59.05
X67.25
Y60
G2 X68.5 Y61.25 I1.25 J0
G1 X76.35
Y62.4
X51.65
Y61.25
X52.465
Z5 F1000
X29.297 Y-1.45
Z2.05 F333.3
Z-1.025
X14 F500
G2 X12.55 Y0 I0 J1.45
G1 Y17.144
G3 X11.812 Y17.661 I-0.55 J0
G1 X3.18 Y14.519
G2 X-1.45 Y17.761 I-1.18 J3.242
G1 Y52.239
G2 X3.18 Y55.481 I3.45 J0
G1 X11.812 Y52.339
G3 X12.55 Y52.856 I0.188 J0.517
G1 Y70
G2 X14 Y71.45 I1.45 J0
G1 X107.69
G2 X109.14 Y70 I0 J-1.45
G1 Y38.05
G2 X107.69 Y36.6 I-1.45 J0
G1 X107.54
Y36.3
X120.46
Y36.6
X120.31
G2 X118.86 Y38.05 I0 J1.45
G1 Y70
G2 X120.31 Y71.45 I1.45 J0
G1 X214
G2 X215.45 Y70 I0 J-1.45
G1 Y52.856
G3 X216.188 Y52.339 I0.55 J0
G1 X224.82 Y55.481
G2 X229.45 Y52.239 I1.18 J-3.242
G1 Y17.761
G2 X224.82 Y14.519 I-3.45 J0
G1 X216.188 Y17.661
G3 X215.45 Y17.144 I-0.188 J-0.517
G1 Y0
G2 X214 Y-1.45 I-1.45 J0
G1 X29.297
Z-2.05 F333.3
X14 F500
G2 X12.55 Y0 I0 J1.45
G1 Y17.144
G3 X11.812 Y17.661 I-0.55 J0
G1 X3.18 Y14.519
G2 X-1.45 Y17.761 I-1.18 J3.242
G1 Y52.239
G2 X3.18 Y55.481 I3.45 J0
G1 X11.812 Y52.339
G3 X12.55 Y52.856 I0.188 J0.517
G1 Y70
G2 X14 Y71.45 I1.45 J0
G1 X107.69
G2 X109.14 Y70 I0 J-1.45
G1 Y38.05
G2 X107.69 Y36.6 I-1.45 J0
G1 X107.54
Y36.3
X120.46
Y36.6
X120.31
G2 X118.86 Y38.05 I0 J1.45
G1 Y70
G2 X120.31 Y71.45 I1.45 J0
G1 X214
G2 X215.45 Y70 I0 J-1.45
G1 Y52.856
G3 X216.188 Y52.339 I0.55 J0
G1 X224.82 Y55.481
G2 X229.45 Y52.239 I1.18 J-3.242
G1 Y17.761
G2 X224.82 Y14.519 I-3.45 J0
G1 X216.188 Y17.661
G3 X215.45 Y17.144 I-0.188 J-0.517
G1 Y0
G2 X214 Y-1.45 I-1.45 J0
G1 X29.297
Z-3.075 F333.3
X14 F500
G2 X12.55 Y0 I0 J1.45
G1 Y17.144
G3 X11.812 Y17.661 I-0.55 J0
G1 X3.18 Y14.519
G2 X-1.45 Y17.761 I-1.18 J3.242
G1 Y52.239
G2 X3.18 Y55.481 I3.45 J0
G1 X11.812 Y52.339
G3 X12.55 Y52.856 I0.188 J0.517
G1 Y70
G2 X14 Y71.45 I1.45 J0
G1 X107.69
G2 X109.14 Y70 I0 J-1.45
G1 Y38.05
G2 X107.69 Y36.6 I-1.45 J0
G1 X107.54
Y36.3
X120.46
Y36.6
X120.31
G2 X118.86 Y38.05 I0 J1.45
G1 Y70
G2 X120.31 Y71.45 I1.45 J0
G1 X214
G2 X215.45 Y70 I0 J-1.45
G1 Y52.856
G3 X216.188 Y52.339 I0.55 J0
G1 X224.82 Y55.481
G2 X229.45 Y52.239 I1.18 J-3.242
G1 Y17.761
G2 X224.82 Y14.519 I-3.45 J0
G1 X216.188 Y17.661
G3 X215.45 Y17.144 I-0.188 J-0.517
G1 Y0
G2 X214 Y-1.45 I-1.45 J0
G1 X29.297
Z-4.1 F333.3
X14 F500
G2 X12.55 Y0 I0 J1.45
G1 Y17.144
G3 X11.812 Y17.661 I-0.55 J0
G1 X3.18 Y14.519
G2 X-1.45 Y17.761 I-1.18 J3.242
G1 Y52.239
G2 X3.18 Y55.481 I3.45 J0
G1 X11.812 Y52.339
G3 X12.55 Y52.856 I0.188 J0.517
G1 Y70
G2 X14 Y71.45 I1.45 J0
G1 X107.69
G2 X109.14 Y70 I0 J-1.45
G1 Y38.05
G2 X107.69 Y36.6 I-1.45 J0
G1 X107.54
Y36.3
X120.46
Y36.6
X120.31
G2 X118.86 Y38.05 I0 J1.45
G1 Y70
G2 X120.31 Y71.45 I1.45 J0
G1 X214
G2 X215.45 Y70 I0 J-1.45
G1 Y52.856
G3 X216.188 Y52.339 I0.55 J0
G1 X224.82 Y55.481
G2 X229.45 Y52.239 I1.18 J-3.242
G1 Y17.761
G2 X224.82 Y14.519 I-3.45 J0
G1 X216.188 Y17.661
G3 X215.45 Y17.144 I-0.188 J-0.517
G1 Y0
G2 X214 Y-1.45 I-1.45 J0
G1 X29.297
Z-5.125 F333.3
X14 F500
G2 X12.55 Y0 I0 J1.45
G1 Y17.144
G3 X11.812 Y17.661 I-0.55 J0
G1 X3.18 Y14.519
G2 X-1.45 Y17.761 I-1.18 J3.242
G1 Y52.239
G2 X3.18 Y55.481 I3.45 J0
G1 X11.812 Y52.339
G3 X12.55 Y52.856 I0.188 J0.517
G1 Y70
G2 X14 Y71.45 I1.45 J0
G1 X107.69
G2 X109.14 Y70 I0 J-1.45
G1 Y38.05
G2 X107.69 Y36.6 I-1.45 J0
G1 X107.54
Y36.3
X120.46
Y36.6
X120.31
G2 X118.86 Y38.05 I0 J1.45
G1 Y70
G2 X120.31 Y71.45 I1.45 J0
G1 X214
G2 X215.45 Y70 I0 J-1.45
G1 Y52.856
G3 X216.188 Y52.339 I0.55 J0
G1 X224.82 Y55.481
G2 X229.45 Y52.239 I1.18 J-3.242
G1 Y17.761
G2 X224.82 Y14.519 I-3.45 J0
G1 X216.188 Y17.661
G3 X215.45 Y17.144 I-0.188 J-0.517
G1 Y0
G2 X214 Y-1.45 I-1.45 J0
G1 X29.297
Z-6.15 F333.3
X14 F500
G2 X12.55 Y0 I0 J1.45
G1 Y17.144
G3 X11.812 Y17.661 I-0.55 J0
G1 X3.18 Y14.519
G2 X-1.45 Y17.761 I-1.18 J3.242
G1 Y52.239
G2 X3.18 Y55.481 I3.45 J0
G1 X11.812 Y52.339
G3 X12.55 Y52.856 I0.188 J0.517
G1 Y70
G2 X14 Y71.45 I1.45 J0
G1 X107.69
G2 X109.14 Y70 I0 J-1.45
G1 Y38.05
G2 X107.69 Y36.6 I-1.45 J0
G1 X107.54
Y36.3
X120.46
Y36.6
X120.31
G2 X118.86 Y38.05 I0 J1.45
G1 Y70
G2 X120.31 Y71.45 I1.45 J0
G1 X214
G2 X215.45 Y70 I0 J-1.45
G1 Y52.856
G3 X216.188 Y52.339 I0.55 J0
G1 X224.82 Y55.481
G2 X229.45 Y52.239 I1.18 J-3.242
G1 Y17.761
G2 X224.82 Y14.519 I-3.45 J0
G1 X216.188 Y17.661
G3 X215.45 Y17.144 I-0.188 J-0.517
G1 Y0
G2 X214 Y-1.45 I-1.45 J0
G1 X29.297
Z-7.175 F333.3
X14 F500
G2 X12.55 Y0 I0 J1.45
G1 Y17.144
G3 X11.812 Y17.661 I-0.55 J0
G1 X3.18 Y14.519
G2 X-1.45 Y17.761 I-1.18 J3.242
G1 Y52.239
G2 X3.18 Y55.481 I3.45 J0
G1 X11.812 Y52.339
G3 X12.55 Y52.856 I0.188 J0.517
G1 Y70
G2 X14 Y71.45 I1.45 J0
G1 X107.69
G2 X109.14 Y70 I0 J-1.45
G1 Y38.05
G2 X107.69 Y36.6 I-1.45 J0
G1 X107.54
Y36.3
X120.46
Y36.6
X120.31
G2 X118.86 Y38.05 I0 J1.45
G1 Y70
G2 X120.31 Y71.45 I1.45 J0
G1 X214
G2 X215.45 Y70 I0 J-1.45
G1 Y52.856
G3 X216.188 Y52.339 I0.55 J0
G1 X224.82 Y55.481
G2 X229.45 Y52.239 I1.18 J-3.242
G1 Y17.761
G2 X224.82 Y14.519 I-3.45 J0
G1 X216.188 Y17.661
G3 X215.45 Y17.144 I-0.188 J-0.517
G1 Y0
G2 X214 Y-1.45 I-1.45 J0
G1 X29.297
Z-8.2 F333.3
X14 F500
G2 X12.55 Y0 I0 J1.45
G1 Y17.144
G3 X11.812 Y17.661 I-0.55 J0
G1 X3.18 Y14.519
G2 X-1.45 Y17.761 I-1.18 J3.242
G1 Y52.239
G2 X3.18 Y55.481 I3.45 J0
G1 X11.812 Y52.339
G3 X12.55 Y52.856 I0.188 J0.517
G1 Y70
G2 X14 Y71.45 I1.45 J0
G1 X107.69
G2 X109.14 Y70 I0 J-1.45
G1 Y38.05
G2 X107.69 Y36.6 I-1.45 J0
G1 X107.54
Y36.3
X120.46
Y36.6
X120.31
G2 X118.86 Y38.05 I0 J1.45
G1 Y70
G2 X120.31 Y71.45 I1.45 J0
G1 X214
G2 X215.45 Y70 I0 J-1.45
G1 Y52.856
G3 X216.188 Y52.339 I0.55 J0
G1 X224.82 Y55.481
G2 X229.45 Y52.239 I1.18 J-3.242
G1 Y17.761
G2 X224.82 Y14.519 I-3.45 J0
G1 X216.188 Y17.661
G3 X215.45 Y17.144 I-0.188 J-0.517
G1 Y0
G2 X214 Y-1.45 I-1.45 J0
G1 X29.297
Z-9.225 F333.3
X14 F500
G2 X12.55 Y0 I0 J1.45
G1 Y17.144
G3 X11.812 Y17.661 I-0.55 J0
G1 X3.18 Y14.519
G2 X-1.45 Y17.761 I-1.18 J3.242
G1 Y52.239
G2 X3.18 Y55.481 I3.45 J0
G1 X11.812 Y52.339
G3 X12.55 Y52.856 I0.188 J0.517
G1 Y70
G2 X14 Y71.45 I1.45 J0
G1 X107.69
G2 X109.14 Y70 I0 J-1.45
G1 Y38.05
G2 X107.69 Y36.6 I-1.45 J0
G1 X107.54
Y36.3
X120.46
Y36.6
X120.31
G2 X118.86 Y38.05 I0 J1.45
G1 Y70
G2 X120.31 Y71.45 I1.45 J0
G1 X214
G2 X215.45 Y70 I0 J-1.45
G1 Y52.856
G3 X216.188 Y52.339 I0.55 J0
G1 X224.82 Y55.481
G2 X229.45 Y52.239 I1.18 J-3.242
G1 Y17.761
G2 X224.82 Y14.519 I-3.45 J0
G1 X216.188 Y17.661
G3 X215.45 Y17.144 I-0.188 J-0.517
G1 Y0
G2 X214 Y-1.45 I-1.45 J0
G1 X29.297
Z-10.25 F333.3
X14 F500
G2 X12.55 Y0 I0 J1.45
G1 Y6.66
Z-9.5
Y12.16
Z-10.25 F333.3
Y17.144 F500
G3 X11.812 Y17.661 I-0.55 J0
G1 X3.18 Y14.519
G2 X-1.45 Y17.761 I-1.18 J3.242
G1 Y52.239
G2 X3.18 Y55.481 I3.45 J0
G1 X11.812 Y52.339
G3 X12.55 Y52.856 I0.188 J0.517
G1 Y59.754
Z-9.5
Y65.254
Z-10.25 F333.3
Y70 F500
G2 X14 Y71.45 I1.45 J0
G1 X107.69
G2 X109.14 Y70 I0 J-1.45
G1 Y38.05
G2 X107.69 Y36.6 I-1.45 J0
G1 X107.54
Y36.3
X111.808
Z-9.5
X117.308
Z-10.25 F333.3
X120.46 F500
Y36.6
X120.31
G2 X118.86 Y38.05 I0 J1.45
G1 Y70
G2 X120.31 Y71.45 I1.45 J0
G1 X214
G2 X215.45 Y70 I0 J-1.45
G1 Y63.934
Z-9.5
Y58.434
Z-10.25 F333.3
Y52.856 F500
G3 X216.188 Y52.339 I0.55 J0
G1 X224.82 Y55.481
G2 X229.45 Y52.239 I1.18 J-3.242
G1 Y17.761
G2 X224.82 Y14.519 I-3.45 J0
G1 X216.188 Y17.661
G3 X215.45 Y17.144 I-0.188 J-0.517
G1 Y11.728
Z-9.5
Y6.228
Z-10.25 F333.3
Y0 F500
G2 X214 Y-1.45 I-1.45 J0
G1 X29.297
Z-11.275 F333.3
X14 F500
G2 X12.55 Y0 I0 J1.45
G1 Y6.66
Z-9.5
Y12.16
Z-11.275 F333.3
Y17.144 F500
G3 X11.812 Y17.661 I-0.55 J0
G1 X3.18 Y14.519
G2 X-1.45 Y17.761 I-1.18 J3.242
G1 Y52.239
G2 X3.18 Y55.481 I3.45 J0
G1 X11.812 Y52.339
G3 X12.55 Y52.856 I0.188 J0.517
G1 Y59.754
Z-9.5
Y65.254
Z-11.275 F333.3
Y70 F500
G2 X14 Y71.45 I1.45 J0
G1 X107.69
G2 X109.14 Y70 I0 J-1.45
G1 Y38.05
G2 X107.69 Y36.6 I-1.45 J0
G1 X107.54
Y36.3
X111.808
Z-9.5
X117.308
Z-11.275 F333.3
X120.46 F500
Y36.6
X120.31
G2 X118.86 Y38.05 I0 J1.45
G1 Y70
G2 X120.31 Y71.45 I1.45 J0
G1 X214
G2 X215.45 Y70 I0 J-1.45
G1 Y63.934
Z-9.5
Y58.434
Z-11.275 F333.3
Y52.856 F500
G3 X216.188 Y52.339 I0.55 J0
G1 X224.82 Y55.481
G2 X229.45 Y52.239 I1.18 J-3.242
G1 Y17.761
G2 X224.82 Y14.519 I-3.45 J0
G1 X216.188 Y17.661
G3 X215.45 Y17.144 I-0.188 J-0.517
G1 Y11.728
Z-9.5
Y6.228
Z-11.275 F333.3
Y0 F500
G2 X214 Y-1.45 I-1.45 J0
G1 X29.297
Z-12.3 F333.3
X14 F1000
G2 X12.55 Y0 I0 J1.45
G1 Y6.66
Z-9.5
Y12.16
Z-12.3 F333.3
Y17.144 F1000
G3 X11.812 Y17.661 I-0.55 J0
G1 X3.18 Y14.519
G2 X-1.45 Y17.761 I-1.18 J3.242
G1 Y52.239
G2 X3.18 Y55.481 I3.45 J0
G1 X11.812 Y52.339
G3 X12.55 Y52.856 I0.188 J0.517
G1 Y59.754
Z-9.5
Y65.254
Z-12.3 F333.3
Y70 F1000
G2 X14 Y71.45 I1.45 J0
G1 X107.69
G2 X109.14 Y70 I0 J-1.45
G1 Y38.05
G2 X107.69 Y36.6 I-1.45 J0
G1 X107.54
Y36.3
X111.808
Z-9.5
X117.308
Z-12.3 F333.3
X120.46 F1000
Y36.6
X120.31
G2 X118.86 Y38.05 I0 J1.45
G1 Y70
G2 X120.31 Y71.45 I1.45 J0
G1 X214
G2 X215.45 Y70 I0 J-1.45
G1 Y63.934
Z-9.5
Y58.434
Z-12.3 F333.3
Y52.856 F1000
G3 X216.188 Y52.339 I0.55 J0
G1 X224.82 Y55.481
G2 X229.45 Y52.239 I1.18 J-3.242
G1 Y17.761
G2 X224.82 Y14.519 I-3.45 J0
G1 X216.188 Y17.661
G3 X215.45 Y17.144 I-0.188 J-0.517
G1 Y11.728
Z-9.5
Y6.228
Z-12.3 F333.3
Y0 F1000
G2 X214 Y-1.45 I-1.45 J0
G1 X29.297
X29.25 Y-1.443
X29.207 Y-1.423
X29.172 Y-1.391
X29.147 Y-1.35
X29.123 Y-1.309
X29.087 Y-1.277
X29.044 Y-1.257
X28.997 Y-1.25
X14 F500
G2 X12.75 Y0 I0 J1.25
G1 Y6.66
Z-9.5
Y12.16
Z-12.3 F333.3
Y17.144 F500
G3 X11.744 Y17.848 I-0.75 J0
G1 X3.112 Y14.707
G2 X-1.25 Y17.761 I-1.112 J3.054
G1 Y52.239
G2 X3.112 Y55.293 I3.25 J0
G1 X11.744 Y52.152
G3 X12.75 Y52.856 I0.256 J0.705
G1 Y59.754
Z-9.5
Y65.254
Z-12.3 F333.3
Y70 F500
G2 X14 Y71.25 I1.25 J0
G1 X107.69
G2 X108.94 Y70 I0 J-1.25
G1 Y38.05
G2 X107.69 Y36.8 I-1.25 J0
G1 X107.34
Y36.1
X111.808
Z-9.5
X117.308
Z-12.3 F333.3
X120.66 F500
Y36.8
X120.31
G2 X119.06 Y38.05 I0 J1.25
G1 Y70
G2 X120.31 Y71.25 I1.25 J0
G1 X214
G2 X215.25 Y70 I0 J-1.25
G1 Y63.934
Z-9.5
Y58.434
Z-12.3 F333.3
Y52.856 F500
G3 X216.256 Y52.152 I0.75 J0
G1 X224.888 Y55.293
G2 X229.25 Y52.239 I1.112 J-3.054
G1 Y17.761
G2 X224.889 Y14.707 I-3.25 J0
G1 X216.256 Y17.848
G3 X215.25 Y17.144 I-0.256 J-0.705
G1 Y11.728
Z-9.5
Y6.228
Z-12.3 F333.3
Y0 F500
G2 X214 Y-1.25 I-1.25 J0
G1 X28.997
Z10 F1000
M5
M30
