(1092_wall_fix_only_permiter)
(T1  D=2.5 CR=0 - ZMIN=-12.3 - flat end mill)
G90 G94
G17
G21
(When using Fusion 360 for Personal Use, the feedrate of)
(rapid moves is reduced to match the feedrate of cutting)
(moves, which can increase machining time. Unrestricted rapid)
(moves are available with a Fusion 360 Subscription.)

(2D Contour fix perm)
T1
S5000 M3
G54
G0 X29.297 Y-1.45
Z10
G1 Z5 F1000
Z3.05 F333.3
Z-1.757
X14 F500
G2 X12.55 Y0 I0 J1.45
G1 Y17.144
G3 X11.812 Y17.661 I-0.55 J0
G1 X3.18 Y14.519
G2 X-1.45 Y17.761 I-1.18 J3.242
G1 Y52.239
G2 X3.18 Y55.481 I3.45 J0
G1 X11.812 Y52.339
G3 X12.55 Y52.856 I0.188 J0.517
G1 Y70
G2 X14 Y71.45 I1.45 J0
G1 X107.69
G2 X109.14 Y70 I0 J-1.45
G1 Y38.05
G2 X107.69 Y36.6 I-1.45 J0
G1 X107.54
Y36.3
X120.46
Y36.6
X120.31
G2 X118.86 Y38.05 I0 J1.45
G1 Y70
G2 X120.31 Y71.45 I1.45 J0
G1 X214
G2 X215.45 Y70 I0 J-1.45
G1 Y52.856
G3 X216.188 Y52.339 I0.55 J0
G1 X224.82 Y55.481
G2 X229.45 Y52.239 I1.18 J-3.242
G1 Y17.761
G2 X224.82 Y14.519 I-3.45 J0
G1 X216.188 Y17.661
G3 X215.45 Y17.144 I-0.188 J-0.517
G1 Y0
G2 X214 Y-1.45 I-1.45 J0
G1 X29.297
Z-3.514 F333.3
X14 F500
G2 X12.55 Y0 I0 J1.45
G1 Y17.144
G3 X11.812 Y17.661 I-0.55 J0
G1 X3.18 Y14.519
G2 X-1.45 Y17.761 I-1.18 J3.242
G1 Y52.239
G2 X3.18 Y55.481 I3.45 J0
G1 X11.812 Y52.339
G3 X12.55 Y52.856 I0.188 J0.517
G1 Y70
G2 X14 Y71.45 I1.45 J0
G1 X107.69
G2 X109.14 Y70 I0 J-1.45
G1 Y38.05
G2 X107.69 Y36.6 I-1.45 J0
G1 X107.54
Y36.3
X120.46
Y36.6
X120.31
G2 X118.86 Y38.05 I0 J1.45
G1 Y70
G2 X120.31 Y71.45 I1.45 J0
G1 X214
G2 X215.45 Y70 I0 J-1.45
G1 Y52.856
G3 X216.188 Y52.339 I0.55 J0
G1 X224.82 Y55.481
G2 X229.45 Y52.239 I1.18 J-3.242
G1 Y17.761
G2 X224.82 Y14.519 I-3.45 J0
G1 X216.188 Y17.661
G3 X215.45 Y17.144 I-0.188 J-0.517
G1 Y0
G2 X214 Y-1.45 I-1.45 J0
G1 X29.297
Z-5.271 F333.3
X14 F500
G2 X12.55 Y0 I0 J1.45
G1 Y17.144
G3 X11.812 Y17.661 I-0.55 J0
G1 X3.18 Y14.519
G2 X-1.45 Y17.761 I-1.18 J3.242
G1 Y52.239
G2 X3.18 Y55.481 I3.45 J0
G1 X11.812 Y52.339
G3 X12.55 Y52.856 I0.188 J0.517
G1 Y70
G2 X14 Y71.45 I1.45 J0
G1 X107.69
G2 X109.14 Y70 I0 J-1.45
G1 Y38.05
G2 X107.69 Y36.6 I-1.45 J0
G1 X107.54
Y36.3
X120.46
Y36.6
X120.31
G2 X118.86 Y38.05 I0 J1.45
G1 Y70
G2 X120.31 Y71.45 I1.45 J0
G1 X214
G2 X215.45 Y70 I0 J-1.45
G1 Y52.856
G3 X216.188 Y52.339 I0.55 J0
G1 X224.82 Y55.481
G2 X229.45 Y52.239 I1.18 J-3.242
G1 Y17.761
G2 X224.82 Y14.519 I-3.45 J0
G1 X216.188 Y17.661
G3 X215.45 Y17.144 I-0.188 J-0.517
G1 Y0
G2 X214 Y-1.45 I-1.45 J0
G1 X29.297
Z-7.029 F333.3
X14 F500
G2 X12.55 Y0 I0 J1.45
G1 Y17.144
G3 X11.812 Y17.661 I-0.55 J0
G1 X3.18 Y14.519
G2 X-1.45 Y17.761 I-1.18 J3.242
G1 Y52.239
G2 X3.18 Y55.481 I3.45 J0
G1 X11.812 Y52.339
G3 X12.55 Y52.856 I0.188 J0.517
G1 Y70
G2 X14 Y71.45 I1.45 J0
G1 X107.69
G2 X109.14 Y70 I0 J-1.45
G1 Y38.05
G2 X107.69 Y36.6 I-1.45 J0
G1 X107.54
Y36.3
X120.46
Y36.6
X120.31
G2 X118.86 Y38.05 I0 J1.45
G1 Y70
G2 X120.31 Y71.45 I1.45 J0
G1 X214
G2 X215.45 Y70 I0 J-1.45
G1 Y52.856
G3 X216.188 Y52.339 I0.55 J0
G1 X224.82 Y55.481
G2 X229.45 Y52.239 I1.18 J-3.242
G1 Y17.761
G2 X224.82 Y14.519 I-3.45 J0
G1 X216.188 Y17.661
G3 X215.45 Y17.144 I-0.188 J-0.517
G1 Y0
G2 X214 Y-1.45 I-1.45 J0
G1 X29.297
Z-8.786 F333.3
X14 F500
G2 X12.55 Y0 I0 J1.45
G1 Y17.144
G3 X11.812 Y17.661 I-0.55 J0
G1 X3.18 Y14.519
G2 X-1.45 Y17.761 I-1.18 J3.242
G1 Y52.239
G2 X3.18 Y55.481 I3.45 J0
G1 X11.812 Y52.339
G3 X12.55 Y52.856 I0.188 J0.517
G1 Y70
G2 X14 Y71.45 I1.45 J0
G1 X107.69
G2 X109.14 Y70 I0 J-1.45
G1 Y38.05
G2 X107.69 Y36.6 I-1.45 J0
G1 X107.54
Y36.3
X120.46
Y36.6
X120.31
G2 X118.86 Y38.05 I0 J1.45
G1 Y70
G2 X120.31 Y71.45 I1.45 J0
G1 X214
G2 X215.45 Y70 I0 J-1.45
G1 Y52.856
G3 X216.188 Y52.339 I0.55 J0
G1 X224.82 Y55.481
G2 X229.45 Y52.239 I1.18 J-3.242
G1 Y17.761
G2 X224.82 Y14.519 I-3.45 J0
G1 X216.188 Y17.661
G3 X215.45 Y17.144 I-0.188 J-0.517
G1 Y0
G2 X214 Y-1.45 I-1.45 J0
G1 X29.297
Z-10.543 F333.3
X14 F500
G2 X12.55 Y0 I0 J1.45
G1 Y6.66
Z-9.5
Y12.16
Z-10.543 F333.3
Y17.144 F500
G3 X11.812 Y17.661 I-0.55 J0
G1 X3.18 Y14.519
G2 X-1.45 Y17.761 I-1.18 J3.242
G1 Y52.239
G2 X3.18 Y55.481 I3.45 J0
G1 X11.812 Y52.339
G3 X12.55 Y52.856 I0.188 J0.517
G1 Y59.754
Z-9.5
Y65.254
Z-10.543 F333.3
Y70 F500
G2 X14 Y71.45 I1.45 J0
G1 X107.69
G2 X109.14 Y70 I0 J-1.45
G1 Y38.05
G2 X107.69 Y36.6 I-1.45 J0
G1 X107.54
Y36.3
X111.808
Z-9.5
X117.308
Z-10.543 F333.3
X120.46 F500
Y36.6
X120.31
G2 X118.86 Y38.05 I0 J1.45
G1 Y70
G2 X120.31 Y71.45 I1.45 J0
G1 X214
G2 X215.45 Y70 I0 J-1.45
G1 Y63.934
Z-9.5
Y58.434
Z-10.543 F333.3
Y52.856 F500
G3 X216.188 Y52.339 I0.55 J0
G1 X224.82 Y55.481
G2 X229.45 Y52.239 I1.18 J-3.242
G1 Y17.761
G2 X224.82 Y14.519 I-3.45 J0
G1 X216.188 Y17.661
G3 X215.45 Y17.144 I-0.188 J-0.517
G1 Y11.728
Z-9.5
Y6.228
Z-10.543 F333.3
Y0 F500
G2 X214 Y-1.45 I-1.45 J0
G1 X29.297
Z-12.3 F333.3
X14 F1000
G2 X12.55 Y0 I0 J1.45
G1 Y6.66
Z-9.5
Y12.16
Z-12.3 F333.3
Y17.144 F1000
G3 X11.812 Y17.661 I-0.55 J0
G1 X3.18 Y14.519
G2 X-1.45 Y17.761 I-1.18 J3.242
G1 Y52.239
G2 X3.18 Y55.481 I3.45 J0
G1 X11.812 Y52.339
G3 X12.55 Y52.856 I0.188 J0.517
G1 Y59.754
Z-9.5
Y65.254
Z-12.3 F333.3
Y70 F1000
G2 X14 Y71.45 I1.45 J0
G1 X107.69
G2 X109.14 Y70 I0 J-1.45
G1 Y38.05
G2 X107.69 Y36.6 I-1.45 J0
G1 X107.54
Y36.3
X111.808
Z-9.5
X117.308
Z-12.3 F333.3
X120.46 F1000
Y36.6
X120.31
G2 X118.86 Y38.05 I0 J1.45
G1 Y70
G2 X120.31 Y71.45 I1.45 J0
G1 X214
G2 X215.45 Y70 I0 J-1.45
G1 Y63.934
Z-9.5
Y58.434
Z-12.3 F333.3
Y52.856 F1000
G3 X216.188 Y52.339 I0.55 J0
G1 X224.82 Y55.481
G2 X229.45 Y52.239 I1.18 J-3.242
G1 Y17.761
G2 X224.82 Y14.519 I-3.45 J0
G1 X216.188 Y17.661
G3 X215.45 Y17.144 I-0.188 J-0.517
G1 Y11.728
Z-9.5
Y6.228
Z-12.3 F333.3
Y0 F1000
G2 X214 Y-1.45 I-1.45 J0
G1 X29.297
X29.25 Y-1.443
X29.207 Y-1.423
X29.172 Y-1.391
X29.147 Y-1.35
X29.123 Y-1.309
X29.087 Y-1.277
X29.044 Y-1.257
X28.997 Y-1.25
X14 F500
G2 X12.75 Y0 I0 J1.25
G1 Y6.66
Z-9.5
Y12.16
Z-12.3 F333.3
Y17.144 F500
G3 X11.744 Y17.848 I-0.75 J0
G1 X3.112 Y14.707
G2 X-1.25 Y17.761 I-1.112 J3.054
G1 Y52.239
G2 X3.112 Y55.293 I3.25 J0
G1 X11.744 Y52.152
G3 X12.75 Y52.856 I0.256 J0.705
G1 Y59.754
Z-9.5
Y65.254
Z-12.3 F333.3
Y70 F500
G2 X14 Y71.25 I1.25 J0
G1 X107.69
G2 X108.94 Y70 I0 J-1.25
G1 Y38.05
G2 X107.69 Y36.8 I-1.25 J0
G1 X107.34
Y36.1
X111.808
Z-9.5
X117.308
Z-12.3 F333.3
X120.66 F500
Y36.8
X120.31
G2 X119.06 Y38.05 I0 J1.25
G1 Y70
G2 X120.31 Y71.25 I1.25 J0
G1 X214
G2 X215.25 Y70 I0 J-1.25
G1 Y63.934
Z-9.5
Y58.434
Z-12.3 F333.3
Y52.856 F500
G3 X216.256 Y52.152 I0.75 J0
G1 X224.888 Y55.293
G2 X229.25 Y52.239 I1.112 J-3.054
G1 Y17.761
G2 X224.889 Y14.707 I-3.25 J0
G1 X216.256 Y17.848
G3 X215.25 Y17.144 I-0.256 J-0.705
G1 Y11.728
Z-9.5
Y6.228
Z-12.3 F333.3
Y0 F500
G2 X214 Y-1.25 I-1.25 J0
G1 X28.997
Z10 F1000
M5
M30
