(1093_btn_18bit_smaller_holes)
(T1  D=1.8 CR=0 - ZMIN=-5.5 - flat end mill)
G90 G94
G17
G21
(When using Fusion 360 for Personal Use, the feedrate of)
(rapid moves is reduced to match the feedrate of cutting)
(moves, which can increase machining time. Unrestricted rapid)
(moves are available with a Fusion 360 Subscription.)

(Bore2)
T1
S5000 M3
G54
G0 X12.6 Y4.82
Z10
G1 Z2 F1000
Z0.18
G18 G2 X12.78 Z0 I0.18 K0
G1 X12.87
G17 G3 X13.05 Y5 I0 J0.18
X10.95 Y5 Z-0.25 I-1.05 J0
X13.05 Y5 Z-0.5 I1.05 J0
X10.95 Y5 Z-0.75 I-1.05 J0
X13.05 Y5 Z-1 I1.05 J0
X10.95 Y5 Z-1.25 I-1.05 J0
X13.05 Y5 Z-1.5 I1.05 J0
X10.95 Y5 Z-1.75 I-1.05 J0
X13.05 Y5 Z-2 I1.05 J0
X10.95 Y5 Z-2.25 I-1.05 J0
X13.05 Y5 Z-2.5 I1.05 J0
X10.95 Y5 Z-2.75 I-1.05 J0
X13.05 Y5 Z-3 I1.05 J0
X10.95 Y5 Z-3.25 I-1.05 J0
X13.05 Y5 Z-3.5 I1.05 J0
X10.95 Y5 Z-3.75 I-1.05 J0
X13.05 Y5 Z-4 I1.05 J0
X10.95 Y5 Z-4.25 I-1.05 J0
X13.05 Y5 Z-4.5 I1.05 J0
X10.95 Y5 Z-4.75 I-1.05 J0
X13.05 Y5 Z-5 I1.05 J0
X10.95 Y5 Z-5.25 I-1.05 J0
X13.05 Y5 Z-5.5 I1.05 J0
X10.95 Y5 I-1.05 J0
X13.05 Y5 I1.05 J0
X12.87 Y5.18 I-0.18 J0
G1 X12.78
G18 G3 X12.6 Z-5.32 I0 K0.18
G1 Z5
X30.6 Y4.82
Z2
Z0.18
G2 X30.78 Z0 I0.18 K0
G1 X30.87
G17 G3 X31.05 Y5 I0 J0.18
X28.95 Y5 Z-0.25 I-1.05 J0
X31.05 Y5 Z-0.5 I1.05 J0
X28.95 Y5 Z-0.75 I-1.05 J0
X31.05 Y5 Z-1 I1.05 J0
X28.95 Y5 Z-1.25 I-1.05 J0
X31.05 Y5 Z-1.5 I1.05 J0
X28.95 Y5 Z-1.75 I-1.05 J0
X31.05 Y5 Z-2 I1.05 J0
X28.95 Y5 Z-2.25 I-1.05 J0
X31.05 Y5 Z-2.5 I1.05 J0
X28.95 Y5 Z-2.75 I-1.05 J0
X31.05 Y5 Z-3 I1.05 J0
X28.95 Y5 Z-3.25 I-1.05 J0
X31.05 Y5 Z-3.5 I1.05 J0
X28.95 Y5 Z-3.75 I-1.05 J0
X31.05 Y5 Z-4 I1.05 J0
X28.95 Y5 Z-4.25 I-1.05 J0
X31.05 Y5 Z-4.5 I1.05 J0
X28.95 Y5 Z-4.75 I-1.05 J0
X31.05 Y5 Z-5 I1.05 J0
X28.95 Y5 Z-5.25 I-1.05 J0
X31.05 Y5 Z-5.5 I1.05 J0
X28.95 Y5 I-1.05 J0
X31.05 Y5 I1.05 J0
X30.87 Y5.18 I-0.18 J0
G1 X30.78
G18 G3 X30.6 Z-5.32 I0 K0.18
G1 Z10
G17
(When using Fusion 360 for Personal Use, the feedrate of)
(rapid moves is reduced to match the feedrate of cutting)
(moves, which can increase machining time. Unrestricted rapid)
(moves are available with a Fusion 360 Subscription.)

(2D Contour inside)
G0 X37.56 Y11.82
G1 Z10 F1000
Z5
Z2.05 F333.3
Z-0.82
G18 G2 X37.74 Z-1 I0.18 K0 F1000
G1 X37.92
G17 G3 X38.1 Y12 I0 J0.18
G1 Y17.1
X35.9
Y12
G2 X35 Y11.1 I-0.9 J0
G1 X7
G2 X6.1 Y12 I0 J0.9
G1 Y17.1
X3.9
Y10.9
X35
X38.1
Y12
G3 X37.92 Y12.18 I-0.18 J0
G1 X37.74
G18 G3 X37.56 Z-0.82 I0 K0.18
G1 Z5
Y11.82
Z1.05 F333.3
Z-1.82
G2 X37.74 Z-2 I0.18 K0 F1000
G1 X37.92
G17 G3 X38.1 Y12 I0 J0.18
G1 Y17.1
X35.9
Y12
G2 X35 Y11.1 I-0.9 J0
G1 X7
G2 X6.1 Y12 I0 J0.9
G1 Y17.1
X3.9
Y10.9
X35
X38.1
Y12
G3 X37.92 Y12.18 I-0.18 J0
G1 X37.74
G18 G3 X37.56 Z-1.82 I0 K0.18
G1 Z5
Y11.82
Z0.05 F333.3
Z-2.82
G2 X37.74 Z-3 I0.18 K0 F1000
G1 X37.92
G17 G3 X38.1 Y12 I0 J0.18
G1 Y17.1
X35.9
Y12
G2 X35 Y11.1 I-0.9 J0
G1 X7
G2 X6.1 Y12 I0 J0.9
G1 Y17.1
X3.9
Y10.9
X35
X38.1
Y12
G3 X37.92 Y12.18 I-0.18 J0
G1 X37.74
G18 G3 X37.56 Z-2.82 I0 K0.18
G1 Z5
Y11.82
Z-0.95 F333.3
Z-3.82
G2 X37.74 Z-4 I0.18 K0 F1000
G1 X37.92
G17 G3 X38.1 Y12 I0 J0.18
G1 Y17.1
X35.9
Y12
G2 X35 Y11.1 I-0.9 J0
G1 X7
G2 X6.1 Y12 I0 J0.9
G1 Y17.1
X3.9
Y10.9
X35
X38.1
Y12
G3 X37.92 Y12.18 I-0.18 J0
G1 X37.74
G18 G3 X37.56 Z-3.82 I0 K0.18
G1 Z5
Y11.82
Z-1.95 F333.3
Z-4.82
G2 X37.74 Z-5 I0.18 K0 F1000
G1 X37.92
G17 G3 X38.1 Y12 I0 J0.18
G1 Y17.1
X35.9
Y12
G2 X35 Y11.1 I-0.9 J0
G1 X7
G2 X6.1 Y12 I0 J0.9
G1 Y17.1
X3.9
Y10.9
X35
X38.1
Y12
G3 X37.92 Y12.18 I-0.18 J0
G1 X37.74
G18 G3 X37.56 Z-4.82 I0 K0.18
G1 Z10
G17
(When using Fusion 360 for Personal Use, the feedrate of)
(rapid moves is reduced to match the feedrate of cutting)
(moves, which can increase machining time. Unrestricted rapid)
(moves are available with a Fusion 360 Subscription.)

(2D Contour outside 2)
G0 X4.939 Y-1.62
G1 Z10 F1000
Z5
Z2.05 F333.3
Z-0.82
G19 G3 Y-1.44 Z-1 J0.18 K0 F1000
G1 Y-1.26
G17 G3 X4.759 Y-1.08 I-0.18 J0
G1 X4
G2 X-1.08 Y4 I0 J5.08
G1 Y18
G2 X3 Y22.08 I4.08 J0
G1 X7
G2 X11.08 Y18 I0 J-4.08
G1 Y16.08
X16.92
Y40.5
G2 X18 Y41.58 I1.08 J0
G1 X24
G2 X25.08 Y40.5 I0 J-1.08
G1 Y16.08
X30.92
Y18
G2 X35 Y22.08 I4.08 J0
G1 X39
G2 X43.08 Y18 I0 J-4.08
G1 Y4
G2 X38 Y-1.08 I-5.08 J0
G1 X4.759
G3 X4.579 Y-1.26 I0 J-0.18
G1 Y-1.44
G19 G2 Y-1.62 Z-0.82 J0 K0.18
G1 Z5
X4.939
Z1.05 F333.3
Z-1.82
G3 Y-1.44 Z-2 J0.18 K0 F1000
G1 Y-1.26
G17 G3 X4.759 Y-1.08 I-0.18 J0
G1 X4
G2 X-1.08 Y4 I0 J5.08
G1 Y18
G2 X3 Y22.08 I4.08 J0
G1 X7
G2 X11.08 Y18 I0 J-4.08
G1 Y16.08
X16.92
Y40.5
G2 X18 Y41.58 I1.08 J0
G1 X24
G2 X25.08 Y40.5 I0 J-1.08
G1 Y16.08
X30.92
Y18
G2 X35 Y22.08 I4.08 J0
G1 X39
G2 X43.08 Y18 I0 J-4.08
G1 Y4
G2 X38 Y-1.08 I-5.08 J0
G1 X4.759
G3 X4.579 Y-1.26 I0 J-0.18
G1 Y-1.44
G19 G2 Y-1.62 Z-1.82 J0 K0.18
G1 Z5
X4.939
Z0.05 F333.3
Z-2.82
G3 Y-1.44 Z-3 J0.18 K0 F1000
G1 Y-1.26
G17 G3 X4.759 Y-1.08 I-0.18 J0
G1 X4
G2 X-1.08 Y4 I0 J5.08
G1 Y10.894
Z-2.5
Y15.694
Z-3 F333.3
Y18 F1000
G2 X3 Y22.08 I4.08 J0
G1 X7
G2 X11.08 Y18 I0 J-4.08
G1 Y16.08
X16.92
Y21.498
Z-2.5
Y26.298
Z-3 F333.3
Y40.5 F1000
G2 X18 Y41.58 I1.08 J0
G1 X24
G2 X25.08 Y40.5 I0 J-1.08
G1 Y25.971
Z-2.5
Y21.171
Z-3 F333.3
Y16.08 F1000
X30.92
Y18
G2 X35 Y22.08 I4.08 J0
G1 X39
G2 X43.08 Y18 I0 J-4.08
G1 Y16.529
Z-2.5
Y11.729
Z-3 F333.3
Y4 F1000
G2 X38 Y-1.08 I-5.08 J0
G1 X23.244
Z-2.5
X18.444
Z-3 F333.3
X4.759 F1000
G3 X4.579 Y-1.26 I0 J-0.18
G1 Y-1.44
G19 G2 Y-1.62 Z-2.82 J0 K0.18
G1 Z5
X4.939
Z-0.95 F333.3
Z-3.82
G3 Y-1.44 Z-4 J0.18 K0 F1000
G1 Y-1.26
G17 G3 X4.759 Y-1.08 I-0.18 J0
G1 X4
G2 X-1.08 Y4 I0 J5.08
G1 Y10.894
Z-2.5
Y15.694
Z-4 F333.3
Y18 F1000
G2 X3 Y22.08 I4.08 J0
G1 X7
G2 X11.08 Y18 I0 J-4.08
G1 Y16.08
X16.92
Y21.498
Z-2.5
Y26.298
Z-4 F333.3
Y40.5 F1000
G2 X18 Y41.58 I1.08 J0
G1 X24
G2 X25.08 Y40.5 I0 J-1.08
G1 Y25.971
Z-2.5
Y21.171
Z-4 F333.3
Y16.08 F1000
X30.92
Y18
G2 X35 Y22.08 I4.08 J0
G1 X39
G2 X43.08 Y18 I0 J-4.08
G1 Y16.529
Z-2.5
Y11.729
Z-4 F333.3
Y4 F1000
G2 X38 Y-1.08 I-5.08 J0
G1 X23.244
Z-2.5
X18.444
Z-4 F333.3
X4.759 F1000
G3 X4.579 Y-1.26 I0 J-0.18
G1 Y-1.44
G19 G2 Y-1.62 Z-3.82 J0 K0.18
G1 Z5
X4.939
Z-1.95 F333.3
Z-4.82
G3 Y-1.44 Z-5 J0.18 K0 F1000
G1 Y-1.26
G17 G3 X4.759 Y-1.08 I-0.18 J0
G1 X4
G2 X-1.08 Y4 I0 J5.08
G1 Y10.894
Z-2.5
Y15.694
Z-5 F333.3
Y18 F1000
G2 X3 Y22.08 I4.08 J0
G1 X7
G2 X11.08 Y18 I0 J-4.08
G1 Y16.08
X16.92
Y21.498
Z-2.5
Y26.298
Z-5 F333.3
Y40.5 F1000
G2 X18 Y41.58 I1.08 J0
G1 X24
G2 X25.08 Y40.5 I0 J-1.08
G1 Y25.971
Z-2.5
Y21.171
Z-5 F333.3
Y16.08 F1000
X30.92
Y18
G2 X35 Y22.08 I4.08 J0
G1 X39
G2 X43.08 Y18 I0 J-4.08
G1 Y16.529
Z-2.5
Y11.729
Z-5 F333.3
Y4 F1000
G2 X38 Y-1.08 I-5.08 J0
G1 X23.244
Z-2.5
X18.444
Z-5 F333.3
X4.759 F1000
X4.717 Y-1.074
X4.678 Y-1.055
X4.646 Y-1.027
X4.624 Y-0.99
X4.602 Y-0.953
X4.57 Y-0.925
X4.531 Y-0.906
X4.489 Y-0.9
X4
G2 X-0.9 Y4 I0 J4.9
G1 Y10.894
Z-2.5
Y15.694
Z-5 F333.3
Y18 F1000
G2 X3 Y21.9 I3.9 J0
G1 X7
G2 X10.9 Y18 I0 J-3.9
G1 Y15.9
X17.1
Y21.498
Z-2.5
Y26.298
Z-5 F333.3
Y40.5 F1000
G2 X18 Y41.4 I0.9 J0
G1 X24
G2 X24.9 Y40.5 I0 J-0.9
G1 Y25.971
Z-2.5
Y21.171
Z-5 F333.3
Y15.9 F1000
X31.1
Y18
G2 X35 Y21.9 I3.9 J0
G1 X39
G2 X42.9 Y18 I0 J-3.9
G1 Y16.529
Z-2.5
Y11.729
Z-5 F333.3
Y4 F1000
G2 X38 Y-0.9 I-4.9 J0
G1 X23.244
Z-2.5
X18.444
Z-5 F333.3
X4.489 F1000
G3 X4.309 Y-1.08 I0 J-0.18
G1 Y-1.26
G19 G2 Y-1.44 Z-4.82 J0 K0.18
G1 Z10
G17
M5
M30
