(1094_btn_18bit_54_extrude)
(T1  D=1.8 CR=0 - ZMIN=-5.9 - flat end mill)
G90 G94
G17
G21
(When using Fusion 360 for Personal Use, the feedrate of)
(rapid moves is reduced to match the feedrate of cutting)
(moves, which can increase machining time. Unrestricted rapid)
(moves are available with a Fusion 360 Subscription.)

(Bore2)
T1
S5000 M3
G54
G0 X12.6 Y4.82
Z10
G1 Z2 F1000
Z0.18
G18 G2 X12.78 Z0 I0.18 K0
G1 X12.87
G17 G3 X13.05 Y5 I0 J0.18
X10.95 Y5 Z-0.25 I-1.05 J0
X13.05 Y5 Z-0.5 I1.05 J0
X10.95 Y5 Z-0.75 I-1.05 J0
X13.05 Y5 Z-1 I1.05 J0
X10.95 Y5 Z-1.25 I-1.05 J0
X13.05 Y5 Z-1.5 I1.05 J0
X10.95 Y5 Z-1.75 I-1.05 J0
X13.05 Y5 Z-2 I1.05 J0
X10.95 Y5 Z-2.25 I-1.05 J0
X13.05 Y5 Z-2.5 I1.05 J0
X10.95 Y5 Z-2.75 I-1.05 J0
X13.05 Y5 Z-3 I1.05 J0
X10.95 Y5 Z-3.25 I-1.05 J0
X13.05 Y5 Z-3.5 I1.05 J0
X10.95 Y5 Z-3.75 I-1.05 J0
X13.05 Y5 Z-4 I1.05 J0
X10.95 Y5 Z-4.25 I-1.05 J0
X13.05 Y5 Z-4.5 I1.05 J0
X10.95 Y5 Z-4.75 I-1.05 J0
X13.05 Y5 Z-5 I1.05 J0
X10.95 Y5 Z-5.25 I-1.05 J0
X13.05 Y5 Z-5.5 I1.05 J0
X10.95 Y5 Z-5.75 I-1.05 J0
X12.324 Y4.001 Z-5.9 I1.05 J0
X11.676 Y5.999 I-0.324 J0.999
X12.324 Y4.001 I0.324 J-0.999
X12.44 Y4.228 I-0.056 J0.171
G1 X12.412 Y4.314
X12.398 Y4.358 Z-5.894
X12.384 Y4.399 Z-5.876
X12.373 Y4.435 Z-5.847
X12.364 Y4.462 Z-5.81
X12.358 Y4.479 Z-5.767
X12.357 Y4.485 Z-5.72
Z5
X30.6 Y4.82
Z2
Z0.18
G18 G2 X30.78 Z0 I0.18 K0
G1 X30.87
G17 G3 X31.05 Y5 I0 J0.18
X28.95 Y5 Z-0.25 I-1.05 J0
X31.05 Y5 Z-0.5 I1.05 J0
X28.95 Y5 Z-0.75 I-1.05 J0
X31.05 Y5 Z-1 I1.05 J0
X28.95 Y5 Z-1.25 I-1.05 J0
X31.05 Y5 Z-1.5 I1.05 J0
X28.95 Y5 Z-1.75 I-1.05 J0
X31.05 Y5 Z-2 I1.05 J0
X28.95 Y5 Z-2.25 I-1.05 J0
X31.05 Y5 Z-2.5 I1.05 J0
X28.95 Y5 Z-2.75 I-1.05 J0
X31.05 Y5 Z-3 I1.05 J0
X28.95 Y5 Z-3.25 I-1.05 J0
X31.05 Y5 Z-3.5 I1.05 J0
X28.95 Y5 Z-3.75 I-1.05 J0
X31.05 Y5 Z-4 I1.05 J0
X28.95 Y5 Z-4.25 I-1.05 J0
X31.05 Y5 Z-4.5 I1.05 J0
X28.95 Y5 Z-4.75 I-1.05 J0
X31.05 Y5 Z-5 I1.05 J0
X28.95 Y5 Z-5.25 I-1.05 J0
X31.05 Y5 Z-5.5 I1.05 J0
X28.95 Y5 Z-5.75 I-1.05 J0
X30.324 Y4.001 Z-5.9 I1.05 J0
X29.676 Y5.999 I-0.324 J0.999
X30.324 Y4.001 I0.324 J-0.999
X30.44 Y4.228 I-0.056 J0.171
G1 X30.412 Y4.314
X30.398 Y4.358 Z-5.894
X30.384 Y4.399 Z-5.876
X30.373 Y4.435 Z-5.847
X30.364 Y4.462 Z-5.81
X30.358 Y4.479 Z-5.767
X30.357 Y4.485 Z-5.72
Z10
(When using Fusion 360 for Personal Use, the feedrate of)
(rapid moves is reduced to match the feedrate of cutting)
(moves, which can increase machining time. Unrestricted rapid)
(moves are available with a Fusion 360 Subscription.)

(2D Contour inside)
G0 X37.56 Y11.82
G1 Z10 F1000
Z5
Z2.05 F333.3
Z-0.72
G18 G2 X37.74 Z-0.9 I0.18 K0 F1000
G1 X37.92
G17 G3 X38.1 Y12 I0 J0.18
G1 Y17.1
X35.9
Y12
G2 X35 Y11.1 I-0.9 J0
G1 X7
G2 X6.1 Y12 I0 J0.9
G1 Y17.1
X3.9
Y10.9
X35
X38.1
Y12
G3 X37.92 Y12.18 I-0.18 J0
G1 X37.74
G18 G3 X37.56 Z-0.72 I0 K0.18
G1 Z5
Y11.82
Z1.15 F333.3
Z-1.62
G2 X37.74 Z-1.8 I0.18 K0 F1000
G1 X37.92
G17 G3 X38.1 Y12 I0 J0.18
G1 Y17.1
X35.9
Y12
G2 X35 Y11.1 I-0.9 J0
G1 X7
G2 X6.1 Y12 I0 J0.9
G1 Y17.1
X3.9
Y10.9
X35
X38.1
Y12
G3 X37.92 Y12.18 I-0.18 J0
G1 X37.74
G18 G3 X37.56 Z-1.62 I0 K0.18
G1 Z5
Y11.82
Z0.25 F333.3
Z-2.52
G2 X37.74 Z-2.7 I0.18 K0 F1000
G1 X37.92
G17 G3 X38.1 Y12 I0 J0.18
G1 Y17.1
X35.9
Y12
G2 X35 Y11.1 I-0.9 J0
G1 X7
G2 X6.1 Y12 I0 J0.9
G1 Y17.1
X3.9
Y10.9
X35
X38.1
Y12
G3 X37.92 Y12.18 I-0.18 J0
G1 X37.74
G18 G3 X37.56 Z-2.52 I0 K0.18
G1 Z5
Y11.82
Z-0.65 F333.3
Z-3.42
G2 X37.74 Z-3.6 I0.18 K0 F1000
G1 X37.92
G17 G3 X38.1 Y12 I0 J0.18
G1 Y17.1
X35.9
Y12
G2 X35 Y11.1 I-0.9 J0
G1 X7
G2 X6.1 Y12 I0 J0.9
G1 Y17.1
X3.9
Y10.9
X35
X38.1
Y12
G3 X37.92 Y12.18 I-0.18 J0
G1 X37.74
G18 G3 X37.56 Z-3.42 I0 K0.18
G1 Z5
Y11.82
Z-1.55 F333.3
Z-4.32
G2 X37.74 Z-4.5 I0.18 K0 F1000
G1 X37.92
G17 G3 X38.1 Y12 I0 J0.18
G1 Y17.1
X35.9
Y12
G2 X35 Y11.1 I-0.9 J0
G1 X7
G2 X6.1 Y12 I0 J0.9
G1 Y17.1
X3.9
Y10.9
X35
X38.1
Y12
G3 X37.92 Y12.18 I-0.18 J0
G1 X37.74
G18 G3 X37.56 Z-4.32 I0 K0.18
G1 Z5
Y11.82
Z-2.45 F333.3
Z-5.22
G2 X37.74 Z-5.4 I0.18 K0 F1000
G1 X37.92
G17 G3 X38.1 Y12 I0 J0.18
G1 Y17.1
X35.9
Y12
G2 X35 Y11.1 I-0.9 J0
G1 X7
G2 X6.1 Y12 I0 J0.9
G1 Y17.1
X3.9
Y10.9
X35
X38.1
Y12
G3 X37.92 Y12.18 I-0.18 J0
G1 X37.74
G18 G3 X37.56 Z-5.22 I0 K0.18
G1 Z10
G17
(When using Fusion 360 for Personal Use, the feedrate of)
(rapid moves is reduced to match the feedrate of cutting)
(moves, which can increase machining time. Unrestricted rapid)
(moves are available with a Fusion 360 Subscription.)

(2D Contour outside 2)
G0 X4.939 Y-1.62
G1 Z10 F1000
Z5
Z2.05 F333.3
Z-0.72
G19 G3 Y-1.44 Z-0.9 J0.18 K0 F1000
G1 Y-1.26
G17 G3 X4.759 Y-1.08 I-0.18 J0
G1 X4
G2 X-1.08 Y4 I0 J5.08
G1 Y18
G2 X3 Y22.08 I4.08 J0
G1 X7
G2 X11.08 Y18 I0 J-4.08
G1 Y16.08
X16.92
Y40.5
G2 X18 Y41.58 I1.08 J0
G1 X24
G2 X25.08 Y40.5 I0 J-1.08
G1 Y16.08
X30.92
Y18
G2 X35 Y22.08 I4.08 J0
G1 X39
G2 X43.08 Y18 I0 J-4.08
G1 Y4
G2 X38 Y-1.08 I-5.08 J0
G1 X4.759
G3 X4.579 Y-1.26 I0 J-0.18
G1 Y-1.44
G19 G2 Y-1.62 Z-0.72 J0 K0.18
G1 Z5
X4.939
Z1.15 F333.3
Z-1.62
G3 Y-1.44 Z-1.8 J0.18 K0 F1000
G1 Y-1.26
G17 G3 X4.759 Y-1.08 I-0.18 J0
G1 X4
G2 X-1.08 Y4 I0 J5.08
G1 Y18
G2 X3 Y22.08 I4.08 J0
G1 X7
G2 X11.08 Y18 I0 J-4.08
G1 Y16.08
X16.92
Y40.5
G2 X18 Y41.58 I1.08 J0
G1 X24
G2 X25.08 Y40.5 I0 J-1.08
G1 Y16.08
X30.92
Y18
G2 X35 Y22.08 I4.08 J0
G1 X39
G2 X43.08 Y18 I0 J-4.08
G1 Y4
G2 X38 Y-1.08 I-5.08 J0
G1 X4.759
G3 X4.579 Y-1.26 I0 J-0.18
G1 Y-1.44
G19 G2 Y-1.62 Z-1.62 J0 K0.18
G1 Z5
X4.939
Z0.25 F333.3
Z-2.52
G3 Y-1.44 Z-2.7 J0.18 K0 F1000
G1 Y-1.26
G17 G3 X4.759 Y-1.08 I-0.18 J0
G1 X4
G2 X-1.08 Y4 I0 J5.08
G1 Y18
G2 X3 Y22.08 I4.08 J0
G1 X7
G2 X11.08 Y18 I0 J-4.08
G1 Y16.08
X16.92
Y40.5
G2 X18 Y41.58 I1.08 J0
G1 X24
G2 X25.08 Y40.5 I0 J-1.08
G1 Y16.08
X30.92
Y18
G2 X35 Y22.08 I4.08 J0
G1 X39
G2 X43.08 Y18 I0 J-4.08
G1 Y4
G2 X38 Y-1.08 I-5.08 J0
G1 X4.759
G3 X4.579 Y-1.26 I0 J-0.18
G1 Y-1.44
G19 G2 Y-1.62 Z-2.52 J0 K0.18
G1 Z5
X4.939
Z-0.65 F333.3
Z-3.42
G3 Y-1.44 Z-3.6 J0.18 K0 F1000
G1 Y-1.26
G17 G3 X4.759 Y-1.08 I-0.18 J0
G1 X4
G2 X-1.08 Y4 I0 J5.08
G1 Y10.894
Z-2.9
Y15.694
Z-3.6 F333.3
Y18 F1000
G2 X3 Y22.08 I4.08 J0
G1 X7
G2 X11.08 Y18 I0 J-4.08
G1 Y16.08
X16.92
Y21.498
Z-2.9
Y26.298
Z-3.6 F333.3
Y40.5 F1000
G2 X18 Y41.58 I1.08 J0
G1 X24
G2 X25.08 Y40.5 I0 J-1.08
G1 Y25.971
Z-2.9
Y21.171
Z-3.6 F333.3
Y16.08 F1000
X30.92
Y18
G2 X35 Y22.08 I4.08 J0
G1 X39
G2 X43.08 Y18 I0 J-4.08
G1 Y16.529
Z-2.9
Y11.729
Z-3.6 F333.3
Y4 F1000
G2 X38 Y-1.08 I-5.08 J0
G1 X23.244
Z-2.9
X18.444
Z-3.6 F333.3
X4.759 F1000
G3 X4.579 Y-1.26 I0 J-0.18
G1 Y-1.44
G19 G2 Y-1.62 Z-3.42 J0 K0.18
G1 Z5
X4.939
Z-1.55 F333.3
Z-4.32
G3 Y-1.44 Z-4.5 J0.18 K0 F1000
G1 Y-1.26
G17 G3 X4.759 Y-1.08 I-0.18 J0
G1 X4
G2 X-1.08 Y4 I0 J5.08
G1 Y10.894
Z-2.9
Y15.694
Z-4.5 F333.3
Y18 F1000
G2 X3 Y22.08 I4.08 J0
G1 X7
G2 X11.08 Y18 I0 J-4.08
G1 Y16.08
X16.92
Y21.498
Z-2.9
Y26.298
Z-4.5 F333.3
Y40.5 F1000
G2 X18 Y41.58 I1.08 J0
G1 X24
G2 X25.08 Y40.5 I0 J-1.08
G1 Y25.971
Z-2.9
Y21.171
Z-4.5 F333.3
Y16.08 F1000
X30.92
Y18
G2 X35 Y22.08 I4.08 J0
G1 X39
G2 X43.08 Y18 I0 J-4.08
G1 Y16.529
Z-2.9
Y11.729
Z-4.5 F333.3
Y4 F1000
G2 X38 Y-1.08 I-5.08 J0
G1 X23.244
Z-2.9
X18.444
Z-4.5 F333.3
X4.759 F1000
G3 X4.579 Y-1.26 I0 J-0.18
G1 Y-1.44
G19 G2 Y-1.62 Z-4.32 J0 K0.18
G1 Z5
X4.939
Z-2.45 F333.3
Z-5.22
G3 Y-1.44 Z-5.4 J0.18 K0 F1000
G1 Y-1.26
G17 G3 X4.759 Y-1.08 I-0.18 J0
G1 X4
G2 X-1.08 Y4 I0 J5.08
G1 Y10.894
Z-2.9
Y15.694
Z-5.4 F333.3
Y18 F1000
G2 X3 Y22.08 I4.08 J0
G1 X7
G2 X11.08 Y18 I0 J-4.08
G1 Y16.08
X16.92
Y21.498
Z-2.9
Y26.298
Z-5.4 F333.3
Y40.5 F1000
G2 X18 Y41.58 I1.08 J0
G1 X24
G2 X25.08 Y40.5 I0 J-1.08
G1 Y25.971
Z-2.9
Y21.171
Z-5.4 F333.3
Y16.08 F1000
X30.92
Y18
G2 X35 Y22.08 I4.08 J0
G1 X39
G2 X43.08 Y18 I0 J-4.08
G1 Y16.529
Z-2.9
Y11.729
Z-5.4 F333.3
Y4 F1000
G2 X38 Y-1.08 I-5.08 J0
G1 X23.244
Z-2.9
X18.444
Z-5.4 F333.3
X4.759 F1000
X4.717 Y-1.074
X4.678 Y-1.055
X4.646 Y-1.027
X4.624 Y-0.99
X4.602 Y-0.953
X4.57 Y-0.925
X4.531 Y-0.906
X4.489 Y-0.9
X4
G2 X-0.9 Y4 I0 J4.9
G1 Y10.894
Z-2.9
Y15.694
Z-5.4 F333.3
Y18 F1000
G2 X3 Y21.9 I3.9 J0
G1 X7
G2 X10.9 Y18 I0 J-3.9
G1 Y15.9
X17.1
Y21.498
Z-2.9
Y26.298
Z-5.4 F333.3
Y40.5 F1000
G2 X18 Y41.4 I0.9 J0
G1 X24
G2 X24.9 Y40.5 I0 J-0.9
G1 Y25.971
Z-2.9
Y21.171
Z-5.4 F333.3
Y15.9 F1000
X31.1
Y18
G2 X35 Y21.9 I3.9 J0
G1 X39
G2 X42.9 Y18 I0 J-3.9
G1 Y16.529
Z-2.9
Y11.729
Z-5.4 F333.3
Y4 F1000
G2 X38 Y-0.9 I-4.9 J0
G1 X23.244
Z-2.9
X18.444
Z-5.4 F333.3
X4.489 F1000
G3 X4.309 Y-1.08 I0 J-0.18
G1 Y-1.26
G19 G2 Y-1.44 Z-5.22 J0 K0.18
G1 Z10
G17
M5
M30
