(1095_btn_20_bit_15_bridge)
(T1  D=2 CR=0 - ZMIN=-5.9 - flat end mill)
G90 G94
G17
G21
(When using Fusion 360 for Personal Use, the feedrate of)
(rapid moves is reduced to match the feedrate of cutting)
(moves, which can increase machining time. Unrestricted rapid)
(moves are available with a Fusion 360 Subscription.)

(Bore2)
T1
S5000 M3
G54
G0 X12.45 Y4.8
Z10
G1 Z2 F1000
Z0.2
G18 G2 X12.65 Z0 I0.2 K0
G1 X12.75
G17 G3 X12.95 Y5 I0 J0.2
X11.05 Y5 Z-0.25 I-0.95 J0
X12.95 Y5 Z-0.5 I0.95 J0
X11.05 Y5 Z-0.75 I-0.95 J0
X12.95 Y5 Z-1 I0.95 J0
X11.05 Y5 Z-1.25 I-0.95 J0
X12.95 Y5 Z-1.5 I0.95 J0
X11.05 Y5 Z-1.75 I-0.95 J0
X12.95 Y5 Z-2 I0.95 J0
X11.05 Y5 Z-2.25 I-0.95 J0
X12.95 Y5 Z-2.5 I0.95 J0
X11.05 Y5 Z-2.75 I-0.95 J0
X12.95 Y5 Z-3 I0.95 J0
X11.05 Y5 Z-3.25 I-0.95 J0
X12.95 Y5 Z-3.5 I0.95 J0
X11.05 Y5 Z-3.75 I-0.95 J0
X12.95 Y5 Z-4 I0.95 J0
X11.05 Y5 Z-4.25 I-0.95 J0
X12.95 Y5 Z-4.5 I0.95 J0
X11.05 Y5 Z-4.75 I-0.95 J0
X12.95 Y5 Z-5 I0.95 J0
X11.05 Y5 Z-5.25 I-0.95 J0
X12.95 Y5 Z-5.5 I0.95 J0
X11.05 Y5 Z-5.75 I-0.95 J0
X12.294 Y4.096 Z-5.9 I0.95 J0
X11.706 Y5.904 I-0.294 J0.904
X12.294 Y4.096 I0.294 J-0.904
X12.422 Y4.349 I-0.062 J0.19
G1 X12.391 Y4.444
X12.375 Y4.493 Z-5.893
X12.36 Y4.539 Z-5.873
X12.347 Y4.578 Z-5.841
X12.338 Y4.608 Z-5.8
X12.331 Y4.627 Z-5.752
X12.329 Y4.634 Z-5.7
Z5
X30.45 Y4.8
Z2
Z0.2
G18 G2 X30.65 Z0 I0.2 K0
G1 X30.75
G17 G3 X30.95 Y5 I0 J0.2
X29.05 Y5 Z-0.25 I-0.95 J0
X30.95 Y5 Z-0.5 I0.95 J0
X29.05 Y5 Z-0.75 I-0.95 J0
X30.95 Y5 Z-1 I0.95 J0
X29.05 Y5 Z-1.25 I-0.95 J0
X30.95 Y5 Z-1.5 I0.95 J0
X29.05 Y5 Z-1.75 I-0.95 J0
X30.95 Y5 Z-2 I0.95 J0
X29.05 Y5 Z-2.25 I-0.95 J0
X30.95 Y5 Z-2.5 I0.95 J0
X29.05 Y5 Z-2.75 I-0.95 J0
X30.95 Y5 Z-3 I0.95 J0
X29.05 Y5 Z-3.25 I-0.95 J0
X30.95 Y5 Z-3.5 I0.95 J0
X29.05 Y5 Z-3.75 I-0.95 J0
X30.95 Y5 Z-4 I0.95 J0
X29.05 Y5 Z-4.25 I-0.95 J0
X30.95 Y5 Z-4.5 I0.95 J0
X29.05 Y5 Z-4.75 I-0.95 J0
X30.95 Y5 Z-5 I0.95 J0
X29.05 Y5 Z-5.25 I-0.95 J0
X30.95 Y5 Z-5.5 I0.95 J0
X29.05 Y5 Z-5.75 I-0.95 J0
X30.294 Y4.096 Z-5.9 I0.95 J0
X29.706 Y5.904 I-0.294 J0.904
X30.294 Y4.096 I0.294 J-0.904
X30.422 Y4.349 I-0.062 J0.19
G1 X30.391 Y4.444
X30.375 Y4.493 Z-5.893
X30.36 Y4.539 Z-5.873
X30.347 Y4.578 Z-5.841
X30.338 Y4.608 Z-5.8
X30.331 Y4.627 Z-5.752
X30.329 Y4.634 Z-5.7
Z10
(When using Fusion 360 for Personal Use, the feedrate of)
(rapid moves is reduced to match the feedrate of cutting)
(moves, which can increase machining time. Unrestricted rapid)
(moves are available with a Fusion 360 Subscription.)

(2D Contour inside)
G0 X38.9 Y12.3
G1 Z10 F1000
Z5
Z2.05 F333.3
Z-0.7
G18 G2 X39.1 Z-0.9 I0.2 K0 F1000
G1 X39.3
G17 G3 X39.5 Y12.5 I0 J0.2
G1 Y17.02
X36.5
Y12.02
G2 X35.5 Y11.02 I-1 J0
G1 X6.5
G2 X5.5 Y12.02 I0 J1
G1 Y17.02
X2.5
Y11
X39.5
Y12.5
G3 X39.3 Y12.7 I-0.2 J0
G1 X39.1
G18 G3 X38.9 Z-0.7 I0 K0.2
G1 Y12.3
Z-1.6 F333.3
G2 X39.1 Z-1.8 I0.2 K0 F1000
G1 X39.3
G17 G3 X39.5 Y12.5 I0 J0.2
G1 Y17.02
X36.5
Y12.02
G2 X35.5 Y11.02 I-1 J0
G1 X6.5
G2 X5.5 Y12.02 I0 J1
G1 Y17.02
X2.5
Y11
X39.5
Y12.5
G3 X39.3 Y12.7 I-0.2 J0
G1 X39.1
G18 G3 X38.9 Z-1.6 I0 K0.2
G1 Y12.3
Z-2.5 F333.3
G2 X39.1 Z-2.7 I0.2 K0 F1000
G1 X39.3
G17 G3 X39.5 Y12.5 I0 J0.2
G1 Y17.02
X36.5
Y12.02
G2 X35.5 Y11.02 I-1 J0
G1 X6.5
G2 X5.5 Y12.02 I0 J1
G1 Y17.02
X2.5
Y11
X39.5
Y12.5
G3 X39.3 Y12.7 I-0.2 J0
G1 X39.1
G18 G3 X38.9 Z-2.5 I0 K0.2
G1 Y12.3
Z-3.4 F333.3
G2 X39.1 Z-3.6 I0.2 K0 F1000
G1 X39.3
G17 G3 X39.5 Y12.5 I0 J0.2
G1 Y17.02
X36.5
Y12.02
G2 X35.5 Y11.02 I-1 J0
G1 X6.5
G2 X5.5 Y12.02 I0 J1
G1 Y17.02
X2.5
Y11
X39.5
Y12.5
G3 X39.3 Y12.7 I-0.2 J0
G1 X39.1
G18 G3 X38.9 Z-3.4 I0 K0.2
G1 Y12.3
Z-4.3 F333.3
G2 X39.1 Z-4.5 I0.2 K0 F1000
G1 X39.3
G17 G3 X39.5 Y12.5 I0 J0.2
G1 Y17.02
X36.5
Y12.02
G2 X35.5 Y11.02 I-1 J0
G1 X6.5
G2 X5.5 Y12.02 I0 J1
G1 Y17.02
X2.5
Y11
X39.5
Y12.5
G3 X39.3 Y12.7 I-0.2 J0
G1 X39.1
G18 G3 X38.9 Z-4.3 I0 K0.2
G1 Y12.3
Z-5.2 F333.3
G2 X39.1 Z-5.4 I0.2 K0 F1000
G1 X39.3
G17 G3 X39.5 Y12.5 I0 J0.2
G1 Y17.02
X36.5
Y12.02
G2 X35.5 Y11.02 I-1 J0
G1 X6.5
G2 X5.5 Y12.02 I0 J1
G1 Y17.02
X2.5
Y11
X39.5
Y12.5
G3 X39.3 Y12.7 I-0.2 J0
G1 X39.1
G18 G3 X38.9 Z-5.2 I0 K0.2
G1 Z10
G17
(When using Fusion 360 for Personal Use, the feedrate of)
(rapid moves is reduced to match the feedrate of cutting)
(moves, which can increase machining time. Unrestricted rapid)
(moves are available with a Fusion 360 Subscription.)

(2D Contour outside 2)
G0 X4.959 Y-1.8
G1 Z10 F1000
Z5
Z2.05 F333.3
Z-0.7
G19 G3 Y-1.6 Z-0.9 J0.2 K0 F1000
G1 Y-1.4
G17 G3 X4.759 Y-1.2 I-0.2 J0
G1 X4
G2 X-1.2 Y4 I0 J5.2
G1 Y18.02
G2 X1.5 Y20.72 I2.7 J0
G1 X6.5
G2 X9.2 Y18.02 I0 J-2.7
G1 Y14.72
X16.8
Y41
G2 X18 Y42.2 I1.2 J0
G1 X24
G2 X25.2 Y41 I0 J-1.2
G1 Y14.72
X32.8
Y18.02
G2 X35.5 Y20.72 I2.7 J0
G1 X40.5
G2 X43.2 Y18.02 I0 J-2.7
G1 Y4
G2 X38 Y-1.2 I-5.2 J0
G1 X4.759
G3 X4.559 Y-1.4 I0 J-0.2
G1 Y-1.6
G19 G2 Y-1.8 Z-0.7 J0 K0.2
G1 X4.959
Z-1.6 F333.3
G3 Y-1.6 Z-1.8 J0.2 K0 F1000
G1 Y-1.4
G17 G3 X4.759 Y-1.2 I-0.2 J0
G1 X4
G2 X-1.2 Y4 I0 J5.2
G1 Y18.02
G2 X1.5 Y20.72 I2.7 J0
G1 X6.5
G2 X9.2 Y18.02 I0 J-2.7
G1 Y14.72
X16.8
Y41
G2 X18 Y42.2 I1.2 J0
G1 X24
G2 X25.2 Y41 I0 J-1.2
G1 Y14.72
X32.8
Y18.02
G2 X35.5 Y20.72 I2.7 J0
G1 X40.5
G2 X43.2 Y18.02 I0 J-2.7
G1 Y4
G2 X38 Y-1.2 I-5.2 J0
G1 X4.759
G3 X4.559 Y-1.4 I0 J-0.2
G1 Y-1.6
G19 G2 Y-1.8 Z-1.6 J0 K0.2
G1 X4.959
Z-2.5 F333.3
G3 Y-1.6 Z-2.7 J0.2 K0 F1000
G1 Y-1.4
G17 G3 X4.759 Y-1.2 I-0.2 J0
G1 X4
G2 X-1.2 Y4 I0 J5.2
G1 Y18.02
G2 X1.5 Y20.72 I2.7 J0
G1 X6.5
G2 X9.2 Y18.02 I0 J-2.7
G1 Y14.72
X16.8
Y41
G2 X18 Y42.2 I1.2 J0
G1 X24
G2 X25.2 Y41 I0 J-1.2
G1 Y14.72
X32.8
Y18.02
G2 X35.5 Y20.72 I2.7 J0
G1 X40.5
G2 X43.2 Y18.02 I0 J-2.7
G1 Y4
G2 X38 Y-1.2 I-5.2 J0
G1 X4.759
G3 X4.559 Y-1.4 I0 J-0.2
G1 Y-1.6
G19 G2 Y-1.8 Z-2.5 J0 K0.2
G1 X4.959
Z-3.4 F333.3
G3 Y-1.6 Z-3.6 J0.2 K0 F1000
G1 Y-1.4
G17 G3 X4.759 Y-1.2 I-0.2 J0
G1 X4
G2 X-1.2 Y4 I0 J5.2
G1 Y18.02
G2 X1.5 Y20.72 I2.7 J0
G1 X6.5
G2 X9.2 Y18.02 I0 J-2.7
G1 Y14.72
X16.8
Y41
G2 X18 Y42.2 I1.2 J0
G1 X24
G2 X25.2 Y41 I0 J-1.2
G1 Y14.72
X32.8
Y18.02
G2 X35.5 Y20.72 I2.7 J0
G1 X40.5
G2 X43.2 Y18.02 I0 J-2.7
G1 Y4
G2 X38 Y-1.2 I-5.2 J0
G1 X4.759
G3 X4.559 Y-1.4 I0 J-0.2
G1 Y-1.6
G19 G2 Y-1.8 Z-3.4 J0 K0.2
G1 X4.959
Z-4.3 F333.3
G3 Y-1.6 Z-4.5 J0.2 K0 F1000
G1 Y-1.4
G17 G3 X4.759 Y-1.2 I-0.2 J0
G1 X4
G2 X-1.2 Y4 I0 J5.2
G1 Y12.007
Y12.307 Z-3.9
Y14.307
Y14.607 Z-4.5 F333.3
Y18.02 F1000
G2 X1.5 Y20.72 I2.7 J0
G1 X6.5
G2 X9.2 Y18.02 I0 J-2.7
G1 Y14.72
X16.8
Y21.809
Y22.109 Z-3.9
Y24.109
Y24.409 Z-4.5 F333.3
Y41 F1000
G2 X18 Y42.2 I1.2 J0
G1 X24
G2 X25.2 Y41 I0 J-1.2
G1 Y24.057
Y23.757 Z-3.9
Y21.757
Y21.457 Z-4.5 F333.3
Y14.72 F1000
X32.8
Y18.02
G2 X35.5 Y20.72 I2.7 J0
G1 X40.5
G2 X43.2 Y18.02 I0 J-2.7
G1 Y15.443
Y15.143 Z-3.9
Y13.143
Y12.843 Z-4.5 F333.3
Y4 F1000
G2 X38 Y-1.2 I-5.2 J0
G1 X22.144
X21.844 Z-3.9
X19.844
X19.544 Z-4.5 F333.3
X4.759 F1000
G3 X4.559 Y-1.4 I0 J-0.2
G1 Y-1.6
G19 G2 Y-1.8 Z-4.3 J0 K0.2
G1 X4.959
Z-5.2 F333.3
G3 Y-1.6 Z-5.4 J0.2 K0 F1000
G1 Y-1.4
G17 G3 X4.759 Y-1.2 I-0.2 J0
G1 X4
G2 X-1.2 Y4 I0 J5.2
G1 Y11.557
Y12.307 Z-3.9
Y14.307
Y15.057 Z-5.4 F333.3
Y18.02 F1000
G2 X1.5 Y20.72 I2.7 J0
G1 X6.5
G2 X9.2 Y18.02 I0 J-2.7
G1 Y14.72
X16.8
Y21.359
Y22.109 Z-3.9
Y24.109
Y24.859 Z-5.4 F333.3
Y41 F1000
G2 X18 Y42.2 I1.2 J0
G1 X24
G2 X25.2 Y41 I0 J-1.2
G1 Y24.507
Y23.757 Z-3.9
Y21.757
Y21.007 Z-5.4 F333.3
Y14.72 F1000
X32.8
Y18.02
G2 X35.5 Y20.72 I2.7 J0
G1 X40.5
G2 X43.2 Y18.02 I0 J-2.7
G1 Y15.893
Y15.143 Z-3.9
Y13.143
Y12.393 Z-5.4 F333.3
Y4 F1000
G2 X38 Y-1.2 I-5.2 J0
G1 X22.594
X21.844 Z-3.9
X19.844
X19.094 Z-5.4 F333.3
X4.759 F1000
X4.712 Y-1.193
X4.669 Y-1.173
X4.634 Y-1.141
X4.609 Y-1.1
X4.584 Y-1.059
X4.549 Y-1.027
X4.506 Y-1.007
X4.459 Y-1
X4
G2 X-1 Y4 I0 J5
G1 Y11.557
Y12.307 Z-3.9
Y14.307
Y15.057 Z-5.4 F333.3
Y18.02 F1000
G2 X1.5 Y20.52 I2.5 J0
G1 X6.5
G2 X9 Y18.02 I0 J-2.5
G1 Y14.52
X17
Y21.359
Y22.109 Z-3.9
Y24.109
Y24.859 Z-5.4 F333.3
Y41 F1000
G2 X18 Y42 I1 J0
G1 X24
G2 X25 Y41 I0 J-1
G1 Y24.507
Y23.757 Z-3.9
Y21.757
Y21.007 Z-5.4 F333.3
Y14.52 F1000
X33
Y18.02
G2 X35.5 Y20.52 I2.5 J0
G1 X40.5
G2 X43 Y18.02 I0 J-2.5
G1 Y15.893
Y15.143 Z-3.9
Y13.143
Y12.393 Z-5.4 F333.3
Y4 F1000
G2 X38 Y-1 I-5 J0
G1 X22.594
X21.844 Z-3.9
X19.844
X19.094 Z-5.4 F333.3
X4.459 F1000
G3 X4.259 Y-1.2 I0 J-0.2
G1 Y-1.4
G19 G2 Y-1.6 Z-5.2 J0 K0.2
G1 Z10
G17
M5
M30
