(1096_btn_20bit_bigger_inner_bigger_holes)
(T1  D=2 CR=0 - ZMIN=-5.9 - flat end mill)
G90 G94
G17
G21
(When using Fusion 360 for Personal Use, the feedrate of)
(rapid moves is reduced to match the feedrate of cutting)
(moves, which can increase machining time. Unrestricted rapid)
(moves are available with a Fusion 360 Subscription.)

(Bore2)
T1
S5000 M3
G54
G0 X12.55 Y4.8
Z10
G1 Z2 F1000
Z0.2
G18 G2 X12.75 Z0 I0.2 K0
G1 X12.85
G17 G3 X13.05 Y5 I0 J0.2
X10.95 Y5 Z-0.25 I-1.05 J0
X13.05 Y5 Z-0.5 I1.05 J0
X10.95 Y5 Z-0.75 I-1.05 J0
X13.05 Y5 Z-1 I1.05 J0
X10.95 Y5 Z-1.25 I-1.05 J0
X13.05 Y5 Z-1.5 I1.05 J0
X10.95 Y5 Z-1.75 I-1.05 J0
X13.05 Y5 Z-2 I1.05 J0
X10.95 Y5 Z-2.25 I-1.05 J0
X13.05 Y5 Z-2.5 I1.05 J0
X10.95 Y5 Z-2.75 I-1.05 J0
X13.05 Y5 Z-3 I1.05 J0
X10.95 Y5 Z-3.25 I-1.05 J0
X13.05 Y5 Z-3.5 I1.05 J0
X10.95 Y5 Z-3.75 I-1.05 J0
X13.05 Y5 Z-4 I1.05 J0
X10.95 Y5 Z-4.25 I-1.05 J0
X13.05 Y5 Z-4.5 I1.05 J0
X10.95 Y5 Z-4.75 I-1.05 J0
X13.05 Y5 Z-5 I1.05 J0
X10.95 Y5 Z-5.25 I-1.05 J0
X13.05 Y5 Z-5.5 I1.05 J0
X10.95 Y5 Z-5.75 I-1.05 J0
X12.324 Y4.001 Z-5.9 I1.05 J0
X11.676 Y5.999 I-0.324 J0.999
X12.324 Y4.001 I0.324 J-0.999
X12.453 Y4.253 I-0.062 J0.19
G1 X12.422 Y4.349
X12.406 Y4.398 Z-5.893
X12.391 Y4.444 Z-5.873
X12.378 Y4.483 Z-5.841
X12.368 Y4.513 Z-5.8
X12.362 Y4.532 Z-5.752
X12.36 Y4.539 Z-5.7
Z5
X30.55 Y4.8
Z2
Z0.2
G18 G2 X30.75 Z0 I0.2 K0
G1 X30.85
G17 G3 X31.05 Y5 I0 J0.2
X28.95 Y5 Z-0.25 I-1.05 J0
X31.05 Y5 Z-0.5 I1.05 J0
X28.95 Y5 Z-0.75 I-1.05 J0
X31.05 Y5 Z-1 I1.05 J0
X28.95 Y5 Z-1.25 I-1.05 J0
X31.05 Y5 Z-1.5 I1.05 J0
X28.95 Y5 Z-1.75 I-1.05 J0
X31.05 Y5 Z-2 I1.05 J0
X28.95 Y5 Z-2.25 I-1.05 J0
X31.05 Y5 Z-2.5 I1.05 J0
X28.95 Y5 Z-2.75 I-1.05 J0
X31.05 Y5 Z-3 I1.05 J0
X28.95 Y5 Z-3.25 I-1.05 J0
X31.05 Y5 Z-3.5 I1.05 J0
X28.95 Y5 Z-3.75 I-1.05 J0
X31.05 Y5 Z-4 I1.05 J0
X28.95 Y5 Z-4.25 I-1.05 J0
X31.05 Y5 Z-4.5 I1.05 J0
X28.95 Y5 Z-4.75 I-1.05 J0
X31.05 Y5 Z-5 I1.05 J0
X28.95 Y5 Z-5.25 I-1.05 J0
X31.05 Y5 Z-5.5 I1.05 J0
X28.95 Y5 Z-5.75 I-1.05 J0
X30.324 Y4.001 Z-5.9 I1.05 J0
X29.676 Y5.999 I-0.324 J0.999
X30.324 Y4.001 I0.324 J-0.999
X30.453 Y4.253 I-0.062 J0.19
G1 X30.422 Y4.349
X30.406 Y4.398 Z-5.893
X30.391 Y4.444 Z-5.873
X30.378 Y4.483 Z-5.841
X30.368 Y4.513 Z-5.8
X30.362 Y4.532 Z-5.752
X30.36 Y4.539 Z-5.7
Z10
(When using Fusion 360 for Personal Use, the feedrate of)
(rapid moves is reduced to match the feedrate of cutting)
(moves, which can increase machining time. Unrestricted rapid)
(moves are available with a Fusion 360 Subscription.)

(2D Contour inside)
G0 X38.9 Y10.805
G1 Z10 F1000
Z5
Z2.05 F333.3
Z-0.7
G18 G2 X39.1 Z-0.9 I0.2 K0 F1000
G1 X39.3
G17 G3 X39.5 Y11.005 I0 J0.2
G1 Y17.01
X36.5
Y12.01
G2 X35.5 Y11.01 I-1 J0
G1 X6.5
G2 X5.5 Y12.01 I0 J1
G1 Y17.01
X2.5
Y3
X5.5
Y10
G2 X6.5 Y11 I1 J0
G1 X35.5
G2 X36.5 Y10 I0 J-1
G1 Y3
X39.5
Y11.005
G3 X39.3 Y11.205 I-0.2 J0
G1 X39.1
G18 G3 X38.9 Z-0.7 I0 K0.2
G1 Y10.805
Z-1.6 F333.3
G2 X39.1 Z-1.8 I0.2 K0 F1000
G1 X39.3
G17 G3 X39.5 Y11.005 I0 J0.2
G1 Y17.01
X36.5
Y12.01
G2 X35.5 Y11.01 I-1 J0
G1 X6.5
G2 X5.5 Y12.01 I0 J1
G1 Y17.01
X2.5
Y3
X5.5
Y10
G2 X6.5 Y11 I1 J0
G1 X35.5
G2 X36.5 Y10 I0 J-1
G1 Y3
X39.5
Y11.005
G3 X39.3 Y11.205 I-0.2 J0
G1 X39.1
G18 G3 X38.9 Z-1.6 I0 K0.2
G1 Y10.805
Z-2.5 F333.3
G2 X39.1 Z-2.7 I0.2 K0 F1000
G1 X39.3
G17 G3 X39.5 Y11.005 I0 J0.2
G1 Y17.01
X36.5
Y12.01
G2 X35.5 Y11.01 I-1 J0
G1 X6.5
G2 X5.5 Y12.01 I0 J1
G1 Y17.01
X2.5
Y3
X5.5
Y10
G2 X6.5 Y11 I1 J0
G1 X35.5
G2 X36.5 Y10 I0 J-1
G1 Y3
X39.5
Y11.005
G3 X39.3 Y11.205 I-0.2 J0
G1 X39.1
G18 G3 X38.9 Z-2.5 I0 K0.2
G1 Y10.805
Z-3.4 F333.3
G2 X39.1 Z-3.6 I0.2 K0 F1000
G1 X39.3
G17 G3 X39.5 Y11.005 I0 J0.2
G1 Y17.01
X36.5
Y12.01
G2 X35.5 Y11.01 I-1 J0
G1 X6.5
G2 X5.5 Y12.01 I0 J1
G1 Y17.01
X2.5
Y3
X5.5
Y10
G2 X6.5 Y11 I1 J0
G1 X35.5
G2 X36.5 Y10 I0 J-1
G1 Y3
X39.5
Y11.005
G3 X39.3 Y11.205 I-0.2 J0
G1 X39.1
G18 G3 X38.9 Z-3.4 I0 K0.2
G1 Y10.805
Z-4.3 F333.3
G2 X39.1 Z-4.5 I0.2 K0 F1000
G1 X39.3
G17 G3 X39.5 Y11.005 I0 J0.2
G1 Y17.01
X36.5
Y12.01
G2 X35.5 Y11.01 I-1 J0
G1 X6.5
G2 X5.5 Y12.01 I0 J1
G1 Y17.01
X2.5
Y3
X5.5
Y10
G2 X6.5 Y11 I1 J0
G1 X35.5
G2 X36.5 Y10 I0 J-1
G1 Y3
X39.5
Y11.005
G3 X39.3 Y11.205 I-0.2 J0
G1 X39.1
G18 G3 X38.9 Z-4.3 I0 K0.2
G1 Y10.805
Z-5.2 F333.3
G2 X39.1 Z-5.4 I0.2 K0 F1000
G1 X39.3
G17 G3 X39.5 Y11.005 I0 J0.2
G1 Y17.01
X36.5
Y12.01
G2 X35.5 Y11.01 I-1 J0
G1 X6.5
G2 X5.5 Y12.01 I0 J1
G1 Y17.01
X2.5
Y3
X5.5
Y10
G2 X6.5 Y11 I1 J0
G1 X35.5
G2 X36.5 Y10 I0 J-1
G1 Y3
X39.5
Y11.005
G3 X39.3 Y11.205 I-0.2 J0
G1 X39.1
G18 G3 X38.9 Z-5.2 I0 K0.2
G1 Z10
G17
(When using Fusion 360 for Personal Use, the feedrate of)
(rapid moves is reduced to match the feedrate of cutting)
(moves, which can increase machining time. Unrestricted rapid)
(moves are available with a Fusion 360 Subscription.)

(2D Contour outside 2)
G0 X3.048 Y-1.8
G1 Z10 F1000
Z5
Z2.05 F333.3
Z-0.7
G19 G3 Y-1.6 Z-0.9 J0.2 K0 F1000
G1 Y-1.4
G17 G3 X2.848 Y-1.2 I-0.2 J0
G1 X2
G2 X-1.2 Y2 I0 J3.2
G1 Y18.01
G2 X1.5 Y20.71 I2.7 J0
G1 X6.5
G2 X9.2 Y18.01 I0 J-2.7
G1 Y14.71
X16.8
Y41
G2 X18 Y42.2 I1.2 J0
G1 X24
G2 X25.2 Y41 I0 J-1.2
G1 Y14.71
X32.8
Y18.01
G2 X35.5 Y20.71 I2.7 J0
G1 X40.5
G2 X43.2 Y18.01 I0 J-2.7
G1 Y2
G2 X40 Y-1.2 I-3.2 J0
G1 X2.848
G3 X2.648 Y-1.4 I0 J-0.2
G1 Y-1.6
G19 G2 Y-1.8 Z-0.7 J0 K0.2
G1 X3.048
Z-1.6 F333.3
G3 Y-1.6 Z-1.8 J0.2 K0 F1000
G1 Y-1.4
G17 G3 X2.848 Y-1.2 I-0.2 J0
G1 X2
G2 X-1.2 Y2 I0 J3.2
G1 Y18.01
G2 X1.5 Y20.71 I2.7 J0
G1 X6.5
G2 X9.2 Y18.01 I0 J-2.7
G1 Y14.71
X16.8
Y41
G2 X18 Y42.2 I1.2 J0
G1 X24
G2 X25.2 Y41 I0 J-1.2
G1 Y14.71
X32.8
Y18.01
G2 X35.5 Y20.71 I2.7 J0
G1 X40.5
G2 X43.2 Y18.01 I0 J-2.7
G1 Y2
G2 X40 Y-1.2 I-3.2 J0
G1 X2.848
G3 X2.648 Y-1.4 I0 J-0.2
G1 Y-1.6
G19 G2 Y-1.8 Z-1.6 J0 K0.2
G1 X3.048
Z-2.5 F333.3
G3 Y-1.6 Z-2.7 J0.2 K0 F1000
G1 Y-1.4
G17 G3 X2.848 Y-1.2 I-0.2 J0
G1 X2
G2 X-1.2 Y2 I0 J3.2
G1 Y18.01
G2 X1.5 Y20.71 I2.7 J0
G1 X6.5
G2 X9.2 Y18.01 I0 J-2.7
G1 Y14.71
X16.8
Y41
G2 X18 Y42.2 I1.2 J0
G1 X24
G2 X25.2 Y41 I0 J-1.2
G1 Y14.71
X32.8
Y18.01
G2 X35.5 Y20.71 I2.7 J0
G1 X40.5
G2 X43.2 Y18.01 I0 J-2.7
G1 Y2
G2 X40 Y-1.2 I-3.2 J0
G1 X2.848
G3 X2.648 Y-1.4 I0 J-0.2
G1 Y-1.6
G19 G2 Y-1.8 Z-2.5 J0 K0.2
G1 X3.048
Z-3.4 F333.3
G3 Y-1.6 Z-3.6 J0.2 K0 F1000
G1 Y-1.4
G17 G3 X2.848 Y-1.2 I-0.2 J0
G1 X2
G2 X-1.2 Y2 I0 J3.2
G1 Y18.01
G2 X1.5 Y20.71 I2.7 J0
G1 X6.5
G2 X9.2 Y18.01 I0 J-2.7
G1 Y14.71
X16.8
Y41
G2 X18 Y42.2 I1.2 J0
G1 X24
G2 X25.2 Y41 I0 J-1.2
G1 Y14.71
X32.8
Y18.01
G2 X35.5 Y20.71 I2.7 J0
G1 X40.5
G2 X43.2 Y18.01 I0 J-2.7
G1 Y2
G2 X40 Y-1.2 I-3.2 J0
G1 X2.848
G3 X2.648 Y-1.4 I0 J-0.2
G1 Y-1.6
G19 G2 Y-1.8 Z-3.4 J0 K0.2
G1 X3.048
Z-4.3 F333.3
G3 Y-1.6 Z-4.5 J0.2 K0 F1000
G1 Y-1.4
G17 G3 X2.848 Y-1.2 I-0.2 J0
G1 X2
G2 X-1.2 Y2 I0 J3.2
G1 Y11.328
Y11.628 Z-3.9
Y13.628
Y13.928 Z-4.5 F333.3
Y18.01 F1000
G2 X1.5 Y20.71 I2.7 J0
G1 X6.5
G2 X9.2 Y18.01 I0 J-2.7
G1 Y14.71
X16.8
Y21.803
Y22.103 Z-3.9
Y24.103
Y24.403 Z-4.5 F333.3
Y41 F1000
G2 X18 Y42.2 I1.2 J0
G1 X24
G2 X25.2 Y41 I0 J-1.2
G1 Y24.05
Y23.75 Z-3.9
Y21.75
Y21.45 Z-4.5 F333.3
Y14.71 F1000
X32.8
Y18.01
G2 X35.5 Y20.71 I2.7 J0
G1 X40.5
G2 X43.2 Y18.01 I0 J-2.7
G1 Y14.883
Y14.583 Z-3.9
Y12.583
Y12.283 Z-4.5 F333.3
Y2 F1000
G2 X40 Y-1.2 I-3.2 J0
G1 X22.125
X21.825 Z-3.9
X19.825
X19.525 Z-4.5 F333.3
X2.848 F1000
G3 X2.648 Y-1.4 I0 J-0.2
G1 Y-1.6
G19 G2 Y-1.8 Z-4.3 J0 K0.2
G1 X3.048
Z-5.2 F333.3
G3 Y-1.6 Z-5.4 J0.2 K0 F1000
G1 Y-1.4
G17 G3 X2.848 Y-1.2 I-0.2 J0
G1 X2
G2 X-1.2 Y2 I0 J3.2
G1 Y10.878
Y11.628 Z-3.9
Y13.628
Y14.378 Z-5.4 F333.3
Y18.01 F1000
G2 X1.5 Y20.71 I2.7 J0
G1 X6.5
G2 X9.2 Y18.01 I0 J-2.7
G1 Y14.71
X16.8
Y21.353
Y22.103 Z-3.9
Y24.103
Y24.853 Z-5.4 F333.3
Y41 F1000
G2 X18 Y42.2 I1.2 J0
G1 X24
G2 X25.2 Y41 I0 J-1.2
G1 Y24.5
Y23.75 Z-3.9
Y21.75
Y21 Z-5.4 F333.3
Y14.71 F1000
X32.8
Y18.01
G2 X35.5 Y20.71 I2.7 J0
G1 X40.5
G2 X43.2 Y18.01 I0 J-2.7
G1 Y15.333
Y14.583 Z-3.9
Y12.583
Y11.833 Z-5.4 F333.3
Y2 F1000
G2 X40 Y-1.2 I-3.2 J0
G1 X22.575
X21.825 Z-3.9
X19.825
X19.075 Z-5.4 F333.3
X2.848 F1000
X2.801 Y-1.193
X2.758 Y-1.173
X2.723 Y-1.141
X2.698 Y-1.1
X2.674 Y-1.059
X2.638 Y-1.027
X2.595 Y-1.007
X2.548 Y-1
X2
G2 X-1 Y2 I0 J3
G1 Y10.878
Y11.628 Z-3.9
Y13.628
Y14.378 Z-5.4 F333.3
Y18.01 F1000
G2 X1.5 Y20.51 I2.5 J0
G1 X6.5
G2 X9 Y18.01 I0 J-2.5
G1 Y14.51
X17
Y21.353
Y22.103 Z-3.9
Y24.103
Y24.853 Z-5.4 F333.3
Y41 F1000
G2 X18 Y42 I1 J0
G1 X24
G2 X25 Y41 I0 J-1
G1 Y24.5
Y23.75 Z-3.9
Y21.75
Y21 Z-5.4 F333.3
Y14.51 F1000
X33
Y18.01
G2 X35.5 Y20.51 I2.5 J0
G1 X40.5
G2 X43 Y18.01 I0 J-2.5
G1 Y15.333
Y14.583 Z-3.9
Y12.583
Y11.833 Z-5.4 F333.3
Y2 F1000
G2 X40 Y-1 I-3 J0
G1 X22.575
X21.825 Z-3.9
X19.825
X19.075 Z-5.4 F333.3
X2.548 F1000
G3 X2.348 Y-1.2 I0 J-0.2
G1 Y-1.4
G19 G2 Y-1.6 Z-5.2 J0 K0.2
G1 Z10
G17
M5
M30
