(1098_wall_27bit_15stepdown)
(T1  D=2.7 CR=0 - ZMIN=-13.3 - flat end mill)
G90 G94
G17
G21
(When using Fusion 360 for Personal Use, the feedrate of)
(rapid moves is reduced to match the feedrate of cutting)
(moves, which can increase machining time. Unrestricted rapid)
(moves are available with a Fusion 360 Subscription.)

(2D Pocket tabs)
T1
S5000 M3
G54
G0 X-1.347 Y33.181
Z10
G1 Z5 F1000
Z2.5 F333.3
Z-1.487 F1000
X-1.34 Y33.189
G2 X0.345 Y34.824 I17.207 J-16.045
G3 X0.345 Y35.176 I-0.156 J0.176
G2 X-1.34 Y36.824 I15.744 J17.781
G1 X-1.345 Y36.837
X-1.376 Y39.144
X-1.369 Y39.159
X-1.354 Y39.164
X-1.34 Y39.157
G3 X2.733 Y35.188 I17.408 J13.79
G2 X2.733 Y34.812 I-0.141 J-0.188
G3 X-1.34 Y30.871 I13.155 J-17.668
G1 X-1.344 Y30.859
X-1.377 Y28.287
X-1.37 Y28.271
X-1.354 Y28.266
X-1.34 Y28.275
G2 X5.519 Y34.849 I17.248 J-11.132
G3 X5.519 Y35.151 I-0.089 J0.151
G2 X-1.34 Y41.763 I10.528 J17.785
G1 X-1.343 Y41.774
X-1.378 Y44.899
X-1.374 Y44.911
X-1.362 Y44.919
X-1.349 Y44.917
X-1.34 Y44.907
G3 X9.032 Y35.121 I17.366 J8.015
G1 X9.07 Y35.098
X9.098 Y35.064
X9.112 Y35.022
Y34.978
X9.098 Y34.936
X9.07 Y34.902
X9.032 Y34.879
G3 X-1.34 Y25.137 I6.898 J-17.735
G1 X-1.342 Y25.129
X-1.38 Y20.037
X-1.375 Y20.024
X-1.361 Y20.017
X-1.347 Y20.021
X-1.34 Y20.034
G2 X12.136 Y34.248 I17.282 J-2.89
G3 X12.393 Y34.423 I-0.093 J0.412
G1 X12.396 Y34.434
Y35.566
X12.393 Y35.577
G3 X12.136 Y35.752 I-0.35 J-0.237
G2 X-1.34 Y50.016 I3.877 J17.16
G1 Y50.024
X-0.097 Y54.869
X-0.089 Y54.881
X-0.075 Y54.884
X-0.063 Y54.877
X-0.058 Y54.864
X-0.06 Y52.856
G3 X13.715 Y37.005 I16.068 J0.052
G2 X13.985 Y36.708 I-0.045 J-0.312
G1 X13.987 Y36.698
X13.994 Y36.692
X15.475 Y35.786
X15.488 Y35.783
X15.5 Y35.79
X15.505 Y35.803
Y38.068
G3 X15.207 Y38.383 I-0.315 J0
G2 X1.46 Y52.856 I0.796 J14.521
G1 X1.463 Y55.532
Y55.542
Z5
X13.985 Y33.302
Z2.5 F333.3
Z-1.487 F1000
Y33.292
G2 X13.715 Y32.995 I-0.315 J0.015
G3 X-0.06 Y17.144 I2.233 J-15.851
G1 X-0.058 Y15.136
X-0.054 Y15.125
X-0.046 Y15.118
X1.435 Y14.45
X1.448 Y14.449
X1.459 Y14.456
X1.463 Y14.468
X1.46 Y17.144
G2 X15.207 Y31.617 I14.492 J0
G3 X15.505 Y31.932 I-0.017 J0.315
G1 Y34.197
G3 X14.315 Y34.749 I-0.723 J0
G1 X11.879 Y32.689
X11.827 Y32.64
X0.345 Y20.793
G3 X-0.023 Y19.784 I0.945 J-0.916
G1 X0.354 Y14.479
G3 X2.983 Y14.573 I1.313 J0.093
G1 X2.98 Y17.144
G2 X16.776 Y30.095 I12.978 J0
G3 X17.025 Y30.33 I0.014 J0.235
G1 Y39.67
G3 X16.776 Y39.905 I-0.235 J0
G2 X2.98 Y52.856 I-0.778 J12.994
G1 X2.983 Y55.427
X2.987 Y55.439
X2.997 Y55.446
X3.01 Y55.445
X4.489 Y54.901
X4.499 Y54.894
X4.502 Y54.882
X4.5 Y52.856
G3 X18.263 Y41.627 I11.493 J0.037
G2 X18.545 Y41.396 I0.046 J-0.231
G1 Y28.604
G2 X18.263 Y28.373 I-0.235 J0
G3 X4.5 Y17.144 I-2.301 J-11.229
G1 X4.502 Y15.117
X4.506 Y15.105
X4.517 Y15.098
X4.529 Y15.099
X6.008 Y15.652
X6.018 Y15.659
X6.021 Y15.671
X6.02 Y17.144
G2 X19.402 Y26.491 I9.956 J0
G1 X19.587 Y26.417
X19.773 Y26.343
G3 X20.065 Y26.548 I0.074 J0.205
G1 Y43.452
G3 X19.773 Y43.657 I-0.218 J0
G1 X19.587 Y43.583
X19.402 Y43.509
G2 X6.02 Y52.856 I-3.41 J9.37
G1 X6.021 Y54.33
X6.025 Y54.342
X6.036 Y54.349
X6.048
X7.528 Y53.795
X7.537 Y53.788
X7.541 Y53.776
X7.54 Y52.856
G3 X18.893 Y44.906 I8.46 J0
X20.093 Y45.367 I-12.535 J34.442
G2 X21.293 Y45.828 I13.751 J-34.025
X21.585 Y45.623 I0.074 J-0.205
G1 Y24.377
G2 X21.293 Y24.172 I-0.218 J0
X20.093 Y24.633 I12.55 J34.482
G3 X18.893 Y25.094 I-13.75 J-34.021
X7.54 Y17.144 I-2.893 J-7.95
G1 X7.541 Y16.224
X7.545 Y16.212
X7.555 Y16.205
X7.568
X9.047 Y16.758
X9.057 Y16.766
X9.06 Y16.777
Y17.144
G2 X18.374 Y23.665 I6.94 J0
X20.593 Y22.833 I-42.703 J-117.324
G3 X22.813 Y22.002 I44.922 J116.492
X23.105 Y22.206 I0.074 J0.205
G1 Y47.794
G3 X22.813 Y47.998 I-0.218 J0
X20.593 Y47.167 I42.704 J-117.329
G2 X18.373 Y46.335 I-44.821 J116.222
X9.06 Y52.856 I-2.373 J6.522
G1 Y53.223
X9.064 Y53.235
X9.075 Y53.242
X9.087 Y53.241
X10.57 Y52.687
X10.579 Y52.68
X10.583 Y52.669
G3 X17.854 Y47.763 I5.417 J0.187
G1 X24.333 Y50.169
G2 X24.625 Y49.965 I0.074 J-0.205
G1 Y20.035
G2 X24.333 Y19.831 I-0.218 J0
G1 X17.854 Y22.237
G3 X10.583 Y17.331 I-1.854 J-5.093
G1 X10.587 Y17.319
X10.596 Y17.311
X10.609
X12.187 Y17.753
X12.196 Y17.759
X12.201 Y17.769
G2 X17.317 Y20.762 I3.799 J-0.625
G1 X25.949 Y17.62
X25.996 Y17.611
X26.043 Y17.617
X26.086 Y17.638
X26.12 Y17.671
X26.142 Y17.714
X26.15 Y17.761
Y52.239
X26.142 Y52.286
X26.12 Y52.329
X26.086 Y52.362
X26.043 Y52.383
X25.996 Y52.389
X25.949 Y52.38
X17.317 Y49.238
G2 X12.201 Y52.232 I-1.317 J3.618
G1 X12.193 Y52.244
X12.179 Y52.249
X12.166 Y52.242
X-1.347 Y36.859
X-1.352 Y36.845
X-1.347 Y36.832
Z-2.975
X-1.34 Y36.824
G3 X0.345 Y35.176 I17.429 J16.133
G2 X0.345 Y34.824 I-0.156 J-0.176
G3 X-1.34 Y33.189 I15.522 J-17.68
G1 X-1.345 Y33.176
X-1.376 Y30.883
X-1.369 Y30.869
X-1.354 Y30.863
X-1.34 Y30.871
G2 X2.733 Y34.812 I17.228 J-13.727
G3 X2.733 Y35.188 I-0.141 J0.188
G2 X-1.34 Y39.157 I13.335 J17.759
G1 X-1.344 Y39.169
X-1.377 Y41.752
X-1.37 Y41.767
X-1.354 Y41.772
X-1.34 Y41.763
G3 X5.519 Y35.151 I17.387 J11.172
G2 X5.519 Y34.849 I-0.089 J-0.151
G3 X-1.34 Y28.275 I10.389 J-17.706
G1 X-1.343 Y28.265
X-1.378 Y25.146
X-1.374 Y25.133
X-1.362 Y25.126
X-1.349 Y25.127
X-1.34 Y25.137
G2 X9.032 Y34.879 I17.269 J-7.993
G1 X9.07 Y34.902
X9.098 Y34.936
X9.112 Y34.978
Y35.022
X9.098 Y35.064
X9.07 Y35.098
X9.032 Y35.121
G2 X-1.34 Y44.907 I6.994 J17.801
G1 X-1.342 Y44.916
X-1.38 Y50.012
X-1.374 Y50.026
X-1.361 Y50.032
X-1.347 Y50.028
X-1.34 Y50.016
G3 X12.136 Y35.752 I17.353 J2.897
G2 X12.393 Y35.577 I-0.093 J-0.412
G1 X12.396 Y35.566
Y34.434
X12.393 Y34.423
G2 X12.136 Y34.248 I-0.35 J0.236
G3 X-1.34 Y20.034 I3.807 J-17.104
G1 Y20.026
X-0.097 Y15.131
X-0.089 Y15.12
X-0.075 Y15.116
X-0.063 Y15.123
X-0.058 Y15.136
X-0.06 Y17.144
G2 X13.715 Y32.995 I16.008 J0
G3 X13.985 Y33.292 I-0.045 J0.312
G1 X13.987 Y33.301
X13.994 Y33.308
X15.475 Y34.214
X15.488 Y34.217
X15.5 Y34.21
X15.505 Y34.197
Y31.932
G2 X15.207 Y31.617 I-0.315 J0
G3 X1.46 Y17.144 I0.746 J-14.473
G1 X1.463 Y14.468
Y14.458
Z1.013
X13.985 Y36.697
Z-2.975
Y36.708
G3 X13.715 Y37.005 I-0.315 J-0.015
G2 X-0.06 Y52.856 I2.293 J15.903
G1 X-0.058 Y54.864
X-0.054 Y54.875
X-0.046 Y54.882
X1.435 Y55.55
X1.448 Y55.551
X1.459 Y55.544
X1.463 Y55.532
X1.46 Y52.856
G3 X15.207 Y38.383 I14.543 J0.048
G2 X15.505 Y38.068 I-0.017 J-0.315
G1 Y35.803
G2 X14.315 Y35.251 I-0.723 J0
G1 X11.879 Y37.311
X11.827 Y37.36
X0.345 Y49.207
G2 X-0.022 Y50.216 I0.945 J0.916
G1 X0.354 Y55.521
G2 X2.983 Y55.427 I1.313 J-0.093
G1 X2.98 Y52.856
G3 X16.776 Y39.905 I13.017 J0.042
G2 X17.025 Y39.67 I0.014 J-0.235
G1 Y30.33
G2 X16.776 Y30.095 I-0.235 J0
G3 X2.98 Y17.144 I-0.818 J-12.952
G1 X2.983 Y14.573
X2.987 Y14.561
X2.997 Y14.554
X3.01
X4.489 Y15.099
X4.499 Y15.106
X4.502 Y15.117
X4.5 Y17.144
G2 X18.263 Y28.373 I11.462 J0
G3 X18.545 Y28.604 I0.046 J0.231
G1 Y41.396
G3 X18.263 Y41.627 I-0.235 J0
G2 X4.5 Y52.856 I-2.271 J11.266
G1 X4.502 Y54.882
X4.506 Y54.894
X4.516 Y54.901
X4.529
X6.008 Y54.349
X6.018 Y54.341
X6.021 Y54.33
X6.02 Y52.856
G3 X19.402 Y43.509 I9.972 J0.023
G1 X19.587 Y43.583
X19.773 Y43.657
G2 X20.065 Y43.452 I0.074 J-0.205
G1 Y26.548
G2 X19.773 Y26.343 I-0.218 J0
G1 X19.587 Y26.417
X19.402 Y26.491
G3 X6.02 Y17.144 I-3.426 J-9.348
G1 X6.021 Y15.671
X6.025 Y15.659
X6.036 Y15.651
X6.048 Y15.652
X7.528 Y16.205
X7.537 Y16.212
X7.541 Y16.224
X7.54 Y17.144
G2 X18.893 Y25.094 I8.46 J0
X20.093 Y24.633 I-12.55 J-34.482
G3 X21.293 Y24.172 I13.75 J34.021
X21.585 Y24.377 I0.074 J0.205
G1 Y45.623
G3 X21.293 Y45.828 I-0.218 J0
X20.093 Y45.367 I12.552 J-34.486
G2 X18.893 Y44.906 I-13.735 J33.981
X7.54 Y52.856 I-2.893 J7.95
G1 X7.541 Y53.776
X7.545 Y53.788
X7.555 Y53.795
X7.568
X9.047 Y53.242
X9.057 Y53.234
X9.06 Y53.223
Y52.856
G3 X18.373 Y46.335 I6.94 J0
X20.593 Y47.167 I-42.601 J117.054
G2 X22.813 Y47.998 I44.924 J-116.497
X23.105 Y47.794 I0.074 J-0.205
G1 Y22.206
G2 X22.813 Y22.002 I-0.218 J0
X20.593 Y22.833 I42.703 J117.324
G3 X18.374 Y23.665 I-44.922 J-116.492
X9.06 Y17.144 I-2.374 J-6.521
G1 Y16.777
X9.064 Y16.765
X9.075 Y16.758
X9.087
X10.57 Y17.313
X10.579 Y17.32
X10.583 Y17.331
G2 X17.854 Y22.237 I5.417 J-0.187
G1 X24.333 Y19.831
G3 X24.625 Y20.035 I0.074 J0.205
G1 Y49.965
G3 X24.333 Y50.169 I-0.218 J0
G1 X17.854 Y47.763
G2 X10.583 Y52.669 I-1.854 J5.093
G1 X10.587 Y52.681
X10.596 Y52.689
X10.609
X12.187 Y52.248
X12.196 Y52.242
X12.201 Y52.232
G3 X17.317 Y49.238 I3.799 J0.624
G1 X25.949 Y52.38
X25.996 Y52.389
X26.043 Y52.383
X26.086 Y52.362
X26.12 Y52.329
X26.142 Y52.286
X26.15 Y52.239
Y17.761
X26.142 Y17.714
X26.12 Y17.671
X26.086 Y17.638
X26.043 Y17.617
X25.996 Y17.611
X25.949 Y17.62
X17.317 Y20.762
G3 X12.201 Y17.769 I-1.317 J-3.618
G1 X12.194 Y17.756
X12.179 Y17.752
X12.166 Y17.759
X-1.347 Y33.155
X-1.352 Y33.168
X-1.347 Y33.181
Z-4.463
X-1.34 Y33.189
G2 X0.345 Y34.824 I17.207 J-16.045
G3 X0.345 Y35.176 I-0.156 J0.176
G2 X-1.34 Y36.824 I15.744 J17.781
G1 X-1.345 Y36.837
X-1.376 Y39.144
X-1.369 Y39.159
X-1.354 Y39.164
X-1.34 Y39.157
G3 X2.733 Y35.188 I17.408 J13.79
G2 X2.733 Y34.812 I-0.141 J-0.188
G3 X-1.34 Y30.871 I13.155 J-17.668
G1 X-1.344 Y30.859
X-1.377 Y28.287
X-1.37 Y28.271
X-1.354 Y28.266
X-1.34 Y28.275
G2 X5.519 Y34.849 I17.248 J-11.132
G3 X5.519 Y35.151 I-0.089 J0.151
G2 X-1.34 Y41.763 I10.528 J17.785
G1 X-1.343 Y41.774
X-1.378 Y44.899
X-1.374 Y44.911
X-1.362 Y44.919
X-1.349 Y44.917
X-1.34 Y44.907
G3 X9.032 Y35.121 I17.366 J8.015
G1 X9.07 Y35.098
X9.098 Y35.064
X9.112 Y35.022
Y34.978
X9.098 Y34.936
X9.07 Y34.902
X9.032 Y34.879
G3 X-1.34 Y25.137 I6.898 J-17.735
G1 X-1.342 Y25.129
X-1.38 Y20.037
X-1.375 Y20.024
X-1.361 Y20.017
X-1.347 Y20.021
X-1.34 Y20.034
G2 X12.136 Y34.248 I17.282 J-2.89
G3 X12.393 Y34.423 I-0.093 J0.412
G1 X12.396 Y34.434
Y35.566
X12.393 Y35.577
G3 X12.136 Y35.752 I-0.35 J-0.237
G2 X-1.34 Y50.016 I3.877 J17.16
G1 Y50.024
X-0.097 Y54.869
X-0.089 Y54.881
X-0.075 Y54.884
X-0.063 Y54.877
X-0.058 Y54.864
X-0.06 Y52.856
G3 X13.715 Y37.005 I16.068 J0.052
G2 X13.985 Y36.708 I-0.045 J-0.312
G1 X13.987 Y36.698
X13.994 Y36.692
X15.475 Y35.786
X15.488 Y35.783
X15.5 Y35.79
X15.505 Y35.803
Y38.068
G3 X15.207 Y38.383 I-0.315 J0
G2 X1.46 Y52.856 I0.796 J14.521
G1 X1.463 Y55.532
Y55.542
Z-0.475
X13.985 Y33.302
Z-4.463
Y33.292
G2 X13.715 Y32.995 I-0.315 J0.015
G3 X-0.06 Y17.144 I2.233 J-15.851
G1 X-0.058 Y15.136
X-0.054 Y15.125
X-0.046 Y15.118
X1.435 Y14.45
X1.448 Y14.449
X1.459 Y14.456
X1.463 Y14.468
X1.46 Y17.144
G2 X15.207 Y31.617 I14.492 J0
G3 X15.505 Y31.932 I-0.017 J0.315
G1 Y34.197
G3 X14.315 Y34.749 I-0.723 J0
G1 X11.879 Y32.689
X11.827 Y32.64
X0.345 Y20.793
G3 X-0.023 Y19.784 I0.945 J-0.916
G1 X0.354 Y14.479
G3 X2.983 Y14.573 I1.313 J0.093
G1 X2.98 Y17.144
G2 X16.776 Y30.095 I12.978 J0
G3 X17.025 Y30.33 I0.014 J0.235
G1 Y39.67
G3 X16.776 Y39.905 I-0.235 J0
G2 X2.98 Y52.856 I-0.778 J12.994
G1 X2.983 Y55.427
X2.987 Y55.439
X2.997 Y55.446
X3.01 Y55.445
X4.489 Y54.901
X4.499 Y54.894
X4.502 Y54.882
X4.5 Y52.856
G3 X18.263 Y41.627 I11.493 J0.037
G2 X18.545 Y41.396 I0.046 J-0.231
G1 Y28.604
G2 X18.263 Y28.373 I-0.235 J0
G3 X4.5 Y17.144 I-2.301 J-11.229
G1 X4.502 Y15.117
X4.506 Y15.105
X4.517 Y15.098
X4.529 Y15.099
X6.008 Y15.652
X6.018 Y15.659
X6.021 Y15.671
X6.02 Y17.144
G2 X19.402 Y26.491 I9.956 J0
G1 X19.587 Y26.417
X19.773 Y26.343
G3 X20.065 Y26.548 I0.074 J0.205
G1 Y43.452
G3 X19.773 Y43.657 I-0.218 J0
G1 X19.587 Y43.583
X19.402 Y43.509
G2 X6.02 Y52.856 I-3.41 J9.37
G1 X6.021 Y54.33
X6.025 Y54.342
X6.036 Y54.349
X6.048
X7.528 Y53.795
X7.537 Y53.788
X7.541 Y53.776
X7.54 Y52.856
G3 X18.893 Y44.906 I8.46 J0
X20.093 Y45.367 I-12.535 J34.442
G2 X21.293 Y45.828 I13.751 J-34.025
X21.585 Y45.623 I0.074 J-0.205
G1 Y24.377
G2 X21.293 Y24.172 I-0.218 J0
X20.093 Y24.633 I12.55 J34.482
G3 X18.893 Y25.094 I-13.75 J-34.021
X7.54 Y17.144 I-2.893 J-7.95
G1 X7.541 Y16.224
X7.545 Y16.212
X7.555 Y16.205
X7.568
X9.047 Y16.758
X9.057 Y16.766
X9.06 Y16.777
Y17.144
G2 X18.374 Y23.665 I6.94 J0
X20.593 Y22.833 I-42.703 J-117.324
G3 X22.813 Y22.002 I44.922 J116.492
X23.105 Y22.206 I0.074 J0.205
G1 Y47.794
G3 X22.813 Y47.998 I-0.218 J0
X20.593 Y47.167 I42.704 J-117.329
G2 X18.373 Y46.335 I-44.821 J116.222
X9.06 Y52.856 I-2.373 J6.522
G1 Y53.223
X9.064 Y53.235
X9.075 Y53.242
X9.087 Y53.241
X10.57 Y52.687
X10.579 Y52.68
X10.583 Y52.669
G3 X17.854 Y47.763 I5.417 J0.187
G1 X24.333 Y50.169
G2 X24.625 Y49.965 I0.074 J-0.205
G1 Y20.035
G2 X24.333 Y19.831 I-0.218 J0
G1 X17.854 Y22.237
G3 X10.583 Y17.331 I-1.854 J-5.093
G1 X10.587 Y17.319
X10.596 Y17.311
X10.609
X12.187 Y17.753
X12.196 Y17.759
X12.201 Y17.769
G2 X17.317 Y20.762 I3.799 J-0.625
G1 X25.949 Y17.62
X25.996 Y17.611
X26.043 Y17.617
X26.086 Y17.638
X26.12 Y17.671
X26.142 Y17.714
X26.15 Y17.761
Y52.239
X26.142 Y52.286
X26.12 Y52.329
X26.086 Y52.362
X26.043 Y52.383
X25.996 Y52.389
X25.949 Y52.38
X17.317 Y49.238
G2 X12.201 Y52.232 I-1.317 J3.618
G1 X12.193 Y52.244
X12.179 Y52.249
X12.166 Y52.242
X-1.347 Y36.859
X-1.352 Y36.845
X-1.347 Y36.832
Z-5.95
X-1.34 Y36.824
G3 X0.345 Y35.176 I17.429 J16.133
G2 X0.345 Y34.824 I-0.156 J-0.176
G3 X-1.34 Y33.189 I15.522 J-17.68
G1 X-1.345 Y33.176
X-1.376 Y30.883
X-1.369 Y30.869
X-1.354 Y30.863
X-1.34 Y30.871
G2 X2.733 Y34.812 I17.228 J-13.727
G3 X2.733 Y35.188 I-0.141 J0.188
G2 X-1.34 Y39.157 I13.335 J17.759
G1 X-1.344 Y39.169
X-1.377 Y41.752
X-1.37 Y41.767
X-1.354 Y41.772
X-1.34 Y41.763
G3 X5.519 Y35.151 I17.387 J11.172
G2 X5.519 Y34.849 I-0.089 J-0.151
G3 X-1.34 Y28.275 I10.389 J-17.706
G1 X-1.343 Y28.265
X-1.378 Y25.146
X-1.374 Y25.133
X-1.362 Y25.126
X-1.349 Y25.127
X-1.34 Y25.137
G2 X9.032 Y34.879 I17.269 J-7.993
G1 X9.07 Y34.902
X9.098 Y34.936
X9.112 Y34.978
Y35.022
X9.098 Y35.064
X9.07 Y35.098
X9.032 Y35.121
G2 X-1.34 Y44.907 I6.994 J17.801
G1 X-1.342 Y44.916
X-1.38 Y50.012
X-1.374 Y50.026
X-1.361 Y50.032
X-1.347 Y50.028
X-1.34 Y50.016
G3 X12.136 Y35.752 I17.353 J2.897
G2 X12.393 Y35.577 I-0.093 J-0.412
G1 X12.396 Y35.566
Y34.434
X12.393 Y34.423
G2 X12.136 Y34.248 I-0.35 J0.236
G3 X-1.34 Y20.034 I3.807 J-17.104
G1 Y20.026
X-0.097 Y15.131
X-0.089 Y15.12
X-0.075 Y15.116
X-0.063 Y15.123
X-0.058 Y15.136
X-0.06 Y17.144
G2 X13.715 Y32.995 I16.008 J0
G3 X13.985 Y33.292 I-0.045 J0.312
G1 X13.987 Y33.301
X13.994 Y33.308
X15.475 Y34.214
X15.488 Y34.217
X15.5 Y34.21
X15.505 Y34.197
Y31.932
G2 X15.207 Y31.617 I-0.315 J0
G3 X1.46 Y17.144 I0.746 J-14.473
G1 X1.463 Y14.468
Y14.458
Z-1.962
X13.985 Y36.697
Z-5.95
Y36.708
G3 X13.715 Y37.005 I-0.315 J-0.015
G2 X-0.06 Y52.856 I2.293 J15.903
G1 X-0.058 Y54.864
X-0.054 Y54.875
X-0.046 Y54.882
X1.435 Y55.55
X1.448 Y55.551
X1.459 Y55.544
X1.463 Y55.532
X1.46 Y52.856
G3 X15.207 Y38.383 I14.543 J0.048
G2 X15.505 Y38.068 I-0.017 J-0.315
G1 Y35.803
G2 X14.315 Y35.251 I-0.723 J0
G1 X11.879 Y37.311
X11.827 Y37.36
X0.345 Y49.207
G2 X-0.022 Y50.216 I0.945 J0.916
G1 X0.354 Y55.521
G2 X2.983 Y55.427 I1.313 J-0.093
G1 X2.98 Y52.856
G3 X16.776 Y39.905 I13.017 J0.042
G2 X17.025 Y39.67 I0.014 J-0.235
G1 Y30.33
G2 X16.776 Y30.095 I-0.235 J0
G3 X2.98 Y17.144 I-0.818 J-12.952
G1 X2.983 Y14.573
X2.987 Y14.561
X2.997 Y14.554
X3.01
X4.489 Y15.099
X4.499 Y15.106
X4.502 Y15.117
X4.5 Y17.144
G2 X18.263 Y28.373 I11.462 J0
G3 X18.545 Y28.604 I0.046 J0.231
G1 Y41.396
G3 X18.263 Y41.627 I-0.235 J0
G2 X4.5 Y52.856 I-2.271 J11.266
G1 X4.502 Y54.882
X4.506 Y54.894
X4.516 Y54.901
X4.529
X6.008 Y54.349
X6.018 Y54.341
X6.021 Y54.33
X6.02 Y52.856
G3 X19.402 Y43.509 I9.972 J0.023
G1 X19.587 Y43.583
X19.773 Y43.657
G2 X20.065 Y43.452 I0.074 J-0.205
G1 Y26.548
G2 X19.773 Y26.343 I-0.218 J0
G1 X19.587 Y26.417
X19.402 Y26.491
G3 X6.02 Y17.144 I-3.426 J-9.348
G1 X6.021 Y15.671
X6.025 Y15.659
X6.036 Y15.651
X6.048 Y15.652
X7.528 Y16.205
X7.537 Y16.212
X7.541 Y16.224
X7.54 Y17.144
G2 X18.893 Y25.094 I8.46 J0
X20.093 Y24.633 I-12.55 J-34.482
G3 X21.293 Y24.172 I13.75 J34.021
X21.585 Y24.377 I0.074 J0.205
G1 Y45.623
G3 X21.293 Y45.828 I-0.218 J0
X20.093 Y45.367 I12.552 J-34.486
G2 X18.893 Y44.906 I-13.735 J33.981
X7.54 Y52.856 I-2.893 J7.95
G1 X7.541 Y53.776
X7.545 Y53.788
X7.555 Y53.795
X7.568
X9.047 Y53.242
X9.057 Y53.234
X9.06 Y53.223
Y52.856
G3 X18.373 Y46.335 I6.94 J0
X20.593 Y47.167 I-42.601 J117.054
G2 X22.813 Y47.998 I44.924 J-116.497
X23.105 Y47.794 I0.074 J-0.205
G1 Y22.206
G2 X22.813 Y22.002 I-0.218 J0
X20.593 Y22.833 I42.703 J117.324
G3 X18.374 Y23.665 I-44.922 J-116.492
X9.06 Y17.144 I-2.374 J-6.521
G1 Y16.777
X9.064 Y16.765
X9.075 Y16.758
X9.087
X10.57 Y17.313
X10.579 Y17.32
X10.583 Y17.331
G2 X17.854 Y22.237 I5.417 J-0.187
G1 X24.333 Y19.831
G3 X24.625 Y20.035 I0.074 J0.205
G1 Y49.965
G3 X24.333 Y50.169 I-0.218 J0
G1 X17.854 Y47.763
G2 X10.583 Y52.669 I-1.854 J5.093
G1 X10.587 Y52.681
X10.596 Y52.689
X10.609
X12.187 Y52.248
X12.196 Y52.242
X12.201 Y52.232
G3 X17.317 Y49.238 I3.799 J0.624
G1 X25.949 Y52.38
X25.996 Y52.389
X26.043 Y52.383
X26.086 Y52.362
X26.12 Y52.329
X26.142 Y52.286
X26.15 Y52.239
Y17.761
X26.142 Y17.714
X26.12 Y17.671
X26.086 Y17.638
X26.043 Y17.617
X25.996 Y17.611
X25.949 Y17.62
X17.317 Y20.762
G3 X12.201 Y17.769 I-1.317 J-3.618
G1 X11.982 Y16.437
Z10
X229.347 Y36.819
Z5
Z2.5 F333.3
Z-1.487 F1000
X229.34 Y36.811
G2 X227.655 Y35.176 I-17.207 J16.045
G3 X227.655 Y34.824 I0.156 J-0.176
G2 X229.34 Y33.176 I-15.744 J-17.781
G1 X229.345 Y33.163
X229.376 Y30.856
X229.369 Y30.841
X229.354 Y30.836
X229.34 Y30.843
G3 X225.267 Y34.812 I-17.408 J-13.79
G2 X225.267 Y35.188 I0.141 J0.188
G3 X229.34 Y39.129 I-13.155 J17.668
G1 X229.344 Y39.141
X229.377 Y41.713
X229.37 Y41.729
X229.354 Y41.734
X229.34 Y41.725
G2 X222.481 Y35.151 I-17.248 J11.132
G3 X222.481 Y34.849 I0.089 J-0.151
G2 X229.34 Y28.237 I-10.528 J-17.785
G1 X229.343 Y28.226
X229.378 Y25.101
X229.374 Y25.089
X229.362 Y25.081
X229.349 Y25.083
X229.34 Y25.093
G3 X218.968 Y34.879 I-17.366 J-8.015
G1 X218.93 Y34.902
X218.902 Y34.936
X218.888 Y34.978
Y35.022
X218.902 Y35.064
X218.93 Y35.098
X218.968 Y35.121
G3 X229.34 Y44.863 I-6.898 J17.735
G1 X229.342 Y44.871
X229.38 Y49.963
X229.375 Y49.976
X229.361 Y49.983
X229.347 Y49.979
X229.34 Y49.966
G2 X215.864 Y35.752 I-17.282 J2.89
G3 X215.607 Y35.577 I0.093 J-0.412
G1 X215.604 Y35.566
Y34.434
X215.607 Y34.423
G3 X215.864 Y34.248 I0.35 J0.237
G2 X229.34 Y19.984 I-3.877 J-17.16
G1 Y19.976
X228.097 Y15.131
X228.089 Y15.119
X228.075 Y15.116
X228.063 Y15.123
X228.058 Y15.136
X228.06 Y17.144
G3 X214.285 Y32.995 I-16.068 J-0.052
G2 X214.015 Y33.292 I0.045 J0.312
G1 X214.013 Y33.302
X214.006 Y33.308
X212.525 Y34.214
X212.512 Y34.217
X212.5 Y34.21
X212.495 Y34.197
Y31.932
G3 X212.793 Y31.617 I0.315 J0
G2 X226.54 Y17.144 I-0.796 J-14.521
G1 X226.537 Y14.468
Y14.458
Z5
X214.015 Y36.698
Z2.5 F333.3
Z-1.487 F1000
Y36.708
G2 X214.285 Y37.005 I0.315 J-0.015
G3 X228.06 Y52.856 I-2.233 J15.851
G1 X228.058 Y54.864
X228.054 Y54.875
X228.046 Y54.882
X226.565 Y55.55
X226.552 Y55.551
X226.541 Y55.544
X226.537 Y55.532
X226.54 Y52.856
G2 X212.793 Y38.383 I-14.492 J0
G3 X212.495 Y38.068 I0.017 J-0.315
G1 Y35.803
G3 X213.685 Y35.251 I0.723 J0
G1 X216.121 Y37.311
X216.173 Y37.36
X227.655 Y49.206
G3 X228.022 Y50.215 I-0.945 J0.916
G1 X227.646 Y55.521
G3 X225.017 Y55.426 I-1.313 J-0.093
G1 X225.02 Y52.856
G2 X211.224 Y39.905 I-12.978 J0
G3 X210.975 Y39.67 I-0.014 J-0.235
G1 Y30.33
G3 X211.224 Y30.095 I0.235 J0
G2 X225.02 Y17.144 I0.778 J-12.994
G1 X225.017 Y14.573
X225.013 Y14.561
X225.003 Y14.554
X224.99 Y14.555
X223.511 Y15.099
X223.501 Y15.106
X223.498 Y15.118
X223.5 Y17.144
G3 X209.737 Y28.373 I-11.493 J-0.037
G2 X209.455 Y28.604 I-0.046 J0.231
G1 Y41.396
G2 X209.737 Y41.627 I0.235 J0
G3 X223.5 Y52.856 I2.301 J11.229
G1 X223.498 Y54.882
X223.494 Y54.894
X223.484 Y54.901
X223.471 Y54.9
X221.992 Y54.349
X221.982 Y54.341
X221.979 Y54.33
X221.98 Y52.856
G2 X208.598 Y43.509 I-9.956 J0
G1 X208.413 Y43.583
X208.227 Y43.657
G3 X207.935 Y43.452 I-0.074 J-0.205
G1 Y26.548
G3 X208.227 Y26.343 I0.218 J0
G1 X208.413 Y26.417
X208.598 Y26.491
G2 X221.98 Y17.144 I3.41 J-9.37
G1 X221.979 Y15.67
X221.975 Y15.658
X221.964 Y15.651
X221.952
X220.472 Y16.205
X220.463 Y16.212
X220.459 Y16.224
X220.46 Y17.144
G3 X209.107 Y25.094 I-8.46 J0
X207.907 Y24.633 I12.534 J-34.44
G2 X206.707 Y24.172 I-13.751 J34.025
X206.415 Y24.377 I-0.074 J0.205
G1 Y45.623
G2 X206.707 Y45.828 I0.218 J0
X207.907 Y45.367 I-12.55 J-34.482
G3 X209.107 Y44.906 I13.75 J34.021
X220.46 Y52.856 I2.893 J7.95
G1 X220.459 Y53.777
X220.455 Y53.789
X220.445 Y53.796
X220.432 Y53.795
X218.953 Y53.242
X218.943 Y53.235
X218.94 Y53.223
Y52.856
G2 X209.626 Y46.335 I-6.94 J0
X207.407 Y47.167 I42.702 J117.324
G3 X205.187 Y47.998 I-44.922 J-116.492
X204.895 Y47.794 I-0.074 J-0.205
G1 Y22.206
G3 X205.187 Y22.002 I0.218 J0
X207.407 Y22.833 I-42.705 J117.329
G2 X209.627 Y23.665 I44.818 J-116.215
X218.94 Y17.144 I2.373 J-6.522
G1 Y16.777
X218.936 Y16.765
X218.925 Y16.758
X218.913 Y16.759
X217.43 Y17.313
X217.421 Y17.32
X217.417 Y17.331
G3 X210.146 Y22.237 I-5.417 J-0.187
G1 X203.667 Y19.831
G2 X203.375 Y20.035 I-0.074 J0.205
G1 Y49.965
G2 X203.667 Y50.169 I0.218 J0
G1 X210.146 Y47.763
G3 X217.417 Y52.669 I1.854 J5.093
G1 X217.413 Y52.681
X217.404 Y52.689
X217.391
X215.813 Y52.247
X215.804 Y52.241
X215.799 Y52.231
G2 X210.683 Y49.238 I-3.799 J0.625
G1 X202.051 Y52.38
X202.004 Y52.389
X201.957 Y52.383
X201.914 Y52.362
X201.88 Y52.329
X201.858 Y52.286
X201.85 Y52.239
Y17.761
X201.858 Y17.714
X201.88 Y17.671
X201.914 Y17.638
X201.957 Y17.617
X202.004 Y17.611
X202.051 Y17.62
X210.683 Y20.762
G2 X215.799 Y17.768 I1.317 J-3.618
G1 X215.807 Y17.756
X215.821 Y17.751
X215.834 Y17.758
X229.347 Y33.141
X229.352 Y33.155
X229.347 Y33.168
Z-2.975
X229.34 Y33.176
G3 X227.655 Y34.824 I-17.429 J-16.133
G2 X227.655 Y35.176 I0.156 J0.176
G3 X229.34 Y36.811 I-15.522 J17.68
G1 X229.345 Y36.824
X229.376 Y39.117
X229.369 Y39.131
X229.354 Y39.137
X229.34 Y39.129
G2 X225.267 Y35.188 I-17.228 J13.727
G3 X225.267 Y34.812 I0.141 J-0.188
G2 X229.34 Y30.843 I-13.335 J-17.759
G1 X229.344 Y30.831
X229.377 Y28.248
X229.37 Y28.233
X229.354 Y28.228
X229.34 Y28.237
G3 X222.481 Y34.849 I-17.387 J-11.172
G2 X222.481 Y35.151 I0.089 J0.151
G3 X229.34 Y41.725 I-10.389 J17.706
G1 X229.343 Y41.735
X229.378 Y44.854
X229.374 Y44.867
X229.362 Y44.874
X229.349 Y44.873
X229.34 Y44.863
G2 X218.968 Y35.121 I-17.269 J7.993
G1 X218.93 Y35.098
X218.902 Y35.064
X218.888 Y35.022
Y34.978
X218.902 Y34.936
X218.93 Y34.902
X218.968 Y34.879
G2 X229.34 Y25.093 I-6.994 J-17.801
G1 X229.342 Y25.084
X229.38 Y19.988
X229.374 Y19.974
X229.361 Y19.968
X229.347 Y19.972
X229.34 Y19.984
G3 X215.864 Y34.248 I-17.353 J-2.897
G2 X215.607 Y34.423 I0.093 J0.412
G1 X215.604 Y34.434
Y35.566
X215.607 Y35.577
G2 X215.864 Y35.752 I0.35 J-0.236
G3 X229.34 Y49.966 I-3.807 J17.104
G1 Y49.974
X228.097 Y54.869
X228.089 Y54.881
X228.075 Y54.884
X228.063 Y54.877
X228.058 Y54.864
X228.06 Y52.856
G2 X214.285 Y37.005 I-16.008 J0
G3 X214.015 Y36.708 I0.045 J-0.312
G1 X214.013 Y36.699
X214.006 Y36.692
X212.525 Y35.786
X212.512 Y35.783
X212.5 Y35.79
X212.495 Y35.803
Y38.068
G2 X212.793 Y38.383 I0.315 J0
G3 X226.54 Y52.856 I-0.746 J14.473
G1 X226.537 Y55.532
Y55.543
Z1.013
X214.015 Y33.303
Z-2.975
Y33.292
G3 X214.285 Y32.995 I0.315 J0.015
G2 X228.06 Y17.144 I-2.293 J-15.903
G1 X228.058 Y15.136
X228.054 Y15.125
X228.046 Y15.118
X226.565 Y14.45
X226.552 Y14.449
X226.541 Y14.456
X226.537 Y14.468
X226.54 Y17.144
G3 X212.793 Y31.617 I-14.543 J-0.048
G2 X212.495 Y31.932 I0.017 J0.315
G1 Y34.197
G2 X213.685 Y34.749 I0.723 J0
G1 X216.121 Y32.689
X216.173 Y32.64
X227.655 Y20.793
G2 X228.022 Y19.784 I-0.945 J-0.916
G1 X227.646 Y14.479
G2 X225.017 Y14.573 I-1.313 J0.093
G1 X225.02 Y17.144
G3 X211.224 Y30.095 I-13.017 J-0.042
G2 X210.975 Y30.33 I-0.014 J0.235
G1 Y39.67
G2 X211.224 Y39.905 I0.235 J0
G3 X225.02 Y52.856 I0.818 J12.952
G1 X225.017 Y55.426
X225.013 Y55.438
X225.003 Y55.445
X224.99
X223.511 Y54.901
X223.501 Y54.893
X223.498 Y54.882
X223.5 Y52.856
G2 X209.737 Y41.627 I-11.462 J0
G3 X209.455 Y41.396 I-0.046 J-0.231
G1 Y28.604
G3 X209.737 Y28.373 I0.235 J0
G2 X223.5 Y17.144 I2.271 J-11.266
G1 X223.498 Y15.118
X223.494 Y15.106
X223.484 Y15.099
X223.471
X221.992 Y15.651
X221.982 Y15.659
X221.979 Y15.67
X221.98 Y17.144
G3 X208.598 Y26.491 I-9.972 J-0.023
G1 X208.413 Y26.417
X208.227 Y26.343
G2 X207.935 Y26.548 I-0.074 J0.205
G1 Y43.452
G2 X208.227 Y43.657 I0.218 J0
G1 X208.413 Y43.583
X208.598 Y43.509
G3 X221.98 Y52.856 I3.426 J9.348
G1 X221.979 Y54.33
X221.975 Y54.342
X221.964 Y54.349
X221.952
X220.472 Y53.795
X220.463 Y53.788
X220.459 Y53.777
X220.46 Y52.856
G2 X209.107 Y44.906 I-8.46 J0
X207.907 Y45.367 I12.55 J34.482
G3 X206.707 Y45.828 I-13.75 J-34.021
X206.415 Y45.623 I-0.074 J-0.205
G1 Y24.377
G3 X206.707 Y24.172 I0.218 J0
X207.907 Y24.633 I-12.552 J34.486
G2 X209.107 Y25.094 I13.734 J-33.98
X220.46 Y17.144 I2.893 J-7.95
G1 X220.459 Y16.224
X220.455 Y16.212
X220.445 Y16.205
X220.432
X218.953 Y16.758
X218.943 Y16.766
X218.94 Y16.777
Y17.144
G3 X209.627 Y23.665 I-6.94 J0
X207.407 Y22.833 I42.599 J-117.047
G2 X205.187 Y22.002 I-44.924 J116.498
X204.895 Y22.206 I-0.074 J0.205
G1 Y47.794
G2 X205.187 Y47.998 I0.218 J0
X207.407 Y47.167 I-42.703 J-117.324
G3 X209.626 Y46.335 I44.922 J116.492
X218.94 Y52.856 I2.374 J6.521
G1 Y53.223
X218.936 Y53.235
X218.925 Y53.243
X218.913 Y53.242
X217.43 Y52.687
X217.421 Y52.68
X217.417 Y52.669
G2 X210.146 Y47.763 I-5.417 J0.187
G1 X203.667 Y50.169
G3 X203.375 Y49.965 I-0.074 J-0.205
G1 Y20.035
G3 X203.667 Y19.831 I0.218 J0
G1 X210.146 Y22.237
G2 X217.417 Y17.331 I1.854 J-5.093
G1 X217.413 Y17.319
X217.404 Y17.311
X217.391
X215.813 Y17.752
X215.804 Y17.758
X215.799 Y17.768
G3 X210.683 Y20.762 I-3.799 J-0.624
G1 X202.051 Y17.62
X202.004 Y17.611
X201.957 Y17.617
X201.914 Y17.638
X201.88 Y17.671
X201.858 Y17.714
X201.85 Y17.761
Y52.239
X201.858 Y52.286
X201.88 Y52.329
X201.914 Y52.362
X201.957 Y52.383
X202.004 Y52.389
X202.051 Y52.38
X210.683 Y49.238
G3 X215.799 Y52.231 I1.317 J3.618
G1 X215.806 Y52.244
X215.821 Y52.248
X215.834 Y52.241
X229.347 Y36.845
X229.352 Y36.832
X229.347 Y36.819
Z-4.463
X229.34 Y36.811
G2 X227.655 Y35.176 I-17.207 J16.045
G3 X227.655 Y34.824 I0.156 J-0.176
G2 X229.34 Y33.176 I-15.744 J-17.781
G1 X229.345 Y33.163
X229.376 Y30.856
X229.369 Y30.841
X229.354 Y30.836
X229.34 Y30.843
G3 X225.267 Y34.812 I-17.408 J-13.79
G2 X225.267 Y35.188 I0.141 J0.188
G3 X229.34 Y39.129 I-13.155 J17.668
G1 X229.344 Y39.141
X229.377 Y41.713
X229.37 Y41.729
X229.354 Y41.734
X229.34 Y41.725
G2 X222.481 Y35.151 I-17.248 J11.132
G3 X222.481 Y34.849 I0.089 J-0.151
G2 X229.34 Y28.237 I-10.528 J-17.785
G1 X229.343 Y28.226
X229.378 Y25.101
X229.374 Y25.089
X229.362 Y25.081
X229.349 Y25.083
X229.34 Y25.093
G3 X218.968 Y34.879 I-17.366 J-8.015
G1 X218.93 Y34.902
X218.902 Y34.936
X218.888 Y34.978
Y35.022
X218.902 Y35.064
X218.93 Y35.098
X218.968 Y35.121
G3 X229.34 Y44.863 I-6.898 J17.735
G1 X229.342 Y44.871
X229.38 Y49.963
X229.375 Y49.976
X229.361 Y49.983
X229.347 Y49.979
X229.34 Y49.966
G2 X215.864 Y35.752 I-17.282 J2.89
G3 X215.607 Y35.577 I0.093 J-0.412
G1 X215.604 Y35.566
Y34.434
X215.607 Y34.423
G3 X215.864 Y34.248 I0.35 J0.237
G2 X229.34 Y19.984 I-3.877 J-17.16
G1 Y19.976
X228.097 Y15.131
X228.089 Y15.119
X228.075 Y15.116
X228.063 Y15.123
X228.058 Y15.136
X228.06 Y17.144
G3 X214.285 Y32.995 I-16.068 J-0.052
G2 X214.015 Y33.292 I0.045 J0.312
G1 X214.013 Y33.302
X214.006 Y33.308
X212.525 Y34.214
X212.512 Y34.217
X212.5 Y34.21
X212.495 Y34.197
Y31.932
G3 X212.793 Y31.617 I0.315 J0
G2 X226.54 Y17.144 I-0.796 J-14.521
G1 X226.537 Y14.468
Y14.458
Z-0.475
X214.015 Y36.698
Z-4.463
Y36.708
G2 X214.285 Y37.005 I0.315 J-0.015
G3 X228.06 Y52.856 I-2.233 J15.851
G1 X228.058 Y54.864
X228.054 Y54.875
X228.046 Y54.882
X226.565 Y55.55
X226.552 Y55.551
X226.541 Y55.544
X226.537 Y55.532
X226.54 Y52.856
G2 X212.793 Y38.383 I-14.492 J0
G3 X212.495 Y38.068 I0.017 J-0.315
G1 Y35.803
G3 X213.685 Y35.251 I0.723 J0
G1 X216.121 Y37.311
X216.173 Y37.36
X227.655 Y49.206
G3 X228.022 Y50.215 I-0.945 J0.916
G1 X227.646 Y55.521
G3 X225.017 Y55.426 I-1.313 J-0.093
G1 X225.02 Y52.856
G2 X211.224 Y39.905 I-12.978 J0
G3 X210.975 Y39.67 I-0.014 J-0.235
G1 Y30.33
G3 X211.224 Y30.095 I0.235 J0
G2 X225.02 Y17.144 I0.778 J-12.994
G1 X225.017 Y14.573
X225.013 Y14.561
X225.003 Y14.554
X224.99 Y14.555
X223.511 Y15.099
X223.501 Y15.106
X223.498 Y15.118
X223.5 Y17.144
G3 X209.737 Y28.373 I-11.493 J-0.037
G2 X209.455 Y28.604 I-0.046 J0.231
G1 Y41.396
G2 X209.737 Y41.627 I0.235 J0
G3 X223.5 Y52.856 I2.301 J11.229
G1 X223.498 Y54.882
X223.494 Y54.894
X223.484 Y54.901
X223.471 Y54.9
X221.992 Y54.349
X221.982 Y54.341
X221.979 Y54.33
X221.98 Y52.856
G2 X208.598 Y43.509 I-9.956 J0
G1 X208.413 Y43.583
X208.227 Y43.657
G3 X207.935 Y43.452 I-0.074 J-0.205
G1 Y26.548
G3 X208.227 Y26.343 I0.218 J0
G1 X208.413 Y26.417
X208.598 Y26.491
G2 X221.98 Y17.144 I3.41 J-9.37
G1 X221.979 Y15.67
X221.975 Y15.658
X221.964 Y15.651
X221.952
X220.472 Y16.205
X220.463 Y16.212
X220.459 Y16.224
X220.46 Y17.144
G3 X209.107 Y25.094 I-8.46 J0
X207.907 Y24.633 I12.534 J-34.44
G2 X206.707 Y24.172 I-13.751 J34.025
X206.415 Y24.377 I-0.074 J0.205
G1 Y45.623
G2 X206.707 Y45.828 I0.218 J0
X207.907 Y45.367 I-12.55 J-34.482
G3 X209.107 Y44.906 I13.75 J34.021
X220.46 Y52.856 I2.893 J7.95
G1 X220.459 Y53.777
X220.455 Y53.789
X220.445 Y53.796
X220.432 Y53.795
X218.953 Y53.242
X218.943 Y53.235
X218.94 Y53.223
Y52.856
G2 X209.626 Y46.335 I-6.94 J0
X207.407 Y47.167 I42.702 J117.324
G3 X205.187 Y47.998 I-44.922 J-116.492
X204.895 Y47.794 I-0.074 J-0.205
G1 Y22.206
G3 X205.187 Y22.002 I0.218 J0
X207.407 Y22.833 I-42.705 J117.329
G2 X209.627 Y23.665 I44.818 J-116.215
X218.94 Y17.144 I2.373 J-6.522
G1 Y16.777
X218.936 Y16.765
X218.925 Y16.758
X218.913 Y16.759
X217.43 Y17.313
X217.421 Y17.32
X217.417 Y17.331
G3 X210.146 Y22.237 I-5.417 J-0.187
G1 X203.667 Y19.831
G2 X203.375 Y20.035 I-0.074 J0.205
G1 Y49.965
G2 X203.667 Y50.169 I0.218 J0
G1 X210.146 Y47.763
G3 X217.417 Y52.669 I1.854 J5.093
G1 X217.413 Y52.681
X217.404 Y52.689
X217.391
X215.813 Y52.247
X215.804 Y52.241
X215.799 Y52.231
G2 X210.683 Y49.238 I-3.799 J0.625
G1 X202.051 Y52.38
X202.004 Y52.389
X201.957 Y52.383
X201.914 Y52.362
X201.88 Y52.329
X201.858 Y52.286
X201.85 Y52.239
Y17.761
X201.858 Y17.714
X201.88 Y17.671
X201.914 Y17.638
X201.957 Y17.617
X202.004 Y17.611
X202.051 Y17.62
X210.683 Y20.762
G2 X215.799 Y17.768 I1.317 J-3.618
G1 X215.807 Y17.756
X215.821 Y17.751
X215.834 Y17.758
X229.347 Y33.141
X229.352 Y33.155
X229.347 Y33.168
Z-5.95
X229.34 Y33.176
G3 X227.655 Y34.824 I-17.429 J-16.133
G2 X227.655 Y35.176 I0.156 J0.176
G3 X229.34 Y36.811 I-15.522 J17.68
G1 X229.345 Y36.824
X229.376 Y39.117
X229.369 Y39.131
X229.354 Y39.137
X229.34 Y39.129
G2 X225.267 Y35.188 I-17.228 J13.727
G3 X225.267 Y34.812 I0.141 J-0.188
G2 X229.34 Y30.843 I-13.335 J-17.759
G1 X229.344 Y30.831
X229.377 Y28.248
X229.37 Y28.233
X229.354 Y28.228
X229.34 Y28.237
G3 X222.481 Y34.849 I-17.387 J-11.172
G2 X222.481 Y35.151 I0.089 J0.151
G3 X229.34 Y41.725 I-10.389 J17.706
G1 X229.343 Y41.735
X229.378 Y44.854
X229.374 Y44.867
X229.362 Y44.874
X229.349 Y44.873
X229.34 Y44.863
G2 X218.968 Y35.121 I-17.269 J7.993
G1 X218.93 Y35.098
X218.902 Y35.064
X218.888 Y35.022
Y34.978
X218.902 Y34.936
X218.93 Y34.902
X218.968 Y34.879
G2 X229.34 Y25.093 I-6.994 J-17.801
G1 X229.342 Y25.084
X229.38 Y19.988
X229.374 Y19.974
X229.361 Y19.968
X229.347 Y19.972
X229.34 Y19.984
G3 X215.864 Y34.248 I-17.353 J-2.897
G2 X215.607 Y34.423 I0.093 J0.412
G1 X215.604 Y34.434
Y35.566
X215.607 Y35.577
G2 X215.864 Y35.752 I0.35 J-0.236
G3 X229.34 Y49.966 I-3.807 J17.104
G1 Y49.974
X228.097 Y54.869
X228.089 Y54.881
X228.075 Y54.884
X228.063 Y54.877
X228.058 Y54.864
X228.06 Y52.856
G2 X214.285 Y37.005 I-16.008 J0
G3 X214.015 Y36.708 I0.045 J-0.312
G1 X214.013 Y36.699
X214.006 Y36.692
X212.525 Y35.786
X212.512 Y35.783
X212.5 Y35.79
X212.495 Y35.803
Y38.068
G2 X212.793 Y38.383 I0.315 J0
G3 X226.54 Y52.856 I-0.746 J14.473
G1 X226.537 Y55.532
Y55.543
Z-1.962
X214.015 Y33.303
Z-5.95
Y33.292
G3 X214.285 Y32.995 I0.315 J0.015
G2 X228.06 Y17.144 I-2.293 J-15.903
G1 X228.058 Y15.136
X228.054 Y15.125
X228.046 Y15.118
X226.565 Y14.45
X226.552 Y14.449
X226.541 Y14.456
X226.537 Y14.468
X226.54 Y17.144
G3 X212.793 Y31.617 I-14.543 J-0.048
G2 X212.495 Y31.932 I0.017 J0.315
G1 Y34.197
G2 X213.685 Y34.749 I0.723 J0
G1 X216.121 Y32.689
X216.173 Y32.64
X227.655 Y20.793
G2 X228.022 Y19.784 I-0.945 J-0.916
G1 X227.646 Y14.479
G2 X225.017 Y14.573 I-1.313 J0.093
G1 X225.02 Y17.144
G3 X211.224 Y30.095 I-13.017 J-0.042
G2 X210.975 Y30.33 I-0.014 J0.235
G1 Y39.67
G2 X211.224 Y39.905 I0.235 J0
G3 X225.02 Y52.856 I0.818 J12.952
G1 X225.017 Y55.426
X225.013 Y55.438
X225.003 Y55.445
X224.99
X223.511 Y54.901
X223.501 Y54.893
X223.498 Y54.882
X223.5 Y52.856
G2 X209.737 Y41.627 I-11.462 J0
G3 X209.455 Y41.396 I-0.046 J-0.231
G1 Y28.604
G3 X209.737 Y28.373 I0.235 J0
G2 X223.5 Y17.144 I2.271 J-11.266
G1 X223.498 Y15.118
X223.494 Y15.106
X223.484 Y15.099
X223.471
X221.992 Y15.651
X221.982 Y15.659
X221.979 Y15.67
X221.98 Y17.144
G3 X208.598 Y26.491 I-9.972 J-0.023
G1 X208.413 Y26.417
X208.227 Y26.343
G2 X207.935 Y26.548 I-0.074 J0.205
G1 Y43.452
G2 X208.227 Y43.657 I0.218 J0
G1 X208.413 Y43.583
X208.598 Y43.509
G3 X221.98 Y52.856 I3.426 J9.348
G1 X221.979 Y54.33
X221.975 Y54.342
X221.964 Y54.349
X221.952
X220.472 Y53.795
X220.463 Y53.788
X220.459 Y53.777
X220.46 Y52.856
G2 X209.107 Y44.906 I-8.46 J0
X207.907 Y45.367 I12.55 J34.482
G3 X206.707 Y45.828 I-13.75 J-34.021
X206.415 Y45.623 I-0.074 J-0.205
G1 Y24.377
G3 X206.707 Y24.172 I0.218 J0
X207.907 Y24.633 I-12.552 J34.486
G2 X209.107 Y25.094 I13.734 J-33.98
X220.46 Y17.144 I2.893 J-7.95
G1 X220.459 Y16.224
X220.455 Y16.212
X220.445 Y16.205
X220.432
X218.953 Y16.758
X218.943 Y16.766
X218.94 Y16.777
Y17.144
G3 X209.627 Y23.665 I-6.94 J0
X207.407 Y22.833 I42.599 J-117.047
G2 X205.187 Y22.002 I-44.924 J116.498
X204.895 Y22.206 I-0.074 J0.205
G1 Y47.794
G2 X205.187 Y47.998 I0.218 J0
X207.407 Y47.167 I-42.703 J-117.324
G3 X209.626 Y46.335 I44.922 J116.492
X218.94 Y52.856 I2.374 J6.521
G1 Y53.223
X218.936 Y53.235
X218.925 Y53.243
X218.913 Y53.242
X217.43 Y52.687
X217.421 Y52.68
X217.417 Y52.669
G2 X210.146 Y47.763 I-5.417 J0.187
G1 X203.667 Y50.169
G3 X203.375 Y49.965 I-0.074 J-0.205
G1 Y20.035
G3 X203.667 Y19.831 I0.218 J0
G1 X210.146 Y22.237
G2 X217.417 Y17.331 I1.854 J-5.093
G1 X217.413 Y17.319
X217.404 Y17.311
X217.391
X215.813 Y17.752
X215.804 Y17.758
X215.799 Y17.768
G3 X210.683 Y20.762 I-3.799 J-0.624
G1 X202.051 Y17.62
X202.004 Y17.611
X201.957 Y17.617
X201.914 Y17.638
X201.88 Y17.671
X201.858 Y17.714
X201.85 Y17.761
Y52.239
X201.858 Y52.286
X201.88 Y52.329
X201.914 Y52.362
X201.957 Y52.383
X202.004 Y52.389
X202.051 Y52.38
X210.683 Y49.238
G3 X215.799 Y52.231 I1.317 J3.618
G1 X216.018 Y53.563
Z10
(When using Fusion 360 for Personal Use, the feedrate of)
(rapid moves is reduced to match the feedrate of cutting)
(moves, which can increase machining time. Unrestricted rapid)
(moves are available with a Fusion 360 Subscription.)

(2D Contour tabs)
G0 X215.55 Y52.856
G1 Z10 F1000
Z5
Z3.07 F333.3
Z-1.983
G2 X210.786 Y49.52 I-3.55 J0 F1000
G1 X202.154 Y52.662
G3 X201.55 Y52.239 I-0.154 J-0.423
G1 Y17.761
G3 X202.154 Y17.338 I0.45 J0
G1 X210.786 Y20.48
G2 X215.55 Y17.144 I1.214 J-3.336
G1 Z5
Y52.856
Z1.087 F333.3
Z-3.967
G2 X210.786 Y49.52 I-3.55 J0 F1000
G1 X202.154 Y52.662
G3 X201.55 Y52.239 I-0.154 J-0.423
G1 Y17.761
G3 X202.154 Y17.338 I0.45 J0
G1 X210.786 Y20.48
G2 X215.55 Y17.144 I1.214 J-3.336
G1 Z5
Y52.856
Z-0.897 F333.3
Z-5.95
G2 X210.786 Y49.52 I-3.55 J0 F1000
G1 X202.154 Y52.662
G3 X201.55 Y52.239 I-0.154 J-0.423
G1 Y17.761
G3 X202.154 Y17.338 I0.45 J0
G1 X210.786 Y20.48
G2 X215.55 Y17.144 I1.214 J-3.336
G1 Z5
X215.35 Y52.856
Z-0.897 F333.3
Z-5.95
G2 X210.854 Y49.708 I-3.35 J0 F1000
G1 X202.222 Y52.85
G3 X201.35 Y52.239 I-0.222 J-0.611
G1 Y17.761
G3 X202.222 Y17.15 I0.65 J0
G1 X210.854 Y20.292
G2 X215.35 Y17.144 I1.146 J-3.148
G1 Z5
X12.45
Z3.07 F333.3
Z-1.983
G2 X17.214 Y20.48 I3.55 J0 F1000
G1 X25.846 Y17.338
G3 X26.45 Y17.761 I0.154 J0.423
G1 Y52.239
G3 X25.846 Y52.662 I-0.45 J0
G1 X17.214 Y49.52
G2 X12.45 Y52.856 I-1.214 J3.336
G1 Z5
Y17.144
Z1.087 F333.3
Z-3.967
G2 X17.214 Y20.48 I3.55 J0 F1000
G1 X25.846 Y17.338
G3 X26.45 Y17.761 I0.154 J0.423
G1 Y52.239
G3 X25.846 Y52.662 I-0.45 J0
G1 X17.214 Y49.52
G2 X12.45 Y52.856 I-1.214 J3.336
G1 Z5
Y17.144
Z-0.897 F333.3
Z-5.95
G2 X17.214 Y20.48 I3.55 J0 F1000
G1 X25.846 Y17.338
G3 X26.45 Y17.761 I0.154 J0.423
G1 Y52.239
G3 X25.846 Y52.662 I-0.45 J0
G1 X17.214 Y49.52
G2 X12.45 Y52.856 I-1.214 J3.336
G1 Z5
X12.65 Y17.144
Z-0.897 F333.3
Z-5.95
G2 X17.146 Y20.292 I3.35 J0 F1000
G1 X25.778 Y17.15
G3 X26.65 Y17.761 I0.222 J0.611
G1 Y52.239
G3 X25.778 Y52.85 I-0.65 J0
G1 X17.146 Y49.708
G2 X12.65 Y52.856 I-1.146 J3.148
G1 Z10
(When using Fusion 360 for Personal Use, the feedrate of)
(rapid moves is reduced to match the feedrate of cutting)
(moves, which can increase machining time. Unrestricted rapid)
(moves are available with a Fusion 360 Subscription.)

(Bore1)
G0 X215.025 Y34.73
G1 Z10 F1000
Z-3.95
Z-5.68
G18 G2 X215.295 Z-5.95 I0.27 K0
G1 X215.43
G17 G3 X215.7 Y35 I0 J0.27
X212.3 Y35 Z-6.45 I-1.7 J0
X215.7 Y35 Z-6.95 I1.7 J0
X212.3 Y35 Z-7.45 I-1.7 J0
X215.7 Y35 Z-7.95 I1.7 J0
X212.3 Y35 Z-8.45 I-1.7 J0
X215.7 Y35 Z-8.95 I1.7 J0
X212.3 Y35 Z-9.45 I-1.7 J0
X215.7 Y35 Z-9.95 I1.7 J0
X212.3 Y35 Z-10.45 I-1.7 J0
X215.7 Y35 Z-10.95 I1.7 J0
X212.3 Y35 Z-11.45 I-1.7 J0
X215.7 Y35 Z-11.95 I1.7 J0
X212.3 Y35 Z-12.45 I-1.7 J0
X215.7 Y35 Z-12.95 I1.7 J0
X213.001 Y36.375 Z-13.3 I-1.7 J0
X214.999 Y33.625 I0.999 J-1.375
X213.001 Y36.375 I-0.999 J1.375
X212.941 Y35.998 I0.159 J-0.218
G1 X213.02 Y35.889
X213.056 Y35.84 Z-13.293
X213.089 Y35.794 Z-13.273
X213.119 Y35.753 Z-13.241
X213.144 Y35.718 Z-13.198
X213.163 Y35.692 Z-13.147
X213.175 Y35.676 Z-13.09
X213.179 Y35.671 Z-13.03
Z5
X153.925 Y34.73
Z2
Z0.27
G18 G2 X154.195 Z0 I0.27 K0
G1 X154.33
G17 G3 X154.6 Y35 I0 J0.27
X153.4 Y35 Z-0.5 I-0.6 J0
X154.6 Y35 Z-1 I0.6 J0
X153.4 Y35 Z-1.5 I-0.6 J0
X154.6 Y35 Z-2 I0.6 J0
X153.4 Y35 Z-2.5 I-0.6 J0
X154.6 Y35 Z-3 I0.6 J0
X153.4 Y35 Z-3.5 I-0.6 J0
X154.6 Y35 Z-4 I0.6 J0
X153.4 Y35 Z-4.5 I-0.6 J0
X154.6 Y35 Z-5 I0.6 J0
X153.4 Y35 Z-5.5 I-0.6 J0
X154.6 Y35 Z-6 I0.6 J0
X153.4 Y35 Z-6.5 I-0.6 J0
X154.6 Y35 Z-7 I0.6 J0
X153.4 Y35 Z-7.5 I-0.6 J0
X154.6 Y35 Z-8 I0.6 J0
X153.4 Y35 Z-8.5 I-0.6 J0
X154.6 Y35 Z-9 I0.6 J0
X153.4 Y35 Z-9.5 I-0.6 J0
X154.6 Y35 Z-10 I0.6 J0
X153.4 Y35 Z-10.5 I-0.6 J0
X154.6 Y35 Z-11 I0.6 J0
X153.4 Y35 Z-11.5 I-0.6 J0
X154.6 Y35 Z-12 I0.6 J0
X153.4 Y35 Z-12.5 I-0.6 J0
X154.6 Y35 Z-13 I0.6 J0
X153.815 Y35.571 Z-13.3 I-0.6 J0
X154.185 Y34.429 I0.185 J-0.571
X153.815 Y35.571 I-0.185 J0.571
X153.641 Y35.23 I0.083 J-0.257
G1 X153.683 Y35.102
X153.702 Y35.045 Z-13.293
X153.719 Y34.991 Z-13.273
X153.735 Y34.942 Z-13.241
X153.748 Y34.901 Z-13.198
X153.758 Y34.871 Z-13.147
X153.764 Y34.852 Z-13.09
X153.766 Y34.845 Z-13.03
Z5
X135.925 Y34.73
Z2
Z0.27
G18 G2 X136.195 Z0 I0.27 K0
G1 X136.33
G17 G3 X136.6 Y35 I0 J0.27
X135.4 Y35 Z-0.5 I-0.6 J0
X136.6 Y35 Z-1 I0.6 J0
X135.4 Y35 Z-1.5 I-0.6 J0
X136.6 Y35 Z-2 I0.6 J0
X135.4 Y35 Z-2.5 I-0.6 J0
X136.6 Y35 Z-3 I0.6 J0
X135.4 Y35 Z-3.5 I-0.6 J0
X136.6 Y35 Z-4 I0.6 J0
X135.4 Y35 Z-4.5 I-0.6 J0
X136.6 Y35 Z-5 I0.6 J0
X135.4 Y35 Z-5.5 I-0.6 J0
X136.6 Y35 Z-6 I0.6 J0
X135.4 Y35 Z-6.5 I-0.6 J0
X136.6 Y35 Z-7 I0.6 J0
X135.4 Y35 Z-7.5 I-0.6 J0
X136.6 Y35 Z-8 I0.6 J0
X135.4 Y35 Z-8.5 I-0.6 J0
X136.6 Y35 Z-9 I0.6 J0
X135.4 Y35 Z-9.5 I-0.6 J0
X136.6 Y35 Z-10 I0.6 J0
X135.4 Y35 Z-10.5 I-0.6 J0
X136.6 Y35 Z-11 I0.6 J0
X135.4 Y35 Z-11.5 I-0.6 J0
X136.6 Y35 Z-12 I0.6 J0
X135.4 Y35 Z-12.5 I-0.6 J0
X136.6 Y35 Z-13 I0.6 J0
X135.815 Y35.571 Z-13.3 I-0.6 J0
X136.185 Y34.429 I0.185 J-0.571
X135.815 Y35.571 I-0.185 J0.571
X135.641 Y35.23 I0.083 J-0.257
G1 X135.683 Y35.102
X135.702 Y35.045 Z-13.293
X135.719 Y34.991 Z-13.273
X135.735 Y34.942 Z-13.241
X135.748 Y34.901 Z-13.198
X135.758 Y34.871 Z-13.147
X135.764 Y34.852 Z-13.09
X135.766 Y34.845 Z-13.03
Z5
X91.925 Y34.73
Z2
Z0.27
G18 G2 X92.195 Z0 I0.27 K0
G1 X92.33
G17 G3 X92.6 Y35 I0 J0.27
X91.4 Y35 Z-0.5 I-0.6 J0
X92.6 Y35 Z-1 I0.6 J0
X91.4 Y35 Z-1.5 I-0.6 J0
X92.6 Y35 Z-2 I0.6 J0
X91.4 Y35 Z-2.5 I-0.6 J0
X92.6 Y35 Z-3 I0.6 J0
X91.4 Y35 Z-3.5 I-0.6 J0
X92.6 Y35 Z-4 I0.6 J0
X91.4 Y35 Z-4.5 I-0.6 J0
X92.6 Y35 Z-5 I0.6 J0
X91.4 Y35 Z-5.5 I-0.6 J0
X92.6 Y35 Z-6 I0.6 J0
X91.4 Y35 Z-6.5 I-0.6 J0
X92.6 Y35 Z-7 I0.6 J0
X91.4 Y35 Z-7.5 I-0.6 J0
X92.6 Y35 Z-8 I0.6 J0
X91.4 Y35 Z-8.5 I-0.6 J0
X92.6 Y35 Z-9 I0.6 J0
X91.4 Y35 Z-9.5 I-0.6 J0
X92.6 Y35 Z-10 I0.6 J0
X91.4 Y35 Z-10.5 I-0.6 J0
X92.6 Y35 Z-11 I0.6 J0
X91.4 Y35 Z-11.5 I-0.6 J0
X92.6 Y35 Z-12 I0.6 J0
X91.4 Y35 Z-12.5 I-0.6 J0
X92.6 Y35 Z-13 I0.6 J0
X91.815 Y35.571 Z-13.3 I-0.6 J0
X92.185 Y34.429 I0.185 J-0.571
X91.815 Y35.571 I-0.185 J0.571
X91.641 Y35.23 I0.083 J-0.257
G1 X91.683 Y35.102
X91.702 Y35.045 Z-13.293
X91.719 Y34.991 Z-13.273
X91.735 Y34.942 Z-13.241
X91.748 Y34.901 Z-13.198
X91.758 Y34.871 Z-13.147
X91.764 Y34.852 Z-13.09
X91.766 Y34.845 Z-13.03
Z5
X73.925 Y34.73
Z2
Z0.27
G18 G2 X74.195 Z0 I0.27 K0
G1 X74.33
G17 G3 X74.6 Y35 I0 J0.27
X73.4 Y35 Z-0.5 I-0.6 J0
X74.6 Y35 Z-1 I0.6 J0
X73.4 Y35 Z-1.5 I-0.6 J0
X74.6 Y35 Z-2 I0.6 J0
X73.4 Y35 Z-2.5 I-0.6 J0
X74.6 Y35 Z-3 I0.6 J0
X73.4 Y35 Z-3.5 I-0.6 J0
X74.6 Y35 Z-4 I0.6 J0
X73.4 Y35 Z-4.5 I-0.6 J0
X74.6 Y35 Z-5 I0.6 J0
X73.4 Y35 Z-5.5 I-0.6 J0
X74.6 Y35 Z-6 I0.6 J0
X73.4 Y35 Z-6.5 I-0.6 J0
X74.6 Y35 Z-7 I0.6 J0
X73.4 Y35 Z-7.5 I-0.6 J0
X74.6 Y35 Z-8 I0.6 J0
X73.4 Y35 Z-8.5 I-0.6 J0
X74.6 Y35 Z-9 I0.6 J0
X73.4 Y35 Z-9.5 I-0.6 J0
X74.6 Y35 Z-10 I0.6 J0
X73.4 Y35 Z-10.5 I-0.6 J0
X74.6 Y35 Z-11 I0.6 J0
X73.4 Y35 Z-11.5 I-0.6 J0
X74.6 Y35 Z-12 I0.6 J0
X73.4 Y35 Z-12.5 I-0.6 J0
X74.6 Y35 Z-13 I0.6 J0
X73.815 Y35.571 Z-13.3 I-0.6 J0
X74.185 Y34.429 I0.185 J-0.571
X73.815 Y35.571 I-0.185 J0.571
X73.641 Y35.23 I0.083 J-0.257
G1 X73.683 Y35.102
X73.702 Y35.045 Z-13.293
X73.719 Y34.991 Z-13.273
X73.735 Y34.942 Z-13.241
X73.748 Y34.901 Z-13.198
X73.758 Y34.871 Z-13.147
X73.764 Y34.852 Z-13.09
X73.766 Y34.845 Z-13.03
Z5
X15.025 Y34.73
Z-3.95
Z-5.68
G18 G2 X15.295 Z-5.95 I0.27 K0
G1 X15.43
G17 G3 X15.7 Y35 I0 J0.27
X12.3 Y35 Z-6.45 I-1.7 J0
X15.7 Y35 Z-6.95 I1.7 J0
X12.3 Y35 Z-7.45 I-1.7 J0
X15.7 Y35 Z-7.95 I1.7 J0
X12.3 Y35 Z-8.45 I-1.7 J0
X15.7 Y35 Z-8.95 I1.7 J0
X12.3 Y35 Z-9.45 I-1.7 J0
X15.7 Y35 Z-9.95 I1.7 J0
X12.3 Y35 Z-10.45 I-1.7 J0
X15.7 Y35 Z-10.95 I1.7 J0
X12.3 Y35 Z-11.45 I-1.7 J0
X15.7 Y35 Z-11.95 I1.7 J0
X12.3 Y35 Z-12.45 I-1.7 J0
X15.7 Y35 Z-12.95 I1.7 J0
X13.001 Y36.375 Z-13.3 I-1.7 J0
X14.999 Y33.625 I0.999 J-1.375
X13.001 Y36.375 I-0.999 J1.375
X12.941 Y35.998 I0.159 J-0.218
G1 X13.02 Y35.889
X13.056 Y35.84 Z-13.293
X13.089 Y35.794 Z-13.273
X13.119 Y35.753 Z-13.241
X13.144 Y35.718 Z-13.198
X13.163 Y35.692 Z-13.147
X13.175 Y35.676 Z-13.09
X13.179 Y35.671 Z-13.03
Z10
(When using Fusion 360 for Personal Use, the feedrate of)
(rapid moves is reduced to match the feedrate of cutting)
(moves, which can increase machining time. Unrestricted rapid)
(moves are available with a Fusion 360 Subscription.)

(2D Contour both)
G0 X151.165 Y62.45
G1 Z10 F1000
Z5
Z2.5 F333.3
Z-1.367
X159.5 F500
G2 X160.95 Y61 I0 J-1.45
G1 Y60.25
X167.05
Y61
G2 X168.5 Y62.45 I1.45 J0
G1 X177.15
Y63.2
X150.85
Y62.45
X151.165
Z-2.733 F333.3
X159.5 F500
G2 X160.95 Y61 I0 J-1.45
G1 Y60.25
X167.05
Y61
G2 X168.5 Y62.45 I1.45 J0
G1 X177.15
Y63.2
X150.85
Y62.45
X151.165
Z-4.1 F333.3
X159.5 F500
G2 X160.95 Y61 I0 J-1.45
G1 Y60.25
X167.05
Y61
G2 X168.5 Y62.45 I1.45 J0
G1 X177.15
Y63.2
X150.85
Y62.45
X151.165
Z-5.467 F333.3
X159.5 F500
G2 X160.95 Y61 I0 J-1.45
G1 Y60.25
X167.05
Y61
G2 X168.5 Y62.45 I1.45 J0
G1 X177.15
Y63.2
X150.85
Y62.45
X151.165
Z-6.833 F333.3
X159.5 F500
G2 X160.95 Y61 I0 J-1.45
G1 Y60.25
X167.05
Y61
G2 X168.5 Y62.45 I1.45 J0
G1 X177.15
Y63.2
X150.85
Y62.45
X151.165
Z-8.2 F333.3
X159.5 F500
G2 X160.95 Y61 I0 J-1.45
G1 Y60.25
X167.05
Y61
G2 X168.5 Y62.45 I1.45 J0
G1 X177.15
Y63.2
X150.85
Y62.45
X151.165
Z-9.567 F333.3
X159.5 F500
G2 X160.95 Y61 I0 J-1.45
G1 Y60.25
X167.05
Y61
G2 X168.5 Y62.45 I1.45 J0
G1 X177.15
Y63.2
X150.85
Y62.45
X151.165
Z-10.933 F333.3
X159.5 F500
G2 X160.95 Y61 I0 J-1.45
G1 Y60.25
X167.05
Y61
G2 X168.5 Y62.45 I1.45 J0
G1 X177.15
Y63.2
X150.85
Y62.45
X151.165
Z-12.3 F333.3
X159.5 F1000
G2 X160.95 Y61 I0 J-1.45
G1 Y60.25
X167.05
Y61
G2 X168.5 Y62.45 I1.45 J0
G1 X177.15
Y63.2
X150.85
Y62.45
X151.165
X151.212 Y62.443
X151.255 Y62.423
X151.29 Y62.391
X151.315 Y62.35
X151.339 Y62.309
X151.374 Y62.277
X151.417 Y62.257
X151.465 Y62.25
X159.5 F500
G2 X160.75 Y61 I0 J-1.25
G1 Y60.05
X167.25
Y61
G2 X168.5 Y62.25 I1.25 J0
G1 X177.35
Y63.4
X150.65
Y62.25
X151.465
Z5 F1000
X151.165 Y6.8
Z2.5 F333.3
Z-1.367
X177.15 F500
Y7.55
X168.5
G2 X167.05 Y9 I0 J1.45
G1 Y9.75
X160.95
Y9
G2 X159.5 Y7.55 I-1.45 J0
G1 X150.85
Y6.8
X151.165
Z-2.733 F333.3
X177.15 F500
Y7.55
X168.5
G2 X167.05 Y9 I0 J1.45
G1 Y9.75
X160.95
Y9
G2 X159.5 Y7.55 I-1.45 J0
G1 X150.85
Y6.8
X151.165
Z-4.1 F333.3
X177.15 F500
Y7.55
X168.5
G2 X167.05 Y9 I0 J1.45
G1 Y9.75
X160.95
Y9
G2 X159.5 Y7.55 I-1.45 J0
G1 X150.85
Y6.8
X151.165
Z-5.467 F333.3
X177.15 F500
Y7.55
X168.5
G2 X167.05 Y9 I0 J1.45
G1 Y9.75
X160.95
Y9
G2 X159.5 Y7.55 I-1.45 J0
G1 X150.85
Y6.8
X151.165
Z-6.833 F333.3
X177.15 F500
Y7.55
X168.5
G2 X167.05 Y9 I0 J1.45
G1 Y9.75
X160.95
Y9
G2 X159.5 Y7.55 I-1.45 J0
G1 X150.85
Y6.8
X151.165
Z-8.2 F333.3
X177.15 F500
Y7.55
X168.5
G2 X167.05 Y9 I0 J1.45
G1 Y9.75
X160.95
Y9
G2 X159.5 Y7.55 I-1.45 J0
G1 X150.85
Y6.8
X151.165
Z-9.567 F333.3
X177.15 F500
Y7.55
X168.5
G2 X167.05 Y9 I0 J1.45
G1 Y9.75
X160.95
Y9
G2 X159.5 Y7.55 I-1.45 J0
G1 X150.85
Y6.8
X151.165
Z-10.933 F333.3
X177.15 F500
Y7.55
X168.5
G2 X167.05 Y9 I0 J1.45
G1 Y9.75
X160.95
Y9
G2 X159.5 Y7.55 I-1.45 J0
G1 X150.85
Y6.8
X151.165
Z-12.3 F333.3
X177.15 F1000
Y7.55
X168.5
G2 X167.05 Y9 I0 J1.45
G1 Y9.75
X160.95
Y9
G2 X159.5 Y7.55 I-1.45 J0
G1 X150.85
Y6.8
X151.165
X151.212 Y6.793
X151.255 Y6.773
X151.29 Y6.741
X151.315 Y6.7
X151.339 Y6.659
X151.374 Y6.627
X151.417 Y6.607
X151.465 Y6.6
X177.35 F500
Y7.75
X168.5
G2 X167.25 Y9 I0 J1.25
G1 Y9.95
X160.75
Y9
G2 X159.5 Y7.75 I-1.25 J0
G1 X150.65
Y6.6
X151.465
Z5 F1000
X51.165 Y6.8
Z2.5 F333.3
Z-1.367
X77.15 F500
Y7.55
X68.5
G2 X67.05 Y9 I0 J1.45
G1 Y9.75
X60.95
Y9
G2 X59.5 Y7.55 I-1.45 J0
G1 X50.85
Y6.8
X51.165
Z-2.733 F333.3
X77.15 F500
Y7.55
X68.5
G2 X67.05 Y9 I0 J1.45
G1 Y9.75
X60.95
Y9
G2 X59.5 Y7.55 I-1.45 J0
G1 X50.85
Y6.8
X51.165
Z-4.1 F333.3
X77.15 F500
Y7.55
X68.5
G2 X67.05 Y9 I0 J1.45
G1 Y9.75
X60.95
Y9
G2 X59.5 Y7.55 I-1.45 J0
G1 X50.85
Y6.8
X51.165
Z-5.467 F333.3
X77.15 F500
Y7.55
X68.5
G2 X67.05 Y9 I0 J1.45
G1 Y9.75
X60.95
Y9
G2 X59.5 Y7.55 I-1.45 J0
G1 X50.85
Y6.8
X51.165
Z-6.833 F333.3
X77.15 F500
Y7.55
X68.5
G2 X67.05 Y9 I0 J1.45
G1 Y9.75
X60.95
Y9
G2 X59.5 Y7.55 I-1.45 J0
G1 X50.85
Y6.8
X51.165
Z-8.2 F333.3
X77.15 F500
Y7.55
X68.5
G2 X67.05 Y9 I0 J1.45
G1 Y9.75
X60.95
Y9
G2 X59.5 Y7.55 I-1.45 J0
G1 X50.85
Y6.8
X51.165
Z-9.567 F333.3
X77.15 F500
Y7.55
X68.5
G2 X67.05 Y9 I0 J1.45
G1 Y9.75
X60.95
Y9
G2 X59.5 Y7.55 I-1.45 J0
G1 X50.85
Y6.8
X51.165
Z-10.933 F333.3
X77.15 F500
Y7.55
X68.5
G2 X67.05 Y9 I0 J1.45
G1 Y9.75
X60.95
Y9
G2 X59.5 Y7.55 I-1.45 J0
G1 X50.85
Y6.8
X51.165
Z-12.3 F333.3
X68.5 F1000
X77.15
Y7.55
X68.5
G2 X67.05 Y9 I0 J1.45
G1 Y9.75
X60.95
Y9
G2 X59.5 Y7.55 I-1.45 J0
G1 X50.85
Y6.8
X51.165
X51.212 Y6.793
X51.255 Y6.773
X51.29 Y6.741
X51.315 Y6.7
X51.339 Y6.659
X51.374 Y6.627
X51.417 Y6.607
X51.465 Y6.6
X77.35 F500
Y7.75
X68.5
G2 X67.25 Y9 I0 J1.25
G1 Y9.95
X60.75
Y9
G2 X59.5 Y7.75 I-1.25 J0
G1 X50.65
Y6.6
X51.465
Z5 F1000
X51.165 Y62.45
Z2.5 F333.3
Z-1.367
X59.5 F500
G2 X60.95 Y61 I0 J-1.45
G1 Y60.25
X67.05
Y61
G2 X68.5 Y62.45 I1.45 J0
G1 X77.15
Y63.2
X50.85
Y62.45
X51.165
Z-2.733 F333.3
X59.5 F500
G2 X60.95 Y61 I0 J-1.45
G1 Y60.25
X67.05
Y61
G2 X68.5 Y62.45 I1.45 J0
G1 X77.15
Y63.2
X50.85
Y62.45
X51.165
Z-4.1 F333.3
X59.5 F500
G2 X60.95 Y61 I0 J-1.45
G1 Y60.25
X67.05
Y61
G2 X68.5 Y62.45 I1.45 J0
G1 X77.15
Y63.2
X50.85
Y62.45
X51.165
Z-5.467 F333.3
X59.5 F500
G2 X60.95 Y61 I0 J-1.45
G1 Y60.25
X67.05
Y61
G2 X68.5 Y62.45 I1.45 J0
G1 X77.15
Y63.2
X50.85
Y62.45
X51.165
Z-6.833 F333.3
X59.5 F500
G2 X60.95 Y61 I0 J-1.45
G1 Y60.25
X67.05
Y61
G2 X68.5 Y62.45 I1.45 J0
G1 X77.15
Y63.2
X50.85
Y62.45
X51.165
Z-8.2 F333.3
X59.5 F500
G2 X60.95 Y61 I0 J-1.45
G1 Y60.25
X67.05
Y61
G2 X68.5 Y62.45 I1.45 J0
G1 X77.15
Y63.2
X50.85
Y62.45
X51.165
Z-9.567 F333.3
X59.5 F500
G2 X60.95 Y61 I0 J-1.45
G1 Y60.25
X67.05
Y61
G2 X68.5 Y62.45 I1.45 J0
G1 X77.15
Y63.2
X50.85
Y62.45
X51.165
Z-10.933 F333.3
X59.5 F500
G2 X60.95 Y61 I0 J-1.45
G1 Y60.25
X67.05
Y61
G2 X68.5 Y62.45 I1.45 J0
G1 X77.15
Y63.2
X50.85
Y62.45
X51.165
Z-12.3 F333.3
X59.5 F1000
G2 X60.95 Y61 I0 J-1.45
G1 Y60.25
X67.05
Y61
G2 X68.5 Y62.45 I1.45 J0
G1 X77.15
Y63.2
X50.85
Y62.45
X51.165
X51.212 Y62.443
X51.255 Y62.423
X51.29 Y62.391
X51.315 Y62.35
X51.339 Y62.309
X51.374 Y62.277
X51.417 Y62.257
X51.465 Y62.25
X59.5 F500
G2 X60.75 Y61 I0 J-1.25
G1 Y60.05
X67.25
Y61
G2 X68.5 Y62.25 I1.25 J0
G1 X77.35
Y63.4
X50.65
Y62.25
X51.465
Z5 F1000
X29.297 Y-1.45
Z2.5 F333.3
Z-1.367
X14 F500
G2 X12.55 Y0 I0 J1.45
G1 Y17.144
G3 X11.812 Y17.661 I-0.55 J0
G1 X3.18 Y14.519
G2 X-1.45 Y17.761 I-1.18 J3.242
G1 Y52.239
G2 X3.18 Y55.481 I3.45 J0
G1 X11.812 Y52.339
G3 X12.55 Y52.856 I0.188 J0.517
G1 Y70
G2 X14 Y71.45 I1.45 J0
G1 X107.705
G2 X109.155 Y70 I0 J-1.45
G1 Y38.05
G2 X107.705 Y36.6 I-1.45 J0
G1 X107.555
Y36.3
X120.445
Y36.6
X120.295
G2 X118.845 Y38.05 I0 J1.45
G1 Y70
G2 X120.295 Y71.45 I1.45 J0
G1 X214
G2 X215.45 Y70 I0 J-1.45
G1 Y52.856
G3 X216.188 Y52.339 I0.55 J0
G1 X224.82 Y55.481
G2 X229.45 Y52.239 I1.18 J-3.242
G1 Y17.761
G2 X224.82 Y14.519 I-3.45 J0
G1 X216.188 Y17.661
G3 X215.45 Y17.144 I-0.188 J-0.517
G1 Y0
G2 X214 Y-1.45 I-1.45 J0
G1 X29.297
Z-2.733 F333.3
X14 F500
G2 X12.55 Y0 I0 J1.45
G1 Y17.144
G3 X11.812 Y17.661 I-0.55 J0
G1 X3.18 Y14.519
G2 X-1.45 Y17.761 I-1.18 J3.242
G1 Y52.239
G2 X3.18 Y55.481 I3.45 J0
G1 X11.812 Y52.339
G3 X12.55 Y52.856 I0.188 J0.517
G1 Y70
G2 X14 Y71.45 I1.45 J0
G1 X107.705
G2 X109.155 Y70 I0 J-1.45
G1 Y38.05
G2 X107.705 Y36.6 I-1.45 J0
G1 X107.555
Y36.3
X120.445
Y36.6
X120.295
G2 X118.845 Y38.05 I0 J1.45
G1 Y70
G2 X120.295 Y71.45 I1.45 J0
G1 X214
G2 X215.45 Y70 I0 J-1.45
G1 Y52.856
G3 X216.188 Y52.339 I0.55 J0
G1 X224.82 Y55.481
G2 X229.45 Y52.239 I1.18 J-3.242
G1 Y17.761
G2 X224.82 Y14.519 I-3.45 J0
G1 X216.188 Y17.661
G3 X215.45 Y17.144 I-0.188 J-0.517
G1 Y0
G2 X214 Y-1.45 I-1.45 J0
G1 X29.297
Z-4.1 F333.3
X14 F500
G2 X12.55 Y0 I0 J1.45
G1 Y17.144
G3 X11.812 Y17.661 I-0.55 J0
G1 X3.18 Y14.519
G2 X-1.45 Y17.761 I-1.18 J3.242
G1 Y52.239
G2 X3.18 Y55.481 I3.45 J0
G1 X11.812 Y52.339
G3 X12.55 Y52.856 I0.188 J0.517
G1 Y70
G2 X14 Y71.45 I1.45 J0
G1 X107.705
G2 X109.155 Y70 I0 J-1.45
G1 Y38.05
G2 X107.705 Y36.6 I-1.45 J0
G1 X107.555
Y36.3
X120.445
Y36.6
X120.295
G2 X118.845 Y38.05 I0 J1.45
G1 Y70
G2 X120.295 Y71.45 I1.45 J0
G1 X214
G2 X215.45 Y70 I0 J-1.45
G1 Y52.856
G3 X216.188 Y52.339 I0.55 J0
G1 X224.82 Y55.481
G2 X229.45 Y52.239 I1.18 J-3.242
G1 Y17.761
G2 X224.82 Y14.519 I-3.45 J0
G1 X216.188 Y17.661
G3 X215.45 Y17.144 I-0.188 J-0.517
G1 Y0
G2 X214 Y-1.45 I-1.45 J0
G1 X29.297
Z-5.467 F333.3
X14 F500
G2 X12.55 Y0 I0 J1.45
G1 Y17.144
G3 X11.812 Y17.661 I-0.55 J0
G1 X3.18 Y14.519
G2 X-1.45 Y17.761 I-1.18 J3.242
G1 Y52.239
G2 X3.18 Y55.481 I3.45 J0
G1 X11.812 Y52.339
G3 X12.55 Y52.856 I0.188 J0.517
G1 Y70
G2 X14 Y71.45 I1.45 J0
G1 X107.705
G2 X109.155 Y70 I0 J-1.45
G1 Y38.05
G2 X107.705 Y36.6 I-1.45 J0
G1 X107.555
Y36.3
X120.445
Y36.6
X120.295
G2 X118.845 Y38.05 I0 J1.45
G1 Y70
G2 X120.295 Y71.45 I1.45 J0
G1 X214
G2 X215.45 Y70 I0 J-1.45
G1 Y52.856
G3 X216.188 Y52.339 I0.55 J0
G1 X224.82 Y55.481
G2 X229.45 Y52.239 I1.18 J-3.242
G1 Y17.761
G2 X224.82 Y14.519 I-3.45 J0
G1 X216.188 Y17.661
G3 X215.45 Y17.144 I-0.188 J-0.517
G1 Y0
G2 X214 Y-1.45 I-1.45 J0
G1 X29.297
Z-6.833 F333.3
X14 F500
G2 X12.55 Y0 I0 J1.45
G1 Y17.144
G3 X11.812 Y17.661 I-0.55 J0
G1 X3.18 Y14.519
G2 X-1.45 Y17.761 I-1.18 J3.242
G1 Y52.239
G2 X3.18 Y55.481 I3.45 J0
G1 X11.812 Y52.339
G3 X12.55 Y52.856 I0.188 J0.517
G1 Y70
G2 X14 Y71.45 I1.45 J0
G1 X107.705
G2 X109.155 Y70 I0 J-1.45
G1 Y38.05
G2 X107.705 Y36.6 I-1.45 J0
G1 X107.555
Y36.3
X120.445
Y36.6
X120.295
G2 X118.845 Y38.05 I0 J1.45
G1 Y70
G2 X120.295 Y71.45 I1.45 J0
G1 X214
G2 X215.45 Y70 I0 J-1.45
G1 Y52.856
G3 X216.188 Y52.339 I0.55 J0
G1 X224.82 Y55.481
G2 X229.45 Y52.239 I1.18 J-3.242
G1 Y17.761
G2 X224.82 Y14.519 I-3.45 J0
G1 X216.188 Y17.661
G3 X215.45 Y17.144 I-0.188 J-0.517
G1 Y0
G2 X214 Y-1.45 I-1.45 J0
G1 X29.297
Z-8.2 F333.3
X14 F500
G2 X12.55 Y0 I0 J1.45
G1 Y17.144
G3 X11.812 Y17.661 I-0.55 J0
G1 X3.18 Y14.519
G2 X-1.45 Y17.761 I-1.18 J3.242
G1 Y52.239
G2 X3.18 Y55.481 I3.45 J0
G1 X11.812 Y52.339
G3 X12.55 Y52.856 I0.188 J0.517
G1 Y70
G2 X14 Y71.45 I1.45 J0
G1 X107.705
G2 X109.155 Y70 I0 J-1.45
G1 Y38.05
G2 X107.705 Y36.6 I-1.45 J0
G1 X107.555
Y36.3
X120.445
Y36.6
X120.295
G2 X118.845 Y38.05 I0 J1.45
G1 Y70
G2 X120.295 Y71.45 I1.45 J0
G1 X214
G2 X215.45 Y70 I0 J-1.45
G1 Y52.856
G3 X216.188 Y52.339 I0.55 J0
G1 X224.82 Y55.481
G2 X229.45 Y52.239 I1.18 J-3.242
G1 Y17.761
G2 X224.82 Y14.519 I-3.45 J0
G1 X216.188 Y17.661
G3 X215.45 Y17.144 I-0.188 J-0.517
G1 Y0
G2 X214 Y-1.45 I-1.45 J0
G1 X29.297
Z-9.567 F333.3
X14 F500
G2 X12.55 Y0 I0 J1.45
G1 Y17.144
G3 X11.812 Y17.661 I-0.55 J0
G1 X3.18 Y14.519
G2 X-1.45 Y17.761 I-1.18 J3.242
G1 Y52.239
G2 X3.18 Y55.481 I3.45 J0
G1 X11.812 Y52.339
G3 X12.55 Y52.856 I0.188 J0.517
G1 Y70
G2 X14 Y71.45 I1.45 J0
G1 X107.705
G2 X109.155 Y70 I0 J-1.45
G1 Y38.05
G2 X107.705 Y36.6 I-1.45 J0
G1 X107.555
Y36.3
X120.445
Y36.6
X120.295
G2 X118.845 Y38.05 I0 J1.45
G1 Y70
G2 X120.295 Y71.45 I1.45 J0
G1 X214
G2 X215.45 Y70 I0 J-1.45
G1 Y52.856
G3 X216.188 Y52.339 I0.55 J0
G1 X224.82 Y55.481
G2 X229.45 Y52.239 I1.18 J-3.242
G1 Y17.761
G2 X224.82 Y14.519 I-3.45 J0
G1 X216.188 Y17.661
G3 X215.45 Y17.144 I-0.188 J-0.517
G1 Y0
G2 X214 Y-1.45 I-1.45 J0
G1 X29.297
Z-10.933 F333.3
X14 F500
G2 X12.55 Y0 I0 J1.45
G1 Y6.66
Z-9.6
Y12.16
Z-10.933 F333.3
Y17.144 F500
G3 X11.812 Y17.661 I-0.55 J0
G1 X3.18 Y14.519
G2 X-1.45 Y17.761 I-1.18 J3.242
G1 Y52.239
G2 X3.18 Y55.481 I3.45 J0
G1 X11.812 Y52.339
G3 X12.55 Y52.856 I0.188 J0.517
G1 Y59.754
Z-9.6
Y65.254
Z-10.933 F333.3
Y70 F500
G2 X14 Y71.45 I1.45 J0
G1 X107.705
G2 X109.155 Y70 I0 J-1.45
G1 Y50.932
Z-9.6
Y45.432
Z-10.933 F333.3
Y38.05 F500
G2 X107.705 Y36.6 I-1.45 J0
G1 X107.555
Y36.3
X120.445
Y36.6
X120.295
G2 X118.845 Y38.05 I0 J1.45
G1 Y70
G2 X120.295 Y71.45 I1.45 J0
G1 X214
G2 X215.45 Y70 I0 J-1.45
G1 Y63.934
Z-9.6
Y58.434
Z-10.933 F333.3
Y52.856 F500
G3 X216.188 Y52.339 I0.55 J0
G1 X224.82 Y55.481
G2 X229.45 Y52.239 I1.18 J-3.242
G1 Y17.761
G2 X224.82 Y14.519 I-3.45 J0
G1 X216.188 Y17.661
G3 X215.45 Y17.144 I-0.188 J-0.517
G1 Y11.728
Z-9.6
Y6.228
Z-10.933 F333.3
Y0 F500
G2 X214 Y-1.45 I-1.45 J0
G1 X29.297
Z-12.3 F333.3
X14 F1000
G2 X12.55 Y0 I0 J1.45
G1 Y6.66
Z-9.6
Y12.16
Z-12.3 F333.3
Y17.144 F1000
G3 X11.812 Y17.661 I-0.55 J0
G1 X3.18 Y14.519
G2 X-1.45 Y17.761 I-1.18 J3.242
G1 Y52.239
G2 X3.18 Y55.481 I3.45 J0
G1 X11.812 Y52.339
G3 X12.55 Y52.856 I0.188 J0.517
G1 Y59.754
Z-9.6
Y65.254
Z-12.3 F333.3
Y70 F1000
G2 X14 Y71.45 I1.45 J0
G1 X107.705
G2 X109.155 Y70 I0 J-1.45
G1 Y50.932
Z-9.6
Y45.432
Z-12.3 F333.3
Y38.05 F1000
G2 X107.705 Y36.6 I-1.45 J0
G1 X107.555
Y36.3
X120.445
Y36.6
X120.295
G2 X118.845 Y38.05 I0 J1.45
G1 Y70
G2 X120.295 Y71.45 I1.45 J0
G1 X214
G2 X215.45 Y70 I0 J-1.45
G1 Y63.934
Z-9.6
Y58.434
Z-12.3 F333.3
Y52.856 F1000
G3 X216.188 Y52.339 I0.55 J0
G1 X224.82 Y55.481
G2 X229.45 Y52.239 I1.18 J-3.242
G1 Y17.761
G2 X224.82 Y14.519 I-3.45 J0
G1 X216.188 Y17.661
G3 X215.45 Y17.144 I-0.188 J-0.517
G1 Y11.728
Z-9.6
Y6.228
Z-12.3 F333.3
Y0 F1000
G2 X214 Y-1.45 I-1.45 J0
G1 X29.297
X29.25 Y-1.443
X29.207 Y-1.423
X29.172 Y-1.391
X29.147 Y-1.35
X29.123 Y-1.309
X29.087 Y-1.277
X29.044 Y-1.257
X28.997 Y-1.25
X14 F500
G2 X12.75 Y0 I0 J1.25
G1 Y6.66
Z-9.6
Y12.16
Z-12.3 F333.3
Y17.144 F500
G3 X11.744 Y17.848 I-0.75 J0
G1 X3.112 Y14.707
G2 X-1.25 Y17.761 I-1.112 J3.054
G1 Y52.239
G2 X3.112 Y55.293 I3.25 J0
G1 X11.744 Y52.152
G3 X12.75 Y52.856 I0.256 J0.705
G1 Y59.754
Z-9.6
Y65.254
Z-12.3 F333.3
Y70 F500
G2 X14 Y71.25 I1.25 J0
G1 X107.705
G2 X108.955 Y70 I0 J-1.25
G1 Y50.932
Z-9.6
Y45.432
Z-12.3 F333.3
Y38.05 F500
G2 X107.705 Y36.8 I-1.25 J0
G1 X107.355
Y36.1
X120.645
Y36.8
X120.295
G2 X119.045 Y38.05 I0 J1.25
G1 Y70
G2 X120.295 Y71.25 I1.25 J0
G1 X214
G2 X215.25 Y70 I0 J-1.25
G1 Y63.934
Z-9.6
Y58.434
Z-12.3 F333.3
Y52.856 F500
G3 X216.256 Y52.152 I0.75 J0
G1 X224.888 Y55.293
G2 X229.25 Y52.239 I1.112 J-3.054
G1 Y17.761
G2 X224.889 Y14.707 I-3.25 J0
G1 X216.256 Y17.848
G3 X215.25 Y17.144 I-0.256 J-0.705
G1 Y11.728
Z-9.6
Y6.228
Z-12.3 F333.3
Y0 F500
G2 X214 Y-1.25 I-1.25 J0
G1 X28.997
Z10 F1000
M5
M30
