(1101_bore_tests)
(T1  D=2 CR=0 - ZMIN=-12.8 - flat end mill)
G90 G94
G17
G21
(When using Fusion 360 for Personal Use, the feedrate of)
(rapid moves is reduced to match the feedrate of cutting)
(moves, which can increase machining time. Unrestricted rapid)
(moves are available with a Fusion 360 Subscription.)

(bore -0.5 pitch and repeat)
T1
S5000 M3
G54
G0 X15.45 Y14.8
Z10
G1 Z2 F1000
Z0.2
G18 G2 X15.65 Z0 I0.2 K0
G1 X15.75
G17 G3 X15.95 Y15 I0 J0.2
X14.05 Y15 Z-0.25 I-0.95 J0
X15.95 Y15 Z-0.5 I0.95 J0
X14.05 Y15 Z-0.75 I-0.95 J0
X15.95 Y15 Z-1 I0.95 J0
X14.05 Y15 Z-1.25 I-0.95 J0
X15.95 Y15 Z-1.5 I0.95 J0
X14.05 Y15 Z-1.75 I-0.95 J0
X15.95 Y15 Z-2 I0.95 J0
X14.05 Y15 Z-2.25 I-0.95 J0
X15.95 Y15 Z-2.5 I0.95 J0
X14.05 Y15 Z-2.75 I-0.95 J0
X15.95 Y15 Z-3 I0.95 J0
X14.05 Y15 Z-3.25 I-0.95 J0
X15.95 Y15 Z-3.5 I0.95 J0
X14.05 Y15 Z-3.75 I-0.95 J0
X15.95 Y15 Z-4 I0.95 J0
X14.05 Y15 Z-4.25 I-0.95 J0
X15.95 Y15 Z-4.5 I0.95 J0
X14.05 Y15 Z-4.75 I-0.95 J0
X15.95 Y15 Z-5 I0.95 J0
X14.05 Y15 Z-5.25 I-0.95 J0
X15.95 Y15 Z-5.5 I0.95 J0
X14.05 Y15 Z-5.75 I-0.95 J0
X15.95 Y15 Z-6 I0.95 J0
X14.05 Y15 Z-6.25 I-0.95 J0
X15.95 Y15 Z-6.5 I0.95 J0
X14.05 Y15 Z-6.75 I-0.95 J0
X15.95 Y15 Z-7 I0.95 J0
X14.05 Y15 Z-7.25 I-0.95 J0
X15.95 Y15 Z-7.5 I0.95 J0
X14.05 Y15 Z-7.75 I-0.95 J0
X15.95 Y15 Z-8 I0.95 J0
X14.05 Y15 Z-8.25 I-0.95 J0
X15.95 Y15 Z-8.5 I0.95 J0
X14.05 Y15 Z-8.75 I-0.95 J0
X15.95 Y15 Z-9 I0.95 J0
X14.05 Y15 Z-9.25 I-0.95 J0
X15.95 Y15 Z-9.5 I0.95 J0
X14.05 Y15 Z-9.75 I-0.95 J0
X15.95 Y15 Z-10 I0.95 J0
X14.05 Y15 Z-10.25 I-0.95 J0
X15.95 Y15 Z-10.5 I0.95 J0
X14.05 Y15 Z-10.75 I-0.95 J0
X15.95 Y15 Z-11 I0.95 J0
X14.05 Y15 Z-11.25 I-0.95 J0
X15.95 Y15 Z-11.5 I0.95 J0
X14.05 Y15 Z-11.75 I-0.95 J0
X15.95 Y15 Z-12 I0.95 J0
X14.05 Y15 Z-12.25 I-0.95 J0
X15.95 Y15 Z-12.5 I0.95 J0
X14.05 Y15 Z-12.75 I-0.95 J0
X14.231 Y14.442 Z-12.8 I0.95 J0
X15.769 Y15.558 I0.769 J0.558
X14.231 Y14.442 I-0.769 J-0.558
X14.511 Y14.397 I0.162 J0.118
G1 X14.592 Y14.456
X14.634 Y14.487 Z-12.793
X14.673 Y14.515 Z-12.773
X14.706 Y14.539 Z-12.741
X14.732 Y14.558 Z-12.7
X14.748 Y14.57 Z-12.652
X14.753 Y14.574 Z-12.6
Z5
X15.45 Y14.8
Z2
Z0.2
G18 G2 X15.65 Z0 I0.2 K0
G1 X15.75
G17 G3 X15.95 Y15 I0 J0.2
X14.05 Y15 Z-0.25 I-0.95 J0
X15.95 Y15 Z-0.5 I0.95 J0
X14.05 Y15 Z-0.75 I-0.95 J0
X15.95 Y15 Z-1 I0.95 J0
X14.05 Y15 Z-1.25 I-0.95 J0
X15.95 Y15 Z-1.5 I0.95 J0
X14.05 Y15 Z-1.75 I-0.95 J0
X15.95 Y15 Z-2 I0.95 J0
X14.05 Y15 Z-2.25 I-0.95 J0
X15.95 Y15 Z-2.5 I0.95 J0
X14.05 Y15 Z-2.75 I-0.95 J0
X15.95 Y15 Z-3 I0.95 J0
X14.05 Y15 Z-3.25 I-0.95 J0
X15.95 Y15 Z-3.5 I0.95 J0
X14.05 Y15 Z-3.75 I-0.95 J0
X15.95 Y15 Z-4 I0.95 J0
X14.05 Y15 Z-4.25 I-0.95 J0
X15.95 Y15 Z-4.5 I0.95 J0
X14.05 Y15 Z-4.75 I-0.95 J0
X15.95 Y15 Z-5 I0.95 J0
X14.05 Y15 Z-5.25 I-0.95 J0
X15.95 Y15 Z-5.5 I0.95 J0
X14.05 Y15 Z-5.75 I-0.95 J0
X15.95 Y15 Z-6 I0.95 J0
X14.05 Y15 Z-6.25 I-0.95 J0
X15.95 Y15 Z-6.5 I0.95 J0
X14.05 Y15 Z-6.75 I-0.95 J0
X15.95 Y15 Z-7 I0.95 J0
X14.05 Y15 Z-7.25 I-0.95 J0
X15.95 Y15 Z-7.5 I0.95 J0
X14.05 Y15 Z-7.75 I-0.95 J0
X15.95 Y15 Z-8 I0.95 J0
X14.05 Y15 Z-8.25 I-0.95 J0
X15.95 Y15 Z-8.5 I0.95 J0
X14.05 Y15 Z-8.75 I-0.95 J0
X15.95 Y15 Z-9 I0.95 J0
X14.05 Y15 Z-9.25 I-0.95 J0
X15.95 Y15 Z-9.5 I0.95 J0
X14.05 Y15 Z-9.75 I-0.95 J0
X15.95 Y15 Z-10 I0.95 J0
X14.05 Y15 Z-10.25 I-0.95 J0
X15.95 Y15 Z-10.5 I0.95 J0
X14.05 Y15 Z-10.75 I-0.95 J0
X15.95 Y15 Z-11 I0.95 J0
X14.05 Y15 Z-11.25 I-0.95 J0
X15.95 Y15 Z-11.5 I0.95 J0
X14.05 Y15 Z-11.75 I-0.95 J0
X15.95 Y15 Z-12 I0.95 J0
X14.05 Y15 Z-12.25 I-0.95 J0
X15.95 Y15 Z-12.5 I0.95 J0
X14.05 Y15 Z-12.75 I-0.95 J0
X14.231 Y14.442 Z-12.8 I0.95 J0
X15.769 Y15.558 I0.769 J0.558
X14.231 Y14.442 I-0.769 J-0.558
X14.511 Y14.397 I0.162 J0.118
G1 X14.592 Y14.456
X14.634 Y14.487 Z-12.793
X14.673 Y14.515 Z-12.773
X14.706 Y14.539 Z-12.741
X14.732 Y14.558 Z-12.7
X14.748 Y14.57 Z-12.652
X14.753 Y14.574 Z-12.6
Z10
(When using Fusion 360 for Personal Use, the feedrate of)
(rapid moves is reduced to match the feedrate of cutting)
(moves, which can increase machining time. Unrestricted rapid)
(moves are available with a Fusion 360 Subscription.)

(bore 2pass 0.1 stepover)
G0 X30.35 Y14.8
G1 Z10 F1000
Z2
Z0.2
G18 G2 X30.55 Z0 I0.2 K0
G1 X30.65
G17 G3 X30.85 Y15 I0 J0.2
X29.15 Y15 Z-0.5 I-0.85 J0
X30.85 Y15 Z-1 I0.85 J0
X29.15 Y15 Z-1.5 I-0.85 J0
X30.85 Y15 Z-2 I0.85 J0
X29.15 Y15 Z-2.5 I-0.85 J0
X30.85 Y15 Z-3 I0.85 J0
X29.15 Y15 Z-3.5 I-0.85 J0
X30.85 Y15 Z-4 I0.85 J0
X29.15 Y15 Z-4.5 I-0.85 J0
X30.85 Y15 Z-5 I0.85 J0
X29.15 Y15 Z-5.5 I-0.85 J0
X30.85 Y15 Z-6 I0.85 J0
X29.15 Y15 Z-6.5 I-0.85 J0
X30.85 Y15 Z-7 I0.85 J0
X29.15 Y15 Z-7.5 I-0.85 J0
X30.85 Y15 Z-8 I0.85 J0
X29.15 Y15 Z-8.5 I-0.85 J0
X30.85 Y15 Z-9 I0.85 J0
X29.15 Y15 Z-9.5 I-0.85 J0
X30.85 Y15 Z-10 I0.85 J0
X29.15 Y15 Z-10.5 I-0.85 J0
X30.85 Y15 Z-11 I0.85 J0
X29.15 Y15 Z-11.5 I-0.85 J0
X30.85 Y15 Z-12 I0.85 J0
X29.15 Y15 Z-12.5 I-0.85 J0
X30.263 Y14.192 Z-12.8 I0.85 J0
X29.737 Y15.808 I-0.263 J0.808
X30.263 Y14.192 I0.263 J-0.808
X30.391 Y14.444 I-0.062 J0.19
G1 X30.36 Y14.539
X30.344 Y14.588 Z-12.793
X30.329 Y14.634 Z-12.773
X30.316 Y14.673 Z-12.741
X30.307 Y14.703 Z-12.7
X30.3 Y14.722 Z-12.652
X30.298 Y14.729 Z-12.6
Z5
Z10
X30.45 Y14.8
Z2
Z0.2
G18 G2 X30.65 Z0 I0.2 K0
G1 X30.75
G17 G3 X30.95 Y15 I0 J0.2
X29.05 Y15 Z-0.5 I-0.95 J0
X30.95 Y15 Z-1 I0.95 J0
X29.05 Y15 Z-1.5 I-0.95 J0
X30.95 Y15 Z-2 I0.95 J0
X29.05 Y15 Z-2.5 I-0.95 J0
X30.95 Y15 Z-3 I0.95 J0
X29.05 Y15 Z-3.5 I-0.95 J0
X30.95 Y15 Z-4 I0.95 J0
X29.05 Y15 Z-4.5 I-0.95 J0
X30.95 Y15 Z-5 I0.95 J0
X29.05 Y15 Z-5.5 I-0.95 J0
X30.95 Y15 Z-6 I0.95 J0
X29.05 Y15 Z-6.5 I-0.95 J0
X30.95 Y15 Z-7 I0.95 J0
X29.05 Y15 Z-7.5 I-0.95 J0
X30.95 Y15 Z-8 I0.95 J0
X29.05 Y15 Z-8.5 I-0.95 J0
X30.95 Y15 Z-9 I0.95 J0
X29.05 Y15 Z-9.5 I-0.95 J0
X30.95 Y15 Z-10 I0.95 J0
X29.05 Y15 Z-10.5 I-0.95 J0
X30.95 Y15 Z-11 I0.95 J0
X29.05 Y15 Z-11.5 I-0.95 J0
X30.95 Y15 Z-12 I0.95 J0
X29.05 Y15 Z-12.5 I-0.95 J0
X30.294 Y14.096 Z-12.8 I0.95 J0
X29.706 Y15.904 I-0.294 J0.904
X30.294 Y14.096 I0.294 J-0.904
X30.422 Y14.349 I-0.062 J0.19
G1 X30.391 Y14.444
X30.375 Y14.493 Z-12.793
X30.36 Y14.539 Z-12.773
X30.347 Y14.578 Z-12.741
X30.338 Y14.608 Z-12.7
X30.331 Y14.627 Z-12.652
X30.329 Y14.634 Z-12.6
Z10
M5
M30
