(1102_bore_tests_27bit)
(T1  D=2.7 CR=0 - ZMIN=-12.8 - flat end mill)
G90 G94
G17
G21
(When using Fusion 360 for Personal Use, the feedrate of)
(rapid moves is reduced to match the feedrate of cutting)
(moves, which can increase machining time. Unrestricted rapid)
(moves are available with a Fusion 360 Subscription.)

(bore -0.5 pitch and repeat)
T1
S5000 M3
G54
G0 X14.925 Y14.73
Z10
G1 Z2 F1000
Z0.27
G18 G2 X15.195 Z0 I0.27 K0
G1 X15.33
G17 G3 X15.6 Y15 I0 J0.27
X14.4 Y15 Z-0.25 I-0.6 J0
X15.6 Y15 Z-0.5 I0.6 J0
X14.4 Y15 Z-0.75 I-0.6 J0
X15.6 Y15 Z-1 I0.6 J0
X14.4 Y15 Z-1.25 I-0.6 J0
X15.6 Y15 Z-1.5 I0.6 J0
X14.4 Y15 Z-1.75 I-0.6 J0
X15.6 Y15 Z-2 I0.6 J0
X14.4 Y15 Z-2.25 I-0.6 J0
X15.6 Y15 Z-2.5 I0.6 J0
X14.4 Y15 Z-2.75 I-0.6 J0
X15.6 Y15 Z-3 I0.6 J0
X14.4 Y15 Z-3.25 I-0.6 J0
X15.6 Y15 Z-3.5 I0.6 J0
X14.4 Y15 Z-3.75 I-0.6 J0
X15.6 Y15 Z-4 I0.6 J0
X14.4 Y15 Z-4.25 I-0.6 J0
X15.6 Y15 Z-4.5 I0.6 J0
X14.4 Y15 Z-4.75 I-0.6 J0
X15.6 Y15 Z-5 I0.6 J0
X14.4 Y15 Z-5.25 I-0.6 J0
X15.6 Y15 Z-5.5 I0.6 J0
X14.4 Y15 Z-5.75 I-0.6 J0
X15.6 Y15 Z-6 I0.6 J0
X14.4 Y15 Z-6.25 I-0.6 J0
X15.6 Y15 Z-6.5 I0.6 J0
X14.4 Y15 Z-6.75 I-0.6 J0
X15.6 Y15 Z-7 I0.6 J0
X14.4 Y15 Z-7.25 I-0.6 J0
X15.6 Y15 Z-7.5 I0.6 J0
X14.4 Y15 Z-7.75 I-0.6 J0
X15.6 Y15 Z-8 I0.6 J0
X14.4 Y15 Z-8.25 I-0.6 J0
X15.6 Y15 Z-8.5 I0.6 J0
X14.4 Y15 Z-8.75 I-0.6 J0
X15.6 Y15 Z-9 I0.6 J0
X14.4 Y15 Z-9.25 I-0.6 J0
X15.6 Y15 Z-9.5 I0.6 J0
X14.4 Y15 Z-9.75 I-0.6 J0
X15.6 Y15 Z-10 I0.6 J0
X14.4 Y15 Z-10.25 I-0.6 J0
X15.6 Y15 Z-10.5 I0.6 J0
X14.4 Y15 Z-10.75 I-0.6 J0
X15.6 Y15 Z-11 I0.6 J0
X14.4 Y15 Z-11.25 I-0.6 J0
X15.6 Y15 Z-11.5 I0.6 J0
X14.4 Y15 Z-11.75 I-0.6 J0
X15.6 Y15 Z-12 I0.6 J0
X14.4 Y15 Z-12.25 I-0.6 J0
X15.6 Y15 Z-12.5 I0.6 J0
X14.4 Y15 Z-12.75 I-0.6 J0
X14.515 Y14.647 Z-12.8 I0.6 J0
X15.485 Y15.353 I0.485 J0.353
X14.515 Y14.647 I-0.485 J-0.353
X14.892 Y14.588 I0.218 J0.159
G1 X15.001 Y14.667
X15.05 Y14.702 Z-12.793
X15.096 Y14.736 Z-12.773
X15.137 Y14.766 Z-12.741
X15.172 Y14.791 Z-12.698
X15.198 Y14.81 Z-12.647
X15.214 Y14.822 Z-12.59
X15.219 Y14.826 Z-12.53
Z5
X14.925 Y14.73
Z2
Z0.27
G18 G2 X15.195 Z0 I0.27 K0
G1 X15.33
G17 G3 X15.6 Y15 I0 J0.27
X14.4 Y15 Z-0.25 I-0.6 J0
X15.6 Y15 Z-0.5 I0.6 J0
X14.4 Y15 Z-0.75 I-0.6 J0
X15.6 Y15 Z-1 I0.6 J0
X14.4 Y15 Z-1.25 I-0.6 J0
X15.6 Y15 Z-1.5 I0.6 J0
X14.4 Y15 Z-1.75 I-0.6 J0
X15.6 Y15 Z-2 I0.6 J0
X14.4 Y15 Z-2.25 I-0.6 J0
X15.6 Y15 Z-2.5 I0.6 J0
X14.4 Y15 Z-2.75 I-0.6 J0
X15.6 Y15 Z-3 I0.6 J0
X14.4 Y15 Z-3.25 I-0.6 J0
X15.6 Y15 Z-3.5 I0.6 J0
X14.4 Y15 Z-3.75 I-0.6 J0
X15.6 Y15 Z-4 I0.6 J0
X14.4 Y15 Z-4.25 I-0.6 J0
X15.6 Y15 Z-4.5 I0.6 J0
X14.4 Y15 Z-4.75 I-0.6 J0
X15.6 Y15 Z-5 I0.6 J0
X14.4 Y15 Z-5.25 I-0.6 J0
X15.6 Y15 Z-5.5 I0.6 J0
X14.4 Y15 Z-5.75 I-0.6 J0
X15.6 Y15 Z-6 I0.6 J0
X14.4 Y15 Z-6.25 I-0.6 J0
X15.6 Y15 Z-6.5 I0.6 J0
X14.4 Y15 Z-6.75 I-0.6 J0
X15.6 Y15 Z-7 I0.6 J0
X14.4 Y15 Z-7.25 I-0.6 J0
X15.6 Y15 Z-7.5 I0.6 J0
X14.4 Y15 Z-7.75 I-0.6 J0
X15.6 Y15 Z-8 I0.6 J0
X14.4 Y15 Z-8.25 I-0.6 J0
X15.6 Y15 Z-8.5 I0.6 J0
X14.4 Y15 Z-8.75 I-0.6 J0
X15.6 Y15 Z-9 I0.6 J0
X14.4 Y15 Z-9.25 I-0.6 J0
X15.6 Y15 Z-9.5 I0.6 J0
X14.4 Y15 Z-9.75 I-0.6 J0
X15.6 Y15 Z-10 I0.6 J0
X14.4 Y15 Z-10.25 I-0.6 J0
X15.6 Y15 Z-10.5 I0.6 J0
X14.4 Y15 Z-10.75 I-0.6 J0
X15.6 Y15 Z-11 I0.6 J0
X14.4 Y15 Z-11.25 I-0.6 J0
X15.6 Y15 Z-11.5 I0.6 J0
X14.4 Y15 Z-11.75 I-0.6 J0
X15.6 Y15 Z-12 I0.6 J0
X14.4 Y15 Z-12.25 I-0.6 J0
X15.6 Y15 Z-12.5 I0.6 J0
X14.4 Y15 Z-12.75 I-0.6 J0
X14.515 Y14.647 Z-12.8 I0.6 J0
X15.485 Y15.353 I0.485 J0.353
X14.515 Y14.647 I-0.485 J-0.353
X14.892 Y14.588 I0.218 J0.159
G1 X15.001 Y14.667
X15.05 Y14.702 Z-12.793
X15.096 Y14.736 Z-12.773
X15.137 Y14.766 Z-12.741
X15.172 Y14.791 Z-12.698
X15.198 Y14.81 Z-12.647
X15.214 Y14.822 Z-12.59
X15.219 Y14.826 Z-12.53
Z10
(When using Fusion 360 for Personal Use, the feedrate of)
(rapid moves is reduced to match the feedrate of cutting)
(moves, which can increase machining time. Unrestricted rapid)
(moves are available with a Fusion 360 Subscription.)

(bore 2pass 0.1 stepover)
G0 X29.845 Y14.75
G1 Z10 F1000
Z2
Z0.27
G18 G2 X30.115 Z0 I0.27 K0
G1 X30.25
G17 G3 X30.5 Y15 I0 J0.25
X29.5 Y15 Z-0.5 I-0.5 J0
X30.5 Y15 Z-1 I0.5 J0
X29.5 Y15 Z-1.5 I-0.5 J0
X30.5 Y15 Z-2 I0.5 J0
X29.5 Y15 Z-2.5 I-0.5 J0
X30.5 Y15 Z-3 I0.5 J0
X29.5 Y15 Z-3.5 I-0.5 J0
X30.5 Y15 Z-4 I0.5 J0
X29.5 Y15 Z-4.5 I-0.5 J0
X30.5 Y15 Z-5 I0.5 J0
X29.5 Y15 Z-5.5 I-0.5 J0
X30.5 Y15 Z-6 I0.5 J0
X29.5 Y15 Z-6.5 I-0.5 J0
X30.5 Y15 Z-7 I0.5 J0
X29.5 Y15 Z-7.5 I-0.5 J0
X30.5 Y15 Z-8 I0.5 J0
X29.5 Y15 Z-8.5 I-0.5 J0
X30.5 Y15 Z-9 I0.5 J0
X29.5 Y15 Z-9.5 I-0.5 J0
X30.5 Y15 Z-10 I0.5 J0
X29.5 Y15 Z-10.5 I-0.5 J0
X30.5 Y15 Z-11 I0.5 J0
X29.5 Y15 Z-11.5 I-0.5 J0
X30.5 Y15 Z-12 I0.5 J0
X29.5 Y15 Z-12.5 I-0.5 J0
X30.155 Y14.524 Z-12.8 I0.5 J0
X29.845 Y15.476 I-0.155 J0.476
X30.155 Y14.524 I0.155 J-0.476
X30.315 Y14.839 I-0.077 J0.238
G1 X30.273 Y14.968
X30.255 Y15.025 Z-12.793
X30.237 Y15.079 Z-12.773
X30.221 Y15.128 Z-12.741
X30.208 Y15.169 Z-12.698
X30.198 Y15.199 Z-12.647
X30.192 Y15.218 Z-12.59
X30.19 Y15.225 Z-12.53
Z5
Z10
X29.925 Y14.73
Z2
Z0.27
G18 G2 X30.195 Z0 I0.27 K0
G1 X30.33
G17 G3 X30.6 Y15 I0 J0.27
X29.4 Y15 Z-0.5 I-0.6 J0
X30.6 Y15 Z-1 I0.6 J0
X29.4 Y15 Z-1.5 I-0.6 J0
X30.6 Y15 Z-2 I0.6 J0
X29.4 Y15 Z-2.5 I-0.6 J0
X30.6 Y15 Z-3 I0.6 J0
X29.4 Y15 Z-3.5 I-0.6 J0
X30.6 Y15 Z-4 I0.6 J0
X29.4 Y15 Z-4.5 I-0.6 J0
X30.6 Y15 Z-5 I0.6 J0
X29.4 Y15 Z-5.5 I-0.6 J0
X30.6 Y15 Z-6 I0.6 J0
X29.4 Y15 Z-6.5 I-0.6 J0
X30.6 Y15 Z-7 I0.6 J0
X29.4 Y15 Z-7.5 I-0.6 J0
X30.6 Y15 Z-8 I0.6 J0
X29.4 Y15 Z-8.5 I-0.6 J0
X30.6 Y15 Z-9 I0.6 J0
X29.4 Y15 Z-9.5 I-0.6 J0
X30.6 Y15 Z-10 I0.6 J0
X29.4 Y15 Z-10.5 I-0.6 J0
X30.6 Y15 Z-11 I0.6 J0
X29.4 Y15 Z-11.5 I-0.6 J0
X30.6 Y15 Z-12 I0.6 J0
X29.4 Y15 Z-12.5 I-0.6 J0
X30.185 Y14.429 Z-12.8 I0.6 J0
X29.815 Y15.571 I-0.185 J0.571
X30.185 Y14.429 I0.185 J-0.571
X30.359 Y14.77 I-0.083 J0.257
G1 X30.317 Y14.898
X30.298 Y14.955 Z-12.793
X30.281 Y15.009 Z-12.773
X30.265 Y15.058 Z-12.741
X30.252 Y15.099 Z-12.698
X30.242 Y15.129 Z-12.647
X30.236 Y15.148 Z-12.59
X30.234 Y15.155 Z-12.53
Z10
M5
M30
