(1103_bore_test_27bit_3_rad)
(T1  D=2.7 CR=0 - ZMIN=-12.8 - flat end mill)
G90 G94
G17
G21
(When using Fusion 360 for Personal Use, the feedrate of)
(rapid moves is reduced to match the feedrate of cutting)
(moves, which can increase machining time. Unrestricted rapid)
(moves are available with a Fusion 360 Subscription.)

(Bore5)
T1
S5000 M3
G54
G0 X14.82 Y-0.225
Z10
G1 Z2 F1000
Z0.27
G18 G2 X15.09 Z0 I0.27 K0
G1 X15.225
G17 G3 X15.45 Y0 I0 J0.225
X14.55 Y0 Z-0.25 I-0.45 J0
X15.45 Y0 Z-0.5 I0.45 J0
X14.55 Y0 Z-0.75 I-0.45 J0
X15.45 Y0 Z-1 I0.45 J0
X14.55 Y0 Z-1.25 I-0.45 J0
X15.45 Y0 Z-1.5 I0.45 J0
X14.55 Y0 Z-1.75 I-0.45 J0
X15.45 Y0 Z-2 I0.45 J0
X14.55 Y0 Z-2.25 I-0.45 J0
X15.45 Y0 Z-2.5 I0.45 J0
X14.55 Y0 Z-2.75 I-0.45 J0
X15.45 Y0 Z-3 I0.45 J0
X14.55 Y0 Z-3.25 I-0.45 J0
X15.45 Y0 Z-3.5 I0.45 J0
X14.55 Y0 Z-3.75 I-0.45 J0
X15.45 Y0 Z-4 I0.45 J0
X14.55 Y0 Z-4.25 I-0.45 J0
X15.45 Y0 Z-4.5 I0.45 J0
X14.55 Y0 Z-4.75 I-0.45 J0
X15.45 Y0 Z-5 I0.45 J0
X14.55 Y0 Z-5.25 I-0.45 J0
X15.45 Y0 Z-5.5 I0.45 J0
X14.55 Y0 Z-5.75 I-0.45 J0
X15.45 Y0 Z-6 I0.45 J0
X14.55 Y0 Z-6.25 I-0.45 J0
X15.45 Y0 Z-6.5 I0.45 J0
X14.55 Y0 Z-6.75 I-0.45 J0
X15.45 Y0 Z-7 I0.45 J0
X14.55 Y0 Z-7.25 I-0.45 J0
X15.45 Y0 Z-7.5 I0.45 J0
X14.55 Y0 Z-7.75 I-0.45 J0
X15.45 Y0 Z-8 I0.45 J0
X14.55 Y0 Z-8.25 I-0.45 J0
X15.45 Y0 Z-8.5 I0.45 J0
X14.55 Y0 Z-8.75 I-0.45 J0
X15.45 Y0 Z-9 I0.45 J0
X14.55 Y0 Z-9.25 I-0.45 J0
X15.45 Y0 Z-9.5 I0.45 J0
X14.55 Y0 Z-9.75 I-0.45 J0
X15.45 Y0 Z-10 I0.45 J0
X14.55 Y0 Z-10.25 I-0.45 J0
X15.45 Y0 Z-10.5 I0.45 J0
X14.55 Y0 Z-10.75 I-0.45 J0
X15.45 Y0 Z-11 I0.45 J0
X14.55 Y0 Z-11.25 I-0.45 J0
X15.45 Y0 Z-11.5 I0.45 J0
X14.55 Y0 Z-11.75 I-0.45 J0
X15.45 Y0 Z-12 I0.45 J0
X14.55 Y0 Z-12.25 I-0.45 J0
X15.45 Y0 Z-12.5 I0.45 J0
X14.55 Y0 Z-12.75 I-0.45 J0
X14.636 Y-0.265 Z-12.8 I0.45 J0
X15.364 Y0.265 I0.364 J0.265
X14.636 Y-0.265 I-0.364 J-0.265
X14.95 Y-0.314 I0.182 J0.132
G1 X15.059 Y-0.235
X15.108 Y-0.2 Z-12.793
X15.154 Y-0.166 Z-12.773
X15.196 Y-0.136 Z-12.741
X15.23 Y-0.111 Z-12.698
X15.256 Y-0.092 Z-12.647
X15.272 Y-0.08 Z-12.59
X15.278 Y-0.076 Z-12.53
Z5
Z10
X14.875 Y-0.27
Z2
Z0.27
G18 G2 X15.145 Z0 I0.27 K0
G1 X15.28
G17 G3 X15.55 Y0 I0 J0.27
X14.45 Y0 Z-0.25 I-0.55 J0
X15.55 Y0 Z-0.5 I0.55 J0
X14.45 Y0 Z-0.75 I-0.55 J0
X15.55 Y0 Z-1 I0.55 J0
X14.45 Y0 Z-1.25 I-0.55 J0
X15.55 Y0 Z-1.5 I0.55 J0
X14.45 Y0 Z-1.75 I-0.55 J0
X15.55 Y0 Z-2 I0.55 J0
X14.45 Y0 Z-2.25 I-0.55 J0
X15.55 Y0 Z-2.5 I0.55 J0
X14.45 Y0 Z-2.75 I-0.55 J0
X15.55 Y0 Z-3 I0.55 J0
X14.45 Y0 Z-3.25 I-0.55 J0
X15.55 Y0 Z-3.5 I0.55 J0
X14.45 Y0 Z-3.75 I-0.55 J0
X15.55 Y0 Z-4 I0.55 J0
X14.45 Y0 Z-4.25 I-0.55 J0
X15.55 Y0 Z-4.5 I0.55 J0
X14.45 Y0 Z-4.75 I-0.55 J0
X15.55 Y0 Z-5 I0.55 J0
X14.45 Y0 Z-5.25 I-0.55 J0
X15.55 Y0 Z-5.5 I0.55 J0
X14.45 Y0 Z-5.75 I-0.55 J0
X15.55 Y0 Z-6 I0.55 J0
X14.45 Y0 Z-6.25 I-0.55 J0
X15.55 Y0 Z-6.5 I0.55 J0
X14.45 Y0 Z-6.75 I-0.55 J0
X15.55 Y0 Z-7 I0.55 J0
X14.45 Y0 Z-7.25 I-0.55 J0
X15.55 Y0 Z-7.5 I0.55 J0
X14.45 Y0 Z-7.75 I-0.55 J0
X15.55 Y0 Z-8 I0.55 J0
X14.45 Y0 Z-8.25 I-0.55 J0
X15.55 Y0 Z-8.5 I0.55 J0
X14.45 Y0 Z-8.75 I-0.55 J0
X15.55 Y0 Z-9 I0.55 J0
X14.45 Y0 Z-9.25 I-0.55 J0
X15.55 Y0 Z-9.5 I0.55 J0
X14.45 Y0 Z-9.75 I-0.55 J0
X15.55 Y0 Z-10 I0.55 J0
X14.45 Y0 Z-10.25 I-0.55 J0
X15.55 Y0 Z-10.5 I0.55 J0
X14.45 Y0 Z-10.75 I-0.55 J0
X15.55 Y0 Z-11 I0.55 J0
X14.45 Y0 Z-11.25 I-0.55 J0
X15.55 Y0 Z-11.5 I0.55 J0
X14.45 Y0 Z-11.75 I-0.55 J0
X15.55 Y0 Z-12 I0.55 J0
X14.45 Y0 Z-12.25 I-0.55 J0
X15.55 Y0 Z-12.5 I0.55 J0
X14.45 Y0 Z-12.75 I-0.55 J0
X14.555 Y-0.323 Z-12.8 I0.55 J0
X15.445 Y0.323 I0.445 J0.323
X14.555 Y-0.323 I-0.445 J-0.323
X14.932 Y-0.383 I0.218 J0.159
G1 X15.041 Y-0.304
X15.09 Y-0.268 Z-12.793
X15.136 Y-0.235 Z-12.773
X15.178 Y-0.205 Z-12.741
X15.212 Y-0.18 Z-12.698
X15.238 Y-0.161 Z-12.647
X15.254 Y-0.149 Z-12.59
X15.26 Y-0.145 Z-12.53
Z5
X14.875 Y-0.27
Z2
Z0.27
G18 G2 X15.145 Z0 I0.27 K0
G1 X15.28
G17 G3 X15.55 Y0 I0 J0.27
X14.45 Y0 Z-0.25 I-0.55 J0
X15.55 Y0 Z-0.5 I0.55 J0
X14.45 Y0 Z-0.75 I-0.55 J0
X15.55 Y0 Z-1 I0.55 J0
X14.45 Y0 Z-1.25 I-0.55 J0
X15.55 Y0 Z-1.5 I0.55 J0
X14.45 Y0 Z-1.75 I-0.55 J0
X15.55 Y0 Z-2 I0.55 J0
X14.45 Y0 Z-2.25 I-0.55 J0
X15.55 Y0 Z-2.5 I0.55 J0
X14.45 Y0 Z-2.75 I-0.55 J0
X15.55 Y0 Z-3 I0.55 J0
X14.45 Y0 Z-3.25 I-0.55 J0
X15.55 Y0 Z-3.5 I0.55 J0
X14.45 Y0 Z-3.75 I-0.55 J0
X15.55 Y0 Z-4 I0.55 J0
X14.45 Y0 Z-4.25 I-0.55 J0
X15.55 Y0 Z-4.5 I0.55 J0
X14.45 Y0 Z-4.75 I-0.55 J0
X15.55 Y0 Z-5 I0.55 J0
X14.45 Y0 Z-5.25 I-0.55 J0
X15.55 Y0 Z-5.5 I0.55 J0
X14.45 Y0 Z-5.75 I-0.55 J0
X15.55 Y0 Z-6 I0.55 J0
X14.45 Y0 Z-6.25 I-0.55 J0
X15.55 Y0 Z-6.5 I0.55 J0
X14.45 Y0 Z-6.75 I-0.55 J0
X15.55 Y0 Z-7 I0.55 J0
X14.45 Y0 Z-7.25 I-0.55 J0
X15.55 Y0 Z-7.5 I0.55 J0
X14.45 Y0 Z-7.75 I-0.55 J0
X15.55 Y0 Z-8 I0.55 J0
X14.45 Y0 Z-8.25 I-0.55 J0
X15.55 Y0 Z-8.5 I0.55 J0
X14.45 Y0 Z-8.75 I-0.55 J0
X15.55 Y0 Z-9 I0.55 J0
X14.45 Y0 Z-9.25 I-0.55 J0
X15.55 Y0 Z-9.5 I0.55 J0
X14.45 Y0 Z-9.75 I-0.55 J0
X15.55 Y0 Z-10 I0.55 J0
X14.45 Y0 Z-10.25 I-0.55 J0
X15.55 Y0 Z-10.5 I0.55 J0
X14.45 Y0 Z-10.75 I-0.55 J0
X15.55 Y0 Z-11 I0.55 J0
X14.45 Y0 Z-11.25 I-0.55 J0
X15.55 Y0 Z-11.5 I0.55 J0
X14.45 Y0 Z-11.75 I-0.55 J0
X15.55 Y0 Z-12 I0.55 J0
X14.45 Y0 Z-12.25 I-0.55 J0
X15.55 Y0 Z-12.5 I0.55 J0
X14.45 Y0 Z-12.75 I-0.55 J0
X14.555 Y-0.323 Z-12.8 I0.55 J0
X15.445 Y0.323 I0.445 J0.323
X14.555 Y-0.323 I-0.445 J-0.323
X14.932 Y-0.383 I0.218 J0.159
G1 X15.041 Y-0.304
X15.09 Y-0.268 Z-12.793
X15.136 Y-0.235 Z-12.773
X15.178 Y-0.205 Z-12.741
X15.212 Y-0.18 Z-12.698
X15.238 Y-0.161 Z-12.647
X15.254 Y-0.149 Z-12.59
X15.26 Y-0.145 Z-12.53
Z10
(When using Fusion 360 for Personal Use, the feedrate of)
(rapid moves is reduced to match the feedrate of cutting)
(moves, which can increase machining time. Unrestricted rapid)
(moves are available with a Fusion 360 Subscription.)

(Bore5 2)
G0 X29.808 Y-0.213
G1 Z10 F1000
Z2
Z0.27
G18 G2 X30.078 Z0 I0.27 K0
G1 X30.212
G17 G3 X30.425 Y0 I0 J0.213
X29.575 Y0 Z-0.25 I-0.425 J0
X30.425 Y0 Z-0.5 I0.425 J0
X29.575 Y0 Z-0.75 I-0.425 J0
X30.425 Y0 Z-1 I0.425 J0
X29.575 Y0 Z-1.25 I-0.425 J0
X30.425 Y0 Z-1.5 I0.425 J0
X29.575 Y0 Z-1.75 I-0.425 J0
X30.425 Y0 Z-2 I0.425 J0
X29.575 Y0 Z-2.25 I-0.425 J0
X30.425 Y0 Z-2.5 I0.425 J0
X29.575 Y0 Z-2.75 I-0.425 J0
X30.425 Y0 Z-3 I0.425 J0
X29.575 Y0 Z-3.25 I-0.425 J0
X30.425 Y0 Z-3.5 I0.425 J0
X29.575 Y0 Z-3.75 I-0.425 J0
X30.425 Y0 Z-4 I0.425 J0
X29.575 Y0 Z-4.25 I-0.425 J0
X30.425 Y0 Z-4.5 I0.425 J0
X29.575 Y0 Z-4.75 I-0.425 J0
X30.425 Y0 Z-5 I0.425 J0
X29.575 Y0 Z-5.25 I-0.425 J0
X30.425 Y0 Z-5.5 I0.425 J0
X29.575 Y0 Z-5.75 I-0.425 J0
X30.425 Y0 Z-6 I0.425 J0
X29.575 Y0 Z-6.25 I-0.425 J0
X30.425 Y0 Z-6.5 I0.425 J0
X29.575 Y0 Z-6.75 I-0.425 J0
X30.425 Y0 Z-7 I0.425 J0
X29.575 Y0 Z-7.25 I-0.425 J0
X30.425 Y0 Z-7.5 I0.425 J0
X29.575 Y0 Z-7.75 I-0.425 J0
X30.425 Y0 Z-8 I0.425 J0
X29.575 Y0 Z-8.25 I-0.425 J0
X30.425 Y0 Z-8.5 I0.425 J0
X29.575 Y0 Z-8.75 I-0.425 J0
X30.425 Y0 Z-9 I0.425 J0
X29.575 Y0 Z-9.25 I-0.425 J0
X30.425 Y0 Z-9.5 I0.425 J0
X29.575 Y0 Z-9.75 I-0.425 J0
X30.425 Y0 Z-10 I0.425 J0
X29.575 Y0 Z-10.25 I-0.425 J0
X30.425 Y0 Z-10.5 I0.425 J0
X29.575 Y0 Z-10.75 I-0.425 J0
X30.425 Y0 Z-11 I0.425 J0
X29.575 Y0 Z-11.25 I-0.425 J0
X30.425 Y0 Z-11.5 I0.425 J0
X29.575 Y0 Z-11.75 I-0.425 J0
X30.425 Y0 Z-12 I0.425 J0
X29.575 Y0 Z-12.25 I-0.425 J0
X30.425 Y0 Z-12.5 I0.425 J0
X29.575 Y0 Z-12.75 I-0.425 J0
X29.656 Y-0.25 Z-12.8 I0.425 J0
X30.344 Y0.25 I0.344 J0.25
X29.656 Y-0.25 I-0.344 J-0.25
X29.953 Y-0.297 I0.172 J0.125
G1 X30.062 Y-0.217
X30.111 Y-0.182 Z-12.793
X30.157 Y-0.149 Z-12.773
X30.198 Y-0.119 Z-12.741
X30.233 Y-0.093 Z-12.698
X30.259 Y-0.074 Z-12.647
X30.275 Y-0.063 Z-12.59
X30.281 Y-0.059 Z-12.53
Z5
Z10
X29.858 Y-0.262
Z2
Z0.27
G18 G2 X30.128 Z0 I0.27 K0
G1 X30.263
G17 G3 X30.525 Y0 I0 J0.262
X29.475 Y0 Z-0.25 I-0.525 J0
X30.525 Y0 Z-0.5 I0.525 J0
X29.475 Y0 Z-0.75 I-0.525 J0
X30.525 Y0 Z-1 I0.525 J0
X29.475 Y0 Z-1.25 I-0.525 J0
X30.525 Y0 Z-1.5 I0.525 J0
X29.475 Y0 Z-1.75 I-0.525 J0
X30.525 Y0 Z-2 I0.525 J0
X29.475 Y0 Z-2.25 I-0.525 J0
X30.525 Y0 Z-2.5 I0.525 J0
X29.475 Y0 Z-2.75 I-0.525 J0
X30.525 Y0 Z-3 I0.525 J0
X29.475 Y0 Z-3.25 I-0.525 J0
X30.525 Y0 Z-3.5 I0.525 J0
X29.475 Y0 Z-3.75 I-0.525 J0
X30.525 Y0 Z-4 I0.525 J0
X29.475 Y0 Z-4.25 I-0.525 J0
X30.525 Y0 Z-4.5 I0.525 J0
X29.475 Y0 Z-4.75 I-0.525 J0
X30.525 Y0 Z-5 I0.525 J0
X29.475 Y0 Z-5.25 I-0.525 J0
X30.525 Y0 Z-5.5 I0.525 J0
X29.475 Y0 Z-5.75 I-0.525 J0
X30.525 Y0 Z-6 I0.525 J0
X29.475 Y0 Z-6.25 I-0.525 J0
X30.525 Y0 Z-6.5 I0.525 J0
X29.475 Y0 Z-6.75 I-0.525 J0
X30.525 Y0 Z-7 I0.525 J0
X29.475 Y0 Z-7.25 I-0.525 J0
X30.525 Y0 Z-7.5 I0.525 J0
X29.475 Y0 Z-7.75 I-0.525 J0
X30.525 Y0 Z-8 I0.525 J0
X29.475 Y0 Z-8.25 I-0.525 J0
X30.525 Y0 Z-8.5 I0.525 J0
X29.475 Y0 Z-8.75 I-0.525 J0
X30.525 Y0 Z-9 I0.525 J0
X29.475 Y0 Z-9.25 I-0.525 J0
X30.525 Y0 Z-9.5 I0.525 J0
X29.475 Y0 Z-9.75 I-0.525 J0
X30.525 Y0 Z-10 I0.525 J0
X29.475 Y0 Z-10.25 I-0.525 J0
X30.525 Y0 Z-10.5 I0.525 J0
X29.475 Y0 Z-10.75 I-0.525 J0
X30.525 Y0 Z-11 I0.525 J0
X29.475 Y0 Z-11.25 I-0.525 J0
X30.525 Y0 Z-11.5 I0.525 J0
X29.475 Y0 Z-11.75 I-0.525 J0
X30.525 Y0 Z-12 I0.525 J0
X29.475 Y0 Z-12.25 I-0.525 J0
X30.525 Y0 Z-12.5 I0.525 J0
X29.475 Y0 Z-12.75 I-0.525 J0
X29.575 Y-0.309 Z-12.8 I0.525 J0
X30.425 Y0.309 I0.425 J0.309
X29.575 Y-0.309 I-0.425 J-0.309
X29.942 Y-0.367 I0.212 J0.154
G1 X30.051 Y-0.287
X30.1 Y-0.252 Z-12.793
X30.146 Y-0.218 Z-12.773
X30.187 Y-0.188 Z-12.741
X30.222 Y-0.163 Z-12.698
X30.248 Y-0.144 Z-12.647
X30.264 Y-0.133 Z-12.59
X30.27 Y-0.129 Z-12.53
Z5
X29.858 Y-0.262
Z2
Z0.27
G18 G2 X30.128 Z0 I0.27 K0
G1 X30.263
G17 G3 X30.525 Y0 I0 J0.262
X29.475 Y0 Z-0.25 I-0.525 J0
X30.525 Y0 Z-0.5 I0.525 J0
X29.475 Y0 Z-0.75 I-0.525 J0
X30.525 Y0 Z-1 I0.525 J0
X29.475 Y0 Z-1.25 I-0.525 J0
X30.525 Y0 Z-1.5 I0.525 J0
X29.475 Y0 Z-1.75 I-0.525 J0
X30.525 Y0 Z-2 I0.525 J0
X29.475 Y0 Z-2.25 I-0.525 J0
X30.525 Y0 Z-2.5 I0.525 J0
X29.475 Y0 Z-2.75 I-0.525 J0
X30.525 Y0 Z-3 I0.525 J0
X29.475 Y0 Z-3.25 I-0.525 J0
X30.525 Y0 Z-3.5 I0.525 J0
X29.475 Y0 Z-3.75 I-0.525 J0
X30.525 Y0 Z-4 I0.525 J0
X29.475 Y0 Z-4.25 I-0.525 J0
X30.525 Y0 Z-4.5 I0.525 J0
X29.475 Y0 Z-4.75 I-0.525 J0
X30.525 Y0 Z-5 I0.525 J0
X29.475 Y0 Z-5.25 I-0.525 J0
X30.525 Y0 Z-5.5 I0.525 J0
X29.475 Y0 Z-5.75 I-0.525 J0
X30.525 Y0 Z-6 I0.525 J0
X29.475 Y0 Z-6.25 I-0.525 J0
X30.525 Y0 Z-6.5 I0.525 J0
X29.475 Y0 Z-6.75 I-0.525 J0
X30.525 Y0 Z-7 I0.525 J0
X29.475 Y0 Z-7.25 I-0.525 J0
X30.525 Y0 Z-7.5 I0.525 J0
X29.475 Y0 Z-7.75 I-0.525 J0
X30.525 Y0 Z-8 I0.525 J0
X29.475 Y0 Z-8.25 I-0.525 J0
X30.525 Y0 Z-8.5 I0.525 J0
X29.475 Y0 Z-8.75 I-0.525 J0
X30.525 Y0 Z-9 I0.525 J0
X29.475 Y0 Z-9.25 I-0.525 J0
X30.525 Y0 Z-9.5 I0.525 J0
X29.475 Y0 Z-9.75 I-0.525 J0
X30.525 Y0 Z-10 I0.525 J0
X29.475 Y0 Z-10.25 I-0.525 J0
X30.525 Y0 Z-10.5 I0.525 J0
X29.475 Y0 Z-10.75 I-0.525 J0
X30.525 Y0 Z-11 I0.525 J0
X29.475 Y0 Z-11.25 I-0.525 J0
X30.525 Y0 Z-11.5 I0.525 J0
X29.475 Y0 Z-11.75 I-0.525 J0
X30.525 Y0 Z-12 I0.525 J0
X29.475 Y0 Z-12.25 I-0.525 J0
X30.525 Y0 Z-12.5 I0.525 J0
X29.475 Y0 Z-12.75 I-0.525 J0
X29.575 Y-0.309 Z-12.8 I0.525 J0
X30.425 Y0.309 I0.425 J0.309
X29.575 Y-0.309 I-0.425 J-0.309
X29.942 Y-0.367 I0.212 J0.154
G1 X30.051 Y-0.287
X30.1 Y-0.252 Z-12.793
X30.146 Y-0.218 Z-12.773
X30.187 Y-0.188 Z-12.741
X30.222 Y-0.163 Z-12.698
X30.248 Y-0.144 Z-12.647
X30.264 Y-0.133 Z-12.59
X30.27 Y-0.129 Z-12.53
Z10
(When using Fusion 360 for Personal Use, the feedrate of)
(rapid moves is reduced to match the feedrate of cutting)
(moves, which can increase machining time. Unrestricted rapid)
(moves are available with a Fusion 360 Subscription.)

(Bore5 3)
G0 X44.795 Y-0.2
G1 Z10 F1000
Z2
Z0.27
G18 G2 X45.065 Z0 I0.27 K0
G1 X45.2
G17 G3 X45.4 Y0 I0 J0.2
X44.6 Y0 Z-0.25 I-0.4 J0
X45.4 Y0 Z-0.5 I0.4 J0
X44.6 Y0 Z-0.75 I-0.4 J0
X45.4 Y0 Z-1 I0.4 J0
X44.6 Y0 Z-1.25 I-0.4 J0
X45.4 Y0 Z-1.5 I0.4 J0
X44.6 Y0 Z-1.75 I-0.4 J0
X45.4 Y0 Z-2 I0.4 J0
X44.6 Y0 Z-2.25 I-0.4 J0
X45.4 Y0 Z-2.5 I0.4 J0
X44.6 Y0 Z-2.75 I-0.4 J0
X45.4 Y0 Z-3 I0.4 J0
X44.6 Y0 Z-3.25 I-0.4 J0
X45.4 Y0 Z-3.5 I0.4 J0
X44.6 Y0 Z-3.75 I-0.4 J0
X45.4 Y0 Z-4 I0.4 J0
X44.6 Y0 Z-4.25 I-0.4 J0
X45.4 Y0 Z-4.5 I0.4 J0
X44.6 Y0 Z-4.75 I-0.4 J0
X45.4 Y0 Z-5 I0.4 J0
X44.6 Y0 Z-5.25 I-0.4 J0
X45.4 Y0 Z-5.5 I0.4 J0
X44.6 Y0 Z-5.75 I-0.4 J0
X45.4 Y0 Z-6 I0.4 J0
X44.6 Y0 Z-6.25 I-0.4 J0
X45.4 Y0 Z-6.5 I0.4 J0
X44.6 Y0 Z-6.75 I-0.4 J0
X45.4 Y0 Z-7 I0.4 J0
X44.6 Y0 Z-7.25 I-0.4 J0
X45.4 Y0 Z-7.5 I0.4 J0
X44.6 Y0 Z-7.75 I-0.4 J0
X45.4 Y0 Z-8 I0.4 J0
X44.6 Y0 Z-8.25 I-0.4 J0
X45.4 Y0 Z-8.5 I0.4 J0
X44.6 Y0 Z-8.75 I-0.4 J0
X45.4 Y0 Z-9 I0.4 J0
X44.6 Y0 Z-9.25 I-0.4 J0
X45.4 Y0 Z-9.5 I0.4 J0
X44.6 Y0 Z-9.75 I-0.4 J0
X45.4 Y0 Z-10 I0.4 J0
X44.6 Y0 Z-10.25 I-0.4 J0
X45.4 Y0 Z-10.5 I0.4 J0
X44.6 Y0 Z-10.75 I-0.4 J0
X45.4 Y0 Z-11 I0.4 J0
X44.6 Y0 Z-11.25 I-0.4 J0
X45.4 Y0 Z-11.5 I0.4 J0
X44.6 Y0 Z-11.75 I-0.4 J0
X45.4 Y0 Z-12 I0.4 J0
X44.6 Y0 Z-12.25 I-0.4 J0
X45.4 Y0 Z-12.5 I0.4 J0
X44.6 Y0 Z-12.75 I-0.4 J0
X44.676 Y-0.235 Z-12.8 I0.4 J0
X45.324 Y0.235 I0.324 J0.235
X44.676 Y-0.235 I-0.324 J-0.235
X44.956 Y-0.279 I0.162 J0.118
G1 X45.065 Y-0.2
X45.114 Y-0.165 Z-12.793
X45.16 Y-0.131 Z-12.773
X45.201 Y-0.101 Z-12.741
X45.236 Y-0.076 Z-12.698
X45.262 Y-0.057 Z-12.647
X45.278 Y-0.045 Z-12.59
X45.283 Y-0.041 Z-12.53
Z5
Z10
X44.845 Y-0.25
Z2
Z0.27
G18 G2 X45.115 Z0 I0.27 K0
G1 X45.25
G17 G3 X45.5 Y0 I0 J0.25
X44.5 Y0 Z-0.25 I-0.5 J0
X45.5 Y0 Z-0.5 I0.5 J0
X44.5 Y0 Z-0.75 I-0.5 J0
X45.5 Y0 Z-1 I0.5 J0
X44.5 Y0 Z-1.25 I-0.5 J0
X45.5 Y0 Z-1.5 I0.5 J0
X44.5 Y0 Z-1.75 I-0.5 J0
X45.5 Y0 Z-2 I0.5 J0
X44.5 Y0 Z-2.25 I-0.5 J0
X45.5 Y0 Z-2.5 I0.5 J0
X44.5 Y0 Z-2.75 I-0.5 J0
X45.5 Y0 Z-3 I0.5 J0
X44.5 Y0 Z-3.25 I-0.5 J0
X45.5 Y0 Z-3.5 I0.5 J0
X44.5 Y0 Z-3.75 I-0.5 J0
X45.5 Y0 Z-4 I0.5 J0
X44.5 Y0 Z-4.25 I-0.5 J0
X45.5 Y0 Z-4.5 I0.5 J0
X44.5 Y0 Z-4.75 I-0.5 J0
X45.5 Y0 Z-5 I0.5 J0
X44.5 Y0 Z-5.25 I-0.5 J0
X45.5 Y0 Z-5.5 I0.5 J0
X44.5 Y0 Z-5.75 I-0.5 J0
X45.5 Y0 Z-6 I0.5 J0
X44.5 Y0 Z-6.25 I-0.5 J0
X45.5 Y0 Z-6.5 I0.5 J0
X44.5 Y0 Z-6.75 I-0.5 J0
X45.5 Y0 Z-7 I0.5 J0
X44.5 Y0 Z-7.25 I-0.5 J0
X45.5 Y0 Z-7.5 I0.5 J0
X44.5 Y0 Z-7.75 I-0.5 J0
X45.5 Y0 Z-8 I0.5 J0
X44.5 Y0 Z-8.25 I-0.5 J0
X45.5 Y0 Z-8.5 I0.5 J0
X44.5 Y0 Z-8.75 I-0.5 J0
X45.5 Y0 Z-9 I0.5 J0
X44.5 Y0 Z-9.25 I-0.5 J0
X45.5 Y0 Z-9.5 I0.5 J0
X44.5 Y0 Z-9.75 I-0.5 J0
X45.5 Y0 Z-10 I0.5 J0
X44.5 Y0 Z-10.25 I-0.5 J0
X45.5 Y0 Z-10.5 I0.5 J0
X44.5 Y0 Z-10.75 I-0.5 J0
X45.5 Y0 Z-11 I0.5 J0
X44.5 Y0 Z-11.25 I-0.5 J0
X45.5 Y0 Z-11.5 I0.5 J0
X44.5 Y0 Z-11.75 I-0.5 J0
X45.5 Y0 Z-12 I0.5 J0
X44.5 Y0 Z-12.25 I-0.5 J0
X45.5 Y0 Z-12.5 I0.5 J0
X44.5 Y0 Z-12.75 I-0.5 J0
X44.595 Y-0.294 Z-12.8 I0.5 J0
X45.405 Y0.294 I0.405 J0.294
X44.595 Y-0.294 I-0.405 J-0.294
X44.945 Y-0.349 I0.202 J0.147
G1 X45.054 Y-0.27
X45.103 Y-0.235 Z-12.793
X45.149 Y-0.201 Z-12.773
X45.19 Y-0.171 Z-12.741
X45.225 Y-0.146 Z-12.698
X45.251 Y-0.127 Z-12.647
X45.267 Y-0.115 Z-12.59
X45.272 Y-0.111 Z-12.53
Z5
X44.845 Y-0.25
Z2
Z0.27
G18 G2 X45.115 Z0 I0.27 K0
G1 X45.25
G17 G3 X45.5 Y0 I0 J0.25
X44.5 Y0 Z-0.25 I-0.5 J0
X45.5 Y0 Z-0.5 I0.5 J0
X44.5 Y0 Z-0.75 I-0.5 J0
X45.5 Y0 Z-1 I0.5 J0
X44.5 Y0 Z-1.25 I-0.5 J0
X45.5 Y0 Z-1.5 I0.5 J0
X44.5 Y0 Z-1.75 I-0.5 J0
X45.5 Y0 Z-2 I0.5 J0
X44.5 Y0 Z-2.25 I-0.5 J0
X45.5 Y0 Z-2.5 I0.5 J0
X44.5 Y0 Z-2.75 I-0.5 J0
X45.5 Y0 Z-3 I0.5 J0
X44.5 Y0 Z-3.25 I-0.5 J0
X45.5 Y0 Z-3.5 I0.5 J0
X44.5 Y0 Z-3.75 I-0.5 J0
X45.5 Y0 Z-4 I0.5 J0
X44.5 Y0 Z-4.25 I-0.5 J0
X45.5 Y0 Z-4.5 I0.5 J0
X44.5 Y0 Z-4.75 I-0.5 J0
X45.5 Y0 Z-5 I0.5 J0
X44.5 Y0 Z-5.25 I-0.5 J0
X45.5 Y0 Z-5.5 I0.5 J0
X44.5 Y0 Z-5.75 I-0.5 J0
X45.5 Y0 Z-6 I0.5 J0
X44.5 Y0 Z-6.25 I-0.5 J0
X45.5 Y0 Z-6.5 I0.5 J0
X44.5 Y0 Z-6.75 I-0.5 J0
X45.5 Y0 Z-7 I0.5 J0
X44.5 Y0 Z-7.25 I-0.5 J0
X45.5 Y0 Z-7.5 I0.5 J0
X44.5 Y0 Z-7.75 I-0.5 J0
X45.5 Y0 Z-8 I0.5 J0
X44.5 Y0 Z-8.25 I-0.5 J0
X45.5 Y0 Z-8.5 I0.5 J0
X44.5 Y0 Z-8.75 I-0.5 J0
X45.5 Y0 Z-9 I0.5 J0
X44.5 Y0 Z-9.25 I-0.5 J0
X45.5 Y0 Z-9.5 I0.5 J0
X44.5 Y0 Z-9.75 I-0.5 J0
X45.5 Y0 Z-10 I0.5 J0
X44.5 Y0 Z-10.25 I-0.5 J0
X45.5 Y0 Z-10.5 I0.5 J0
X44.5 Y0 Z-10.75 I-0.5 J0
X45.5 Y0 Z-11 I0.5 J0
X44.5 Y0 Z-11.25 I-0.5 J0
X45.5 Y0 Z-11.5 I0.5 J0
X44.5 Y0 Z-11.75 I-0.5 J0
X45.5 Y0 Z-12 I0.5 J0
X44.5 Y0 Z-12.25 I-0.5 J0
X45.5 Y0 Z-12.5 I0.5 J0
X44.5 Y0 Z-12.75 I-0.5 J0
X44.595 Y-0.294 Z-12.8 I0.5 J0
X45.405 Y0.294 I0.405 J0.294
X44.595 Y-0.294 I-0.405 J-0.294
X44.945 Y-0.349 I0.202 J0.147
G1 X45.054 Y-0.27
X45.103 Y-0.235 Z-12.793
X45.149 Y-0.201 Z-12.773
X45.19 Y-0.171 Z-12.741
X45.225 Y-0.146 Z-12.698
X45.251 Y-0.127 Z-12.647
X45.267 Y-0.115 Z-12.59
X45.272 Y-0.111 Z-12.53
Z10
M5
M30
