(1104_bore_tests_500feed_smaller_holes)
(T1  D=2.7 CR=0 - ZMIN=-12.8 - flat end mill)
G90 G94
G17
G21
(When using Fusion 360 for Personal Use, the feedrate of)
(rapid moves is reduced to match the feedrate of cutting)
(moves, which can increase machining time. Unrestricted rapid)
(moves are available with a Fusion 360 Subscription.)

(Bore5)
T1
S5000 M3
G54
G0 X14.77 Y-0.175
Z10
G1 Z2 F500
Z0.27
G18 G2 X15.04 Z0 I0.27 K0
G1 X15.175
X15.22 Y-0.169
X15.263 Y-0.152
X15.299 Y-0.124
X15.327 Y-0.088
X15.344 Y-0.045
X15.35 Y0
G17 G3 X14.65 Y0 Z-0.25 I-0.35 J0
X15.35 Y0 Z-0.5 I0.35 J0
X14.65 Y0 Z-0.75 I-0.35 J0
X15.35 Y0 Z-1 I0.35 J0
X14.65 Y0 Z-1.25 I-0.35 J0
X15.35 Y0 Z-1.5 I0.35 J0
X14.65 Y0 Z-1.75 I-0.35 J0
X15.35 Y0 Z-2 I0.35 J0
X14.65 Y0 Z-2.25 I-0.35 J0
X15.35 Y0 Z-2.5 I0.35 J0
X14.65 Y0 Z-2.75 I-0.35 J0
X15.35 Y0 Z-3 I0.35 J0
X14.65 Y0 Z-3.25 I-0.35 J0
X15.35 Y0 Z-3.5 I0.35 J0
X14.65 Y0 Z-3.75 I-0.35 J0
X15.35 Y0 Z-4 I0.35 J0
X14.65 Y0 Z-4.25 I-0.35 J0
X15.35 Y0 Z-4.5 I0.35 J0
X14.65 Y0 Z-4.75 I-0.35 J0
X15.35 Y0 Z-5 I0.35 J0
X14.65 Y0 Z-5.25 I-0.35 J0
X15.35 Y0 Z-5.5 I0.35 J0
X14.65 Y0 Z-5.75 I-0.35 J0
X15.35 Y0 Z-6 I0.35 J0
X14.65 Y0 Z-6.25 I-0.35 J0
X15.35 Y0 Z-6.5 I0.35 J0
X14.65 Y0 Z-6.75 I-0.35 J0
X15.35 Y0 Z-7 I0.35 J0
X14.65 Y0 Z-7.25 I-0.35 J0
X15.35 Y0 Z-7.5 I0.35 J0
X14.65 Y0 Z-7.75 I-0.35 J0
X15.35 Y0 Z-8 I0.35 J0
X14.65 Y0 Z-8.25 I-0.35 J0
X15.35 Y0 Z-8.5 I0.35 J0
X14.65 Y0 Z-8.75 I-0.35 J0
X15.35 Y0 Z-9 I0.35 J0
X14.65 Y0 Z-9.25 I-0.35 J0
X15.35 Y0 Z-9.5 I0.35 J0
X14.65 Y0 Z-9.75 I-0.35 J0
X15.35 Y0 Z-10 I0.35 J0
X14.65 Y0 Z-10.25 I-0.35 J0
X15.35 Y0 Z-10.5 I0.35 J0
X14.65 Y0 Z-10.75 I-0.35 J0
X15.35 Y0 Z-11 I0.35 J0
X14.65 Y0 Z-11.25 I-0.35 J0
X15.35 Y0 Z-11.5 I0.35 J0
X14.65 Y0 Z-11.75 I-0.35 J0
X15.35 Y0 Z-12 I0.35 J0
X14.65 Y0 Z-12.25 I-0.35 J0
X15.35 Y0 Z-12.5 I0.35 J0
X14.65 Y0 Z-12.75 I-0.35 J0
X14.717 Y-0.206 Z-12.8 I0.35 J0
X15.283 Y0.206 I0.283 J0.206
X14.717 Y-0.206 I-0.283 J-0.206
G1 X14.748 Y-0.239
X14.787 Y-0.263
X14.831 Y-0.276
X14.877 Y-0.277
X14.921 Y-0.266
X14.961 Y-0.244
X15.071 Y-0.165
X15.119 Y-0.13 Z-12.793
X15.165 Y-0.096 Z-12.773
X15.207 Y-0.066 Z-12.741
X15.241 Y-0.041 Z-12.698
X15.267 Y-0.022 Z-12.647
X15.283 Y-0.01 Z-12.59
X15.289 Y-0.006 Z-12.53
Z5
Z10
X14.82 Y-0.225
Z2
Z0.27
G18 G2 X15.09 Z0 I0.27 K0
G1 X15.225
G17 G3 X15.45 Y0 I0 J0.225
X14.55 Y0 Z-0.25 I-0.45 J0
X15.45 Y0 Z-0.5 I0.45 J0
X14.55 Y0 Z-0.75 I-0.45 J0
X15.45 Y0 Z-1 I0.45 J0
X14.55 Y0 Z-1.25 I-0.45 J0
X15.45 Y0 Z-1.5 I0.45 J0
X14.55 Y0 Z-1.75 I-0.45 J0
X15.45 Y0 Z-2 I0.45 J0
X14.55 Y0 Z-2.25 I-0.45 J0
X15.45 Y0 Z-2.5 I0.45 J0
X14.55 Y0 Z-2.75 I-0.45 J0
X15.45 Y0 Z-3 I0.45 J0
X14.55 Y0 Z-3.25 I-0.45 J0
X15.45 Y0 Z-3.5 I0.45 J0
X14.55 Y0 Z-3.75 I-0.45 J0
X15.45 Y0 Z-4 I0.45 J0
X14.55 Y0 Z-4.25 I-0.45 J0
X15.45 Y0 Z-4.5 I0.45 J0
X14.55 Y0 Z-4.75 I-0.45 J0
X15.45 Y0 Z-5 I0.45 J0
X14.55 Y0 Z-5.25 I-0.45 J0
X15.45 Y0 Z-5.5 I0.45 J0
X14.55 Y0 Z-5.75 I-0.45 J0
X15.45 Y0 Z-6 I0.45 J0
X14.55 Y0 Z-6.25 I-0.45 J0
X15.45 Y0 Z-6.5 I0.45 J0
X14.55 Y0 Z-6.75 I-0.45 J0
X15.45 Y0 Z-7 I0.45 J0
X14.55 Y0 Z-7.25 I-0.45 J0
X15.45 Y0 Z-7.5 I0.45 J0
X14.55 Y0 Z-7.75 I-0.45 J0
X15.45 Y0 Z-8 I0.45 J0
X14.55 Y0 Z-8.25 I-0.45 J0
X15.45 Y0 Z-8.5 I0.45 J0
X14.55 Y0 Z-8.75 I-0.45 J0
X15.45 Y0 Z-9 I0.45 J0
X14.55 Y0 Z-9.25 I-0.45 J0
X15.45 Y0 Z-9.5 I0.45 J0
X14.55 Y0 Z-9.75 I-0.45 J0
X15.45 Y0 Z-10 I0.45 J0
X14.55 Y0 Z-10.25 I-0.45 J0
X15.45 Y0 Z-10.5 I0.45 J0
X14.55 Y0 Z-10.75 I-0.45 J0
X15.45 Y0 Z-11 I0.45 J0
X14.55 Y0 Z-11.25 I-0.45 J0
X15.45 Y0 Z-11.5 I0.45 J0
X14.55 Y0 Z-11.75 I-0.45 J0
X15.45 Y0 Z-12 I0.45 J0
X14.55 Y0 Z-12.25 I-0.45 J0
X15.45 Y0 Z-12.5 I0.45 J0
X14.55 Y0 Z-12.75 I-0.45 J0
X14.636 Y-0.265 Z-12.8 I0.45 J0
X15.364 Y0.265 I0.364 J0.265
X14.636 Y-0.265 I-0.364 J-0.265
X14.95 Y-0.314 I0.182 J0.132
G1 X15.059 Y-0.235
X15.108 Y-0.2 Z-12.793
X15.154 Y-0.166 Z-12.773
X15.196 Y-0.136 Z-12.741
X15.23 Y-0.111 Z-12.698
X15.256 Y-0.092 Z-12.647
X15.272 Y-0.08 Z-12.59
X15.278 Y-0.076 Z-12.53
Z5
X14.82 Y-0.225
Z2
Z0.27
G18 G2 X15.09 Z0 I0.27 K0
G1 X15.225
G17 G3 X15.45 Y0 I0 J0.225
X14.55 Y0 Z-0.25 I-0.45 J0
X15.45 Y0 Z-0.5 I0.45 J0
X14.55 Y0 Z-0.75 I-0.45 J0
X15.45 Y0 Z-1 I0.45 J0
X14.55 Y0 Z-1.25 I-0.45 J0
X15.45 Y0 Z-1.5 I0.45 J0
X14.55 Y0 Z-1.75 I-0.45 J0
X15.45 Y0 Z-2 I0.45 J0
X14.55 Y0 Z-2.25 I-0.45 J0
X15.45 Y0 Z-2.5 I0.45 J0
X14.55 Y0 Z-2.75 I-0.45 J0
X15.45 Y0 Z-3 I0.45 J0
X14.55 Y0 Z-3.25 I-0.45 J0
X15.45 Y0 Z-3.5 I0.45 J0
X14.55 Y0 Z-3.75 I-0.45 J0
X15.45 Y0 Z-4 I0.45 J0
X14.55 Y0 Z-4.25 I-0.45 J0
X15.45 Y0 Z-4.5 I0.45 J0
X14.55 Y0 Z-4.75 I-0.45 J0
X15.45 Y0 Z-5 I0.45 J0
X14.55 Y0 Z-5.25 I-0.45 J0
X15.45 Y0 Z-5.5 I0.45 J0
X14.55 Y0 Z-5.75 I-0.45 J0
X15.45 Y0 Z-6 I0.45 J0
X14.55 Y0 Z-6.25 I-0.45 J0
X15.45 Y0 Z-6.5 I0.45 J0
X14.55 Y0 Z-6.75 I-0.45 J0
X15.45 Y0 Z-7 I0.45 J0
X14.55 Y0 Z-7.25 I-0.45 J0
X15.45 Y0 Z-7.5 I0.45 J0
X14.55 Y0 Z-7.75 I-0.45 J0
X15.45 Y0 Z-8 I0.45 J0
X14.55 Y0 Z-8.25 I-0.45 J0
X15.45 Y0 Z-8.5 I0.45 J0
X14.55 Y0 Z-8.75 I-0.45 J0
X15.45 Y0 Z-9 I0.45 J0
X14.55 Y0 Z-9.25 I-0.45 J0
X15.45 Y0 Z-9.5 I0.45 J0
X14.55 Y0 Z-9.75 I-0.45 J0
X15.45 Y0 Z-10 I0.45 J0
X14.55 Y0 Z-10.25 I-0.45 J0
X15.45 Y0 Z-10.5 I0.45 J0
X14.55 Y0 Z-10.75 I-0.45 J0
X15.45 Y0 Z-11 I0.45 J0
X14.55 Y0 Z-11.25 I-0.45 J0
X15.45 Y0 Z-11.5 I0.45 J0
X14.55 Y0 Z-11.75 I-0.45 J0
X15.45 Y0 Z-12 I0.45 J0
X14.55 Y0 Z-12.25 I-0.45 J0
X15.45 Y0 Z-12.5 I0.45 J0
X14.55 Y0 Z-12.75 I-0.45 J0
X14.636 Y-0.265 Z-12.8 I0.45 J0
X15.364 Y0.265 I0.364 J0.265
X14.636 Y-0.265 I-0.364 J-0.265
X14.95 Y-0.314 I0.182 J0.132
G1 X15.059 Y-0.235
X15.108 Y-0.2 Z-12.793
X15.154 Y-0.166 Z-12.773
X15.196 Y-0.136 Z-12.741
X15.23 Y-0.111 Z-12.698
X15.256 Y-0.092 Z-12.647
X15.272 Y-0.08 Z-12.59
X15.278 Y-0.076 Z-12.53
Z10
(When using Fusion 360 for Personal Use, the feedrate of)
(rapid moves is reduced to match the feedrate of cutting)
(moves, which can increase machining time. Unrestricted rapid)
(moves are available with a Fusion 360 Subscription.)

(Bore5 2)
G0 X29.745 Y-0.15
G1 Z10 F500
Z2
Z0.27
G18 G2 X30.015 Z0 I0.27 K0
G1 X30.15
X30.196 Y-0.143
X30.238 Y-0.121
X30.271 Y-0.088
X30.293 Y-0.046
X30.3 Y0
G17 G3 X29.7 Y0 Z-0.25 I-0.3 J0
X30.3 Y0 Z-0.5 I0.3 J0
X29.7 Y0 Z-0.75 I-0.3 J0
X30.3 Y0 Z-1 I0.3 J0
X29.7 Y0 Z-1.25 I-0.3 J0
X30.3 Y0 Z-1.5 I0.3 J0
X29.7 Y0 Z-1.75 I-0.3 J0
X30.3 Y0 Z-2 I0.3 J0
X29.7 Y0 Z-2.25 I-0.3 J0
X30.3 Y0 Z-2.5 I0.3 J0
X29.7 Y0 Z-2.75 I-0.3 J0
X30.3 Y0 Z-3 I0.3 J0
X29.7 Y0 Z-3.25 I-0.3 J0
X30.3 Y0 Z-3.5 I0.3 J0
X29.7 Y0 Z-3.75 I-0.3 J0
X30.3 Y0 Z-4 I0.3 J0
X29.7 Y0 Z-4.25 I-0.3 J0
X30.3 Y0 Z-4.5 I0.3 J0
X29.7 Y0 Z-4.75 I-0.3 J0
X30.3 Y0 Z-5 I0.3 J0
X29.7 Y0 Z-5.25 I-0.3 J0
X30.3 Y0 Z-5.5 I0.3 J0
X29.7 Y0 Z-5.75 I-0.3 J0
X30.3 Y0 Z-6 I0.3 J0
X29.7 Y0 Z-6.25 I-0.3 J0
X30.3 Y0 Z-6.5 I0.3 J0
X29.7 Y0 Z-6.75 I-0.3 J0
X30.3 Y0 Z-7 I0.3 J0
X29.7 Y0 Z-7.25 I-0.3 J0
X30.3 Y0 Z-7.5 I0.3 J0
X29.7 Y0 Z-7.75 I-0.3 J0
X30.3 Y0 Z-8 I0.3 J0
X29.7 Y0 Z-8.25 I-0.3 J0
X30.3 Y0 Z-8.5 I0.3 J0
X29.7 Y0 Z-8.75 I-0.3 J0
X30.3 Y0 Z-9 I0.3 J0
X29.7 Y0 Z-9.25 I-0.3 J0
X30.3 Y0 Z-9.5 I0.3 J0
X29.7 Y0 Z-9.75 I-0.3 J0
X30.3 Y0 Z-10 I0.3 J0
X29.7 Y0 Z-10.25 I-0.3 J0
X30.3 Y0 Z-10.5 I0.3 J0
X29.7 Y0 Z-10.75 I-0.3 J0
X30.3 Y0 Z-11 I0.3 J0
X29.7 Y0 Z-11.25 I-0.3 J0
X30.3 Y0 Z-11.5 I0.3 J0
X29.7 Y0 Z-11.75 I-0.3 J0
X30.3 Y0 Z-12 I0.3 J0
X29.7 Y0 Z-12.25 I-0.3 J0
X30.3 Y0 Z-12.5 I0.3 J0
X29.7 Y0 Z-12.75 I-0.3 J0
X29.757 Y-0.176 Z-12.8 I0.3 J0
X30.243 Y0.176 I0.243 J0.176
X29.757 Y-0.176 I-0.243 J-0.176
G1 X29.79 Y-0.21
X29.832 Y-0.231
X29.879 Y-0.238
X29.925 Y-0.231
X29.967 Y-0.21
X30.076 Y-0.13
X30.125 Y-0.095 Z-12.793
X30.171 Y-0.061 Z-12.773
X30.212 Y-0.031 Z-12.741
X30.247 Y-0.006 Z-12.698
X30.273 Y0.013 Z-12.647
X30.289 Y0.025 Z-12.59
X30.294 Y0.029 Z-12.53
Z5
Z10
X29.795 Y-0.2
Z2
Z0.27
G18 G2 X30.065 Z0 I0.27 K0
G1 X30.2
G17 G3 X30.4 Y0 I0 J0.2
X29.6 Y0 Z-0.25 I-0.4 J0
X30.4 Y0 Z-0.5 I0.4 J0
X29.6 Y0 Z-0.75 I-0.4 J0
X30.4 Y0 Z-1 I0.4 J0
X29.6 Y0 Z-1.25 I-0.4 J0
X30.4 Y0 Z-1.5 I0.4 J0
X29.6 Y0 Z-1.75 I-0.4 J0
X30.4 Y0 Z-2 I0.4 J0
X29.6 Y0 Z-2.25 I-0.4 J0
X30.4 Y0 Z-2.5 I0.4 J0
X29.6 Y0 Z-2.75 I-0.4 J0
X30.4 Y0 Z-3 I0.4 J0
X29.6 Y0 Z-3.25 I-0.4 J0
X30.4 Y0 Z-3.5 I0.4 J0
X29.6 Y0 Z-3.75 I-0.4 J0
X30.4 Y0 Z-4 I0.4 J0
X29.6 Y0 Z-4.25 I-0.4 J0
X30.4 Y0 Z-4.5 I0.4 J0
X29.6 Y0 Z-4.75 I-0.4 J0
X30.4 Y0 Z-5 I0.4 J0
X29.6 Y0 Z-5.25 I-0.4 J0
X30.4 Y0 Z-5.5 I0.4 J0
X29.6 Y0 Z-5.75 I-0.4 J0
X30.4 Y0 Z-6 I0.4 J0
X29.6 Y0 Z-6.25 I-0.4 J0
X30.4 Y0 Z-6.5 I0.4 J0
X29.6 Y0 Z-6.75 I-0.4 J0
X30.4 Y0 Z-7 I0.4 J0
X29.6 Y0 Z-7.25 I-0.4 J0
X30.4 Y0 Z-7.5 I0.4 J0
X29.6 Y0 Z-7.75 I-0.4 J0
X30.4 Y0 Z-8 I0.4 J0
X29.6 Y0 Z-8.25 I-0.4 J0
X30.4 Y0 Z-8.5 I0.4 J0
X29.6 Y0 Z-8.75 I-0.4 J0
X30.4 Y0 Z-9 I0.4 J0
X29.6 Y0 Z-9.25 I-0.4 J0
X30.4 Y0 Z-9.5 I0.4 J0
X29.6 Y0 Z-9.75 I-0.4 J0
X30.4 Y0 Z-10 I0.4 J0
X29.6 Y0 Z-10.25 I-0.4 J0
X30.4 Y0 Z-10.5 I0.4 J0
X29.6 Y0 Z-10.75 I-0.4 J0
X30.4 Y0 Z-11 I0.4 J0
X29.6 Y0 Z-11.25 I-0.4 J0
X30.4 Y0 Z-11.5 I0.4 J0
X29.6 Y0 Z-11.75 I-0.4 J0
X30.4 Y0 Z-12 I0.4 J0
X29.6 Y0 Z-12.25 I-0.4 J0
X30.4 Y0 Z-12.5 I0.4 J0
X29.6 Y0 Z-12.75 I-0.4 J0
X29.676 Y-0.235 Z-12.8 I0.4 J0
X30.324 Y0.235 I0.324 J0.235
X29.676 Y-0.235 I-0.324 J-0.235
X29.956 Y-0.279 I0.162 J0.118
G1 X30.065 Y-0.2
X30.114 Y-0.165 Z-12.793
X30.16 Y-0.131 Z-12.773
X30.201 Y-0.101 Z-12.741
X30.236 Y-0.076 Z-12.698
X30.262 Y-0.057 Z-12.647
X30.278 Y-0.045 Z-12.59
X30.283 Y-0.041 Z-12.53
Z5
X29.795 Y-0.2
Z2
Z0.27
G18 G2 X30.065 Z0 I0.27 K0
G1 X30.2
G17 G3 X30.4 Y0 I0 J0.2
X29.6 Y0 Z-0.25 I-0.4 J0
X30.4 Y0 Z-0.5 I0.4 J0
X29.6 Y0 Z-0.75 I-0.4 J0
X30.4 Y0 Z-1 I0.4 J0
X29.6 Y0 Z-1.25 I-0.4 J0
X30.4 Y0 Z-1.5 I0.4 J0
X29.6 Y0 Z-1.75 I-0.4 J0
X30.4 Y0 Z-2 I0.4 J0
X29.6 Y0 Z-2.25 I-0.4 J0
X30.4 Y0 Z-2.5 I0.4 J0
X29.6 Y0 Z-2.75 I-0.4 J0
X30.4 Y0 Z-3 I0.4 J0
X29.6 Y0 Z-3.25 I-0.4 J0
X30.4 Y0 Z-3.5 I0.4 J0
X29.6 Y0 Z-3.75 I-0.4 J0
X30.4 Y0 Z-4 I0.4 J0
X29.6 Y0 Z-4.25 I-0.4 J0
X30.4 Y0 Z-4.5 I0.4 J0
X29.6 Y0 Z-4.75 I-0.4 J0
X30.4 Y0 Z-5 I0.4 J0
X29.6 Y0 Z-5.25 I-0.4 J0
X30.4 Y0 Z-5.5 I0.4 J0
X29.6 Y0 Z-5.75 I-0.4 J0
X30.4 Y0 Z-6 I0.4 J0
X29.6 Y0 Z-6.25 I-0.4 J0
X30.4 Y0 Z-6.5 I0.4 J0
X29.6 Y0 Z-6.75 I-0.4 J0
X30.4 Y0 Z-7 I0.4 J0
X29.6 Y0 Z-7.25 I-0.4 J0
X30.4 Y0 Z-7.5 I0.4 J0
X29.6 Y0 Z-7.75 I-0.4 J0
X30.4 Y0 Z-8 I0.4 J0
X29.6 Y0 Z-8.25 I-0.4 J0
X30.4 Y0 Z-8.5 I0.4 J0
X29.6 Y0 Z-8.75 I-0.4 J0
X30.4 Y0 Z-9 I0.4 J0
X29.6 Y0 Z-9.25 I-0.4 J0
X30.4 Y0 Z-9.5 I0.4 J0
X29.6 Y0 Z-9.75 I-0.4 J0
X30.4 Y0 Z-10 I0.4 J0
X29.6 Y0 Z-10.25 I-0.4 J0
X30.4 Y0 Z-10.5 I0.4 J0
X29.6 Y0 Z-10.75 I-0.4 J0
X30.4 Y0 Z-11 I0.4 J0
X29.6 Y0 Z-11.25 I-0.4 J0
X30.4 Y0 Z-11.5 I0.4 J0
X29.6 Y0 Z-11.75 I-0.4 J0
X30.4 Y0 Z-12 I0.4 J0
X29.6 Y0 Z-12.25 I-0.4 J0
X30.4 Y0 Z-12.5 I0.4 J0
X29.6 Y0 Z-12.75 I-0.4 J0
X29.676 Y-0.235 Z-12.8 I0.4 J0
X30.324 Y0.235 I0.324 J0.235
X29.676 Y-0.235 I-0.324 J-0.235
X29.956 Y-0.279 I0.162 J0.118
G1 X30.065 Y-0.2
X30.114 Y-0.165 Z-12.793
X30.16 Y-0.131 Z-12.773
X30.201 Y-0.101 Z-12.741
X30.236 Y-0.076 Z-12.698
X30.262 Y-0.057 Z-12.647
X30.278 Y-0.045 Z-12.59
X30.283 Y-0.041 Z-12.53
Z10
(When using Fusion 360 for Personal Use, the feedrate of)
(rapid moves is reduced to match the feedrate of cutting)
(moves, which can increase machining time. Unrestricted rapid)
(moves are available with a Fusion 360 Subscription.)

(Bore5 3)
G0 X44.99 Y-0.125
G1 Z10 F500
Z1.73
Z0
X45.125
X45.164 Y-0.119
X45.198 Y-0.101
X45.226 Y-0.073
X45.244 Y-0.039
X45.25 Y0
G3 X44.75 Y0 Z-0.25 I-0.25 J0
X45.25 Y0 Z-0.5 I0.25 J0
X44.75 Y0 Z-0.75 I-0.25 J0
X45.25 Y0 Z-1 I0.25 J0
X44.75 Y0 Z-1.25 I-0.25 J0
X45.25 Y0 Z-1.5 I0.25 J0
X44.75 Y0 Z-1.75 I-0.25 J0
X45.25 Y0 Z-2 I0.25 J0
X44.75 Y0 Z-2.25 I-0.25 J0
X45.25 Y0 Z-2.5 I0.25 J0
X44.75 Y0 Z-2.75 I-0.25 J0
X45.25 Y0 Z-3 I0.25 J0
X44.75 Y0 Z-3.25 I-0.25 J0
X45.25 Y0 Z-3.5 I0.25 J0
X44.75 Y0 Z-3.75 I-0.25 J0
X45.25 Y0 Z-4 I0.25 J0
X44.75 Y0 Z-4.25 I-0.25 J0
X45.25 Y0 Z-4.5 I0.25 J0
X44.75 Y0 Z-4.75 I-0.25 J0
X45.25 Y0 Z-5 I0.25 J0
X44.75 Y0 Z-5.25 I-0.25 J0
X45.25 Y0 Z-5.5 I0.25 J0
X44.75 Y0 Z-5.75 I-0.25 J0
X45.25 Y0 Z-6 I0.25 J0
X44.75 Y0 Z-6.25 I-0.25 J0
X45.25 Y0 Z-6.5 I0.25 J0
X44.75 Y0 Z-6.75 I-0.25 J0
X45.25 Y0 Z-7 I0.25 J0
X44.75 Y0 Z-7.25 I-0.25 J0
X45.25 Y0 Z-7.5 I0.25 J0
X44.75 Y0 Z-7.75 I-0.25 J0
X45.25 Y0 Z-8 I0.25 J0
X44.75 Y0 Z-8.25 I-0.25 J0
X45.25 Y0 Z-8.5 I0.25 J0
X44.75 Y0 Z-8.75 I-0.25 J0
X45.25 Y0 Z-9 I0.25 J0
X44.75 Y0 Z-9.25 I-0.25 J0
X45.25 Y0 Z-9.5 I0.25 J0
X44.75 Y0 Z-9.75 I-0.25 J0
X45.25 Y0 Z-10 I0.25 J0
X44.75 Y0 Z-10.25 I-0.25 J0
X45.25 Y0 Z-10.5 I0.25 J0
X44.75 Y0 Z-10.75 I-0.25 J0
X45.25 Y0 Z-11 I0.25 J0
X44.75 Y0 Z-11.25 I-0.25 J0
X45.25 Y0 Z-11.5 I0.25 J0
X44.75 Y0 Z-11.75 I-0.25 J0
X45.25 Y0 Z-12 I0.25 J0
X44.75 Y0 Z-12.25 I-0.25 J0
X45.25 Y0 Z-12.5 I0.25 J0
X44.75 Y0 Z-12.75 I-0.25 J0
X44.798 Y-0.147 Z-12.8 I0.25 J0
X45.202 Y0.147 I0.202 J0.147
X44.798 Y-0.147 I-0.202 J-0.147
G1 X44.825 Y-0.175
X44.86 Y-0.192
X44.899 Y-0.198
X44.938 Y-0.192
X44.972 Y-0.175
X45.082 Y-0.095
Z5
Z10
X44.77 Y-0.175
Z2
Z0.27
G18 G2 X45.04 Z0 I0.27 K0
G1 X45.175
X45.22 Y-0.169
X45.262 Y-0.152
X45.299 Y-0.124
X45.327 Y-0.088
X45.344 Y-0.045
X45.35 Y0
G17 G3 X44.65 Y0 Z-0.25 I-0.35 J0
X45.35 Y0 Z-0.5 I0.35 J0
X44.65 Y0 Z-0.75 I-0.35 J0
X45.35 Y0 Z-1 I0.35 J0
X44.65 Y0 Z-1.25 I-0.35 J0
X45.35 Y0 Z-1.5 I0.35 J0
X44.65 Y0 Z-1.75 I-0.35 J0
X45.35 Y0 Z-2 I0.35 J0
X44.65 Y0 Z-2.25 I-0.35 J0
X45.35 Y0 Z-2.5 I0.35 J0
X44.65 Y0 Z-2.75 I-0.35 J0
X45.35 Y0 Z-3 I0.35 J0
X44.65 Y0 Z-3.25 I-0.35 J0
X45.35 Y0 Z-3.5 I0.35 J0
X44.65 Y0 Z-3.75 I-0.35 J0
X45.35 Y0 Z-4 I0.35 J0
X44.65 Y0 Z-4.25 I-0.35 J0
X45.35 Y0 Z-4.5 I0.35 J0
X44.65 Y0 Z-4.75 I-0.35 J0
X45.35 Y0 Z-5 I0.35 J0
X44.65 Y0 Z-5.25 I-0.35 J0
X45.35 Y0 Z-5.5 I0.35 J0
X44.65 Y0 Z-5.75 I-0.35 J0
X45.35 Y0 Z-6 I0.35 J0
X44.65 Y0 Z-6.25 I-0.35 J0
X45.35 Y0 Z-6.5 I0.35 J0
X44.65 Y0 Z-6.75 I-0.35 J0
X45.35 Y0 Z-7 I0.35 J0
X44.65 Y0 Z-7.25 I-0.35 J0
X45.35 Y0 Z-7.5 I0.35 J0
X44.65 Y0 Z-7.75 I-0.35 J0
X45.35 Y0 Z-8 I0.35 J0
X44.65 Y0 Z-8.25 I-0.35 J0
X45.35 Y0 Z-8.5 I0.35 J0
X44.65 Y0 Z-8.75 I-0.35 J0
X45.35 Y0 Z-9 I0.35 J0
X44.65 Y0 Z-9.25 I-0.35 J0
X45.35 Y0 Z-9.5 I0.35 J0
X44.65 Y0 Z-9.75 I-0.35 J0
X45.35 Y0 Z-10 I0.35 J0
X44.65 Y0 Z-10.25 I-0.35 J0
X45.35 Y0 Z-10.5 I0.35 J0
X44.65 Y0 Z-10.75 I-0.35 J0
X45.35 Y0 Z-11 I0.35 J0
X44.65 Y0 Z-11.25 I-0.35 J0
X45.35 Y0 Z-11.5 I0.35 J0
X44.65 Y0 Z-11.75 I-0.35 J0
X45.35 Y0 Z-12 I0.35 J0
X44.65 Y0 Z-12.25 I-0.35 J0
X45.35 Y0 Z-12.5 I0.35 J0
X44.65 Y0 Z-12.75 I-0.35 J0
X44.717 Y-0.206 Z-12.8 I0.35 J0
X45.283 Y0.206 I0.283 J0.206
X44.717 Y-0.206 I-0.283 J-0.206
G1 X44.748 Y-0.239
X44.787 Y-0.263
X44.831 Y-0.276
X44.877 Y-0.277
X44.921 Y-0.266
X44.961 Y-0.244
X45.071 Y-0.165
X45.119 Y-0.13 Z-12.793
X45.165 Y-0.096 Z-12.773
X45.207 Y-0.066 Z-12.741
X45.241 Y-0.041 Z-12.698
X45.267 Y-0.022 Z-12.647
X45.283 Y-0.01 Z-12.59
X45.289 Y-0.006 Z-12.53
Z5
X44.77 Y-0.175
Z2
Z0.27
G18 G2 X45.04 Z0 I0.27 K0
G1 X45.175
X45.22 Y-0.169
X45.262 Y-0.152
X45.299 Y-0.124
X45.327 Y-0.088
X45.344 Y-0.045
X45.35 Y0
G17 G3 X44.65 Y0 Z-0.25 I-0.35 J0
X45.35 Y0 Z-0.5 I0.35 J0
X44.65 Y0 Z-0.75 I-0.35 J0
X45.35 Y0 Z-1 I0.35 J0
X44.65 Y0 Z-1.25 I-0.35 J0
X45.35 Y0 Z-1.5 I0.35 J0
X44.65 Y0 Z-1.75 I-0.35 J0
X45.35 Y0 Z-2 I0.35 J0
X44.65 Y0 Z-2.25 I-0.35 J0
X45.35 Y0 Z-2.5 I0.35 J0
X44.65 Y0 Z-2.75 I-0.35 J0
X45.35 Y0 Z-3 I0.35 J0
X44.65 Y0 Z-3.25 I-0.35 J0
X45.35 Y0 Z-3.5 I0.35 J0
X44.65 Y0 Z-3.75 I-0.35 J0
X45.35 Y0 Z-4 I0.35 J0
X44.65 Y0 Z-4.25 I-0.35 J0
X45.35 Y0 Z-4.5 I0.35 J0
X44.65 Y0 Z-4.75 I-0.35 J0
X45.35 Y0 Z-5 I0.35 J0
X44.65 Y0 Z-5.25 I-0.35 J0
X45.35 Y0 Z-5.5 I0.35 J0
X44.65 Y0 Z-5.75 I-0.35 J0
X45.35 Y0 Z-6 I0.35 J0
X44.65 Y0 Z-6.25 I-0.35 J0
X45.35 Y0 Z-6.5 I0.35 J0
X44.65 Y0 Z-6.75 I-0.35 J0
X45.35 Y0 Z-7 I0.35 J0
X44.65 Y0 Z-7.25 I-0.35 J0
X45.35 Y0 Z-7.5 I0.35 J0
X44.65 Y0 Z-7.75 I-0.35 J0
X45.35 Y0 Z-8 I0.35 J0
X44.65 Y0 Z-8.25 I-0.35 J0
X45.35 Y0 Z-8.5 I0.35 J0
X44.65 Y0 Z-8.75 I-0.35 J0
X45.35 Y0 Z-9 I0.35 J0
X44.65 Y0 Z-9.25 I-0.35 J0
X45.35 Y0 Z-9.5 I0.35 J0
X44.65 Y0 Z-9.75 I-0.35 J0
X45.35 Y0 Z-10 I0.35 J0
X44.65 Y0 Z-10.25 I-0.35 J0
X45.35 Y0 Z-10.5 I0.35 J0
X44.65 Y0 Z-10.75 I-0.35 J0
X45.35 Y0 Z-11 I0.35 J0
X44.65 Y0 Z-11.25 I-0.35 J0
X45.35 Y0 Z-11.5 I0.35 J0
X44.65 Y0 Z-11.75 I-0.35 J0
X45.35 Y0 Z-12 I0.35 J0
X44.65 Y0 Z-12.25 I-0.35 J0
X45.35 Y0 Z-12.5 I0.35 J0
X44.65 Y0 Z-12.75 I-0.35 J0
X44.717 Y-0.206 Z-12.8 I0.35 J0
X45.283 Y0.206 I0.283 J0.206
X44.717 Y-0.206 I-0.283 J-0.206
G1 X44.748 Y-0.239
X44.787 Y-0.263
X44.831 Y-0.276
X44.877 Y-0.277
X44.921 Y-0.266
X44.961 Y-0.244
X45.071 Y-0.165
X45.119 Y-0.13 Z-12.793
X45.165 Y-0.096 Z-12.773
X45.207 Y-0.066 Z-12.741
X45.241 Y-0.041 Z-12.698
X45.267 Y-0.022 Z-12.647
X45.283 Y-0.01 Z-12.59
X45.289 Y-0.006 Z-12.53
Z10
M5
M30
