(1105_bore_test_27bit_35_diam_80feed)
(T1  D=2.7 CR=0 - ZMIN=-12.8 - flat end mill)
G90 G94
G17
G21
(When using Fusion 360 for Personal Use, the feedrate of)
(rapid moves is reduced to match the feedrate of cutting)
(moves, which can increase machining time. Unrestricted rapid)
(moves are available with a Fusion 360 Subscription.)

(Bore5 2)
T1
S5000 M3
G54
G0 X29.745 Y-0.15
Z10
G1 Z2 F80
Z0.27
G18 G2 X30.015 Z0 I0.27 K0
G1 X30.15
X30.196 Y-0.143
X30.238 Y-0.121
X30.271 Y-0.088
X30.293 Y-0.046
X30.3 Y0
G17 G3 X29.7 Y0 Z-0.25 I-0.3 J0
X30.3 Y0 Z-0.5 I0.3 J0
X29.7 Y0 Z-0.75 I-0.3 J0
X30.3 Y0 Z-1 I0.3 J0
X29.7 Y0 Z-1.25 I-0.3 J0
X30.3 Y0 Z-1.5 I0.3 J0
X29.7 Y0 Z-1.75 I-0.3 J0
X30.3 Y0 Z-2 I0.3 J0
X29.7 Y0 Z-2.25 I-0.3 J0
X30.3 Y0 Z-2.5 I0.3 J0
X29.7 Y0 Z-2.75 I-0.3 J0
X30.3 Y0 Z-3 I0.3 J0
X29.7 Y0 Z-3.25 I-0.3 J0
X30.3 Y0 Z-3.5 I0.3 J0
X29.7 Y0 Z-3.75 I-0.3 J0
X30.3 Y0 Z-4 I0.3 J0
X29.7 Y0 Z-4.25 I-0.3 J0
X30.3 Y0 Z-4.5 I0.3 J0
X29.7 Y0 Z-4.75 I-0.3 J0
X30.3 Y0 Z-5 I0.3 J0
X29.7 Y0 Z-5.25 I-0.3 J0
X30.3 Y0 Z-5.5 I0.3 J0
X29.7 Y0 Z-5.75 I-0.3 J0
X30.3 Y0 Z-6 I0.3 J0
X29.7 Y0 Z-6.25 I-0.3 J0
X30.3 Y0 Z-6.5 I0.3 J0
X29.7 Y0 Z-6.75 I-0.3 J0
X30.3 Y0 Z-7 I0.3 J0
X29.7 Y0 Z-7.25 I-0.3 J0
X30.3 Y0 Z-7.5 I0.3 J0
X29.7 Y0 Z-7.75 I-0.3 J0
X30.3 Y0 Z-8 I0.3 J0
X29.7 Y0 Z-8.25 I-0.3 J0
X30.3 Y0 Z-8.5 I0.3 J0
X29.7 Y0 Z-8.75 I-0.3 J0
X30.3 Y0 Z-9 I0.3 J0
X29.7 Y0 Z-9.25 I-0.3 J0
X30.3 Y0 Z-9.5 I0.3 J0
X29.7 Y0 Z-9.75 I-0.3 J0
X30.3 Y0 Z-10 I0.3 J0
X29.7 Y0 Z-10.25 I-0.3 J0
X30.3 Y0 Z-10.5 I0.3 J0
X29.7 Y0 Z-10.75 I-0.3 J0
X30.3 Y0 Z-11 I0.3 J0
X29.7 Y0 Z-11.25 I-0.3 J0
X30.3 Y0 Z-11.5 I0.3 J0
X29.7 Y0 Z-11.75 I-0.3 J0
X30.3 Y0 Z-12 I0.3 J0
X29.7 Y0 Z-12.25 I-0.3 J0
X30.3 Y0 Z-12.5 I0.3 J0
X29.7 Y0 Z-12.75 I-0.3 J0
X29.757 Y-0.176 Z-12.8 I0.3 J0
X30.243 Y0.176 I0.243 J0.176
X29.757 Y-0.176 I-0.243 J-0.176
G1 X29.79 Y-0.21
X29.832 Y-0.231
X29.879 Y-0.238
X29.925 Y-0.231
X29.967 Y-0.21
X30.076 Y-0.13
X30.125 Y-0.095 Z-12.793
X30.171 Y-0.061 Z-12.773
X30.212 Y-0.031 Z-12.741
X30.247 Y-0.006 Z-12.698
X30.273 Y0.013 Z-12.647
X30.289 Y0.025 Z-12.59
X30.294 Y0.029 Z-12.53
Z5
Z10
X29.795 Y-0.2
Z2
Z0.27
G18 G2 X30.065 Z0 I0.27 K0
G1 X30.2
G17 G3 X30.4 Y0 I0 J0.2
X29.6 Y0 Z-0.25 I-0.4 J0
X30.4 Y0 Z-0.5 I0.4 J0
X29.6 Y0 Z-0.75 I-0.4 J0
X30.4 Y0 Z-1 I0.4 J0
X29.6 Y0 Z-1.25 I-0.4 J0
X30.4 Y0 Z-1.5 I0.4 J0
X29.6 Y0 Z-1.75 I-0.4 J0
X30.4 Y0 Z-2 I0.4 J0
X29.6 Y0 Z-2.25 I-0.4 J0
X30.4 Y0 Z-2.5 I0.4 J0
X29.6 Y0 Z-2.75 I-0.4 J0
X30.4 Y0 Z-3 I0.4 J0
X29.6 Y0 Z-3.25 I-0.4 J0
X30.4 Y0 Z-3.5 I0.4 J0
X29.6 Y0 Z-3.75 I-0.4 J0
X30.4 Y0 Z-4 I0.4 J0
X29.6 Y0 Z-4.25 I-0.4 J0
X30.4 Y0 Z-4.5 I0.4 J0
X29.6 Y0 Z-4.75 I-0.4 J0
X30.4 Y0 Z-5 I0.4 J0
X29.6 Y0 Z-5.25 I-0.4 J0
X30.4 Y0 Z-5.5 I0.4 J0
X29.6 Y0 Z-5.75 I-0.4 J0
X30.4 Y0 Z-6 I0.4 J0
X29.6 Y0 Z-6.25 I-0.4 J0
X30.4 Y0 Z-6.5 I0.4 J0
X29.6 Y0 Z-6.75 I-0.4 J0
X30.4 Y0 Z-7 I0.4 J0
X29.6 Y0 Z-7.25 I-0.4 J0
X30.4 Y0 Z-7.5 I0.4 J0
X29.6 Y0 Z-7.75 I-0.4 J0
X30.4 Y0 Z-8 I0.4 J0
X29.6 Y0 Z-8.25 I-0.4 J0
X30.4 Y0 Z-8.5 I0.4 J0
X29.6 Y0 Z-8.75 I-0.4 J0
X30.4 Y0 Z-9 I0.4 J0
X29.6 Y0 Z-9.25 I-0.4 J0
X30.4 Y0 Z-9.5 I0.4 J0
X29.6 Y0 Z-9.75 I-0.4 J0
X30.4 Y0 Z-10 I0.4 J0
X29.6 Y0 Z-10.25 I-0.4 J0
X30.4 Y0 Z-10.5 I0.4 J0
X29.6 Y0 Z-10.75 I-0.4 J0
X30.4 Y0 Z-11 I0.4 J0
X29.6 Y0 Z-11.25 I-0.4 J0
X30.4 Y0 Z-11.5 I0.4 J0
X29.6 Y0 Z-11.75 I-0.4 J0
X30.4 Y0 Z-12 I0.4 J0
X29.6 Y0 Z-12.25 I-0.4 J0
X30.4 Y0 Z-12.5 I0.4 J0
X29.6 Y0 Z-12.75 I-0.4 J0
X29.676 Y-0.235 Z-12.8 I0.4 J0
X30.324 Y0.235 I0.324 J0.235
X29.676 Y-0.235 I-0.324 J-0.235
X29.956 Y-0.279 I0.162 J0.118
G1 X30.065 Y-0.2
X30.114 Y-0.165 Z-12.793
X30.16 Y-0.131 Z-12.773
X30.201 Y-0.101 Z-12.741
X30.236 Y-0.076 Z-12.698
X30.262 Y-0.057 Z-12.647
X30.278 Y-0.045 Z-12.59
X30.283 Y-0.041 Z-12.53
Z5
X29.795 Y-0.2
Z2
Z0.27
G18 G2 X30.065 Z0 I0.27 K0
G1 X30.2
G17 G3 X30.4 Y0 I0 J0.2
X29.6 Y0 Z-0.25 I-0.4 J0
X30.4 Y0 Z-0.5 I0.4 J0
X29.6 Y0 Z-0.75 I-0.4 J0
X30.4 Y0 Z-1 I0.4 J0
X29.6 Y0 Z-1.25 I-0.4 J0
X30.4 Y0 Z-1.5 I0.4 J0
X29.6 Y0 Z-1.75 I-0.4 J0
X30.4 Y0 Z-2 I0.4 J0
X29.6 Y0 Z-2.25 I-0.4 J0
X30.4 Y0 Z-2.5 I0.4 J0
X29.6 Y0 Z-2.75 I-0.4 J0
X30.4 Y0 Z-3 I0.4 J0
X29.6 Y0 Z-3.25 I-0.4 J0
X30.4 Y0 Z-3.5 I0.4 J0
X29.6 Y0 Z-3.75 I-0.4 J0
X30.4 Y0 Z-4 I0.4 J0
X29.6 Y0 Z-4.25 I-0.4 J0
X30.4 Y0 Z-4.5 I0.4 J0
X29.6 Y0 Z-4.75 I-0.4 J0
X30.4 Y0 Z-5 I0.4 J0
X29.6 Y0 Z-5.25 I-0.4 J0
X30.4 Y0 Z-5.5 I0.4 J0
X29.6 Y0 Z-5.75 I-0.4 J0
X30.4 Y0 Z-6 I0.4 J0
X29.6 Y0 Z-6.25 I-0.4 J0
X30.4 Y0 Z-6.5 I0.4 J0
X29.6 Y0 Z-6.75 I-0.4 J0
X30.4 Y0 Z-7 I0.4 J0
X29.6 Y0 Z-7.25 I-0.4 J0
X30.4 Y0 Z-7.5 I0.4 J0
X29.6 Y0 Z-7.75 I-0.4 J0
X30.4 Y0 Z-8 I0.4 J0
X29.6 Y0 Z-8.25 I-0.4 J0
X30.4 Y0 Z-8.5 I0.4 J0
X29.6 Y0 Z-8.75 I-0.4 J0
X30.4 Y0 Z-9 I0.4 J0
X29.6 Y0 Z-9.25 I-0.4 J0
X30.4 Y0 Z-9.5 I0.4 J0
X29.6 Y0 Z-9.75 I-0.4 J0
X30.4 Y0 Z-10 I0.4 J0
X29.6 Y0 Z-10.25 I-0.4 J0
X30.4 Y0 Z-10.5 I0.4 J0
X29.6 Y0 Z-10.75 I-0.4 J0
X30.4 Y0 Z-11 I0.4 J0
X29.6 Y0 Z-11.25 I-0.4 J0
X30.4 Y0 Z-11.5 I0.4 J0
X29.6 Y0 Z-11.75 I-0.4 J0
X30.4 Y0 Z-12 I0.4 J0
X29.6 Y0 Z-12.25 I-0.4 J0
X30.4 Y0 Z-12.5 I0.4 J0
X29.6 Y0 Z-12.75 I-0.4 J0
X29.676 Y-0.235 Z-12.8 I0.4 J0
X30.324 Y0.235 I0.324 J0.235
X29.676 Y-0.235 I-0.324 J-0.235
X29.956 Y-0.279 I0.162 J0.118
G1 X30.065 Y-0.2
X30.114 Y-0.165 Z-12.793
X30.16 Y-0.131 Z-12.773
X30.201 Y-0.101 Z-12.741
X30.236 Y-0.076 Z-12.698
X30.262 Y-0.057 Z-12.647
X30.278 Y-0.045 Z-12.59
X30.283 Y-0.041 Z-12.53
Z10
M5
M30
