(1106_27bit_34diam)
(T1  D=2.7 CR=0 - ZMIN=-12.8 - flat end mill)
G90 G94
G17
G21
(When using Fusion 360 for Personal Use, the feedrate of)
(rapid moves is reduced to match the feedrate of cutting)
(moves, which can increase machining time. Unrestricted rapid)
(moves are available with a Fusion 360 Subscription.)

(Bore5)
T1
S5000 M3
G54
G0 X14.99 Y-0.125
Z10
G1 Z1.73 F80
Z0
X15.125
X15.164 Y-0.119
X15.198 Y-0.101
X15.226 Y-0.073
X15.244 Y-0.039
X15.25 Y0
G3 X14.75 Y0 Z-0.25 I-0.25 J0
X15.25 Y0 Z-0.5 I0.25 J0
X14.75 Y0 Z-0.75 I-0.25 J0
X15.25 Y0 Z-1 I0.25 J0
X14.75 Y0 Z-1.25 I-0.25 J0
X15.25 Y0 Z-1.5 I0.25 J0
X14.75 Y0 Z-1.75 I-0.25 J0
X15.25 Y0 Z-2 I0.25 J0
X14.75 Y0 Z-2.25 I-0.25 J0
X15.25 Y0 Z-2.5 I0.25 J0
X14.75 Y0 Z-2.75 I-0.25 J0
X15.25 Y0 Z-3 I0.25 J0
X14.75 Y0 Z-3.25 I-0.25 J0
X15.25 Y0 Z-3.5 I0.25 J0
X14.75 Y0 Z-3.75 I-0.25 J0
X15.25 Y0 Z-4 I0.25 J0
X14.75 Y0 Z-4.25 I-0.25 J0
X15.25 Y0 Z-4.5 I0.25 J0
X14.75 Y0 Z-4.75 I-0.25 J0
X15.25 Y0 Z-5 I0.25 J0
X14.75 Y0 Z-5.25 I-0.25 J0
X15.25 Y0 Z-5.5 I0.25 J0
X14.75 Y0 Z-5.75 I-0.25 J0
X15.25 Y0 Z-6 I0.25 J0
X14.75 Y0 Z-6.25 I-0.25 J0
X15.25 Y0 Z-6.5 I0.25 J0
X14.75 Y0 Z-6.75 I-0.25 J0
X15.25 Y0 Z-7 I0.25 J0
X14.75 Y0 Z-7.25 I-0.25 J0
X15.25 Y0 Z-7.5 I0.25 J0
X14.75 Y0 Z-7.75 I-0.25 J0
X15.25 Y0 Z-8 I0.25 J0
X14.75 Y0 Z-8.25 I-0.25 J0
X15.25 Y0 Z-8.5 I0.25 J0
X14.75 Y0 Z-8.75 I-0.25 J0
X15.25 Y0 Z-9 I0.25 J0
X14.75 Y0 Z-9.25 I-0.25 J0
X15.25 Y0 Z-9.5 I0.25 J0
X14.75 Y0 Z-9.75 I-0.25 J0
X15.25 Y0 Z-10 I0.25 J0
X14.75 Y0 Z-10.25 I-0.25 J0
X15.25 Y0 Z-10.5 I0.25 J0
X14.75 Y0 Z-10.75 I-0.25 J0
X15.25 Y0 Z-11 I0.25 J0
X14.75 Y0 Z-11.25 I-0.25 J0
X15.25 Y0 Z-11.5 I0.25 J0
X14.75 Y0 Z-11.75 I-0.25 J0
X15.25 Y0 Z-12 I0.25 J0
X14.75 Y0 Z-12.25 I-0.25 J0
X15.25 Y0 Z-12.5 I0.25 J0
X14.75 Y0 Z-12.75 I-0.25 J0
X14.798 Y-0.147 Z-12.8 I0.25 J0
X15.202 Y0.147 I0.202 J0.147
X14.798 Y-0.147 I-0.202 J-0.147
G1 X14.825 Y-0.175
X14.86 Y-0.192
X14.899 Y-0.198
X14.938 Y-0.192
X14.972 Y-0.175
X15.082 Y-0.095
Z5
Z10
X14.77 Y-0.175
Z2
Z0.27
G18 G2 X15.04 Z0 I0.27 K0
G1 X15.175
X15.22 Y-0.169
X15.263 Y-0.152
X15.299 Y-0.124
X15.327 Y-0.088
X15.344 Y-0.045
X15.35 Y0
G17 G3 X14.65 Y0 Z-0.25 I-0.35 J0
X15.35 Y0 Z-0.5 I0.35 J0
X14.65 Y0 Z-0.75 I-0.35 J0
X15.35 Y0 Z-1 I0.35 J0
X14.65 Y0 Z-1.25 I-0.35 J0
X15.35 Y0 Z-1.5 I0.35 J0
X14.65 Y0 Z-1.75 I-0.35 J0
X15.35 Y0 Z-2 I0.35 J0
X14.65 Y0 Z-2.25 I-0.35 J0
X15.35 Y0 Z-2.5 I0.35 J0
X14.65 Y0 Z-2.75 I-0.35 J0
X15.35 Y0 Z-3 I0.35 J0
X14.65 Y0 Z-3.25 I-0.35 J0
X15.35 Y0 Z-3.5 I0.35 J0
X14.65 Y0 Z-3.75 I-0.35 J0
X15.35 Y0 Z-4 I0.35 J0
X14.65 Y0 Z-4.25 I-0.35 J0
X15.35 Y0 Z-4.5 I0.35 J0
X14.65 Y0 Z-4.75 I-0.35 J0
X15.35 Y0 Z-5 I0.35 J0
X14.65 Y0 Z-5.25 I-0.35 J0
X15.35 Y0 Z-5.5 I0.35 J0
X14.65 Y0 Z-5.75 I-0.35 J0
X15.35 Y0 Z-6 I0.35 J0
X14.65 Y0 Z-6.25 I-0.35 J0
X15.35 Y0 Z-6.5 I0.35 J0
X14.65 Y0 Z-6.75 I-0.35 J0
X15.35 Y0 Z-7 I0.35 J0
X14.65 Y0 Z-7.25 I-0.35 J0
X15.35 Y0 Z-7.5 I0.35 J0
X14.65 Y0 Z-7.75 I-0.35 J0
X15.35 Y0 Z-8 I0.35 J0
X14.65 Y0 Z-8.25 I-0.35 J0
X15.35 Y0 Z-8.5 I0.35 J0
X14.65 Y0 Z-8.75 I-0.35 J0
X15.35 Y0 Z-9 I0.35 J0
X14.65 Y0 Z-9.25 I-0.35 J0
X15.35 Y0 Z-9.5 I0.35 J0
X14.65 Y0 Z-9.75 I-0.35 J0
X15.35 Y0 Z-10 I0.35 J0
X14.65 Y0 Z-10.25 I-0.35 J0
X15.35 Y0 Z-10.5 I0.35 J0
X14.65 Y0 Z-10.75 I-0.35 J0
X15.35 Y0 Z-11 I0.35 J0
X14.65 Y0 Z-11.25 I-0.35 J0
X15.35 Y0 Z-11.5 I0.35 J0
X14.65 Y0 Z-11.75 I-0.35 J0
X15.35 Y0 Z-12 I0.35 J0
X14.65 Y0 Z-12.25 I-0.35 J0
X15.35 Y0 Z-12.5 I0.35 J0
X14.65 Y0 Z-12.75 I-0.35 J0
X14.717 Y-0.206 Z-12.8 I0.35 J0
X15.283 Y0.206 I0.283 J0.206
X14.717 Y-0.206 I-0.283 J-0.206
G1 X14.748 Y-0.239
X14.787 Y-0.263
X14.831 Y-0.276
X14.877 Y-0.277
X14.921 Y-0.266
X14.961 Y-0.244
X15.071 Y-0.165
X15.119 Y-0.13 Z-12.793
X15.165 Y-0.096 Z-12.773
X15.207 Y-0.066 Z-12.741
X15.241 Y-0.041 Z-12.698
X15.267 Y-0.022 Z-12.647
X15.283 Y-0.01 Z-12.59
X15.289 Y-0.006 Z-12.53
Z5
X14.77 Y-0.175
Z2
Z0.27
G18 G2 X15.04 Z0 I0.27 K0
G1 X15.175
X15.22 Y-0.169
X15.263 Y-0.152
X15.299 Y-0.124
X15.327 Y-0.088
X15.344 Y-0.045
X15.35 Y0
G17 G3 X14.65 Y0 Z-0.25 I-0.35 J0
X15.35 Y0 Z-0.5 I0.35 J0
X14.65 Y0 Z-0.75 I-0.35 J0
X15.35 Y0 Z-1 I0.35 J0
X14.65 Y0 Z-1.25 I-0.35 J0
X15.35 Y0 Z-1.5 I0.35 J0
X14.65 Y0 Z-1.75 I-0.35 J0
X15.35 Y0 Z-2 I0.35 J0
X14.65 Y0 Z-2.25 I-0.35 J0
X15.35 Y0 Z-2.5 I0.35 J0
X14.65 Y0 Z-2.75 I-0.35 J0
X15.35 Y0 Z-3 I0.35 J0
X14.65 Y0 Z-3.25 I-0.35 J0
X15.35 Y0 Z-3.5 I0.35 J0
X14.65 Y0 Z-3.75 I-0.35 J0
X15.35 Y0 Z-4 I0.35 J0
X14.65 Y0 Z-4.25 I-0.35 J0
X15.35 Y0 Z-4.5 I0.35 J0
X14.65 Y0 Z-4.75 I-0.35 J0
X15.35 Y0 Z-5 I0.35 J0
X14.65 Y0 Z-5.25 I-0.35 J0
X15.35 Y0 Z-5.5 I0.35 J0
X14.65 Y0 Z-5.75 I-0.35 J0
X15.35 Y0 Z-6 I0.35 J0
X14.65 Y0 Z-6.25 I-0.35 J0
X15.35 Y0 Z-6.5 I0.35 J0
X14.65 Y0 Z-6.75 I-0.35 J0
X15.35 Y0 Z-7 I0.35 J0
X14.65 Y0 Z-7.25 I-0.35 J0
X15.35 Y0 Z-7.5 I0.35 J0
X14.65 Y0 Z-7.75 I-0.35 J0
X15.35 Y0 Z-8 I0.35 J0
X14.65 Y0 Z-8.25 I-0.35 J0
X15.35 Y0 Z-8.5 I0.35 J0
X14.65 Y0 Z-8.75 I-0.35 J0
X15.35 Y0 Z-9 I0.35 J0
X14.65 Y0 Z-9.25 I-0.35 J0
X15.35 Y0 Z-9.5 I0.35 J0
X14.65 Y0 Z-9.75 I-0.35 J0
X15.35 Y0 Z-10 I0.35 J0
X14.65 Y0 Z-10.25 I-0.35 J0
X15.35 Y0 Z-10.5 I0.35 J0
X14.65 Y0 Z-10.75 I-0.35 J0
X15.35 Y0 Z-11 I0.35 J0
X14.65 Y0 Z-11.25 I-0.35 J0
X15.35 Y0 Z-11.5 I0.35 J0
X14.65 Y0 Z-11.75 I-0.35 J0
X15.35 Y0 Z-12 I0.35 J0
X14.65 Y0 Z-12.25 I-0.35 J0
X15.35 Y0 Z-12.5 I0.35 J0
X14.65 Y0 Z-12.75 I-0.35 J0
X14.717 Y-0.206 Z-12.8 I0.35 J0
X15.283 Y0.206 I0.283 J0.206
X14.717 Y-0.206 I-0.283 J-0.206
G1 X14.748 Y-0.239
X14.787 Y-0.263
X14.831 Y-0.276
X14.877 Y-0.277
X14.921 Y-0.266
X14.961 Y-0.244
X15.071 Y-0.165
X15.119 Y-0.13 Z-12.793
X15.165 Y-0.096 Z-12.773
X15.207 Y-0.066 Z-12.741
X15.241 Y-0.041 Z-12.698
X15.267 Y-0.022 Z-12.647
X15.283 Y-0.01 Z-12.59
X15.289 Y-0.006 Z-12.53
Z10
M5
M30
