(1107_3175bit_4diam)
(T1  D=3.175 CR=0 - ZMIN=-12.8 - flat end mill)
G90 G94
G17
G21
(When using Fusion 360 for Personal Use, the feedrate of)
(rapid moves is reduced to match the feedrate of cutting)
(moves, which can increase machining time. Unrestricted rapid)
(moves are available with a Fusion 360 Subscription.)

(Bore5 2)
T1
S5000 M3
G54
G0 X29.998 Y-0.156
Z10
G1 Z1.683 F80
Z0
X30.156
X30.205 Y-0.149
X30.248 Y-0.126
X30.283 Y-0.092
X30.305 Y-0.048
X30.313 Y0
G3 X29.688 Y0 Z-0.25 I-0.313 J0
X30.312 Y0 Z-0.5 I0.312 J0
X29.688 Y0 Z-0.75 I-0.312 J0
X30.312 Y0 Z-1 I0.312 J0
X29.688 Y0 Z-1.25 I-0.312 J0
X30.312 Y0 Z-1.5 I0.312 J0
X29.688 Y0 Z-1.75 I-0.312 J0
X30.312 Y0 Z-2 I0.312 J0
X29.688 Y0 Z-2.25 I-0.312 J0
X30.312 Y0 Z-2.5 I0.312 J0
X29.688 Y0 Z-2.75 I-0.312 J0
X30.312 Y0 Z-3 I0.312 J0
X29.688 Y0 Z-3.25 I-0.312 J0
X30.312 Y0 Z-3.5 I0.312 J0
X29.688 Y0 Z-3.75 I-0.312 J0
X30.312 Y0 Z-4 I0.312 J0
X29.688 Y0 Z-4.25 I-0.312 J0
X30.312 Y0 Z-4.5 I0.312 J0
X29.688 Y0 Z-4.75 I-0.312 J0
X30.312 Y0 Z-5 I0.312 J0
X29.688 Y0 Z-5.25 I-0.312 J0
X30.312 Y0 Z-5.5 I0.312 J0
X29.688 Y0 Z-5.75 I-0.312 J0
X30.312 Y0 Z-6 I0.312 J0
X29.688 Y0 Z-6.25 I-0.312 J0
X30.312 Y0 Z-6.5 I0.312 J0
X29.688 Y0 Z-6.75 I-0.312 J0
X30.312 Y0 Z-7 I0.312 J0
X29.688 Y0 Z-7.25 I-0.312 J0
X30.312 Y0 Z-7.5 I0.312 J0
X29.688 Y0 Z-7.75 I-0.312 J0
X30.312 Y0 Z-8 I0.312 J0
X29.688 Y0 Z-8.25 I-0.312 J0
X30.312 Y0 Z-8.5 I0.312 J0
X29.688 Y0 Z-8.75 I-0.312 J0
X30.312 Y0 Z-9 I0.312 J0
X29.688 Y0 Z-9.25 I-0.312 J0
X30.312 Y0 Z-9.5 I0.312 J0
X29.688 Y0 Z-9.75 I-0.312 J0
X30.312 Y0 Z-10 I0.312 J0
X29.688 Y0 Z-10.25 I-0.312 J0
X30.312 Y0 Z-10.5 I0.312 J0
X29.688 Y0 Z-10.75 I-0.312 J0
X30.312 Y0 Z-11 I0.312 J0
X29.688 Y0 Z-11.25 I-0.312 J0
X30.312 Y0 Z-11.5 I0.312 J0
X29.688 Y0 Z-11.75 I-0.312 J0
X30.312 Y0 Z-12 I0.312 J0
X29.688 Y0 Z-12.25 I-0.312 J0
X30.312 Y0 Z-12.5 I0.312 J0
X29.688 Y0 Z-12.75 I-0.312 J0
X29.747 Y-0.184 Z-12.8 I0.312 J0
X30.253 Y0.184 I0.253 J0.184
X29.747 Y-0.184 I-0.253 J-0.184
G1 X29.782 Y-0.218
X29.825 Y-0.24
X29.874 Y-0.248
X29.922 Y-0.24
X29.965 Y-0.218
X30.094 Y-0.125
Z5
Z10
X29.73 Y-0.206
Z2
Z0.317
G18 G2 X30.048 Z0 I0.318 K0
G1 X30.206
G17 G3 X30.413 Y0 I0 J0.206
X29.587 Y0 Z-0.25 I-0.413 J0
X30.413 Y0 Z-0.5 I0.413 J0
X29.587 Y0 Z-0.75 I-0.413 J0
X30.413 Y0 Z-1 I0.413 J0
X29.587 Y0 Z-1.25 I-0.413 J0
X30.413 Y0 Z-1.5 I0.413 J0
X29.587 Y0 Z-1.75 I-0.413 J0
X30.413 Y0 Z-2 I0.413 J0
X29.587 Y0 Z-2.25 I-0.413 J0
X30.413 Y0 Z-2.5 I0.413 J0
X29.587 Y0 Z-2.75 I-0.413 J0
X30.413 Y0 Z-3 I0.413 J0
X29.587 Y0 Z-3.25 I-0.413 J0
X30.413 Y0 Z-3.5 I0.413 J0
X29.587 Y0 Z-3.75 I-0.413 J0
X30.413 Y0 Z-4 I0.413 J0
X29.587 Y0 Z-4.25 I-0.413 J0
X30.413 Y0 Z-4.5 I0.413 J0
X29.587 Y0 Z-4.75 I-0.413 J0
X30.413 Y0 Z-5 I0.413 J0
X29.587 Y0 Z-5.25 I-0.413 J0
X30.413 Y0 Z-5.5 I0.413 J0
X29.587 Y0 Z-5.75 I-0.413 J0
X30.413 Y0 Z-6 I0.413 J0
X29.587 Y0 Z-6.25 I-0.413 J0
X30.413 Y0 Z-6.5 I0.413 J0
X29.587 Y0 Z-6.75 I-0.413 J0
X30.413 Y0 Z-7 I0.413 J0
X29.587 Y0 Z-7.25 I-0.413 J0
X30.413 Y0 Z-7.5 I0.413 J0
X29.587 Y0 Z-7.75 I-0.413 J0
X30.413 Y0 Z-8 I0.413 J0
X29.587 Y0 Z-8.25 I-0.413 J0
X30.412 Y0 Z-8.5 I0.413 J0
X29.588 Y0 Z-8.75 I-0.412 J0
X30.412 Y0 Z-9 I0.412 J0
X29.588 Y0 Z-9.25 I-0.412 J0
X30.412 Y0 Z-9.5 I0.412 J0
X29.588 Y0 Z-9.75 I-0.412 J0
X30.412 Y0 Z-10 I0.412 J0
X29.588 Y0 Z-10.25 I-0.412 J0
X30.412 Y0 Z-10.5 I0.412 J0
X29.588 Y0 Z-10.75 I-0.412 J0
X30.412 Y0 Z-11 I0.412 J0
X29.588 Y0 Z-11.25 I-0.412 J0
X30.412 Y0 Z-11.5 I0.412 J0
X29.588 Y0 Z-11.75 I-0.412 J0
X30.412 Y0 Z-12 I0.412 J0
X29.588 Y0 Z-12.25 I-0.412 J0
X30.412 Y0 Z-12.5 I0.412 J0
X29.588 Y0 Z-12.75 I-0.412 J0
X29.666 Y-0.242 Z-12.8 I0.412 J0
X30.334 Y0.242 I0.334 J0.242
X29.666 Y-0.242 I-0.334 J-0.242
X29.954 Y-0.288 I0.167 J0.121
G1 X30.083 Y-0.195
X30.14 Y-0.153 Z-12.792
X30.194 Y-0.114 Z-12.769
X30.243 Y-0.078 Z-12.731
X30.284 Y-0.049 Z-12.68
X30.314 Y-0.027 Z-12.62
X30.333 Y-0.013 Z-12.553
X30.34 Y-0.008 Z-12.483
Z5
X29.73 Y-0.206
Z2
Z0.317
G18 G2 X30.048 Z0 I0.318 K0
G1 X30.206
G17 G3 X30.413 Y0 I0 J0.206
X29.587 Y0 Z-0.25 I-0.413 J0
X30.413 Y0 Z-0.5 I0.413 J0
X29.587 Y0 Z-0.75 I-0.413 J0
X30.413 Y0 Z-1 I0.413 J0
X29.587 Y0 Z-1.25 I-0.413 J0
X30.413 Y0 Z-1.5 I0.413 J0
X29.587 Y0 Z-1.75 I-0.413 J0
X30.413 Y0 Z-2 I0.413 J0
X29.587 Y0 Z-2.25 I-0.413 J0
X30.413 Y0 Z-2.5 I0.413 J0
X29.587 Y0 Z-2.75 I-0.413 J0
X30.413 Y0 Z-3 I0.413 J0
X29.587 Y0 Z-3.25 I-0.413 J0
X30.413 Y0 Z-3.5 I0.413 J0
X29.587 Y0 Z-3.75 I-0.413 J0
X30.413 Y0 Z-4 I0.413 J0
X29.587 Y0 Z-4.25 I-0.413 J0
X30.413 Y0 Z-4.5 I0.413 J0
X29.587 Y0 Z-4.75 I-0.413 J0
X30.413 Y0 Z-5 I0.413 J0
X29.587 Y0 Z-5.25 I-0.413 J0
X30.413 Y0 Z-5.5 I0.413 J0
X29.587 Y0 Z-5.75 I-0.413 J0
X30.413 Y0 Z-6 I0.413 J0
X29.587 Y0 Z-6.25 I-0.413 J0
X30.413 Y0 Z-6.5 I0.413 J0
X29.587 Y0 Z-6.75 I-0.413 J0
X30.413 Y0 Z-7 I0.413 J0
X29.587 Y0 Z-7.25 I-0.413 J0
X30.413 Y0 Z-7.5 I0.413 J0
X29.587 Y0 Z-7.75 I-0.413 J0
X30.413 Y0 Z-8 I0.413 J0
X29.587 Y0 Z-8.25 I-0.413 J0
X30.412 Y0 Z-8.5 I0.413 J0
X29.588 Y0 Z-8.75 I-0.412 J0
X30.412 Y0 Z-9 I0.412 J0
X29.588 Y0 Z-9.25 I-0.412 J0
X30.412 Y0 Z-9.5 I0.412 J0
X29.588 Y0 Z-9.75 I-0.412 J0
X30.412 Y0 Z-10 I0.412 J0
X29.588 Y0 Z-10.25 I-0.412 J0
X30.412 Y0 Z-10.5 I0.412 J0
X29.588 Y0 Z-10.75 I-0.412 J0
X30.412 Y0 Z-11 I0.412 J0
X29.588 Y0 Z-11.25 I-0.412 J0
X30.412 Y0 Z-11.5 I0.412 J0
X29.588 Y0 Z-11.75 I-0.412 J0
X30.412 Y0 Z-12 I0.412 J0
X29.588 Y0 Z-12.25 I-0.412 J0
X30.412 Y0 Z-12.5 I0.412 J0
X29.588 Y0 Z-12.75 I-0.412 J0
X29.666 Y-0.242 Z-12.8 I0.412 J0
X30.334 Y0.242 I0.334 J0.242
X29.666 Y-0.242 I-0.334 J-0.242
X29.954 Y-0.288 I0.167 J0.121
G1 X30.083 Y-0.195
X30.14 Y-0.153 Z-12.792
X30.194 Y-0.114 Z-12.769
X30.243 Y-0.078 Z-12.731
X30.284 Y-0.049 Z-12.68
X30.314 Y-0.027 Z-12.62
X30.333 Y-0.013 Z-12.553
X30.34 Y-0.008 Z-12.483
Z10
M5
M30
