(1108_wall_better_m4_m6_holes)
(T1  D=2.7 CR=0 - ZMIN=-13.3 - flat end mill)
G90 G94
G17
G21
(When using Fusion 360 for Personal Use, the feedrate of)
(rapid moves is reduced to match the feedrate of cutting)
(moves, which can increase machining time. Unrestricted rapid)
(moves are available with a Fusion 360 Subscription.)

(2D Pocket tabs)
T1
S5000 M3
G54
G0 X-1.347 Y33.181
Z10
G1 Z5 F1000
Z2.02 F333.3
Z-0.992 F1000
X-1.34 Y33.189
G2 X0.345 Y34.824 I17.207 J-16.045
G3 X0.345 Y35.176 I-0.156 J0.176
G2 X-1.34 Y36.824 I15.744 J17.781
G1 X-1.345 Y36.837
X-1.376 Y39.144
X-1.369 Y39.159
X-1.354 Y39.164
X-1.34 Y39.157
G3 X2.733 Y35.188 I17.408 J13.79
G2 X2.733 Y34.812 I-0.141 J-0.188
G3 X-1.34 Y30.871 I13.155 J-17.668
G1 X-1.344 Y30.859
X-1.377 Y28.287
X-1.37 Y28.271
X-1.354 Y28.266
X-1.34 Y28.275
G2 X5.519 Y34.849 I17.248 J-11.132
G3 X5.519 Y35.151 I-0.089 J0.151
G2 X-1.34 Y41.763 I10.528 J17.785
G1 X-1.343 Y41.774
X-1.378 Y44.899
X-1.374 Y44.911
X-1.362 Y44.919
X-1.349 Y44.917
X-1.34 Y44.907
G3 X9.032 Y35.121 I17.366 J8.015
G1 X9.07 Y35.098
X9.098 Y35.064
X9.112 Y35.022
Y34.978
X9.098 Y34.936
X9.07 Y34.902
X9.032 Y34.879
G3 X-1.34 Y25.137 I6.898 J-17.735
G1 X-1.342 Y25.129
X-1.38 Y20.037
X-1.375 Y20.024
X-1.361 Y20.017
X-1.347 Y20.021
X-1.34 Y20.034
G2 X12.136 Y34.248 I17.282 J-2.89
G3 X12.465 Y34.659 I-0.093 J0.412
G1 Y34.749
Y35.25
Y35.341
G3 X12.136 Y35.752 I-0.422 J0
G2 X-1.34 Y50.016 I3.877 J17.16
G1 Y50.024
X-0.097 Y54.869
X-0.089 Y54.881
X-0.075 Y54.884
X-0.063 Y54.877
X-0.058 Y54.864
X-0.06 Y52.856
G3 X13.715 Y37.005 I16.068 J0.052
G2 X13.985 Y36.693 I-0.045 J-0.312
G1 Y36.555
X13.987 Y36.546
X13.993 Y36.539
X15.473 Y35.38
X15.487 Y35.375
X15.5 Y35.382
X15.505 Y35.395
Y38.068
G3 X15.207 Y38.383 I-0.315 J0
G2 X1.46 Y52.856 I0.796 J14.521
G1 X1.463 Y55.532
Y55.542
Z5
X13.985 Y33.455
Z2.02 F333.3
Z-0.992 F1000
Y33.444
Y33.307
G2 X13.715 Y32.995 I-0.315 J0
G3 X-0.06 Y17.144 I2.233 J-15.851
G1 X-0.058 Y15.136
X-0.054 Y15.125
X-0.046 Y15.118
X1.435 Y14.45
X1.448 Y14.449
X1.459 Y14.456
X1.463 Y14.468
X1.46 Y17.144
G2 X15.207 Y31.617 I14.492 J0
G3 X15.505 Y31.932 I-0.017 J0.315
G1 Y34.605
G3 X14.448 Y35.082 I-0.636 J0
G1 X12.36 Y33.242
X12.311 Y33.193
X0.488 Y20.211
G3 X0.146 Y19.268 I0.973 J-0.886
G1 X0.352 Y14.515
G3 X2.983 Y14.573 I1.315 J0.057
G1 X2.98 Y17.144
G2 X16.776 Y30.095 I12.978 J0
G3 X17.025 Y30.33 I0.014 J0.235
G1 Y39.67
G3 X16.776 Y39.905 I-0.235 J0
G2 X2.98 Y52.856 I-0.778 J12.994
G1 X2.983 Y55.427
X2.987 Y55.439
X2.997 Y55.446
X3.01 Y55.445
X4.489 Y54.901
X4.499 Y54.894
X4.502 Y54.882
X4.5 Y52.856
G3 X18.263 Y41.627 I11.493 J0.037
G2 X18.545 Y41.396 I0.046 J-0.231
G1 Y28.604
G2 X18.263 Y28.373 I-0.235 J0
G3 X4.5 Y17.144 I-2.301 J-11.229
G1 X4.502 Y15.117
X4.506 Y15.105
X4.517 Y15.098
X4.529 Y15.099
X6.008 Y15.652
X6.018 Y15.659
X6.021 Y15.671
X6.02 Y17.144
G2 X19.402 Y26.491 I9.956 J0
G1 X19.587 Y26.417
X19.773 Y26.343
G3 X20.065 Y26.548 I0.074 J0.205
G1 Y43.452
G3 X19.773 Y43.657 I-0.218 J0
G1 X19.587 Y43.583
X19.402 Y43.509
G2 X6.02 Y52.856 I-3.41 J9.37
G1 X6.021 Y54.33
X6.025 Y54.342
X6.036 Y54.349
X6.048
X7.528 Y53.795
X7.537 Y53.788
X7.541 Y53.776
X7.54 Y52.856
G3 X18.893 Y44.906 I8.46 J0
X20.093 Y45.367 I-12.535 J34.442
G2 X21.293 Y45.828 I13.751 J-34.025
X21.585 Y45.623 I0.074 J-0.205
G1 Y24.377
G2 X21.293 Y24.172 I-0.218 J0
X20.093 Y24.633 I12.55 J34.482
G3 X18.893 Y25.094 I-13.75 J-34.021
X7.54 Y17.144 I-2.893 J-7.95
G1 X7.541 Y16.224
X7.545 Y16.212
X7.555 Y16.205
X7.568
X9.047 Y16.758
X9.057 Y16.766
X9.06 Y16.777
Y17.144
G2 X18.374 Y23.665 I6.94 J0
X20.593 Y22.833 I-42.703 J-117.324
G3 X22.813 Y22.002 I44.922 J116.492
X23.105 Y22.206 I0.074 J0.205
G1 Y47.794
G3 X22.813 Y47.998 I-0.218 J0
X20.593 Y47.167 I42.704 J-117.329
G2 X18.373 Y46.335 I-44.821 J116.222
X9.06 Y52.856 I-2.373 J6.522
G1 Y53.223
X9.064 Y53.235
X9.075 Y53.242
X9.087 Y53.241
X10.57 Y52.687
X10.579 Y52.68
X10.583 Y52.669
G3 X17.854 Y47.763 I5.417 J0.187
G1 X24.333 Y50.169
G2 X24.625 Y49.965 I0.074 J-0.205
G1 Y20.035
G2 X24.333 Y19.831 I-0.218 J0
G1 X17.854 Y22.237
G3 X10.583 Y17.331 I-1.854 J-5.093
G1 X10.587 Y17.319
X10.596 Y17.311
X10.609
X12.187 Y17.753
X12.196 Y17.759
X12.201 Y17.769
G2 X17.317 Y20.762 I3.799 J-0.625
G1 X25.949 Y17.62
X25.996 Y17.611
X26.043 Y17.617
X26.086 Y17.638
X26.12 Y17.671
X26.142 Y17.714
X26.15 Y17.761
Y52.239
X26.142 Y52.286
X26.12 Y52.329
X26.086 Y52.362
X26.043 Y52.383
X25.996 Y52.389
X25.949 Y52.38
X17.317 Y49.238
G2 X12.201 Y52.232 I-1.317 J3.618
G1 X12.193 Y52.244
X12.179 Y52.249
X12.166 Y52.242
X-1.347 Y36.859
X-1.352 Y36.845
X-1.347 Y36.832
Z-1.983
X-1.34 Y36.824
G3 X0.345 Y35.176 I17.429 J16.133
G2 X0.345 Y34.824 I-0.156 J-0.176
G3 X-1.34 Y33.189 I15.522 J-17.68
G1 X-1.345 Y33.176
X-1.376 Y30.883
X-1.369 Y30.869
X-1.354 Y30.863
X-1.34 Y30.871
G2 X2.733 Y34.812 I17.228 J-13.727
G3 X2.733 Y35.188 I-0.141 J0.188
G2 X-1.34 Y39.157 I13.335 J17.759
G1 X-1.344 Y39.169
X-1.377 Y41.752
X-1.37 Y41.767
X-1.354 Y41.772
X-1.34 Y41.763
G3 X5.519 Y35.151 I17.387 J11.172
G2 X5.519 Y34.849 I-0.089 J-0.151
G3 X-1.34 Y28.275 I10.389 J-17.706
G1 X-1.343 Y28.265
X-1.378 Y25.146
X-1.374 Y25.133
X-1.362 Y25.126
X-1.349 Y25.127
X-1.34 Y25.137
G2 X9.032 Y34.879 I17.269 J-7.993
G1 X9.07 Y34.902
X9.098 Y34.936
X9.112 Y34.978
Y35.022
X9.098 Y35.064
X9.07 Y35.098
X9.032 Y35.121
G2 X-1.34 Y44.907 I6.994 J17.801
G1 X-1.342 Y44.916
X-1.38 Y50.012
X-1.374 Y50.026
X-1.361 Y50.032
X-1.347 Y50.028
X-1.34 Y50.016
G3 X12.136 Y35.752 I17.353 J2.897
G2 X12.465 Y35.341 I-0.093 J-0.412
G1 Y35.25
Y34.749
Y34.659
G2 X12.136 Y34.248 I-0.422 J0
G3 X-1.34 Y20.034 I3.807 J-17.104
G1 Y20.026
X-0.097 Y15.131
X-0.089 Y15.12
X-0.075 Y15.116
X-0.063 Y15.123
X-0.058 Y15.136
X-0.06 Y17.144
G2 X13.715 Y32.995 I16.008 J0
G3 X13.985 Y33.307 I-0.045 J0.312
G1 Y33.444
X13.987 Y33.453
X13.993 Y33.46
X15.473 Y34.62
X15.487 Y34.625
X15.5 Y34.618
X15.505 Y34.605
Y31.932
G2 X15.207 Y31.617 I-0.315 J0
G3 X1.46 Y17.144 I0.746 J-14.473
G1 X1.463 Y14.468
Y14.458
Z1.028
X13.985 Y36.545
Z-1.983
Y36.555
Y36.693
G3 X13.715 Y37.005 I-0.315 J0
G2 X-0.06 Y52.856 I2.293 J15.903
G1 X-0.058 Y54.864
X-0.054 Y54.875
X-0.046 Y54.882
X1.435 Y55.55
X1.448 Y55.551
X1.459 Y55.544
X1.463 Y55.532
X1.46 Y52.856
G3 X15.207 Y38.383 I14.543 J0.048
G2 X15.505 Y38.068 I-0.017 J-0.315
G1 Y35.395
G2 X14.448 Y34.918 I-0.636 J0
G1 X12.36 Y36.758
X12.311 Y36.807
X0.488 Y49.789
G2 X0.146 Y50.732 I0.973 J0.886
G1 X0.352 Y55.485
G2 X2.983 Y55.427 I1.315 J-0.057
G1 X2.98 Y52.856
G3 X16.776 Y39.905 I13.017 J0.042
G2 X17.025 Y39.67 I0.014 J-0.235
G1 Y30.33
G2 X16.776 Y30.095 I-0.235 J0
G3 X2.98 Y17.144 I-0.818 J-12.952
G1 X2.983 Y14.573
X2.987 Y14.561
X2.997 Y14.554
X3.01
X4.489 Y15.099
X4.499 Y15.106
X4.502 Y15.117
X4.5 Y17.144
G2 X18.263 Y28.373 I11.462 J0
G3 X18.545 Y28.604 I0.046 J0.231
G1 Y41.396
G3 X18.263 Y41.627 I-0.235 J0
G2 X4.5 Y52.856 I-2.271 J11.266
G1 X4.502 Y54.882
X4.506 Y54.894
X4.516 Y54.901
X4.529
X6.008 Y54.349
X6.018 Y54.341
X6.021 Y54.33
X6.02 Y52.856
G3 X19.402 Y43.509 I9.972 J0.023
G1 X19.587 Y43.583
X19.773 Y43.657
G2 X20.065 Y43.452 I0.074 J-0.205
G1 Y26.548
G2 X19.773 Y26.343 I-0.218 J0
G1 X19.587 Y26.417
X19.402 Y26.491
G3 X6.02 Y17.144 I-3.426 J-9.348
G1 X6.021 Y15.671
X6.025 Y15.659
X6.036 Y15.651
X6.048 Y15.652
X7.528 Y16.205
X7.537 Y16.212
X7.541 Y16.224
X7.54 Y17.144
G2 X18.893 Y25.094 I8.46 J0
X20.093 Y24.633 I-12.55 J-34.482
G3 X21.293 Y24.172 I13.75 J34.021
X21.585 Y24.377 I0.074 J0.205
G1 Y45.623
G3 X21.293 Y45.828 I-0.218 J0
X20.093 Y45.367 I12.552 J-34.486
G2 X18.893 Y44.906 I-13.735 J33.981
X7.54 Y52.856 I-2.893 J7.95
G1 X7.541 Y53.776
X7.545 Y53.788
X7.555 Y53.795
X7.568
X9.047 Y53.242
X9.057 Y53.234
X9.06 Y53.223
Y52.856
G3 X18.373 Y46.335 I6.94 J0
X20.593 Y47.167 I-42.601 J117.054
G2 X22.813 Y47.998 I44.924 J-116.497
X23.105 Y47.794 I0.074 J-0.205
G1 Y22.206
G2 X22.813 Y22.002 I-0.218 J0
X20.593 Y22.833 I42.703 J117.324
G3 X18.374 Y23.665 I-44.922 J-116.492
X9.06 Y17.144 I-2.374 J-6.521
G1 Y16.777
X9.064 Y16.765
X9.075 Y16.758
X9.087
X10.57 Y17.313
X10.579 Y17.32
X10.583 Y17.331
G2 X17.854 Y22.237 I5.417 J-0.187
G1 X24.333 Y19.831
G3 X24.625 Y20.035 I0.074 J0.205
G1 Y49.965
G3 X24.333 Y50.169 I-0.218 J0
G1 X17.854 Y47.763
G2 X10.583 Y52.669 I-1.854 J5.093
G1 X10.587 Y52.681
X10.596 Y52.689
X10.609
X12.187 Y52.248
X12.196 Y52.242
X12.201 Y52.232
G3 X17.317 Y49.238 I3.799 J0.624
G1 X25.949 Y52.38
X25.996 Y52.389
X26.043 Y52.383
X26.086 Y52.362
X26.12 Y52.329
X26.142 Y52.286
X26.15 Y52.239
Y17.761
X26.142 Y17.714
X26.12 Y17.671
X26.086 Y17.638
X26.043 Y17.617
X25.996 Y17.611
X25.949 Y17.62
X17.317 Y20.762
G3 X12.201 Y17.769 I-1.317 J-3.618
G1 X12.194 Y17.756
X12.179 Y17.752
X12.166 Y17.759
X-1.347 Y33.155
X-1.352 Y33.168
X-1.347 Y33.181
Z-2.975
X-1.34 Y33.189
G2 X0.345 Y34.824 I17.207 J-16.045
G3 X0.345 Y35.176 I-0.156 J0.176
G2 X-1.34 Y36.824 I15.744 J17.781
G1 X-1.345 Y36.837
X-1.376 Y39.144
X-1.369 Y39.159
X-1.354 Y39.164
X-1.34 Y39.157
G3 X2.733 Y35.188 I17.408 J13.79
G2 X2.733 Y34.812 I-0.141 J-0.188
G3 X-1.34 Y30.871 I13.155 J-17.668
G1 X-1.344 Y30.859
X-1.377 Y28.287
X-1.37 Y28.271
X-1.354 Y28.266
X-1.34 Y28.275
G2 X5.519 Y34.849 I17.248 J-11.132
G3 X5.519 Y35.151 I-0.089 J0.151
G2 X-1.34 Y41.763 I10.528 J17.785
G1 X-1.343 Y41.774
X-1.378 Y44.899
X-1.374 Y44.911
X-1.362 Y44.919
X-1.349 Y44.917
X-1.34 Y44.907
G3 X9.032 Y35.121 I17.366 J8.015
G1 X9.07 Y35.098
X9.098 Y35.064
X9.112 Y35.022
Y34.978
X9.098 Y34.936
X9.07 Y34.902
X9.032 Y34.879
G3 X-1.34 Y25.137 I6.898 J-17.735
G1 X-1.342 Y25.129
X-1.38 Y20.037
X-1.375 Y20.024
X-1.361 Y20.017
X-1.347 Y20.021
X-1.34 Y20.034
G2 X12.136 Y34.248 I17.282 J-2.89
G3 X12.465 Y34.659 I-0.093 J0.412
G1 Y34.749
Y35.25
Y35.341
G3 X12.136 Y35.752 I-0.422 J0
G2 X-1.34 Y50.016 I3.877 J17.16
G1 Y50.024
X-0.097 Y54.869
X-0.089 Y54.881
X-0.075 Y54.884
X-0.063 Y54.877
X-0.058 Y54.864
X-0.06 Y52.856
G3 X13.715 Y37.005 I16.068 J0.052
G2 X13.985 Y36.693 I-0.045 J-0.312
G1 Y36.555
X13.987 Y36.546
X13.993 Y36.539
X15.473 Y35.38
X15.487 Y35.375
X15.5 Y35.382
X15.505 Y35.395
Y38.068
G3 X15.207 Y38.383 I-0.315 J0
G2 X1.46 Y52.856 I0.796 J14.521
G1 X1.463 Y55.532
Y55.542
Z0.037
X13.985 Y33.455
Z-2.975
Y33.444
Y33.307
G2 X13.715 Y32.995 I-0.315 J0
G3 X-0.06 Y17.144 I2.233 J-15.851
G1 X-0.058 Y15.136
X-0.054 Y15.125
X-0.046 Y15.118
X1.435 Y14.45
X1.448 Y14.449
X1.459 Y14.456
X1.463 Y14.468
X1.46 Y17.144
G2 X15.207 Y31.617 I14.492 J0
G3 X15.505 Y31.932 I-0.017 J0.315
G1 Y34.605
G3 X14.448 Y35.082 I-0.636 J0
G1 X12.36 Y33.242
X12.311 Y33.193
X0.488 Y20.211
G3 X0.146 Y19.268 I0.973 J-0.886
G1 X0.352 Y14.515
G3 X2.983 Y14.573 I1.315 J0.057
G1 X2.98 Y17.144
G2 X16.776 Y30.095 I12.978 J0
G3 X17.025 Y30.33 I0.014 J0.235
G1 Y39.67
G3 X16.776 Y39.905 I-0.235 J0
G2 X2.98 Y52.856 I-0.778 J12.994
G1 X2.983 Y55.427
X2.987 Y55.439
X2.997 Y55.446
X3.01 Y55.445
X4.489 Y54.901
X4.499 Y54.894
X4.502 Y54.882
X4.5 Y52.856
G3 X18.263 Y41.627 I11.493 J0.037
G2 X18.545 Y41.396 I0.046 J-0.231
G1 Y28.604
G2 X18.263 Y28.373 I-0.235 J0
G3 X4.5 Y17.144 I-2.301 J-11.229
G1 X4.502 Y15.117
X4.506 Y15.105
X4.517 Y15.098
X4.529 Y15.099
X6.008 Y15.652
X6.018 Y15.659
X6.021 Y15.671
X6.02 Y17.144
G2 X19.402 Y26.491 I9.956 J0
G1 X19.587 Y26.417
X19.773 Y26.343
G3 X20.065 Y26.548 I0.074 J0.205
G1 Y43.452
G3 X19.773 Y43.657 I-0.218 J0
G1 X19.587 Y43.583
X19.402 Y43.509
G2 X6.02 Y52.856 I-3.41 J9.37
G1 X6.021 Y54.33
X6.025 Y54.342
X6.036 Y54.349
X6.048
X7.528 Y53.795
X7.537 Y53.788
X7.541 Y53.776
X7.54 Y52.856
G3 X18.893 Y44.906 I8.46 J0
X20.093 Y45.367 I-12.535 J34.442
G2 X21.293 Y45.828 I13.751 J-34.025
X21.585 Y45.623 I0.074 J-0.205
G1 Y24.377
G2 X21.293 Y24.172 I-0.218 J0
X20.093 Y24.633 I12.55 J34.482
G3 X18.893 Y25.094 I-13.75 J-34.021
X7.54 Y17.144 I-2.893 J-7.95
G1 X7.541 Y16.224
X7.545 Y16.212
X7.555 Y16.205
X7.568
X9.047 Y16.758
X9.057 Y16.766
X9.06 Y16.777
Y17.144
G2 X18.374 Y23.665 I6.94 J0
X20.593 Y22.833 I-42.703 J-117.324
G3 X22.813 Y22.002 I44.922 J116.492
X23.105 Y22.206 I0.074 J0.205
G1 Y47.794
G3 X22.813 Y47.998 I-0.218 J0
X20.593 Y47.167 I42.704 J-117.329
G2 X18.373 Y46.335 I-44.821 J116.222
X9.06 Y52.856 I-2.373 J6.522
G1 Y53.223
X9.064 Y53.235
X9.075 Y53.242
X9.087 Y53.241
X10.57 Y52.687
X10.579 Y52.68
X10.583 Y52.669
G3 X17.854 Y47.763 I5.417 J0.187
G1 X24.333 Y50.169
G2 X24.625 Y49.965 I0.074 J-0.205
G1 Y20.035
G2 X24.333 Y19.831 I-0.218 J0
G1 X17.854 Y22.237
G3 X10.583 Y17.331 I-1.854 J-5.093
G1 X10.587 Y17.319
X10.596 Y17.311
X10.609
X12.187 Y17.753
X12.196 Y17.759
X12.201 Y17.769
G2 X17.317 Y20.762 I3.799 J-0.625
G1 X25.949 Y17.62
X25.996 Y17.611
X26.043 Y17.617
X26.086 Y17.638
X26.12 Y17.671
X26.142 Y17.714
X26.15 Y17.761
Y52.239
X26.142 Y52.286
X26.12 Y52.329
X26.086 Y52.362
X26.043 Y52.383
X25.996 Y52.389
X25.949 Y52.38
X17.317 Y49.238
G2 X12.201 Y52.232 I-1.317 J3.618
G1 X12.193 Y52.244
X12.179 Y52.249
X12.166 Y52.242
X-1.347 Y36.859
X-1.352 Y36.845
X-1.347 Y36.832
Z-3.967
X-1.34 Y36.824
G3 X0.345 Y35.176 I17.429 J16.133
G2 X0.345 Y34.824 I-0.156 J-0.176
G3 X-1.34 Y33.189 I15.522 J-17.68
G1 X-1.345 Y33.176
X-1.376 Y30.883
X-1.369 Y30.869
X-1.354 Y30.863
X-1.34 Y30.871
G2 X2.733 Y34.812 I17.228 J-13.727
G3 X2.733 Y35.188 I-0.141 J0.188
G2 X-1.34 Y39.157 I13.335 J17.759
G1 X-1.344 Y39.169
X-1.377 Y41.752
X-1.37 Y41.767
X-1.354 Y41.772
X-1.34 Y41.763
G3 X5.519 Y35.151 I17.387 J11.172
G2 X5.519 Y34.849 I-0.089 J-0.151
G3 X-1.34 Y28.275 I10.389 J-17.706
G1 X-1.343 Y28.265
X-1.378 Y25.146
X-1.374 Y25.133
X-1.362 Y25.126
X-1.349 Y25.127
X-1.34 Y25.137
G2 X9.032 Y34.879 I17.269 J-7.993
G1 X9.07 Y34.902
X9.098 Y34.936
X9.112 Y34.978
Y35.022
X9.098 Y35.064
X9.07 Y35.098
X9.032 Y35.121
G2 X-1.34 Y44.907 I6.994 J17.801
G1 X-1.342 Y44.916
X-1.38 Y50.012
X-1.374 Y50.026
X-1.361 Y50.032
X-1.347 Y50.028
X-1.34 Y50.016
G3 X12.136 Y35.752 I17.353 J2.897
G2 X12.465 Y35.341 I-0.093 J-0.412
G1 Y35.25
Y34.749
Y34.659
G2 X12.136 Y34.248 I-0.422 J0
G3 X-1.34 Y20.034 I3.807 J-17.104
G1 Y20.026
X-0.097 Y15.131
X-0.089 Y15.12
X-0.075 Y15.116
X-0.063 Y15.123
X-0.058 Y15.136
X-0.06 Y17.144
G2 X13.715 Y32.995 I16.008 J0
G3 X13.985 Y33.307 I-0.045 J0.312
G1 Y33.444
X13.987 Y33.453
X13.993 Y33.46
X15.473 Y34.62
X15.487 Y34.625
X15.5 Y34.618
X15.505 Y34.605
Y31.932
G2 X15.207 Y31.617 I-0.315 J0
G3 X1.46 Y17.144 I0.746 J-14.473
G1 X1.463 Y14.468
Y14.458
Z-0.955
X13.985 Y36.545
Z-3.967
Y36.555
Y36.693
G3 X13.715 Y37.005 I-0.315 J0
G2 X-0.06 Y52.856 I2.293 J15.903
G1 X-0.058 Y54.864
X-0.054 Y54.875
X-0.046 Y54.882
X1.435 Y55.55
X1.448 Y55.551
X1.459 Y55.544
X1.463 Y55.532
X1.46 Y52.856
G3 X15.207 Y38.383 I14.543 J0.048
G2 X15.505 Y38.068 I-0.017 J-0.315
G1 Y35.395
G2 X14.448 Y34.918 I-0.636 J0
G1 X12.36 Y36.758
X12.311 Y36.807
X0.488 Y49.789
G2 X0.146 Y50.732 I0.973 J0.886
G1 X0.352 Y55.485
G2 X2.983 Y55.427 I1.315 J-0.057
G1 X2.98 Y52.856
G3 X16.776 Y39.905 I13.017 J0.042
G2 X17.025 Y39.67 I0.014 J-0.235
G1 Y30.33
G2 X16.776 Y30.095 I-0.235 J0
G3 X2.98 Y17.144 I-0.818 J-12.952
G1 X2.983 Y14.573
X2.987 Y14.561
X2.997 Y14.554
X3.01
X4.489 Y15.099
X4.499 Y15.106
X4.502 Y15.117
X4.5 Y17.144
G2 X18.263 Y28.373 I11.462 J0
G3 X18.545 Y28.604 I0.046 J0.231
G1 Y41.396
G3 X18.263 Y41.627 I-0.235 J0
G2 X4.5 Y52.856 I-2.271 J11.266
G1 X4.502 Y54.882
X4.506 Y54.894
X4.516 Y54.901
X4.529
X6.008 Y54.349
X6.018 Y54.341
X6.021 Y54.33
X6.02 Y52.856
G3 X19.402 Y43.509 I9.972 J0.023
G1 X19.587 Y43.583
X19.773 Y43.657
G2 X20.065 Y43.452 I0.074 J-0.205
G1 Y26.548
G2 X19.773 Y26.343 I-0.218 J0
G1 X19.587 Y26.417
X19.402 Y26.491
G3 X6.02 Y17.144 I-3.426 J-9.348
G1 X6.021 Y15.671
X6.025 Y15.659
X6.036 Y15.651
X6.048 Y15.652
X7.528 Y16.205
X7.537 Y16.212
X7.541 Y16.224
X7.54 Y17.144
G2 X18.893 Y25.094 I8.46 J0
X20.093 Y24.633 I-12.55 J-34.482
G3 X21.293 Y24.172 I13.75 J34.021
X21.585 Y24.377 I0.074 J0.205
G1 Y45.623
G3 X21.293 Y45.828 I-0.218 J0
X20.093 Y45.367 I12.552 J-34.486
G2 X18.893 Y44.906 I-13.735 J33.981
X7.54 Y52.856 I-2.893 J7.95
G1 X7.541 Y53.776
X7.545 Y53.788
X7.555 Y53.795
X7.568
X9.047 Y53.242
X9.057 Y53.234
X9.06 Y53.223
Y52.856
G3 X18.373 Y46.335 I6.94 J0
X20.593 Y47.167 I-42.601 J117.054
G2 X22.813 Y47.998 I44.924 J-116.497
X23.105 Y47.794 I0.074 J-0.205
G1 Y22.206
G2 X22.813 Y22.002 I-0.218 J0
X20.593 Y22.833 I42.703 J117.324
G3 X18.374 Y23.665 I-44.922 J-116.492
X9.06 Y17.144 I-2.374 J-6.521
G1 Y16.777
X9.064 Y16.765
X9.075 Y16.758
X9.087
X10.57 Y17.313
X10.579 Y17.32
X10.583 Y17.331
G2 X17.854 Y22.237 I5.417 J-0.187
G1 X24.333 Y19.831
G3 X24.625 Y20.035 I0.074 J0.205
G1 Y49.965
G3 X24.333 Y50.169 I-0.218 J0
G1 X17.854 Y47.763
G2 X10.583 Y52.669 I-1.854 J5.093
G1 X10.587 Y52.681
X10.596 Y52.689
X10.609
X12.187 Y52.248
X12.196 Y52.242
X12.201 Y52.232
G3 X17.317 Y49.238 I3.799 J0.624
G1 X25.949 Y52.38
X25.996 Y52.389
X26.043 Y52.383
X26.086 Y52.362
X26.12 Y52.329
X26.142 Y52.286
X26.15 Y52.239
Y17.761
X26.142 Y17.714
X26.12 Y17.671
X26.086 Y17.638
X26.043 Y17.617
X25.996 Y17.611
X25.949 Y17.62
X17.317 Y20.762
G3 X12.201 Y17.769 I-1.317 J-3.618
G1 X12.194 Y17.756
X12.179 Y17.752
X12.166 Y17.759
X-1.347 Y33.155
X-1.352 Y33.168
X-1.347 Y33.181
Z-4.958
X-1.34 Y33.189
G2 X0.345 Y34.824 I17.207 J-16.045
G3 X0.345 Y35.176 I-0.156 J0.176
G2 X-1.34 Y36.824 I15.744 J17.781
G1 X-1.345 Y36.837
X-1.376 Y39.144
X-1.369 Y39.159
X-1.354 Y39.164
X-1.34 Y39.157
G3 X2.733 Y35.188 I17.408 J13.79
G2 X2.733 Y34.812 I-0.141 J-0.188
G3 X-1.34 Y30.871 I13.155 J-17.668
G1 X-1.344 Y30.859
X-1.377 Y28.287
X-1.37 Y28.271
X-1.354 Y28.266
X-1.34 Y28.275
G2 X5.519 Y34.849 I17.248 J-11.132
G3 X5.519 Y35.151 I-0.089 J0.151
G2 X-1.34 Y41.763 I10.528 J17.785
G1 X-1.343 Y41.774
X-1.378 Y44.899
X-1.374 Y44.911
X-1.362 Y44.919
X-1.349 Y44.917
X-1.34 Y44.907
G3 X9.032 Y35.121 I17.366 J8.015
G1 X9.07 Y35.098
X9.098 Y35.064
X9.112 Y35.022
Y34.978
X9.098 Y34.936
X9.07 Y34.902
X9.032 Y34.879
G3 X-1.34 Y25.137 I6.898 J-17.735
G1 X-1.342 Y25.129
X-1.38 Y20.037
X-1.375 Y20.024
X-1.361 Y20.017
X-1.347 Y20.021
X-1.34 Y20.034
G2 X12.136 Y34.248 I17.282 J-2.89
G3 X12.465 Y34.659 I-0.093 J0.412
G1 Y34.749
Y35.25
Y35.341
G3 X12.136 Y35.752 I-0.422 J0
G2 X-1.34 Y50.016 I3.877 J17.16
G1 Y50.024
X-0.097 Y54.869
X-0.089 Y54.881
X-0.075 Y54.884
X-0.063 Y54.877
X-0.058 Y54.864
X-0.06 Y52.856
G3 X13.715 Y37.005 I16.068 J0.052
G2 X13.985 Y36.693 I-0.045 J-0.312
G1 Y36.555
X13.987 Y36.546
X13.993 Y36.539
X15.473 Y35.38
X15.487 Y35.375
X15.5 Y35.382
X15.505 Y35.395
Y38.068
G3 X15.207 Y38.383 I-0.315 J0
G2 X1.46 Y52.856 I0.796 J14.521
G1 X1.463 Y55.532
Y55.542
Z-1.947
X13.985 Y33.455
Z-4.958
Y33.444
Y33.307
G2 X13.715 Y32.995 I-0.315 J0
G3 X-0.06 Y17.144 I2.233 J-15.851
G1 X-0.058 Y15.136
X-0.054 Y15.125
X-0.046 Y15.118
X1.435 Y14.45
X1.448 Y14.449
X1.459 Y14.456
X1.463 Y14.468
X1.46 Y17.144
G2 X15.207 Y31.617 I14.492 J0
G3 X15.505 Y31.932 I-0.017 J0.315
G1 Y34.605
G3 X14.448 Y35.082 I-0.636 J0
G1 X12.36 Y33.242
X12.311 Y33.193
X0.488 Y20.211
G3 X0.146 Y19.268 I0.973 J-0.886
G1 X0.352 Y14.515
G3 X2.983 Y14.573 I1.315 J0.057
G1 X2.98 Y17.144
G2 X16.776 Y30.095 I12.978 J0
G3 X17.025 Y30.33 I0.014 J0.235
G1 Y39.67
G3 X16.776 Y39.905 I-0.235 J0
G2 X2.98 Y52.856 I-0.778 J12.994
G1 X2.983 Y55.427
X2.987 Y55.439
X2.997 Y55.446
X3.01 Y55.445
X4.489 Y54.901
X4.499 Y54.894
X4.502 Y54.882
X4.5 Y52.856
G3 X18.263 Y41.627 I11.493 J0.037
G2 X18.545 Y41.396 I0.046 J-0.231
G1 Y28.604
G2 X18.263 Y28.373 I-0.235 J0
G3 X4.5 Y17.144 I-2.301 J-11.229
G1 X4.502 Y15.117
X4.506 Y15.105
X4.517 Y15.098
X4.529 Y15.099
X6.008 Y15.652
X6.018 Y15.659
X6.021 Y15.671
X6.02 Y17.144
G2 X19.402 Y26.491 I9.956 J0
G1 X19.587 Y26.417
X19.773 Y26.343
G3 X20.065 Y26.548 I0.074 J0.205
G1 Y43.452
G3 X19.773 Y43.657 I-0.218 J0
G1 X19.587 Y43.583
X19.402 Y43.509
G2 X6.02 Y52.856 I-3.41 J9.37
G1 X6.021 Y54.33
X6.025 Y54.342
X6.036 Y54.349
X6.048
X7.528 Y53.795
X7.537 Y53.788
X7.541 Y53.776
X7.54 Y52.856
G3 X18.893 Y44.906 I8.46 J0
X20.093 Y45.367 I-12.535 J34.442
G2 X21.293 Y45.828 I13.751 J-34.025
X21.585 Y45.623 I0.074 J-0.205
G1 Y24.377
G2 X21.293 Y24.172 I-0.218 J0
X20.093 Y24.633 I12.55 J34.482
G3 X18.893 Y25.094 I-13.75 J-34.021
X7.54 Y17.144 I-2.893 J-7.95
G1 X7.541 Y16.224
X7.545 Y16.212
X7.555 Y16.205
X7.568
X9.047 Y16.758
X9.057 Y16.766
X9.06 Y16.777
Y17.144
G2 X18.374 Y23.665 I6.94 J0
X20.593 Y22.833 I-42.703 J-117.324
G3 X22.813 Y22.002 I44.922 J116.492
X23.105 Y22.206 I0.074 J0.205
G1 Y47.794
G3 X22.813 Y47.998 I-0.218 J0
X20.593 Y47.167 I42.704 J-117.329
G2 X18.373 Y46.335 I-44.821 J116.222
X9.06 Y52.856 I-2.373 J6.522
G1 Y53.223
X9.064 Y53.235
X9.075 Y53.242
X9.087 Y53.241
X10.57 Y52.687
X10.579 Y52.68
X10.583 Y52.669
G3 X17.854 Y47.763 I5.417 J0.187
G1 X24.333 Y50.169
G2 X24.625 Y49.965 I0.074 J-0.205
G1 Y20.035
G2 X24.333 Y19.831 I-0.218 J0
G1 X17.854 Y22.237
G3 X10.583 Y17.331 I-1.854 J-5.093
G1 X10.587 Y17.319
X10.596 Y17.311
X10.609
X12.187 Y17.753
X12.196 Y17.759
X12.201 Y17.769
G2 X17.317 Y20.762 I3.799 J-0.625
G1 X25.949 Y17.62
X25.996 Y17.611
X26.043 Y17.617
X26.086 Y17.638
X26.12 Y17.671
X26.142 Y17.714
X26.15 Y17.761
Y52.239
X26.142 Y52.286
X26.12 Y52.329
X26.086 Y52.362
X26.043 Y52.383
X25.996 Y52.389
X25.949 Y52.38
X17.317 Y49.238
G2 X12.201 Y52.232 I-1.317 J3.618
G1 X12.193 Y52.244
X12.179 Y52.249
X12.166 Y52.242
X-1.347 Y36.859
X-1.352 Y36.845
X-1.347 Y36.832
Z-5.95
X-1.34 Y36.824
G3 X0.345 Y35.176 I17.429 J16.133
G2 X0.345 Y34.824 I-0.156 J-0.176
G3 X-1.34 Y33.189 I15.522 J-17.68
G1 X-1.345 Y33.176
X-1.376 Y30.883
X-1.369 Y30.869
X-1.354 Y30.863
X-1.34 Y30.871
G2 X2.733 Y34.812 I17.228 J-13.727
G3 X2.733 Y35.188 I-0.141 J0.188
G2 X-1.34 Y39.157 I13.335 J17.759
G1 X-1.344 Y39.169
X-1.377 Y41.752
X-1.37 Y41.767
X-1.354 Y41.772
X-1.34 Y41.763
G3 X5.519 Y35.151 I17.387 J11.172
G2 X5.519 Y34.849 I-0.089 J-0.151
G3 X-1.34 Y28.275 I10.389 J-17.706
G1 X-1.343 Y28.265
X-1.378 Y25.146
X-1.374 Y25.133
X-1.362 Y25.126
X-1.349 Y25.127
X-1.34 Y25.137
G2 X9.032 Y34.879 I17.269 J-7.993
G1 X9.07 Y34.902
X9.098 Y34.936
X9.112 Y34.978
Y35.022
X9.098 Y35.064
X9.07 Y35.098
X9.032 Y35.121
G2 X-1.34 Y44.907 I6.994 J17.801
G1 X-1.342 Y44.916
X-1.38 Y50.012
X-1.374 Y50.026
X-1.361 Y50.032
X-1.347 Y50.028
X-1.34 Y50.016
G3 X12.136 Y35.752 I17.353 J2.897
G2 X12.465 Y35.341 I-0.093 J-0.412
G1 Y35.25
Y34.749
Y34.659
G2 X12.136 Y34.248 I-0.422 J0
G3 X-1.34 Y20.034 I3.807 J-17.104
G1 Y20.026
X-0.097 Y15.131
X-0.089 Y15.12
X-0.075 Y15.116
X-0.063 Y15.123
X-0.058 Y15.136
X-0.06 Y17.144
G2 X13.715 Y32.995 I16.008 J0
G3 X13.985 Y33.307 I-0.045 J0.312
G1 Y33.444
X13.987 Y33.453
X13.993 Y33.46
X15.473 Y34.62
X15.487 Y34.625
X15.5 Y34.618
X15.505 Y34.605
Y31.932
G2 X15.207 Y31.617 I-0.315 J0
G3 X1.46 Y17.144 I0.746 J-14.473
G1 X1.463 Y14.468
Y14.458
Z-2.938
X13.985 Y36.545
Z-5.95
Y36.555
Y36.693
G3 X13.715 Y37.005 I-0.315 J0
G2 X-0.06 Y52.856 I2.293 J15.903
G1 X-0.058 Y54.864
X-0.054 Y54.875
X-0.046 Y54.882
X1.435 Y55.55
X1.448 Y55.551
X1.459 Y55.544
X1.463 Y55.532
X1.46 Y52.856
G3 X15.207 Y38.383 I14.543 J0.048
G2 X15.505 Y38.068 I-0.017 J-0.315
G1 Y35.395
G2 X14.448 Y34.918 I-0.636 J0
G1 X12.36 Y36.758
X12.311 Y36.807
X0.488 Y49.789
G2 X0.146 Y50.732 I0.973 J0.886
G1 X0.352 Y55.485
G2 X2.983 Y55.427 I1.315 J-0.057
G1 X2.98 Y52.856
G3 X16.776 Y39.905 I13.017 J0.042
G2 X17.025 Y39.67 I0.014 J-0.235
G1 Y30.33
G2 X16.776 Y30.095 I-0.235 J0
G3 X2.98 Y17.144 I-0.818 J-12.952
G1 X2.983 Y14.573
X2.987 Y14.561
X2.997 Y14.554
X3.01
X4.489 Y15.099
X4.499 Y15.106
X4.502 Y15.117
X4.5 Y17.144
G2 X18.263 Y28.373 I11.462 J0
G3 X18.545 Y28.604 I0.046 J0.231
G1 Y41.396
G3 X18.263 Y41.627 I-0.235 J0
G2 X4.5 Y52.856 I-2.271 J11.266
G1 X4.502 Y54.882
X4.506 Y54.894
X4.516 Y54.901
X4.529
X6.008 Y54.349
X6.018 Y54.341
X6.021 Y54.33
X6.02 Y52.856
G3 X19.402 Y43.509 I9.972 J0.023
G1 X19.587 Y43.583
X19.773 Y43.657
G2 X20.065 Y43.452 I0.074 J-0.205
G1 Y26.548
G2 X19.773 Y26.343 I-0.218 J0
G1 X19.587 Y26.417
X19.402 Y26.491
G3 X6.02 Y17.144 I-3.426 J-9.348
G1 X6.021 Y15.671
X6.025 Y15.659
X6.036 Y15.651
X6.048 Y15.652
X7.528 Y16.205
X7.537 Y16.212
X7.541 Y16.224
X7.54 Y17.144
G2 X18.893 Y25.094 I8.46 J0
X20.093 Y24.633 I-12.55 J-34.482
G3 X21.293 Y24.172 I13.75 J34.021
X21.585 Y24.377 I0.074 J0.205
G1 Y45.623
G3 X21.293 Y45.828 I-0.218 J0
X20.093 Y45.367 I12.552 J-34.486
G2 X18.893 Y44.906 I-13.735 J33.981
X7.54 Y52.856 I-2.893 J7.95
G1 X7.541 Y53.776
X7.545 Y53.788
X7.555 Y53.795
X7.568
X9.047 Y53.242
X9.057 Y53.234
X9.06 Y53.223
Y52.856
G3 X18.373 Y46.335 I6.94 J0
X20.593 Y47.167 I-42.601 J117.054
G2 X22.813 Y47.998 I44.924 J-116.497
X23.105 Y47.794 I0.074 J-0.205
G1 Y22.206
G2 X22.813 Y22.002 I-0.218 J0
X20.593 Y22.833 I42.703 J117.324
G3 X18.374 Y23.665 I-44.922 J-116.492
X9.06 Y17.144 I-2.374 J-6.521
G1 Y16.777
X9.064 Y16.765
X9.075 Y16.758
X9.087
X10.57 Y17.313
X10.579 Y17.32
X10.583 Y17.331
G2 X17.854 Y22.237 I5.417 J-0.187
G1 X24.333 Y19.831
G3 X24.625 Y20.035 I0.074 J0.205
G1 Y49.965
G3 X24.333 Y50.169 I-0.218 J0
G1 X17.854 Y47.763
G2 X10.583 Y52.669 I-1.854 J5.093
G1 X10.587 Y52.681
X10.596 Y52.689
X10.609
X12.187 Y52.248
X12.196 Y52.242
X12.201 Y52.232
G3 X17.317 Y49.238 I3.799 J0.624
G1 X25.949 Y52.38
X25.996 Y52.389
X26.043 Y52.383
X26.086 Y52.362
X26.12 Y52.329
X26.142 Y52.286
X26.15 Y52.239
Y17.761
X26.142 Y17.714
X26.12 Y17.671
X26.086 Y17.638
X26.043 Y17.617
X25.996 Y17.611
X25.949 Y17.62
X17.317 Y20.762
G3 X12.201 Y17.769 I-1.317 J-3.618
G1 X11.982 Y16.437
Z10
X229.347 Y36.819
Z5
Z2.02 F333.3
Z-0.992 F1000
X229.34 Y36.811
G2 X227.655 Y35.176 I-17.207 J16.045
G3 X227.655 Y34.824 I0.156 J-0.176
G2 X229.34 Y33.176 I-15.744 J-17.781
G1 X229.345 Y33.163
X229.376 Y30.856
X229.369 Y30.841
X229.354 Y30.836
X229.34 Y30.843
G3 X225.267 Y34.812 I-17.408 J-13.79
G2 X225.267 Y35.188 I0.141 J0.188
G3 X229.34 Y39.129 I-13.155 J17.668
G1 X229.344 Y39.141
X229.377 Y41.713
X229.37 Y41.729
X229.354 Y41.734
X229.34 Y41.725
G2 X222.481 Y35.151 I-17.248 J11.132
G3 X222.481 Y34.849 I0.089 J-0.151
G2 X229.34 Y28.237 I-10.528 J-17.785
G1 X229.343 Y28.226
X229.378 Y25.101
X229.374 Y25.089
X229.362 Y25.081
X229.349 Y25.083
X229.34 Y25.093
G3 X218.968 Y34.879 I-17.366 J-8.015
G1 X218.93 Y34.902
X218.902 Y34.936
X218.888 Y34.978
Y35.022
X218.902 Y35.064
X218.93 Y35.098
X218.968 Y35.121
G3 X229.34 Y44.863 I-6.898 J17.735
G1 X229.342 Y44.871
X229.38 Y49.963
X229.375 Y49.976
X229.361 Y49.983
X229.347 Y49.979
X229.34 Y49.966
G2 X215.864 Y35.752 I-17.282 J2.89
G3 X215.535 Y35.341 I0.093 J-0.412
G1 Y35.25
Y34.75
Y34.659
G3 X215.864 Y34.248 I0.422 J0
G2 X229.34 Y19.984 I-3.877 J-17.16
G1 Y19.976
X228.097 Y15.131
X228.089 Y15.119
X228.075 Y15.116
X228.063 Y15.123
X228.058 Y15.136
X228.06 Y17.144
G3 X214.285 Y32.995 I-16.068 J-0.052
G2 X214.015 Y33.307 I0.045 J0.312
G1 Y33.445
X214.013 Y33.454
X214.007 Y33.461
X212.527 Y34.619
X212.513 Y34.623
X212.5 Y34.617
X212.495 Y34.603
Y31.932
G3 X212.793 Y31.617 I0.315 J0
G2 X226.54 Y17.144 I-0.796 J-14.521
G1 X226.537 Y14.468
Y14.458
Z5
X214.015 Y36.545
Z2.02 F333.3
Z-0.992 F1000
Y36.556
Y36.693
G2 X214.285 Y37.005 I0.315 J0
G3 X228.06 Y52.856 I-2.233 J15.851
G1 X228.058 Y54.864
X228.054 Y54.875
X228.046 Y54.882
X226.565 Y55.55
X226.552 Y55.551
X226.541 Y55.544
X226.537 Y55.532
X226.54 Y52.856
G2 X212.793 Y38.383 I-14.492 J0
G3 X212.495 Y38.068 I0.017 J-0.315
G1 Y35.397
G3 X213.552 Y34.919 I0.636 J0
G1 X215.638 Y36.758
X215.688 Y36.807
X227.511 Y49.791
G3 X227.853 Y50.734 I-0.973 J0.886
G1 X227.648 Y55.484
G3 X225.017 Y55.426 I-1.315 J-0.057
G1 X225.02 Y52.856
G2 X211.224 Y39.905 I-12.978 J0
G3 X210.975 Y39.67 I-0.014 J-0.235
G1 Y30.33
G3 X211.224 Y30.095 I0.235 J0
G2 X225.02 Y17.144 I0.778 J-12.994
G1 X225.017 Y14.573
X225.013 Y14.561
X225.003 Y14.554
X224.99 Y14.555
X223.511 Y15.099
X223.501 Y15.106
X223.498 Y15.118
X223.5 Y17.144
G3 X209.737 Y28.373 I-11.493 J-0.037
G2 X209.455 Y28.604 I-0.046 J0.231
G1 Y41.396
G2 X209.737 Y41.627 I0.235 J0
G3 X223.5 Y52.856 I2.301 J11.229
G1 X223.498 Y54.882
X223.494 Y54.894
X223.484 Y54.901
X223.471 Y54.9
X221.992 Y54.349
X221.982 Y54.341
X221.979 Y54.33
X221.98 Y52.856
G2 X208.598 Y43.509 I-9.956 J0
G1 X208.413 Y43.583
X208.227 Y43.657
G3 X207.935 Y43.452 I-0.074 J-0.205
G1 Y26.548
G3 X208.227 Y26.343 I0.218 J0
G1 X208.413 Y26.417
X208.598 Y26.491
G2 X221.98 Y17.144 I3.41 J-9.37
G1 X221.979 Y15.67
X221.975 Y15.658
X221.964 Y15.651
X221.952
X220.472 Y16.205
X220.463 Y16.212
X220.459 Y16.224
X220.46 Y17.144
G3 X209.107 Y25.094 I-8.46 J0
X207.907 Y24.633 I12.534 J-34.44
G2 X206.707 Y24.172 I-13.751 J34.025
X206.415 Y24.377 I-0.074 J0.205
G1 Y45.623
G2 X206.707 Y45.828 I0.218 J0
X207.907 Y45.367 I-12.55 J-34.482
G3 X209.107 Y44.906 I13.75 J34.021
X220.46 Y52.856 I2.893 J7.95
G1 X220.459 Y53.777
X220.455 Y53.789
X220.445 Y53.796
X220.432 Y53.795
X218.953 Y53.242
X218.943 Y53.235
X218.94 Y53.223
Y52.856
G2 X209.626 Y46.335 I-6.94 J0
X207.407 Y47.167 I42.702 J117.324
G3 X205.187 Y47.998 I-44.922 J-116.492
X204.895 Y47.794 I-0.074 J-0.205
G1 Y22.206
G3 X205.187 Y22.002 I0.218 J0
X207.407 Y22.833 I-42.705 J117.329
G2 X209.627 Y23.665 I44.818 J-116.215
X218.94 Y17.144 I2.373 J-6.522
G1 Y16.777
X218.936 Y16.765
X218.925 Y16.758
X218.913 Y16.759
X217.43 Y17.313
X217.421 Y17.32
X217.417 Y17.331
G3 X210.146 Y22.237 I-5.417 J-0.187
G1 X203.667 Y19.831
G2 X203.375 Y20.035 I-0.074 J0.205
G1 Y49.965
G2 X203.667 Y50.169 I0.218 J0
G1 X210.146 Y47.763
G3 X217.417 Y52.669 I1.854 J5.093
G1 X217.413 Y52.681
X217.404 Y52.689
X217.391
X215.813 Y52.247
X215.804 Y52.241
X215.799 Y52.231
G2 X210.683 Y49.238 I-3.799 J0.625
G1 X202.051 Y52.38
X202.004 Y52.389
X201.957 Y52.383
X201.914 Y52.362
X201.88 Y52.329
X201.858 Y52.286
X201.85 Y52.239
Y17.761
X201.858 Y17.714
X201.88 Y17.671
X201.914 Y17.638
X201.957 Y17.617
X202.004 Y17.611
X202.051 Y17.62
X210.683 Y20.762
G2 X215.799 Y17.768 I1.317 J-3.618
G1 X215.807 Y17.756
X215.821 Y17.751
X215.834 Y17.758
X229.347 Y33.141
X229.352 Y33.155
X229.347 Y33.168
Z-1.983
X229.34 Y33.176
G3 X227.655 Y34.824 I-17.429 J-16.133
G2 X227.655 Y35.176 I0.156 J0.176
G3 X229.34 Y36.811 I-15.522 J17.68
G1 X229.345 Y36.824
X229.376 Y39.117
X229.369 Y39.131
X229.354 Y39.137
X229.34 Y39.129
G2 X225.267 Y35.188 I-17.228 J13.727
G3 X225.267 Y34.812 I0.141 J-0.188
G2 X229.34 Y30.843 I-13.335 J-17.759
G1 X229.344 Y30.831
X229.377 Y28.248
X229.37 Y28.233
X229.354 Y28.228
X229.34 Y28.237
G3 X222.481 Y34.849 I-17.387 J-11.172
G2 X222.481 Y35.151 I0.089 J0.151
G3 X229.34 Y41.725 I-10.389 J17.706
G1 X229.343 Y41.735
X229.378 Y44.854
X229.374 Y44.867
X229.362 Y44.874
X229.349 Y44.873
X229.34 Y44.863
G2 X218.968 Y35.121 I-17.269 J7.993
G1 X218.93 Y35.098
X218.902 Y35.064
X218.888 Y35.022
Y34.978
X218.902 Y34.936
X218.93 Y34.902
X218.968 Y34.879
G2 X229.34 Y25.093 I-6.994 J-17.801
G1 X229.342 Y25.084
X229.38 Y19.988
X229.374 Y19.974
X229.361 Y19.968
X229.347 Y19.972
X229.34 Y19.984
G3 X215.864 Y34.248 I-17.353 J-2.897
G2 X215.535 Y34.659 I0.093 J0.412
G1 Y34.75
Y35.25
Y35.341
G2 X215.864 Y35.752 I0.422 J0
G3 X229.34 Y49.966 I-3.807 J17.104
G1 Y49.974
X228.097 Y54.869
X228.089 Y54.881
X228.075 Y54.884
X228.063 Y54.877
X228.058 Y54.864
X228.06 Y52.856
G2 X214.285 Y37.005 I-16.008 J0
G3 X214.015 Y36.693 I0.045 J-0.312
G1 Y36.556
X214.013 Y36.547
X214.007 Y36.54
X212.527 Y35.381
X212.513 Y35.377
X212.5 Y35.383
X212.495 Y35.397
Y38.068
G2 X212.793 Y38.383 I0.315 J0
G3 X226.54 Y52.856 I-0.746 J14.473
G1 X226.537 Y55.532
Y55.543
Z1.028
X214.015 Y33.455
Z-1.983
Y33.445
Y33.307
G3 X214.285 Y32.995 I0.315 J0
G2 X228.06 Y17.144 I-2.293 J-15.903
G1 X228.058 Y15.136
X228.054 Y15.125
X228.046 Y15.118
X226.565 Y14.45
X226.552 Y14.449
X226.541 Y14.456
X226.537 Y14.468
X226.54 Y17.144
G3 X212.793 Y31.617 I-14.543 J-0.048
G2 X212.495 Y31.932 I0.017 J0.315
G1 Y34.603
G2 X213.552 Y35.081 I0.636 J0
G1 X215.638 Y33.241
X215.688 Y33.193
X227.511 Y20.208
G2 X227.853 Y19.266 I-0.973 J-0.886
G1 X227.648 Y14.515
G2 X225.017 Y14.573 I-1.315 J0.057
G1 X225.02 Y17.144
G3 X211.224 Y30.095 I-13.017 J-0.042
G2 X210.975 Y30.33 I-0.014 J0.235
G1 Y39.67
G2 X211.224 Y39.905 I0.235 J0
G3 X225.02 Y52.856 I0.818 J12.952
G1 X225.017 Y55.426
X225.013 Y55.438
X225.003 Y55.445
X224.99
X223.511 Y54.901
X223.501 Y54.893
X223.498 Y54.882
X223.5 Y52.856
G2 X209.737 Y41.627 I-11.462 J0
G3 X209.455 Y41.396 I-0.046 J-0.231
G1 Y28.604
G3 X209.737 Y28.373 I0.235 J0
G2 X223.5 Y17.144 I2.271 J-11.266
G1 X223.498 Y15.118
X223.494 Y15.106
X223.484 Y15.099
X223.471
X221.992 Y15.651
X221.982 Y15.659
X221.979 Y15.67
X221.98 Y17.144
G3 X208.598 Y26.491 I-9.972 J-0.023
G1 X208.413 Y26.417
X208.227 Y26.343
G2 X207.935 Y26.548 I-0.074 J0.205
G1 Y43.452
G2 X208.227 Y43.657 I0.218 J0
G1 X208.413 Y43.583
X208.598 Y43.509
G3 X221.98 Y52.856 I3.426 J9.348
G1 X221.979 Y54.33
X221.975 Y54.342
X221.964 Y54.349
X221.952
X220.472 Y53.795
X220.463 Y53.788
X220.459 Y53.777
X220.46 Y52.856
G2 X209.107 Y44.906 I-8.46 J0
X207.907 Y45.367 I12.55 J34.482
G3 X206.707 Y45.828 I-13.75 J-34.021
X206.415 Y45.623 I-0.074 J-0.205
G1 Y24.377
G3 X206.707 Y24.172 I0.218 J0
X207.907 Y24.633 I-12.552 J34.486
G2 X209.107 Y25.094 I13.734 J-33.98
X220.46 Y17.144 I2.893 J-7.95
G1 X220.459 Y16.224
X220.455 Y16.212
X220.445 Y16.205
X220.432
X218.953 Y16.758
X218.943 Y16.766
X218.94 Y16.777
Y17.144
G3 X209.627 Y23.665 I-6.94 J0
X207.407 Y22.833 I42.599 J-117.047
G2 X205.187 Y22.002 I-44.924 J116.498
X204.895 Y22.206 I-0.074 J0.205
G1 Y47.794
G2 X205.187 Y47.998 I0.218 J0
X207.407 Y47.167 I-42.703 J-117.324
G3 X209.626 Y46.335 I44.922 J116.492
X218.94 Y52.856 I2.374 J6.521
G1 Y53.223
X218.936 Y53.235
X218.925 Y53.243
X218.913 Y53.242
X217.43 Y52.687
X217.421 Y52.68
X217.417 Y52.669
G2 X210.146 Y47.763 I-5.417 J0.187
G1 X203.667 Y50.169
G3 X203.375 Y49.965 I-0.074 J-0.205
G1 Y20.035
G3 X203.667 Y19.831 I0.218 J0
G1 X210.146 Y22.237
G2 X217.417 Y17.331 I1.854 J-5.093
G1 X217.413 Y17.319
X217.404 Y17.311
X217.391
X215.813 Y17.752
X215.804 Y17.758
X215.799 Y17.768
G3 X210.683 Y20.762 I-3.799 J-0.624
G1 X202.051 Y17.62
X202.004 Y17.611
X201.957 Y17.617
X201.914 Y17.638
X201.88 Y17.671
X201.858 Y17.714
X201.85 Y17.761
Y52.239
X201.858 Y52.286
X201.88 Y52.329
X201.914 Y52.362
X201.957 Y52.383
X202.004 Y52.389
X202.051 Y52.38
X210.683 Y49.238
G3 X215.799 Y52.231 I1.317 J3.618
G1 X215.806 Y52.244
X215.821 Y52.248
X215.834 Y52.241
X229.347 Y36.845
X229.352 Y36.832
X229.347 Y36.819
Z-2.975
X229.34 Y36.811
G2 X227.655 Y35.176 I-17.207 J16.045
G3 X227.655 Y34.824 I0.156 J-0.176
G2 X229.34 Y33.176 I-15.744 J-17.781
G1 X229.345 Y33.163
X229.376 Y30.856
X229.369 Y30.841
X229.354 Y30.836
X229.34 Y30.843
G3 X225.267 Y34.812 I-17.408 J-13.79
G2 X225.267 Y35.188 I0.141 J0.188
G3 X229.34 Y39.129 I-13.155 J17.668
G1 X229.344 Y39.141
X229.377 Y41.713
X229.37 Y41.729
X229.354 Y41.734
X229.34 Y41.725
G2 X222.481 Y35.151 I-17.248 J11.132
G3 X222.481 Y34.849 I0.089 J-0.151
G2 X229.34 Y28.237 I-10.528 J-17.785
G1 X229.343 Y28.226
X229.378 Y25.101
X229.374 Y25.089
X229.362 Y25.081
X229.349 Y25.083
X229.34 Y25.093
G3 X218.968 Y34.879 I-17.366 J-8.015
G1 X218.93 Y34.902
X218.902 Y34.936
X218.888 Y34.978
Y35.022
X218.902 Y35.064
X218.93 Y35.098
X218.968 Y35.121
G3 X229.34 Y44.863 I-6.898 J17.735
G1 X229.342 Y44.871
X229.38 Y49.963
X229.375 Y49.976
X229.361 Y49.983
X229.347 Y49.979
X229.34 Y49.966
G2 X215.864 Y35.752 I-17.282 J2.89
G3 X215.535 Y35.341 I0.093 J-0.412
G1 Y35.25
Y34.75
Y34.659
G3 X215.864 Y34.248 I0.422 J0
G2 X229.34 Y19.984 I-3.877 J-17.16
G1 Y19.976
X228.097 Y15.131
X228.089 Y15.119
X228.075 Y15.116
X228.063 Y15.123
X228.058 Y15.136
X228.06 Y17.144
G3 X214.285 Y32.995 I-16.068 J-0.052
G2 X214.015 Y33.307 I0.045 J0.312
G1 Y33.445
X214.013 Y33.454
X214.007 Y33.461
X212.527 Y34.619
X212.513 Y34.623
X212.5 Y34.617
X212.495 Y34.603
Y31.932
G3 X212.793 Y31.617 I0.315 J0
G2 X226.54 Y17.144 I-0.796 J-14.521
G1 X226.537 Y14.468
Y14.458
Z0.037
X214.015 Y36.545
Z-2.975
Y36.556
Y36.693
G2 X214.285 Y37.005 I0.315 J0
G3 X228.06 Y52.856 I-2.233 J15.851
G1 X228.058 Y54.864
X228.054 Y54.875
X228.046 Y54.882
X226.565 Y55.55
X226.552 Y55.551
X226.541 Y55.544
X226.537 Y55.532
X226.54 Y52.856
G2 X212.793 Y38.383 I-14.492 J0
G3 X212.495 Y38.068 I0.017 J-0.315
G1 Y35.397
G3 X213.552 Y34.919 I0.636 J0
G1 X215.638 Y36.758
X215.688 Y36.807
X227.511 Y49.791
G3 X227.853 Y50.734 I-0.973 J0.886
G1 X227.648 Y55.484
G3 X225.017 Y55.426 I-1.315 J-0.057
G1 X225.02 Y52.856
G2 X211.224 Y39.905 I-12.978 J0
G3 X210.975 Y39.67 I-0.014 J-0.235
G1 Y30.33
G3 X211.224 Y30.095 I0.235 J0
G2 X225.02 Y17.144 I0.778 J-12.994
G1 X225.017 Y14.573
X225.013 Y14.561
X225.003 Y14.554
X224.99 Y14.555
X223.511 Y15.099
X223.501 Y15.106
X223.498 Y15.118
X223.5 Y17.144
G3 X209.737 Y28.373 I-11.493 J-0.037
G2 X209.455 Y28.604 I-0.046 J0.231
G1 Y41.396
G2 X209.737 Y41.627 I0.235 J0
G3 X223.5 Y52.856 I2.301 J11.229
G1 X223.498 Y54.882
X223.494 Y54.894
X223.484 Y54.901
X223.471 Y54.9
X221.992 Y54.349
X221.982 Y54.341
X221.979 Y54.33
X221.98 Y52.856
G2 X208.598 Y43.509 I-9.956 J0
G1 X208.413 Y43.583
X208.227 Y43.657
G3 X207.935 Y43.452 I-0.074 J-0.205
G1 Y26.548
G3 X208.227 Y26.343 I0.218 J0
G1 X208.413 Y26.417
X208.598 Y26.491
G2 X221.98 Y17.144 I3.41 J-9.37
G1 X221.979 Y15.67
X221.975 Y15.658
X221.964 Y15.651
X221.952
X220.472 Y16.205
X220.463 Y16.212
X220.459 Y16.224
X220.46 Y17.144
G3 X209.107 Y25.094 I-8.46 J0
X207.907 Y24.633 I12.534 J-34.44
G2 X206.707 Y24.172 I-13.751 J34.025
X206.415 Y24.377 I-0.074 J0.205
G1 Y45.623
G2 X206.707 Y45.828 I0.218 J0
X207.907 Y45.367 I-12.55 J-34.482
G3 X209.107 Y44.906 I13.75 J34.021
X220.46 Y52.856 I2.893 J7.95
G1 X220.459 Y53.777
X220.455 Y53.789
X220.445 Y53.796
X220.432 Y53.795
X218.953 Y53.242
X218.943 Y53.235
X218.94 Y53.223
Y52.856
G2 X209.626 Y46.335 I-6.94 J0
X207.407 Y47.167 I42.702 J117.324
G3 X205.187 Y47.998 I-44.922 J-116.492
X204.895 Y47.794 I-0.074 J-0.205
G1 Y22.206
G3 X205.187 Y22.002 I0.218 J0
X207.407 Y22.833 I-42.705 J117.329
G2 X209.627 Y23.665 I44.818 J-116.215
X218.94 Y17.144 I2.373 J-6.522
G1 Y16.777
X218.936 Y16.765
X218.925 Y16.758
X218.913 Y16.759
X217.43 Y17.313
X217.421 Y17.32
X217.417 Y17.331
G3 X210.146 Y22.237 I-5.417 J-0.187
G1 X203.667 Y19.831
G2 X203.375 Y20.035 I-0.074 J0.205
G1 Y49.965
G2 X203.667 Y50.169 I0.218 J0
G1 X210.146 Y47.763
G3 X217.417 Y52.669 I1.854 J5.093
G1 X217.413 Y52.681
X217.404 Y52.689
X217.391
X215.813 Y52.247
X215.804 Y52.241
X215.799 Y52.231
G2 X210.683 Y49.238 I-3.799 J0.625
G1 X202.051 Y52.38
X202.004 Y52.389
X201.957 Y52.383
X201.914 Y52.362
X201.88 Y52.329
X201.858 Y52.286
X201.85 Y52.239
Y17.761
X201.858 Y17.714
X201.88 Y17.671
X201.914 Y17.638
X201.957 Y17.617
X202.004 Y17.611
X202.051 Y17.62
X210.683 Y20.762
G2 X215.799 Y17.768 I1.317 J-3.618
G1 X215.807 Y17.756
X215.821 Y17.751
X215.834 Y17.758
X229.347 Y33.141
X229.352 Y33.155
X229.347 Y33.168
Z-3.967
X229.34 Y33.176
G3 X227.655 Y34.824 I-17.429 J-16.133
G2 X227.655 Y35.176 I0.156 J0.176
G3 X229.34 Y36.811 I-15.522 J17.68
G1 X229.345 Y36.824
X229.376 Y39.117
X229.369 Y39.131
X229.354 Y39.137
X229.34 Y39.129
G2 X225.267 Y35.188 I-17.228 J13.727
G3 X225.267 Y34.812 I0.141 J-0.188
G2 X229.34 Y30.843 I-13.335 J-17.759
G1 X229.344 Y30.831
X229.377 Y28.248
X229.37 Y28.233
X229.354 Y28.228
X229.34 Y28.237
G3 X222.481 Y34.849 I-17.387 J-11.172
G2 X222.481 Y35.151 I0.089 J0.151
G3 X229.34 Y41.725 I-10.389 J17.706
G1 X229.343 Y41.735
X229.378 Y44.854
X229.374 Y44.867
X229.362 Y44.874
X229.349 Y44.873
X229.34 Y44.863
G2 X218.968 Y35.121 I-17.269 J7.993
G1 X218.93 Y35.098
X218.902 Y35.064
X218.888 Y35.022
Y34.978
X218.902 Y34.936
X218.93 Y34.902
X218.968 Y34.879
G2 X229.34 Y25.093 I-6.994 J-17.801
G1 X229.342 Y25.084
X229.38 Y19.988
X229.374 Y19.974
X229.361 Y19.968
X229.347 Y19.972
X229.34 Y19.984
G3 X215.864 Y34.248 I-17.353 J-2.897
G2 X215.535 Y34.659 I0.093 J0.412
G1 Y34.75
Y35.25
Y35.341
G2 X215.864 Y35.752 I0.422 J0
G3 X229.34 Y49.966 I-3.807 J17.104
G1 Y49.974
X228.097 Y54.869
X228.089 Y54.881
X228.075 Y54.884
X228.063 Y54.877
X228.058 Y54.864
X228.06 Y52.856
G2 X214.285 Y37.005 I-16.008 J0
G3 X214.015 Y36.693 I0.045 J-0.312
G1 Y36.556
X214.013 Y36.547
X214.007 Y36.54
X212.527 Y35.381
X212.513 Y35.377
X212.5 Y35.383
X212.495 Y35.397
Y38.068
G2 X212.793 Y38.383 I0.315 J0
G3 X226.54 Y52.856 I-0.746 J14.473
G1 X226.537 Y55.532
Y55.543
Z-0.955
X214.015 Y33.455
Z-3.967
Y33.445
Y33.307
G3 X214.285 Y32.995 I0.315 J0
G2 X228.06 Y17.144 I-2.293 J-15.903
G1 X228.058 Y15.136
X228.054 Y15.125
X228.046 Y15.118
X226.565 Y14.45
X226.552 Y14.449
X226.541 Y14.456
X226.537 Y14.468
X226.54 Y17.144
G3 X212.793 Y31.617 I-14.543 J-0.048
G2 X212.495 Y31.932 I0.017 J0.315
G1 Y34.603
G2 X213.552 Y35.081 I0.636 J0
G1 X215.638 Y33.241
X215.688 Y33.193
X227.511 Y20.208
G2 X227.853 Y19.266 I-0.973 J-0.886
G1 X227.648 Y14.515
G2 X225.017 Y14.573 I-1.315 J0.057
G1 X225.02 Y17.144
G3 X211.224 Y30.095 I-13.017 J-0.042
G2 X210.975 Y30.33 I-0.014 J0.235
G1 Y39.67
G2 X211.224 Y39.905 I0.235 J0
G3 X225.02 Y52.856 I0.818 J12.952
G1 X225.017 Y55.426
X225.013 Y55.438
X225.003 Y55.445
X224.99
X223.511 Y54.901
X223.501 Y54.893
X223.498 Y54.882
X223.5 Y52.856
G2 X209.737 Y41.627 I-11.462 J0
G3 X209.455 Y41.396 I-0.046 J-0.231
G1 Y28.604
G3 X209.737 Y28.373 I0.235 J0
G2 X223.5 Y17.144 I2.271 J-11.266
G1 X223.498 Y15.118
X223.494 Y15.106
X223.484 Y15.099
X223.471
X221.992 Y15.651
X221.982 Y15.659
X221.979 Y15.67
X221.98 Y17.144
G3 X208.598 Y26.491 I-9.972 J-0.023
G1 X208.413 Y26.417
X208.227 Y26.343
G2 X207.935 Y26.548 I-0.074 J0.205
G1 Y43.452
G2 X208.227 Y43.657 I0.218 J0
G1 X208.413 Y43.583
X208.598 Y43.509
G3 X221.98 Y52.856 I3.426 J9.348
G1 X221.979 Y54.33
X221.975 Y54.342
X221.964 Y54.349
X221.952
X220.472 Y53.795
X220.463 Y53.788
X220.459 Y53.777
X220.46 Y52.856
G2 X209.107 Y44.906 I-8.46 J0
X207.907 Y45.367 I12.55 J34.482
G3 X206.707 Y45.828 I-13.75 J-34.021
X206.415 Y45.623 I-0.074 J-0.205
G1 Y24.377
G3 X206.707 Y24.172 I0.218 J0
X207.907 Y24.633 I-12.552 J34.486
G2 X209.107 Y25.094 I13.734 J-33.98
X220.46 Y17.144 I2.893 J-7.95
G1 X220.459 Y16.224
X220.455 Y16.212
X220.445 Y16.205
X220.432
X218.953 Y16.758
X218.943 Y16.766
X218.94 Y16.777
Y17.144
G3 X209.627 Y23.665 I-6.94 J0
X207.407 Y22.833 I42.599 J-117.047
G2 X205.187 Y22.002 I-44.924 J116.498
X204.895 Y22.206 I-0.074 J0.205
G1 Y47.794
G2 X205.187 Y47.998 I0.218 J0
X207.407 Y47.167 I-42.703 J-117.324
G3 X209.626 Y46.335 I44.922 J116.492
X218.94 Y52.856 I2.374 J6.521
G1 Y53.223
X218.936 Y53.235
X218.925 Y53.243
X218.913 Y53.242
X217.43 Y52.687
X217.421 Y52.68
X217.417 Y52.669
G2 X210.146 Y47.763 I-5.417 J0.187
G1 X203.667 Y50.169
G3 X203.375 Y49.965 I-0.074 J-0.205
G1 Y20.035
G3 X203.667 Y19.831 I0.218 J0
G1 X210.146 Y22.237
G2 X217.417 Y17.331 I1.854 J-5.093
G1 X217.413 Y17.319
X217.404 Y17.311
X217.391
X215.813 Y17.752
X215.804 Y17.758
X215.799 Y17.768
G3 X210.683 Y20.762 I-3.799 J-0.624
G1 X202.051 Y17.62
X202.004 Y17.611
X201.957 Y17.617
X201.914 Y17.638
X201.88 Y17.671
X201.858 Y17.714
X201.85 Y17.761
Y52.239
X201.858 Y52.286
X201.88 Y52.329
X201.914 Y52.362
X201.957 Y52.383
X202.004 Y52.389
X202.051 Y52.38
X210.683 Y49.238
G3 X215.799 Y52.231 I1.317 J3.618
G1 X215.806 Y52.244
X215.821 Y52.248
X215.834 Y52.241
X229.347 Y36.845
X229.352 Y36.832
X229.347 Y36.819
Z-4.958
X229.34 Y36.811
G2 X227.655 Y35.176 I-17.207 J16.045
G3 X227.655 Y34.824 I0.156 J-0.176
G2 X229.34 Y33.176 I-15.744 J-17.781
G1 X229.345 Y33.163
X229.376 Y30.856
X229.369 Y30.841
X229.354 Y30.836
X229.34 Y30.843
G3 X225.267 Y34.812 I-17.408 J-13.79
G2 X225.267 Y35.188 I0.141 J0.188
G3 X229.34 Y39.129 I-13.155 J17.668
G1 X229.344 Y39.141
X229.377 Y41.713
X229.37 Y41.729
X229.354 Y41.734
X229.34 Y41.725
G2 X222.481 Y35.151 I-17.248 J11.132
G3 X222.481 Y34.849 I0.089 J-0.151
G2 X229.34 Y28.237 I-10.528 J-17.785
G1 X229.343 Y28.226
X229.378 Y25.101
X229.374 Y25.089
X229.362 Y25.081
X229.349 Y25.083
X229.34 Y25.093
G3 X218.968 Y34.879 I-17.366 J-8.015
G1 X218.93 Y34.902
X218.902 Y34.936
X218.888 Y34.978
Y35.022
X218.902 Y35.064
X218.93 Y35.098
X218.968 Y35.121
G3 X229.34 Y44.863 I-6.898 J17.735
G1 X229.342 Y44.871
X229.38 Y49.963
X229.375 Y49.976
X229.361 Y49.983
X229.347 Y49.979
X229.34 Y49.966
G2 X215.864 Y35.752 I-17.282 J2.89
G3 X215.535 Y35.341 I0.093 J-0.412
G1 Y35.25
Y34.75
Y34.659
G3 X215.864 Y34.248 I0.422 J0
G2 X229.34 Y19.984 I-3.877 J-17.16
G1 Y19.976
X228.097 Y15.131
X228.089 Y15.119
X228.075 Y15.116
X228.063 Y15.123
X228.058 Y15.136
X228.06 Y17.144
G3 X214.285 Y32.995 I-16.068 J-0.052
G2 X214.015 Y33.307 I0.045 J0.312
G1 Y33.445
X214.013 Y33.454
X214.007 Y33.461
X212.527 Y34.619
X212.513 Y34.623
X212.5 Y34.617
X212.495 Y34.603
Y31.932
G3 X212.793 Y31.617 I0.315 J0
G2 X226.54 Y17.144 I-0.796 J-14.521
G1 X226.537 Y14.468
Y14.458
Z-1.947
X214.015 Y36.545
Z-4.958
Y36.556
Y36.693
G2 X214.285 Y37.005 I0.315 J0
G3 X228.06 Y52.856 I-2.233 J15.851
G1 X228.058 Y54.864
X228.054 Y54.875
X228.046 Y54.882
X226.565 Y55.55
X226.552 Y55.551
X226.541 Y55.544
X226.537 Y55.532
X226.54 Y52.856
G2 X212.793 Y38.383 I-14.492 J0
G3 X212.495 Y38.068 I0.017 J-0.315
G1 Y35.397
G3 X213.552 Y34.919 I0.636 J0
G1 X215.638 Y36.758
X215.688 Y36.807
X227.511 Y49.791
G3 X227.853 Y50.734 I-0.973 J0.886
G1 X227.648 Y55.484
G3 X225.017 Y55.426 I-1.315 J-0.057
G1 X225.02 Y52.856
G2 X211.224 Y39.905 I-12.978 J0
G3 X210.975 Y39.67 I-0.014 J-0.235
G1 Y30.33
G3 X211.224 Y30.095 I0.235 J0
G2 X225.02 Y17.144 I0.778 J-12.994
G1 X225.017 Y14.573
X225.013 Y14.561
X225.003 Y14.554
X224.99 Y14.555
X223.511 Y15.099
X223.501 Y15.106
X223.498 Y15.118
X223.5 Y17.144
G3 X209.737 Y28.373 I-11.493 J-0.037
G2 X209.455 Y28.604 I-0.046 J0.231
G1 Y41.396
G2 X209.737 Y41.627 I0.235 J0
G3 X223.5 Y52.856 I2.301 J11.229
G1 X223.498 Y54.882
X223.494 Y54.894
X223.484 Y54.901
X223.471 Y54.9
X221.992 Y54.349
X221.982 Y54.341
X221.979 Y54.33
X221.98 Y52.856
G2 X208.598 Y43.509 I-9.956 J0
G1 X208.413 Y43.583
X208.227 Y43.657
G3 X207.935 Y43.452 I-0.074 J-0.205
G1 Y26.548
G3 X208.227 Y26.343 I0.218 J0
G1 X208.413 Y26.417
X208.598 Y26.491
G2 X221.98 Y17.144 I3.41 J-9.37
G1 X221.979 Y15.67
X221.975 Y15.658
X221.964 Y15.651
X221.952
X220.472 Y16.205
X220.463 Y16.212
X220.459 Y16.224
X220.46 Y17.144
G3 X209.107 Y25.094 I-8.46 J0
X207.907 Y24.633 I12.534 J-34.44
G2 X206.707 Y24.172 I-13.751 J34.025
X206.415 Y24.377 I-0.074 J0.205
G1 Y45.623
G2 X206.707 Y45.828 I0.218 J0
X207.907 Y45.367 I-12.55 J-34.482
G3 X209.107 Y44.906 I13.75 J34.021
X220.46 Y52.856 I2.893 J7.95
G1 X220.459 Y53.777
X220.455 Y53.789
X220.445 Y53.796
X220.432 Y53.795
X218.953 Y53.242
X218.943 Y53.235
X218.94 Y53.223
Y52.856
G2 X209.626 Y46.335 I-6.94 J0
X207.407 Y47.167 I42.702 J117.324
G3 X205.187 Y47.998 I-44.922 J-116.492
X204.895 Y47.794 I-0.074 J-0.205
G1 Y22.206
G3 X205.187 Y22.002 I0.218 J0
X207.407 Y22.833 I-42.705 J117.329
G2 X209.627 Y23.665 I44.818 J-116.215
X218.94 Y17.144 I2.373 J-6.522
G1 Y16.777
X218.936 Y16.765
X218.925 Y16.758
X218.913 Y16.759
X217.43 Y17.313
X217.421 Y17.32
X217.417 Y17.331
G3 X210.146 Y22.237 I-5.417 J-0.187
G1 X203.667 Y19.831
G2 X203.375 Y20.035 I-0.074 J0.205
G1 Y49.965
G2 X203.667 Y50.169 I0.218 J0
G1 X210.146 Y47.763
G3 X217.417 Y52.669 I1.854 J5.093
G1 X217.413 Y52.681
X217.404 Y52.689
X217.391
X215.813 Y52.247
X215.804 Y52.241
X215.799 Y52.231
G2 X210.683 Y49.238 I-3.799 J0.625
G1 X202.051 Y52.38
X202.004 Y52.389
X201.957 Y52.383
X201.914 Y52.362
X201.88 Y52.329
X201.858 Y52.286
X201.85 Y52.239
Y17.761
X201.858 Y17.714
X201.88 Y17.671
X201.914 Y17.638
X201.957 Y17.617
X202.004 Y17.611
X202.051 Y17.62
X210.683 Y20.762
G2 X215.799 Y17.768 I1.317 J-3.618
G1 X215.807 Y17.756
X215.821 Y17.751
X215.834 Y17.758
X229.347 Y33.141
X229.352 Y33.155
X229.347 Y33.168
Z-5.95
X229.34 Y33.176
G3 X227.655 Y34.824 I-17.429 J-16.133
G2 X227.655 Y35.176 I0.156 J0.176
G3 X229.34 Y36.811 I-15.522 J17.68
G1 X229.345 Y36.824
X229.376 Y39.117
X229.369 Y39.131
X229.354 Y39.137
X229.34 Y39.129
G2 X225.267 Y35.188 I-17.228 J13.727
G3 X225.267 Y34.812 I0.141 J-0.188
G2 X229.34 Y30.843 I-13.335 J-17.759
G1 X229.344 Y30.831
X229.377 Y28.248
X229.37 Y28.233
X229.354 Y28.228
X229.34 Y28.237
G3 X222.481 Y34.849 I-17.387 J-11.172
G2 X222.481 Y35.151 I0.089 J0.151
G3 X229.34 Y41.725 I-10.389 J17.706
G1 X229.343 Y41.735
X229.378 Y44.854
X229.374 Y44.867
X229.362 Y44.874
X229.349 Y44.873
X229.34 Y44.863
G2 X218.968 Y35.121 I-17.269 J7.993
G1 X218.93 Y35.098
X218.902 Y35.064
X218.888 Y35.022
Y34.978
X218.902 Y34.936
X218.93 Y34.902
X218.968 Y34.879
G2 X229.34 Y25.093 I-6.994 J-17.801
G1 X229.342 Y25.084
X229.38 Y19.988
X229.374 Y19.974
X229.361 Y19.968
X229.347 Y19.972
X229.34 Y19.984
G3 X215.864 Y34.248 I-17.353 J-2.897
G2 X215.535 Y34.659 I0.093 J0.412
G1 Y34.75
Y35.25
Y35.341
G2 X215.864 Y35.752 I0.422 J0
G3 X229.34 Y49.966 I-3.807 J17.104
G1 Y49.974
X228.097 Y54.869
X228.089 Y54.881
X228.075 Y54.884
X228.063 Y54.877
X228.058 Y54.864
X228.06 Y52.856
G2 X214.285 Y37.005 I-16.008 J0
G3 X214.015 Y36.693 I0.045 J-0.312
G1 Y36.556
X214.013 Y36.547
X214.007 Y36.54
X212.527 Y35.381
X212.513 Y35.377
X212.5 Y35.383
X212.495 Y35.397
Y38.068
G2 X212.793 Y38.383 I0.315 J0
G3 X226.54 Y52.856 I-0.746 J14.473
G1 X226.537 Y55.532
Y55.543
Z-2.938
X214.015 Y33.455
Z-5.95
Y33.445
Y33.307
G3 X214.285 Y32.995 I0.315 J0
G2 X228.06 Y17.144 I-2.293 J-15.903
G1 X228.058 Y15.136
X228.054 Y15.125
X228.046 Y15.118
X226.565 Y14.45
X226.552 Y14.449
X226.541 Y14.456
X226.537 Y14.468
X226.54 Y17.144
G3 X212.793 Y31.617 I-14.543 J-0.048
G2 X212.495 Y31.932 I0.017 J0.315
G1 Y34.603
G2 X213.552 Y35.081 I0.636 J0
G1 X215.638 Y33.241
X215.688 Y33.193
X227.511 Y20.208
G2 X227.853 Y19.266 I-0.973 J-0.886
G1 X227.648 Y14.515
G2 X225.017 Y14.573 I-1.315 J0.057
G1 X225.02 Y17.144
G3 X211.224 Y30.095 I-13.017 J-0.042
G2 X210.975 Y30.33 I-0.014 J0.235
G1 Y39.67
G2 X211.224 Y39.905 I0.235 J0
G3 X225.02 Y52.856 I0.818 J12.952
G1 X225.017 Y55.426
X225.013 Y55.438
X225.003 Y55.445
X224.99
X223.511 Y54.901
X223.501 Y54.893
X223.498 Y54.882
X223.5 Y52.856
G2 X209.737 Y41.627 I-11.462 J0
G3 X209.455 Y41.396 I-0.046 J-0.231
G1 Y28.604
G3 X209.737 Y28.373 I0.235 J0
G2 X223.5 Y17.144 I2.271 J-11.266
G1 X223.498 Y15.118
X223.494 Y15.106
X223.484 Y15.099
X223.471
X221.992 Y15.651
X221.982 Y15.659
X221.979 Y15.67
X221.98 Y17.144
G3 X208.598 Y26.491 I-9.972 J-0.023
G1 X208.413 Y26.417
X208.227 Y26.343
G2 X207.935 Y26.548 I-0.074 J0.205
G1 Y43.452
G2 X208.227 Y43.657 I0.218 J0
G1 X208.413 Y43.583
X208.598 Y43.509
G3 X221.98 Y52.856 I3.426 J9.348
G1 X221.979 Y54.33
X221.975 Y54.342
X221.964 Y54.349
X221.952
X220.472 Y53.795
X220.463 Y53.788
X220.459 Y53.777
X220.46 Y52.856
G2 X209.107 Y44.906 I-8.46 J0
X207.907 Y45.367 I12.55 J34.482
G3 X206.707 Y45.828 I-13.75 J-34.021
X206.415 Y45.623 I-0.074 J-0.205
G1 Y24.377
G3 X206.707 Y24.172 I0.218 J0
X207.907 Y24.633 I-12.552 J34.486
G2 X209.107 Y25.094 I13.734 J-33.98
X220.46 Y17.144 I2.893 J-7.95
G1 X220.459 Y16.224
X220.455 Y16.212
X220.445 Y16.205
X220.432
X218.953 Y16.758
X218.943 Y16.766
X218.94 Y16.777
Y17.144
G3 X209.627 Y23.665 I-6.94 J0
X207.407 Y22.833 I42.599 J-117.047
G2 X205.187 Y22.002 I-44.924 J116.498
X204.895 Y22.206 I-0.074 J0.205
G1 Y47.794
G2 X205.187 Y47.998 I0.218 J0
X207.407 Y47.167 I-42.703 J-117.324
G3 X209.626 Y46.335 I44.922 J116.492
X218.94 Y52.856 I2.374 J6.521
G1 Y53.223
X218.936 Y53.235
X218.925 Y53.243
X218.913 Y53.242
X217.43 Y52.687
X217.421 Y52.68
X217.417 Y52.669
G2 X210.146 Y47.763 I-5.417 J0.187
G1 X203.667 Y50.169
G3 X203.375 Y49.965 I-0.074 J-0.205
G1 Y20.035
G3 X203.667 Y19.831 I0.218 J0
G1 X210.146 Y22.237
G2 X217.417 Y17.331 I1.854 J-5.093
G1 X217.413 Y17.319
X217.404 Y17.311
X217.391
X215.813 Y17.752
X215.804 Y17.758
X215.799 Y17.768
G3 X210.683 Y20.762 I-3.799 J-0.624
G1 X202.051 Y17.62
X202.004 Y17.611
X201.957 Y17.617
X201.914 Y17.638
X201.88 Y17.671
X201.858 Y17.714
X201.85 Y17.761
Y52.239
X201.858 Y52.286
X201.88 Y52.329
X201.914 Y52.362
X201.957 Y52.383
X202.004 Y52.389
X202.051 Y52.38
X210.683 Y49.238
G3 X215.799 Y52.231 I1.317 J3.618
G1 X216.018 Y53.563
Z10
(When using Fusion 360 for Personal Use, the feedrate of)
(rapid moves is reduced to match the feedrate of cutting)
(moves, which can increase machining time. Unrestricted rapid)
(moves are available with a Fusion 360 Subscription.)

(2D Contour tabs)
G0 X215.55 Y52.856
G1 Z10 F1000
Z5
Z2.02 F333.3
Z-0.992
G2 X210.786 Y49.52 I-3.55 J0 F1000
G1 X202.154 Y52.662
G3 X201.55 Y52.239 I-0.154 J-0.423
G1 Y17.761
G3 X202.154 Y17.338 I0.45 J0
G1 X210.786 Y20.48
G2 X215.55 Y17.144 I1.214 J-3.336
G1 Z5
Y52.856
Z1.028 F333.3
Z-1.983
G2 X210.786 Y49.52 I-3.55 J0 F1000
G1 X202.154 Y52.662
G3 X201.55 Y52.239 I-0.154 J-0.423
G1 Y17.761
G3 X202.154 Y17.338 I0.45 J0
G1 X210.786 Y20.48
G2 X215.55 Y17.144 I1.214 J-3.336
G1 Z5
Y52.856
Z0.037 F333.3
Z-2.975
G2 X210.786 Y49.52 I-3.55 J0 F1000
G1 X202.154 Y52.662
G3 X201.55 Y52.239 I-0.154 J-0.423
G1 Y17.761
G3 X202.154 Y17.338 I0.45 J0
G1 X210.786 Y20.48
G2 X215.55 Y17.144 I1.214 J-3.336
G1 Z5
Y52.856
Z-0.955 F333.3
Z-3.967
G2 X210.786 Y49.52 I-3.55 J0 F1000
G1 X202.154 Y52.662
G3 X201.55 Y52.239 I-0.154 J-0.423
G1 Y17.761
G3 X202.154 Y17.338 I0.45 J0
G1 X210.786 Y20.48
G2 X215.55 Y17.144 I1.214 J-3.336
G1 Z5
Y52.856
Z-1.947 F333.3
Z-4.958
G2 X210.786 Y49.52 I-3.55 J0 F1000
G1 X202.154 Y52.662
G3 X201.55 Y52.239 I-0.154 J-0.423
G1 Y17.761
G3 X202.154 Y17.338 I0.45 J0
G1 X210.786 Y20.48
G2 X215.55 Y17.144 I1.214 J-3.336
G1 Z5
Y52.856
Z-2.938 F333.3
Z-5.95
G2 X210.786 Y49.52 I-3.55 J0 F1000
G1 X202.154 Y52.662
G3 X201.55 Y52.239 I-0.154 J-0.423
G1 Y17.761
G3 X202.154 Y17.338 I0.45 J0
G1 X210.786 Y20.48
G2 X215.55 Y17.144 I1.214 J-3.336
G1 Z5
X215.35 Y52.856
Z-2.938 F333.3
Z-5.95
G2 X210.854 Y49.708 I-3.35 J0 F1000
G1 X202.222 Y52.85
G3 X201.35 Y52.239 I-0.222 J-0.611
G1 Y17.761
G3 X202.222 Y17.15 I0.65 J0
G1 X210.854 Y20.292
G2 X215.35 Y17.144 I1.146 J-3.148
G1 Z5
X12.45
Z2.02 F333.3
Z-0.992
G2 X17.214 Y20.48 I3.55 J0 F1000
G1 X25.846 Y17.338
G3 X26.45 Y17.761 I0.154 J0.423
G1 Y52.239
G3 X25.846 Y52.662 I-0.45 J0
G1 X17.214 Y49.52
G2 X12.45 Y52.856 I-1.214 J3.336
G1 Z5
Y17.144
Z1.028 F333.3
Z-1.983
G2 X17.214 Y20.48 I3.55 J0 F1000
G1 X25.846 Y17.338
G3 X26.45 Y17.761 I0.154 J0.423
G1 Y52.239
G3 X25.846 Y52.662 I-0.45 J0
G1 X17.214 Y49.52
G2 X12.45 Y52.856 I-1.214 J3.336
G1 Z5
Y17.144
Z0.037 F333.3
Z-2.975
G2 X17.214 Y20.48 I3.55 J0 F1000
G1 X25.846 Y17.338
G3 X26.45 Y17.761 I0.154 J0.423
G1 Y52.239
G3 X25.846 Y52.662 I-0.45 J0
G1 X17.214 Y49.52
G2 X12.45 Y52.856 I-1.214 J3.336
G1 Z5
Y17.144
Z-0.955 F333.3
Z-3.967
G2 X17.214 Y20.48 I3.55 J0 F1000
G1 X25.846 Y17.338
G3 X26.45 Y17.761 I0.154 J0.423
G1 Y52.239
G3 X25.846 Y52.662 I-0.45 J0
G1 X17.214 Y49.52
G2 X12.45 Y52.856 I-1.214 J3.336
G1 Z5
Y17.144
Z-1.947 F333.3
Z-4.958
G2 X17.214 Y20.48 I3.55 J0 F1000
G1 X25.846 Y17.338
G3 X26.45 Y17.761 I0.154 J0.423
G1 Y52.239
G3 X25.846 Y52.662 I-0.45 J0
G1 X17.214 Y49.52
G2 X12.45 Y52.856 I-1.214 J3.336
G1 Z5
Y17.144
Z-2.938 F333.3
Z-5.95
G2 X17.214 Y20.48 I3.55 J0 F1000
G1 X25.846 Y17.338
G3 X26.45 Y17.761 I0.154 J0.423
G1 Y52.239
G3 X25.846 Y52.662 I-0.45 J0
G1 X17.214 Y49.52
G2 X12.45 Y52.856 I-1.214 J3.336
G1 Z5
X12.65 Y17.144
Z-2.938 F333.3
Z-5.95
G2 X17.146 Y20.292 I3.35 J0 F1000
G1 X25.778 Y17.15
G3 X26.65 Y17.761 I0.222 J0.611
G1 Y52.239
G3 X25.778 Y52.85 I-0.65 J0
G1 X17.146 Y49.708
G2 X12.65 Y52.856 I-1.146 J3.148
G1 Z10
(When using Fusion 360 for Personal Use, the feedrate of)
(rapid moves is reduced to match the feedrate of cutting)
(moves, which can increase machining time. Unrestricted rapid)
(moves are available with a Fusion 360 Subscription.)

(Bore1)
G0 X214.775 Y34.73
G1 Z10 F80
Z-3.95
Z-5.68
G18 G2 X215.045 Z-5.95 I0.27 K0
G1 X215.18
G17 G3 X215.45 Y35 I0 J0.27
X212.55 Y35 Z-6.2 I-1.45 J0
X215.45 Y35 Z-6.45 I1.45 J0
X212.55 Y35 Z-6.7 I-1.45 J0
X215.45 Y35 Z-6.95 I1.45 J0
X212.55 Y35 Z-7.2 I-1.45 J0
X215.45 Y35 Z-7.45 I1.45 J0
X212.55 Y35 Z-7.7 I-1.45 J0
X215.45 Y35 Z-7.95 I1.45 J0
X212.55 Y35 Z-8.2 I-1.45 J0
X215.45 Y35 Z-8.45 I1.45 J0
X212.55 Y35 Z-8.7 I-1.45 J0
X215.45 Y35 Z-8.95 I1.45 J0
X212.55 Y35 Z-9.2 I-1.45 J0
X215.45 Y35 Z-9.45 I1.45 J0
X212.55 Y35 Z-9.7 I-1.45 J0
X215.45 Y35 Z-9.95 I1.45 J0
X212.55 Y35 Z-10.2 I-1.45 J0
X215.45 Y35 Z-10.45 I1.45 J0
X212.55 Y35 Z-10.7 I-1.45 J0
X215.45 Y35 Z-10.95 I1.45 J0
X212.55 Y35 Z-11.2 I-1.45 J0
X215.45 Y35 Z-11.45 I1.45 J0
X212.55 Y35 Z-11.7 I-1.45 J0
X215.45 Y35 Z-11.95 I1.45 J0
X212.55 Y35 Z-12.2 I-1.45 J0
X215.45 Y35 Z-12.45 I1.45 J0
X212.55 Y35 Z-12.7 I-1.45 J0
X215.45 Y35 Z-12.95 I1.45 J0
X212.55 Y35 Z-13.2 I-1.45 J0
X213.552 Y33.621 Z-13.3 I1.45 J0
X214.448 Y36.379 I0.448 J1.379
X213.552 Y33.621 I-0.448 J-1.379
X213.892 Y33.794 I0.083 J0.257
G1 X213.934 Y33.923
X213.952 Y33.98 Z-13.293
X213.97 Y34.034 Z-13.273
X213.986 Y34.083 Z-13.241
X213.999 Y34.123 Z-13.198
X214.009 Y34.154 Z-13.147
X214.015 Y34.173 Z-13.09
X214.017 Y34.179 Z-13.03
Z5
Z10
X214.875 Y34.73
Z-3.95
Z-5.68
G18 G2 X215.145 Z-5.95 I0.27 K0
G1 X215.28
G17 G3 X215.55 Y35 I0 J0.27
X212.45 Y35 Z-6.2 I-1.55 J0
X215.55 Y35 Z-6.45 I1.55 J0
X212.45 Y35 Z-6.7 I-1.55 J0
X215.55 Y35 Z-6.95 I1.55 J0
X212.45 Y35 Z-7.2 I-1.55 J0
X215.55 Y35 Z-7.45 I1.55 J0
X212.45 Y35 Z-7.7 I-1.55 J0
X215.55 Y35 Z-7.95 I1.55 J0
X212.45 Y35 Z-8.2 I-1.55 J0
X215.55 Y35 Z-8.45 I1.55 J0
X212.45 Y35 Z-8.7 I-1.55 J0
X215.55 Y35 Z-8.95 I1.55 J0
X212.45 Y35 Z-9.2 I-1.55 J0
X215.55 Y35 Z-9.45 I1.55 J0
X212.45 Y35 Z-9.7 I-1.55 J0
X215.55 Y35 Z-9.95 I1.55 J0
X212.45 Y35 Z-10.2 I-1.55 J0
X215.55 Y35 Z-10.45 I1.55 J0
X212.45 Y35 Z-10.7 I-1.55 J0
X215.55 Y35 Z-10.95 I1.55 J0
X212.45 Y35 Z-11.2 I-1.55 J0
X215.55 Y35 Z-11.45 I1.55 J0
X212.45 Y35 Z-11.7 I-1.55 J0
X215.55 Y35 Z-11.95 I1.55 J0
X212.45 Y35 Z-12.2 I-1.55 J0
X215.55 Y35 Z-12.45 I1.55 J0
X212.45 Y35 Z-12.7 I-1.55 J0
X215.55 Y35 Z-12.95 I1.55 J0
X212.45 Y35 Z-13.2 I-1.55 J0
X213.521 Y33.526 Z-13.3 I1.55 J0
X214.479 Y36.474 I0.479 J1.474
X213.521 Y33.526 I-0.479 J-1.474
X213.861 Y33.699 I0.083 J0.257
G1 X213.903 Y33.828
X213.922 Y33.885 Z-13.293
X213.939 Y33.939 Z-13.273
X213.955 Y33.988 Z-13.241
X213.968 Y34.028 Z-13.198
X213.978 Y34.059 Z-13.147
X213.984 Y34.078 Z-13.09
X213.986 Y34.084 Z-13.03
Z5
X214.875 Y34.73
Z-3.95
Z-5.68
G18 G2 X215.145 Z-5.95 I0.27 K0
G1 X215.28
G17 G3 X215.55 Y35 I0 J0.27
X212.45 Y35 Z-6.2 I-1.55 J0
X215.55 Y35 Z-6.45 I1.55 J0
X212.45 Y35 Z-6.7 I-1.55 J0
X215.55 Y35 Z-6.95 I1.55 J0
X212.45 Y35 Z-7.2 I-1.55 J0
X215.55 Y35 Z-7.45 I1.55 J0
X212.45 Y35 Z-7.7 I-1.55 J0
X215.55 Y35 Z-7.95 I1.55 J0
X212.45 Y35 Z-8.2 I-1.55 J0
X215.55 Y35 Z-8.45 I1.55 J0
X212.45 Y35 Z-8.7 I-1.55 J0
X215.55 Y35 Z-8.95 I1.55 J0
X212.45 Y35 Z-9.2 I-1.55 J0
X215.55 Y35 Z-9.45 I1.55 J0
X212.45 Y35 Z-9.7 I-1.55 J0
X215.55 Y35 Z-9.95 I1.55 J0
X212.45 Y35 Z-10.2 I-1.55 J0
X215.55 Y35 Z-10.45 I1.55 J0
X212.45 Y35 Z-10.7 I-1.55 J0
X215.55 Y35 Z-10.95 I1.55 J0
X212.45 Y35 Z-11.2 I-1.55 J0
X215.55 Y35 Z-11.45 I1.55 J0
X212.45 Y35 Z-11.7 I-1.55 J0
X215.55 Y35 Z-11.95 I1.55 J0
X212.45 Y35 Z-12.2 I-1.55 J0
X215.55 Y35 Z-12.45 I1.55 J0
X212.45 Y35 Z-12.7 I-1.55 J0
X215.55 Y35 Z-12.95 I1.55 J0
X212.45 Y35 Z-13.2 I-1.55 J0
X213.521 Y33.526 Z-13.3 I1.55 J0
X214.479 Y36.474 I0.479 J1.474
X213.521 Y33.526 I-0.479 J-1.474
X213.861 Y33.699 I0.083 J0.257
G1 X213.903 Y33.828
X213.922 Y33.885 Z-13.293
X213.939 Y33.939 Z-13.273
X213.955 Y33.988 Z-13.241
X213.968 Y34.028 Z-13.198
X213.978 Y34.059 Z-13.147
X213.984 Y34.078 Z-13.09
X213.986 Y34.084 Z-13.03
Z5
X153.99 Y34.875
Z1.73
Z0
X154.125
X154.164 Y34.881
X154.198 Y34.899
X154.226 Y34.927
X154.244 Y34.961
X154.25 Y35
G3 X153.75 Y35 Z-0.25 I-0.25 J0
X154.25 Y35 Z-0.5 I0.25 J0
X153.75 Y35 Z-0.75 I-0.25 J0
X154.25 Y35 Z-1 I0.25 J0
X153.75 Y35 Z-1.25 I-0.25 J0
X154.25 Y35 Z-1.5 I0.25 J0
X153.75 Y35 Z-1.75 I-0.25 J0
X154.25 Y35 Z-2 I0.25 J0
X153.75 Y35 Z-2.25 I-0.25 J0
X154.25 Y35 Z-2.5 I0.25 J0
X153.75 Y35 Z-2.75 I-0.25 J0
X154.25 Y35 Z-3 I0.25 J0
X153.75 Y35 Z-3.25 I-0.25 J0
X154.25 Y35 Z-3.5 I0.25 J0
X153.75 Y35 Z-3.75 I-0.25 J0
X154.25 Y35 Z-4 I0.25 J0
X153.75 Y35 Z-4.25 I-0.25 J0
X154.25 Y35 Z-4.5 I0.25 J0
X153.75 Y35 Z-4.75 I-0.25 J0
X154.25 Y35 Z-5 I0.25 J0
X153.75 Y35 Z-5.25 I-0.25 J0
X154.25 Y35 Z-5.5 I0.25 J0
X153.75 Y35 Z-5.75 I-0.25 J0
X154.25 Y35 Z-6 I0.25 J0
X153.75 Y35 Z-6.25 I-0.25 J0
X154.25 Y35 Z-6.5 I0.25 J0
X153.75 Y35 Z-6.75 I-0.25 J0
X154.25 Y35 Z-7 I0.25 J0
X153.75 Y35 Z-7.25 I-0.25 J0
X154.25 Y35 Z-7.5 I0.25 J0
X153.75 Y35 Z-7.75 I-0.25 J0
X154.25 Y35 Z-8 I0.25 J0
X153.75 Y35 Z-8.25 I-0.25 J0
X154.25 Y35 Z-8.5 I0.25 J0
X153.75 Y35 Z-8.75 I-0.25 J0
X154.25 Y35 Z-9 I0.25 J0
X153.75 Y35 Z-9.25 I-0.25 J0
X154.25 Y35 Z-9.5 I0.25 J0
X153.75 Y35 Z-9.75 I-0.25 J0
X154.25 Y35 Z-10 I0.25 J0
X153.75 Y35 Z-10.25 I-0.25 J0
X154.25 Y35 Z-10.5 I0.25 J0
X153.75 Y35 Z-10.75 I-0.25 J0
X154.25 Y35 Z-11 I0.25 J0
X153.75 Y35 Z-11.25 I-0.25 J0
X154.25 Y35 Z-11.5 I0.25 J0
X153.75 Y35 Z-11.75 I-0.25 J0
X154.25 Y35 Z-12 I0.25 J0
X153.75 Y35 Z-12.25 I-0.25 J0
X154.25 Y35 Z-12.5 I0.25 J0
X153.75 Y35 Z-12.75 I-0.25 J0
X154.25 Y35 Z-13 I0.25 J0
X153.75 Y35 Z-13.25 I-0.25 J0
X153.798 Y34.853 Z-13.3 I0.25 J0
X154.202 Y35.147 I0.202 J0.147
X153.798 Y34.853 I-0.202 J-0.147
G1 X153.825 Y34.825
X153.86 Y34.808
X153.899 Y34.802
X153.938 Y34.808
X153.972 Y34.825
X154.082 Y34.905
Z5
X153.77 Y34.825
Z2
Z0.27
G18 G2 X154.04 Z0 I0.27 K0
G1 X154.175
X154.22 Y34.831
X154.263 Y34.848
X154.299 Y34.876
X154.327 Y34.912
X154.344 Y34.955
X154.35 Y35
G17 G3 X153.65 Y35 Z-0.25 I-0.35 J0
X154.35 Y35 Z-0.5 I0.35 J0
X153.65 Y35 Z-0.75 I-0.35 J0
X154.35 Y35 Z-1 I0.35 J0
X153.65 Y35 Z-1.25 I-0.35 J0
X154.35 Y35 Z-1.5 I0.35 J0
X153.65 Y35 Z-1.75 I-0.35 J0
X154.35 Y35 Z-2 I0.35 J0
X153.65 Y35 Z-2.25 I-0.35 J0
X154.35 Y35 Z-2.5 I0.35 J0
X153.65 Y35 Z-2.75 I-0.35 J0
X154.35 Y35 Z-3 I0.35 J0
X153.65 Y35 Z-3.25 I-0.35 J0
X154.35 Y35 Z-3.5 I0.35 J0
X153.65 Y35 Z-3.75 I-0.35 J0
X154.35 Y35 Z-4 I0.35 J0
X153.65 Y35 Z-4.25 I-0.35 J0
X154.35 Y35 Z-4.5 I0.35 J0
X153.65 Y35 Z-4.75 I-0.35 J0
X154.35 Y35 Z-5 I0.35 J0
X153.65 Y35 Z-5.25 I-0.35 J0
X154.35 Y35 Z-5.5 I0.35 J0
X153.65 Y35 Z-5.75 I-0.35 J0
X154.35 Y35 Z-6 I0.35 J0
X153.65 Y35 Z-6.25 I-0.35 J0
X154.35 Y35 Z-6.5 I0.35 J0
X153.65 Y35 Z-6.75 I-0.35 J0
X154.35 Y35 Z-7 I0.35 J0
X153.65 Y35 Z-7.25 I-0.35 J0
X154.35 Y35 Z-7.5 I0.35 J0
X153.65 Y35 Z-7.75 I-0.35 J0
X154.35 Y35 Z-8 I0.35 J0
X153.65 Y35 Z-8.25 I-0.35 J0
X154.35 Y35 Z-8.5 I0.35 J0
X153.65 Y35 Z-8.75 I-0.35 J0
X154.35 Y35 Z-9 I0.35 J0
X153.65 Y35 Z-9.25 I-0.35 J0
X154.35 Y35 Z-9.5 I0.35 J0
X153.65 Y35 Z-9.75 I-0.35 J0
X154.35 Y35 Z-10 I0.35 J0
X153.65 Y35 Z-10.25 I-0.35 J0
X154.35 Y35 Z-10.5 I0.35 J0
X153.65 Y35 Z-10.75 I-0.35 J0
X154.35 Y35 Z-11 I0.35 J0
X153.65 Y35 Z-11.25 I-0.35 J0
X154.35 Y35 Z-11.5 I0.35 J0
X153.65 Y35 Z-11.75 I-0.35 J0
X154.35 Y35 Z-12 I0.35 J0
X153.65 Y35 Z-12.25 I-0.35 J0
X154.35 Y35 Z-12.5 I0.35 J0
X153.65 Y35 Z-12.75 I-0.35 J0
X154.35 Y35 Z-13 I0.35 J0
X153.65 Y35 Z-13.25 I-0.35 J0
X153.717 Y34.794 Z-13.3 I0.35 J0
X154.283 Y35.206 I0.283 J0.206
X153.717 Y34.794 I-0.283 J-0.206
G1 X153.748 Y34.761
X153.787 Y34.737
X153.831 Y34.724
X153.877 Y34.723
X153.921 Y34.734
X153.961 Y34.756
X154.07 Y34.835
X154.119 Y34.87 Z-13.293
X154.165 Y34.904 Z-13.273
X154.207 Y34.934 Z-13.241
X154.241 Y34.959 Z-13.198
X154.267 Y34.978 Z-13.147
X154.283 Y34.99 Z-13.09
X154.289 Y34.994 Z-13.03
Z5
X153.77 Y34.825
Z2
Z0.27
G18 G2 X154.04 Z0 I0.27 K0
G1 X154.175
X154.22 Y34.831
X154.263 Y34.848
X154.299 Y34.876
X154.327 Y34.912
X154.344 Y34.955
X154.35 Y35
G17 G3 X153.65 Y35 Z-0.25 I-0.35 J0
X154.35 Y35 Z-0.5 I0.35 J0
X153.65 Y35 Z-0.75 I-0.35 J0
X154.35 Y35 Z-1 I0.35 J0
X153.65 Y35 Z-1.25 I-0.35 J0
X154.35 Y35 Z-1.5 I0.35 J0
X153.65 Y35 Z-1.75 I-0.35 J0
X154.35 Y35 Z-2 I0.35 J0
X153.65 Y35 Z-2.25 I-0.35 J0
X154.35 Y35 Z-2.5 I0.35 J0
X153.65 Y35 Z-2.75 I-0.35 J0
X154.35 Y35 Z-3 I0.35 J0
X153.65 Y35 Z-3.25 I-0.35 J0
X154.35 Y35 Z-3.5 I0.35 J0
X153.65 Y35 Z-3.75 I-0.35 J0
X154.35 Y35 Z-4 I0.35 J0
X153.65 Y35 Z-4.25 I-0.35 J0
X154.35 Y35 Z-4.5 I0.35 J0
X153.65 Y35 Z-4.75 I-0.35 J0
X154.35 Y35 Z-5 I0.35 J0
X153.65 Y35 Z-5.25 I-0.35 J0
X154.35 Y35 Z-5.5 I0.35 J0
X153.65 Y35 Z-5.75 I-0.35 J0
X154.35 Y35 Z-6 I0.35 J0
X153.65 Y35 Z-6.25 I-0.35 J0
X154.35 Y35 Z-6.5 I0.35 J0
X153.65 Y35 Z-6.75 I-0.35 J0
X154.35 Y35 Z-7 I0.35 J0
X153.65 Y35 Z-7.25 I-0.35 J0
X154.35 Y35 Z-7.5 I0.35 J0
X153.65 Y35 Z-7.75 I-0.35 J0
X154.35 Y35 Z-8 I0.35 J0
X153.65 Y35 Z-8.25 I-0.35 J0
X154.35 Y35 Z-8.5 I0.35 J0
X153.65 Y35 Z-8.75 I-0.35 J0
X154.35 Y35 Z-9 I0.35 J0
X153.65 Y35 Z-9.25 I-0.35 J0
X154.35 Y35 Z-9.5 I0.35 J0
X153.65 Y35 Z-9.75 I-0.35 J0
X154.35 Y35 Z-10 I0.35 J0
X153.65 Y35 Z-10.25 I-0.35 J0
X154.35 Y35 Z-10.5 I0.35 J0
X153.65 Y35 Z-10.75 I-0.35 J0
X154.35 Y35 Z-11 I0.35 J0
X153.65 Y35 Z-11.25 I-0.35 J0
X154.35 Y35 Z-11.5 I0.35 J0
X153.65 Y35 Z-11.75 I-0.35 J0
X154.35 Y35 Z-12 I0.35 J0
X153.65 Y35 Z-12.25 I-0.35 J0
X154.35 Y35 Z-12.5 I0.35 J0
X153.65 Y35 Z-12.75 I-0.35 J0
X154.35 Y35 Z-13 I0.35 J0
X153.65 Y35 Z-13.25 I-0.35 J0
X153.717 Y34.794 Z-13.3 I0.35 J0
X154.283 Y35.206 I0.283 J0.206
X153.717 Y34.794 I-0.283 J-0.206
G1 X153.748 Y34.761
X153.787 Y34.737
X153.831 Y34.724
X153.877 Y34.723
X153.921 Y34.734
X153.961 Y34.756
X154.07 Y34.835
X154.119 Y34.87 Z-13.293
X154.165 Y34.904 Z-13.273
X154.207 Y34.934 Z-13.241
X154.241 Y34.959 Z-13.198
X154.267 Y34.978 Z-13.147
X154.283 Y34.99 Z-13.09
X154.289 Y34.994 Z-13.03
Z5
X135.99 Y34.875
Z1.73
Z0
X136.125
X136.164 Y34.881
X136.198 Y34.899
X136.226 Y34.927
X136.244 Y34.961
X136.25 Y35
G3 X135.75 Y35 Z-0.25 I-0.25 J0
X136.25 Y35 Z-0.5 I0.25 J0
X135.75 Y35 Z-0.75 I-0.25 J0
X136.25 Y35 Z-1 I0.25 J0
X135.75 Y35 Z-1.25 I-0.25 J0
X136.25 Y35 Z-1.5 I0.25 J0
X135.75 Y35 Z-1.75 I-0.25 J0
X136.25 Y35 Z-2 I0.25 J0
X135.75 Y35 Z-2.25 I-0.25 J0
X136.25 Y35 Z-2.5 I0.25 J0
X135.75 Y35 Z-2.75 I-0.25 J0
X136.25 Y35 Z-3 I0.25 J0
X135.75 Y35 Z-3.25 I-0.25 J0
X136.25 Y35 Z-3.5 I0.25 J0
X135.75 Y35 Z-3.75 I-0.25 J0
X136.25 Y35 Z-4 I0.25 J0
X135.75 Y35 Z-4.25 I-0.25 J0
X136.25 Y35 Z-4.5 I0.25 J0
X135.75 Y35 Z-4.75 I-0.25 J0
X136.25 Y35 Z-5 I0.25 J0
X135.75 Y35 Z-5.25 I-0.25 J0
X136.25 Y35 Z-5.5 I0.25 J0
X135.75 Y35 Z-5.75 I-0.25 J0
X136.25 Y35 Z-6 I0.25 J0
X135.75 Y35 Z-6.25 I-0.25 J0
X136.25 Y35 Z-6.5 I0.25 J0
X135.75 Y35 Z-6.75 I-0.25 J0
X136.25 Y35 Z-7 I0.25 J0
X135.75 Y35 Z-7.25 I-0.25 J0
X136.25 Y35 Z-7.5 I0.25 J0
X135.75 Y35 Z-7.75 I-0.25 J0
X136.25 Y35 Z-8 I0.25 J0
X135.75 Y35 Z-8.25 I-0.25 J0
X136.25 Y35 Z-8.5 I0.25 J0
X135.75 Y35 Z-8.75 I-0.25 J0
X136.25 Y35 Z-9 I0.25 J0
X135.75 Y35 Z-9.25 I-0.25 J0
X136.25 Y35 Z-9.5 I0.25 J0
X135.75 Y35 Z-9.75 I-0.25 J0
X136.25 Y35 Z-10 I0.25 J0
X135.75 Y35 Z-10.25 I-0.25 J0
X136.25 Y35 Z-10.5 I0.25 J0
X135.75 Y35 Z-10.75 I-0.25 J0
X136.25 Y35 Z-11 I0.25 J0
X135.75 Y35 Z-11.25 I-0.25 J0
X136.25 Y35 Z-11.5 I0.25 J0
X135.75 Y35 Z-11.75 I-0.25 J0
X136.25 Y35 Z-12 I0.25 J0
X135.75 Y35 Z-12.25 I-0.25 J0
X136.25 Y35 Z-12.5 I0.25 J0
X135.75 Y35 Z-12.75 I-0.25 J0
X136.25 Y35 Z-13 I0.25 J0
X135.75 Y35 Z-13.25 I-0.25 J0
X135.798 Y34.853 Z-13.3 I0.25 J0
X136.202 Y35.147 I0.202 J0.147
X135.798 Y34.853 I-0.202 J-0.147
G1 X135.825 Y34.825
X135.86 Y34.808
X135.899 Y34.802
X135.938 Y34.808
X135.972 Y34.825
X136.082 Y34.905
Z5
X135.77 Y34.825
Z2
Z0.27
G18 G2 X136.04 Z0 I0.27 K0
G1 X136.175
X136.22 Y34.831
X136.263 Y34.848
X136.299 Y34.876
X136.327 Y34.912
X136.344 Y34.955
X136.35 Y35
G17 G3 X135.65 Y35 Z-0.25 I-0.35 J0
X136.35 Y35 Z-0.5 I0.35 J0
X135.65 Y35 Z-0.75 I-0.35 J0
X136.35 Y35 Z-1 I0.35 J0
X135.65 Y35 Z-1.25 I-0.35 J0
X136.35 Y35 Z-1.5 I0.35 J0
X135.65 Y35 Z-1.75 I-0.35 J0
X136.35 Y35 Z-2 I0.35 J0
X135.65 Y35 Z-2.25 I-0.35 J0
X136.35 Y35 Z-2.5 I0.35 J0
X135.65 Y35 Z-2.75 I-0.35 J0
X136.35 Y35 Z-3 I0.35 J0
X135.65 Y35 Z-3.25 I-0.35 J0
X136.35 Y35 Z-3.5 I0.35 J0
X135.65 Y35 Z-3.75 I-0.35 J0
X136.35 Y35 Z-4 I0.35 J0
X135.65 Y35 Z-4.25 I-0.35 J0
X136.35 Y35 Z-4.5 I0.35 J0
X135.65 Y35 Z-4.75 I-0.35 J0
X136.35 Y35 Z-5 I0.35 J0
X135.65 Y35 Z-5.25 I-0.35 J0
X136.35 Y35 Z-5.5 I0.35 J0
X135.65 Y35 Z-5.75 I-0.35 J0
X136.35 Y35 Z-6 I0.35 J0
X135.65 Y35 Z-6.25 I-0.35 J0
X136.35 Y35 Z-6.5 I0.35 J0
X135.65 Y35 Z-6.75 I-0.35 J0
X136.35 Y35 Z-7 I0.35 J0
X135.65 Y35 Z-7.25 I-0.35 J0
X136.35 Y35 Z-7.5 I0.35 J0
X135.65 Y35 Z-7.75 I-0.35 J0
X136.35 Y35 Z-8 I0.35 J0
X135.65 Y35 Z-8.25 I-0.35 J0
X136.35 Y35 Z-8.5 I0.35 J0
X135.65 Y35 Z-8.75 I-0.35 J0
X136.35 Y35 Z-9 I0.35 J0
X135.65 Y35 Z-9.25 I-0.35 J0
X136.35 Y35 Z-9.5 I0.35 J0
X135.65 Y35 Z-9.75 I-0.35 J0
X136.35 Y35 Z-10 I0.35 J0
X135.65 Y35 Z-10.25 I-0.35 J0
X136.35 Y35 Z-10.5 I0.35 J0
X135.65 Y35 Z-10.75 I-0.35 J0
X136.35 Y35 Z-11 I0.35 J0
X135.65 Y35 Z-11.25 I-0.35 J0
X136.35 Y35 Z-11.5 I0.35 J0
X135.65 Y35 Z-11.75 I-0.35 J0
X136.35 Y35 Z-12 I0.35 J0
X135.65 Y35 Z-12.25 I-0.35 J0
X136.35 Y35 Z-12.5 I0.35 J0
X135.65 Y35 Z-12.75 I-0.35 J0
X136.35 Y35 Z-13 I0.35 J0
X135.65 Y35 Z-13.25 I-0.35 J0
X135.717 Y34.794 Z-13.3 I0.35 J0
X136.283 Y35.206 I0.283 J0.206
X135.717 Y34.794 I-0.283 J-0.206
G1 X135.748 Y34.761
X135.787 Y34.737
X135.831 Y34.724
X135.877 Y34.723
X135.921 Y34.734
X135.961 Y34.756
X136.07 Y34.835
X136.119 Y34.87 Z-13.293
X136.165 Y34.904 Z-13.273
X136.207 Y34.934 Z-13.241
X136.241 Y34.959 Z-13.198
X136.267 Y34.978 Z-13.147
X136.283 Y34.99 Z-13.09
X136.289 Y34.994 Z-13.03
Z5
X135.77 Y34.825
Z2
Z0.27
G18 G2 X136.04 Z0 I0.27 K0
G1 X136.175
X136.22 Y34.831
X136.263 Y34.848
X136.299 Y34.876
X136.327 Y34.912
X136.344 Y34.955
X136.35 Y35
G17 G3 X135.65 Y35 Z-0.25 I-0.35 J0
X136.35 Y35 Z-0.5 I0.35 J0
X135.65 Y35 Z-0.75 I-0.35 J0
X136.35 Y35 Z-1 I0.35 J0
X135.65 Y35 Z-1.25 I-0.35 J0
X136.35 Y35 Z-1.5 I0.35 J0
X135.65 Y35 Z-1.75 I-0.35 J0
X136.35 Y35 Z-2 I0.35 J0
X135.65 Y35 Z-2.25 I-0.35 J0
X136.35 Y35 Z-2.5 I0.35 J0
X135.65 Y35 Z-2.75 I-0.35 J0
X136.35 Y35 Z-3 I0.35 J0
X135.65 Y35 Z-3.25 I-0.35 J0
X136.35 Y35 Z-3.5 I0.35 J0
X135.65 Y35 Z-3.75 I-0.35 J0
X136.35 Y35 Z-4 I0.35 J0
X135.65 Y35 Z-4.25 I-0.35 J0
X136.35 Y35 Z-4.5 I0.35 J0
X135.65 Y35 Z-4.75 I-0.35 J0
X136.35 Y35 Z-5 I0.35 J0
X135.65 Y35 Z-5.25 I-0.35 J0
X136.35 Y35 Z-5.5 I0.35 J0
X135.65 Y35 Z-5.75 I-0.35 J0
X136.35 Y35 Z-6 I0.35 J0
X135.65 Y35 Z-6.25 I-0.35 J0
X136.35 Y35 Z-6.5 I0.35 J0
X135.65 Y35 Z-6.75 I-0.35 J0
X136.35 Y35 Z-7 I0.35 J0
X135.65 Y35 Z-7.25 I-0.35 J0
X136.35 Y35 Z-7.5 I0.35 J0
X135.65 Y35 Z-7.75 I-0.35 J0
X136.35 Y35 Z-8 I0.35 J0
X135.65 Y35 Z-8.25 I-0.35 J0
X136.35 Y35 Z-8.5 I0.35 J0
X135.65 Y35 Z-8.75 I-0.35 J0
X136.35 Y35 Z-9 I0.35 J0
X135.65 Y35 Z-9.25 I-0.35 J0
X136.35 Y35 Z-9.5 I0.35 J0
X135.65 Y35 Z-9.75 I-0.35 J0
X136.35 Y35 Z-10 I0.35 J0
X135.65 Y35 Z-10.25 I-0.35 J0
X136.35 Y35 Z-10.5 I0.35 J0
X135.65 Y35 Z-10.75 I-0.35 J0
X136.35 Y35 Z-11 I0.35 J0
X135.65 Y35 Z-11.25 I-0.35 J0
X136.35 Y35 Z-11.5 I0.35 J0
X135.65 Y35 Z-11.75 I-0.35 J0
X136.35 Y35 Z-12 I0.35 J0
X135.65 Y35 Z-12.25 I-0.35 J0
X136.35 Y35 Z-12.5 I0.35 J0
X135.65 Y35 Z-12.75 I-0.35 J0
X136.35 Y35 Z-13 I0.35 J0
X135.65 Y35 Z-13.25 I-0.35 J0
X135.717 Y34.794 Z-13.3 I0.35 J0
X136.283 Y35.206 I0.283 J0.206
X135.717 Y34.794 I-0.283 J-0.206
G1 X135.748 Y34.761
X135.787 Y34.737
X135.831 Y34.724
X135.877 Y34.723
X135.921 Y34.734
X135.961 Y34.756
X136.07 Y34.835
X136.119 Y34.87 Z-13.293
X136.165 Y34.904 Z-13.273
X136.207 Y34.934 Z-13.241
X136.241 Y34.959 Z-13.198
X136.267 Y34.978 Z-13.147
X136.283 Y34.99 Z-13.09
X136.289 Y34.994 Z-13.03
Z5
X91.99 Y34.875
Z1.73
Z0
X92.125
X92.164 Y34.881
X92.198 Y34.899
X92.226 Y34.927
X92.244 Y34.961
X92.25 Y35
G3 X91.75 Y35 Z-0.25 I-0.25 J0
X92.25 Y35 Z-0.5 I0.25 J0
X91.75 Y35 Z-0.75 I-0.25 J0
X92.25 Y35 Z-1 I0.25 J0
X91.75 Y35 Z-1.25 I-0.25 J0
X92.25 Y35 Z-1.5 I0.25 J0
X91.75 Y35 Z-1.75 I-0.25 J0
X92.25 Y35 Z-2 I0.25 J0
X91.75 Y35 Z-2.25 I-0.25 J0
X92.25 Y35 Z-2.5 I0.25 J0
X91.75 Y35 Z-2.75 I-0.25 J0
X92.25 Y35 Z-3 I0.25 J0
X91.75 Y35 Z-3.25 I-0.25 J0
X92.25 Y35 Z-3.5 I0.25 J0
X91.75 Y35 Z-3.75 I-0.25 J0
X92.25 Y35 Z-4 I0.25 J0
X91.75 Y35 Z-4.25 I-0.25 J0
X92.25 Y35 Z-4.5 I0.25 J0
X91.75 Y35 Z-4.75 I-0.25 J0
X92.25 Y35 Z-5 I0.25 J0
X91.75 Y35 Z-5.25 I-0.25 J0
X92.25 Y35 Z-5.5 I0.25 J0
X91.75 Y35 Z-5.75 I-0.25 J0
X92.25 Y35 Z-6 I0.25 J0
X91.75 Y35 Z-6.25 I-0.25 J0
X92.25 Y35 Z-6.5 I0.25 J0
X91.75 Y35 Z-6.75 I-0.25 J0
X92.25 Y35 Z-7 I0.25 J0
X91.75 Y35 Z-7.25 I-0.25 J0
X92.25 Y35 Z-7.5 I0.25 J0
X91.75 Y35 Z-7.75 I-0.25 J0
X92.25 Y35 Z-8 I0.25 J0
X91.75 Y35 Z-8.25 I-0.25 J0
X92.25 Y35 Z-8.5 I0.25 J0
X91.75 Y35 Z-8.75 I-0.25 J0
X92.25 Y35 Z-9 I0.25 J0
X91.75 Y35 Z-9.25 I-0.25 J0
X92.25 Y35 Z-9.5 I0.25 J0
X91.75 Y35 Z-9.75 I-0.25 J0
X92.25 Y35 Z-10 I0.25 J0
X91.75 Y35 Z-10.25 I-0.25 J0
X92.25 Y35 Z-10.5 I0.25 J0
X91.75 Y35 Z-10.75 I-0.25 J0
X92.25 Y35 Z-11 I0.25 J0
X91.75 Y35 Z-11.25 I-0.25 J0
X92.25 Y35 Z-11.5 I0.25 J0
X91.75 Y35 Z-11.75 I-0.25 J0
X92.25 Y35 Z-12 I0.25 J0
X91.75 Y35 Z-12.25 I-0.25 J0
X92.25 Y35 Z-12.5 I0.25 J0
X91.75 Y35 Z-12.75 I-0.25 J0
X92.25 Y35 Z-13 I0.25 J0
X91.75 Y35 Z-13.25 I-0.25 J0
X91.798 Y34.853 Z-13.3 I0.25 J0
X92.202 Y35.147 I0.202 J0.147
X91.798 Y34.853 I-0.202 J-0.147
G1 X91.825 Y34.825
X91.86 Y34.808
X91.899 Y34.802
X91.937 Y34.808
X91.972 Y34.825
X92.082 Y34.905
Z5
X91.77 Y34.825
Z2
Z0.27
G18 G2 X92.04 Z0 I0.27 K0
G1 X92.175
X92.22 Y34.831
X92.263 Y34.848
X92.299 Y34.876
X92.327 Y34.913
X92.344 Y34.955
X92.35 Y35
G17 G3 X91.65 Y35 Z-0.25 I-0.35 J0
X92.35 Y35 Z-0.5 I0.35 J0
X91.65 Y35 Z-0.75 I-0.35 J0
X92.35 Y35 Z-1 I0.35 J0
X91.65 Y35 Z-1.25 I-0.35 J0
X92.35 Y35 Z-1.5 I0.35 J0
X91.65 Y35 Z-1.75 I-0.35 J0
X92.35 Y35 Z-2 I0.35 J0
X91.65 Y35 Z-2.25 I-0.35 J0
X92.35 Y35 Z-2.5 I0.35 J0
X91.65 Y35 Z-2.75 I-0.35 J0
X92.35 Y35 Z-3 I0.35 J0
X91.65 Y35 Z-3.25 I-0.35 J0
X92.35 Y35 Z-3.5 I0.35 J0
X91.65 Y35 Z-3.75 I-0.35 J0
X92.35 Y35 Z-4 I0.35 J0
X91.65 Y35 Z-4.25 I-0.35 J0
X92.35 Y35 Z-4.5 I0.35 J0
X91.65 Y35 Z-4.75 I-0.35 J0
X92.35 Y35 Z-5 I0.35 J0
X91.65 Y35 Z-5.25 I-0.35 J0
X92.35 Y35 Z-5.5 I0.35 J0
X91.65 Y35 Z-5.75 I-0.35 J0
X92.35 Y35 Z-6 I0.35 J0
X91.65 Y35 Z-6.25 I-0.35 J0
X92.35 Y35 Z-6.5 I0.35 J0
X91.65 Y35 Z-6.75 I-0.35 J0
X92.35 Y35 Z-7 I0.35 J0
X91.65 Y35 Z-7.25 I-0.35 J0
X92.35 Y35 Z-7.5 I0.35 J0
X91.65 Y35 Z-7.75 I-0.35 J0
X92.35 Y35 Z-8 I0.35 J0
X91.65 Y35 Z-8.25 I-0.35 J0
X92.35 Y35 Z-8.5 I0.35 J0
X91.65 Y35 Z-8.75 I-0.35 J0
X92.35 Y35 Z-9 I0.35 J0
X91.65 Y35 Z-9.25 I-0.35 J0
X92.35 Y35 Z-9.5 I0.35 J0
X91.65 Y35 Z-9.75 I-0.35 J0
X92.35 Y35 Z-10 I0.35 J0
X91.65 Y35 Z-10.25 I-0.35 J0
X92.35 Y35 Z-10.5 I0.35 J0
X91.65 Y35 Z-10.75 I-0.35 J0
X92.35 Y35 Z-11 I0.35 J0
X91.65 Y35 Z-11.25 I-0.35 J0
X92.35 Y35 Z-11.5 I0.35 J0
X91.65 Y35 Z-11.75 I-0.35 J0
X92.35 Y35 Z-12 I0.35 J0
X91.65 Y35 Z-12.25 I-0.35 J0
X92.35 Y35 Z-12.5 I0.35 J0
X91.65 Y35 Z-12.75 I-0.35 J0
X92.35 Y35 Z-13 I0.35 J0
X91.65 Y35 Z-13.25 I-0.35 J0
X91.717 Y34.794 Z-13.3 I0.35 J0
X92.283 Y35.206 I0.283 J0.206
X91.717 Y34.794 I-0.283 J-0.206
G1 X91.748 Y34.761
X91.787 Y34.737
X91.831 Y34.724
X91.877 Y34.723
X91.921 Y34.734
X91.961 Y34.756
X92.071 Y34.835
X92.119 Y34.87 Z-13.293
X92.165 Y34.904 Z-13.273
X92.207 Y34.934 Z-13.241
X92.241 Y34.959 Z-13.198
X92.267 Y34.978 Z-13.147
X92.283 Y34.99 Z-13.09
X92.289 Y34.994 Z-13.03
Z5
X91.77 Y34.825
Z2
Z0.27
G18 G2 X92.04 Z0 I0.27 K0
G1 X92.175
X92.22 Y34.831
X92.263 Y34.848
X92.299 Y34.876
X92.327 Y34.913
X92.344 Y34.955
X92.35 Y35
G17 G3 X91.65 Y35 Z-0.25 I-0.35 J0
X92.35 Y35 Z-0.5 I0.35 J0
X91.65 Y35 Z-0.75 I-0.35 J0
X92.35 Y35 Z-1 I0.35 J0
X91.65 Y35 Z-1.25 I-0.35 J0
X92.35 Y35 Z-1.5 I0.35 J0
X91.65 Y35 Z-1.75 I-0.35 J0
X92.35 Y35 Z-2 I0.35 J0
X91.65 Y35 Z-2.25 I-0.35 J0
X92.35 Y35 Z-2.5 I0.35 J0
X91.65 Y35 Z-2.75 I-0.35 J0
X92.35 Y35 Z-3 I0.35 J0
X91.65 Y35 Z-3.25 I-0.35 J0
X92.35 Y35 Z-3.5 I0.35 J0
X91.65 Y35 Z-3.75 I-0.35 J0
X92.35 Y35 Z-4 I0.35 J0
X91.65 Y35 Z-4.25 I-0.35 J0
X92.35 Y35 Z-4.5 I0.35 J0
X91.65 Y35 Z-4.75 I-0.35 J0
X92.35 Y35 Z-5 I0.35 J0
X91.65 Y35 Z-5.25 I-0.35 J0
X92.35 Y35 Z-5.5 I0.35 J0
X91.65 Y35 Z-5.75 I-0.35 J0
X92.35 Y35 Z-6 I0.35 J0
X91.65 Y35 Z-6.25 I-0.35 J0
X92.35 Y35 Z-6.5 I0.35 J0
X91.65 Y35 Z-6.75 I-0.35 J0
X92.35 Y35 Z-7 I0.35 J0
X91.65 Y35 Z-7.25 I-0.35 J0
X92.35 Y35 Z-7.5 I0.35 J0
X91.65 Y35 Z-7.75 I-0.35 J0
X92.35 Y35 Z-8 I0.35 J0
X91.65 Y35 Z-8.25 I-0.35 J0
X92.35 Y35 Z-8.5 I0.35 J0
X91.65 Y35 Z-8.75 I-0.35 J0
X92.35 Y35 Z-9 I0.35 J0
X91.65 Y35 Z-9.25 I-0.35 J0
X92.35 Y35 Z-9.5 I0.35 J0
X91.65 Y35 Z-9.75 I-0.35 J0
X92.35 Y35 Z-10 I0.35 J0
X91.65 Y35 Z-10.25 I-0.35 J0
X92.35 Y35 Z-10.5 I0.35 J0
X91.65 Y35 Z-10.75 I-0.35 J0
X92.35 Y35 Z-11 I0.35 J0
X91.65 Y35 Z-11.25 I-0.35 J0
X92.35 Y35 Z-11.5 I0.35 J0
X91.65 Y35 Z-11.75 I-0.35 J0
X92.35 Y35 Z-12 I0.35 J0
X91.65 Y35 Z-12.25 I-0.35 J0
X92.35 Y35 Z-12.5 I0.35 J0
X91.65 Y35 Z-12.75 I-0.35 J0
X92.35 Y35 Z-13 I0.35 J0
X91.65 Y35 Z-13.25 I-0.35 J0
X91.717 Y34.794 Z-13.3 I0.35 J0
X92.283 Y35.206 I0.283 J0.206
X91.717 Y34.794 I-0.283 J-0.206
G1 X91.748 Y34.761
X91.787 Y34.737
X91.831 Y34.724
X91.877 Y34.723
X91.921 Y34.734
X91.961 Y34.756
X92.071 Y34.835
X92.119 Y34.87 Z-13.293
X92.165 Y34.904 Z-13.273
X92.207 Y34.934 Z-13.241
X92.241 Y34.959 Z-13.198
X92.267 Y34.978 Z-13.147
X92.283 Y34.99 Z-13.09
X92.289 Y34.994 Z-13.03
Z5
X73.99 Y34.875
Z1.73
Z0
X74.125
X74.164 Y34.881
X74.198 Y34.899
X74.226 Y34.927
X74.244 Y34.961
X74.25 Y35
G3 X73.75 Y35 Z-0.25 I-0.25 J0
X74.25 Y35 Z-0.5 I0.25 J0
X73.75 Y35 Z-0.75 I-0.25 J0
X74.25 Y35 Z-1 I0.25 J0
X73.75 Y35 Z-1.25 I-0.25 J0
X74.25 Y35 Z-1.5 I0.25 J0
X73.75 Y35 Z-1.75 I-0.25 J0
X74.25 Y35 Z-2 I0.25 J0
X73.75 Y35 Z-2.25 I-0.25 J0
X74.25 Y35 Z-2.5 I0.25 J0
X73.75 Y35 Z-2.75 I-0.25 J0
X74.25 Y35 Z-3 I0.25 J0
X73.75 Y35 Z-3.25 I-0.25 J0
X74.25 Y35 Z-3.5 I0.25 J0
X73.75 Y35 Z-3.75 I-0.25 J0
X74.25 Y35 Z-4 I0.25 J0
X73.75 Y35 Z-4.25 I-0.25 J0
X74.25 Y35 Z-4.5 I0.25 J0
X73.75 Y35 Z-4.75 I-0.25 J0
X74.25 Y35 Z-5 I0.25 J0
X73.75 Y35 Z-5.25 I-0.25 J0
X74.25 Y35 Z-5.5 I0.25 J0
X73.75 Y35 Z-5.75 I-0.25 J0
X74.25 Y35 Z-6 I0.25 J0
X73.75 Y35 Z-6.25 I-0.25 J0
X74.25 Y35 Z-6.5 I0.25 J0
X73.75 Y35 Z-6.75 I-0.25 J0
X74.25 Y35 Z-7 I0.25 J0
X73.75 Y35 Z-7.25 I-0.25 J0
X74.25 Y35 Z-7.5 I0.25 J0
X73.75 Y35 Z-7.75 I-0.25 J0
X74.25 Y35 Z-8 I0.25 J0
X73.75 Y35 Z-8.25 I-0.25 J0
X74.25 Y35 Z-8.5 I0.25 J0
X73.75 Y35 Z-8.75 I-0.25 J0
X74.25 Y35 Z-9 I0.25 J0
X73.75 Y35 Z-9.25 I-0.25 J0
X74.25 Y35 Z-9.5 I0.25 J0
X73.75 Y35 Z-9.75 I-0.25 J0
X74.25 Y35 Z-10 I0.25 J0
X73.75 Y35 Z-10.25 I-0.25 J0
X74.25 Y35 Z-10.5 I0.25 J0
X73.75 Y35 Z-10.75 I-0.25 J0
X74.25 Y35 Z-11 I0.25 J0
X73.75 Y35 Z-11.25 I-0.25 J0
X74.25 Y35 Z-11.5 I0.25 J0
X73.75 Y35 Z-11.75 I-0.25 J0
X74.25 Y35 Z-12 I0.25 J0
X73.75 Y35 Z-12.25 I-0.25 J0
X74.25 Y35 Z-12.5 I0.25 J0
X73.75 Y35 Z-12.75 I-0.25 J0
X74.25 Y35 Z-13 I0.25 J0
X73.75 Y35 Z-13.25 I-0.25 J0
X73.798 Y34.853 Z-13.3 I0.25 J0
X74.202 Y35.147 I0.202 J0.147
X73.798 Y34.853 I-0.202 J-0.147
G1 X73.825 Y34.825
X73.86 Y34.808
X73.899 Y34.802
X73.937 Y34.808
X73.972 Y34.825
X74.082 Y34.905
Z5
X73.77 Y34.825
Z2
Z0.27
G18 G2 X74.04 Z0 I0.27 K0
G1 X74.175
X74.22 Y34.831
X74.263 Y34.848
X74.299 Y34.876
X74.327 Y34.913
X74.344 Y34.955
X74.35 Y35
G17 G3 X73.65 Y35 Z-0.25 I-0.35 J0
X74.35 Y35 Z-0.5 I0.35 J0
X73.65 Y35 Z-0.75 I-0.35 J0
X74.35 Y35 Z-1 I0.35 J0
X73.65 Y35 Z-1.25 I-0.35 J0
X74.35 Y35 Z-1.5 I0.35 J0
X73.65 Y35 Z-1.75 I-0.35 J0
X74.35 Y35 Z-2 I0.35 J0
X73.65 Y35 Z-2.25 I-0.35 J0
X74.35 Y35 Z-2.5 I0.35 J0
X73.65 Y35 Z-2.75 I-0.35 J0
X74.35 Y35 Z-3 I0.35 J0
X73.65 Y35 Z-3.25 I-0.35 J0
X74.35 Y35 Z-3.5 I0.35 J0
X73.65 Y35 Z-3.75 I-0.35 J0
X74.35 Y35 Z-4 I0.35 J0
X73.65 Y35 Z-4.25 I-0.35 J0
X74.35 Y35 Z-4.5 I0.35 J0
X73.65 Y35 Z-4.75 I-0.35 J0
X74.35 Y35 Z-5 I0.35 J0
X73.65 Y35 Z-5.25 I-0.35 J0
X74.35 Y35 Z-5.5 I0.35 J0
X73.65 Y35 Z-5.75 I-0.35 J0
X74.35 Y35 Z-6 I0.35 J0
X73.65 Y35 Z-6.25 I-0.35 J0
X74.35 Y35 Z-6.5 I0.35 J0
X73.65 Y35 Z-6.75 I-0.35 J0
X74.35 Y35 Z-7 I0.35 J0
X73.65 Y35 Z-7.25 I-0.35 J0
X74.35 Y35 Z-7.5 I0.35 J0
X73.65 Y35 Z-7.75 I-0.35 J0
X74.35 Y35 Z-8 I0.35 J0
X73.65 Y35 Z-8.25 I-0.35 J0
X74.35 Y35 Z-8.5 I0.35 J0
X73.65 Y35 Z-8.75 I-0.35 J0
X74.35 Y35 Z-9 I0.35 J0
X73.65 Y35 Z-9.25 I-0.35 J0
X74.35 Y35 Z-9.5 I0.35 J0
X73.65 Y35 Z-9.75 I-0.35 J0
X74.35 Y35 Z-10 I0.35 J0
X73.65 Y35 Z-10.25 I-0.35 J0
X74.35 Y35 Z-10.5 I0.35 J0
X73.65 Y35 Z-10.75 I-0.35 J0
X74.35 Y35 Z-11 I0.35 J0
X73.65 Y35 Z-11.25 I-0.35 J0
X74.35 Y35 Z-11.5 I0.35 J0
X73.65 Y35 Z-11.75 I-0.35 J0
X74.35 Y35 Z-12 I0.35 J0
X73.65 Y35 Z-12.25 I-0.35 J0
X74.35 Y35 Z-12.5 I0.35 J0
X73.65 Y35 Z-12.75 I-0.35 J0
X74.35 Y35 Z-13 I0.35 J0
X73.65 Y35 Z-13.25 I-0.35 J0
X73.717 Y34.794 Z-13.3 I0.35 J0
X74.283 Y35.206 I0.283 J0.206
X73.717 Y34.794 I-0.283 J-0.206
G1 X73.748 Y34.761
X73.787 Y34.737
X73.831 Y34.724
X73.877 Y34.723
X73.921 Y34.734
X73.961 Y34.756
X74.071 Y34.835
X74.119 Y34.87 Z-13.293
X74.165 Y34.904 Z-13.273
X74.207 Y34.934 Z-13.241
X74.241 Y34.959 Z-13.198
X74.267 Y34.978 Z-13.147
X74.283 Y34.99 Z-13.09
X74.289 Y34.994 Z-13.03
Z5
X73.77 Y34.825
Z2
Z0.27
G18 G2 X74.04 Z0 I0.27 K0
G1 X74.175
X74.22 Y34.831
X74.263 Y34.848
X74.299 Y34.876
X74.327 Y34.913
X74.344 Y34.955
X74.35 Y35
G17 G3 X73.65 Y35 Z-0.25 I-0.35 J0
X74.35 Y35 Z-0.5 I0.35 J0
X73.65 Y35 Z-0.75 I-0.35 J0
X74.35 Y35 Z-1 I0.35 J0
X73.65 Y35 Z-1.25 I-0.35 J0
X74.35 Y35 Z-1.5 I0.35 J0
X73.65 Y35 Z-1.75 I-0.35 J0
X74.35 Y35 Z-2 I0.35 J0
X73.65 Y35 Z-2.25 I-0.35 J0
X74.35 Y35 Z-2.5 I0.35 J0
X73.65 Y35 Z-2.75 I-0.35 J0
X74.35 Y35 Z-3 I0.35 J0
X73.65 Y35 Z-3.25 I-0.35 J0
X74.35 Y35 Z-3.5 I0.35 J0
X73.65 Y35 Z-3.75 I-0.35 J0
X74.35 Y35 Z-4 I0.35 J0
X73.65 Y35 Z-4.25 I-0.35 J0
X74.35 Y35 Z-4.5 I0.35 J0
X73.65 Y35 Z-4.75 I-0.35 J0
X74.35 Y35 Z-5 I0.35 J0
X73.65 Y35 Z-5.25 I-0.35 J0
X74.35 Y35 Z-5.5 I0.35 J0
X73.65 Y35 Z-5.75 I-0.35 J0
X74.35 Y35 Z-6 I0.35 J0
X73.65 Y35 Z-6.25 I-0.35 J0
X74.35 Y35 Z-6.5 I0.35 J0
X73.65 Y35 Z-6.75 I-0.35 J0
X74.35 Y35 Z-7 I0.35 J0
X73.65 Y35 Z-7.25 I-0.35 J0
X74.35 Y35 Z-7.5 I0.35 J0
X73.65 Y35 Z-7.75 I-0.35 J0
X74.35 Y35 Z-8 I0.35 J0
X73.65 Y35 Z-8.25 I-0.35 J0
X74.35 Y35 Z-8.5 I0.35 J0
X73.65 Y35 Z-8.75 I-0.35 J0
X74.35 Y35 Z-9 I0.35 J0
X73.65 Y35 Z-9.25 I-0.35 J0
X74.35 Y35 Z-9.5 I0.35 J0
X73.65 Y35 Z-9.75 I-0.35 J0
X74.35 Y35 Z-10 I0.35 J0
X73.65 Y35 Z-10.25 I-0.35 J0
X74.35 Y35 Z-10.5 I0.35 J0
X73.65 Y35 Z-10.75 I-0.35 J0
X74.35 Y35 Z-11 I0.35 J0
X73.65 Y35 Z-11.25 I-0.35 J0
X74.35 Y35 Z-11.5 I0.35 J0
X73.65 Y35 Z-11.75 I-0.35 J0
X74.35 Y35 Z-12 I0.35 J0
X73.65 Y35 Z-12.25 I-0.35 J0
X74.35 Y35 Z-12.5 I0.35 J0
X73.65 Y35 Z-12.75 I-0.35 J0
X74.35 Y35 Z-13 I0.35 J0
X73.65 Y35 Z-13.25 I-0.35 J0
X73.717 Y34.794 Z-13.3 I0.35 J0
X74.283 Y35.206 I0.283 J0.206
X73.717 Y34.794 I-0.283 J-0.206
G1 X73.748 Y34.761
X73.787 Y34.737
X73.831 Y34.724
X73.877 Y34.723
X73.921 Y34.734
X73.961 Y34.756
X74.071 Y34.835
X74.119 Y34.87 Z-13.293
X74.165 Y34.904 Z-13.273
X74.207 Y34.934 Z-13.241
X74.241 Y34.959 Z-13.198
X74.267 Y34.978 Z-13.147
X74.283 Y34.99 Z-13.09
X74.289 Y34.994 Z-13.03
Z5
X14.775 Y34.73
Z-3.95
Z-5.68
G18 G2 X15.045 Z-5.95 I0.27 K0
G1 X15.18
G17 G3 X15.45 Y35 I0 J0.27
X12.55 Y35 Z-6.2 I-1.45 J0
X15.45 Y35 Z-6.45 I1.45 J0
X12.55 Y35 Z-6.7 I-1.45 J0
X15.45 Y35 Z-6.95 I1.45 J0
X12.55 Y35 Z-7.2 I-1.45 J0
X15.45 Y35 Z-7.45 I1.45 J0
X12.55 Y35 Z-7.7 I-1.45 J0
X15.45 Y35 Z-7.95 I1.45 J0
X12.55 Y35 Z-8.2 I-1.45 J0
X15.45 Y35 Z-8.45 I1.45 J0
X12.55 Y35 Z-8.7 I-1.45 J0
X15.45 Y35 Z-8.95 I1.45 J0
X12.55 Y35 Z-9.2 I-1.45 J0
X15.45 Y35 Z-9.45 I1.45 J0
X12.55 Y35 Z-9.7 I-1.45 J0
X15.45 Y35 Z-9.95 I1.45 J0
X12.55 Y35 Z-10.2 I-1.45 J0
X15.45 Y35 Z-10.45 I1.45 J0
X12.55 Y35 Z-10.7 I-1.45 J0
X15.45 Y35 Z-10.95 I1.45 J0
X12.55 Y35 Z-11.2 I-1.45 J0
X15.45 Y35 Z-11.45 I1.45 J0
X12.55 Y35 Z-11.7 I-1.45 J0
X15.45 Y35 Z-11.95 I1.45 J0
X12.55 Y35 Z-12.2 I-1.45 J0
X15.45 Y35 Z-12.45 I1.45 J0
X12.55 Y35 Z-12.7 I-1.45 J0
X15.45 Y35 Z-12.95 I1.45 J0
X12.55 Y35 Z-13.2 I-1.45 J0
X13.552 Y33.621 Z-13.3 I1.45 J0
X14.448 Y36.379 I0.448 J1.379
X13.552 Y33.621 I-0.448 J-1.379
X13.892 Y33.794 I0.083 J0.257
G1 X13.934 Y33.923
X13.952 Y33.98 Z-13.293
X13.97 Y34.034 Z-13.273
X13.986 Y34.083 Z-13.241
X13.999 Y34.123 Z-13.198
X14.009 Y34.154 Z-13.147
X14.015 Y34.173 Z-13.09
X14.017 Y34.179 Z-13.03
Z5
X14.875 Y34.73
Z-3.95
Z-5.68
G18 G2 X15.145 Z-5.95 I0.27 K0
G1 X15.28
G17 G3 X15.55 Y35 I0 J0.27
X12.45 Y35 Z-6.2 I-1.55 J0
X15.55 Y35 Z-6.45 I1.55 J0
X12.45 Y35 Z-6.7 I-1.55 J0
X15.55 Y35 Z-6.95 I1.55 J0
X12.45 Y35 Z-7.2 I-1.55 J0
X15.55 Y35 Z-7.45 I1.55 J0
X12.45 Y35 Z-7.7 I-1.55 J0
X15.55 Y35 Z-7.95 I1.55 J0
X12.45 Y35 Z-8.2 I-1.55 J0
X15.55 Y35 Z-8.45 I1.55 J0
X12.45 Y35 Z-8.7 I-1.55 J0
X15.55 Y35 Z-8.95 I1.55 J0
X12.45 Y35 Z-9.2 I-1.55 J0
X15.55 Y35 Z-9.45 I1.55 J0
X12.45 Y35 Z-9.7 I-1.55 J0
X15.55 Y35 Z-9.95 I1.55 J0
X12.45 Y35 Z-10.2 I-1.55 J0
X15.55 Y35 Z-10.45 I1.55 J0
X12.45 Y35 Z-10.7 I-1.55 J0
X15.55 Y35 Z-10.95 I1.55 J0
X12.45 Y35 Z-11.2 I-1.55 J0
X15.55 Y35 Z-11.45 I1.55 J0
X12.45 Y35 Z-11.7 I-1.55 J0
X15.55 Y35 Z-11.95 I1.55 J0
X12.45 Y35 Z-12.2 I-1.55 J0
X15.55 Y35 Z-12.45 I1.55 J0
X12.45 Y35 Z-12.7 I-1.55 J0
X15.55 Y35 Z-12.95 I1.55 J0
X12.45 Y35 Z-13.2 I-1.55 J0
X13.521 Y33.526 Z-13.3 I1.55 J0
X14.479 Y36.474 I0.479 J1.474
X13.521 Y33.526 I-0.479 J-1.474
X13.861 Y33.699 I0.083 J0.257
G1 X13.903 Y33.828
X13.922 Y33.885 Z-13.293
X13.939 Y33.939 Z-13.273
X13.955 Y33.988 Z-13.241
X13.968 Y34.028 Z-13.198
X13.978 Y34.059 Z-13.147
X13.984 Y34.078 Z-13.09
X13.986 Y34.084 Z-13.03
Z5
X14.875 Y34.73
Z-3.95
Z-5.68
G18 G2 X15.145 Z-5.95 I0.27 K0
G1 X15.28
G17 G3 X15.55 Y35 I0 J0.27
X12.45 Y35 Z-6.2 I-1.55 J0
X15.55 Y35 Z-6.45 I1.55 J0
X12.45 Y35 Z-6.7 I-1.55 J0
X15.55 Y35 Z-6.95 I1.55 J0
X12.45 Y35 Z-7.2 I-1.55 J0
X15.55 Y35 Z-7.45 I1.55 J0
X12.45 Y35 Z-7.7 I-1.55 J0
X15.55 Y35 Z-7.95 I1.55 J0
X12.45 Y35 Z-8.2 I-1.55 J0
X15.55 Y35 Z-8.45 I1.55 J0
X12.45 Y35 Z-8.7 I-1.55 J0
X15.55 Y35 Z-8.95 I1.55 J0
X12.45 Y35 Z-9.2 I-1.55 J0
X15.55 Y35 Z-9.45 I1.55 J0
X12.45 Y35 Z-9.7 I-1.55 J0
X15.55 Y35 Z-9.95 I1.55 J0
X12.45 Y35 Z-10.2 I-1.55 J0
X15.55 Y35 Z-10.45 I1.55 J0
X12.45 Y35 Z-10.7 I-1.55 J0
X15.55 Y35 Z-10.95 I1.55 J0
X12.45 Y35 Z-11.2 I-1.55 J0
X15.55 Y35 Z-11.45 I1.55 J0
X12.45 Y35 Z-11.7 I-1.55 J0
X15.55 Y35 Z-11.95 I1.55 J0
X12.45 Y35 Z-12.2 I-1.55 J0
X15.55 Y35 Z-12.45 I1.55 J0
X12.45 Y35 Z-12.7 I-1.55 J0
X15.55 Y35 Z-12.95 I1.55 J0
X12.45 Y35 Z-13.2 I-1.55 J0
X13.521 Y33.526 Z-13.3 I1.55 J0
X14.479 Y36.474 I0.479 J1.474
X13.521 Y33.526 I-0.479 J-1.474
X13.861 Y33.699 I0.083 J0.257
G1 X13.903 Y33.828
X13.922 Y33.885 Z-13.293
X13.939 Y33.939 Z-13.273
X13.955 Y33.988 Z-13.241
X13.968 Y34.028 Z-13.198
X13.978 Y34.059 Z-13.147
X13.984 Y34.078 Z-13.09
X13.986 Y34.084 Z-13.03
Z10
(When using Fusion 360 for Personal Use, the feedrate of)
(rapid moves is reduced to match the feedrate of cutting)
(moves, which can increase machining time. Unrestricted rapid)
(moves are available with a Fusion 360 Subscription.)

(2D Contour both)
G0 X151.278 Y62.55
G1 Z10 F1000
Z5
Z2.02 F333.3
Z-0.946
X159.5 F500
G2 X161.05 Y61 I0 J-1.55
G1 Y60.35
X166.95
Y61
G2 X168.5 Y62.55 I1.55 J0
G1 X177.05
Y63.1
X150.95
Y62.55
X151.278
Z-1.892 F333.3
X159.5 F500
G2 X161.05 Y61 I0 J-1.55
G1 Y60.35
X166.95
Y61
G2 X168.5 Y62.55 I1.55 J0
G1 X177.05
Y63.1
X150.95
Y62.55
X151.278
Z-2.838 F333.3
X159.5 F500
G2 X161.05 Y61 I0 J-1.55
G1 Y60.35
X166.95
Y61
G2 X168.5 Y62.55 I1.55 J0
G1 X177.05
Y63.1
X150.95
Y62.55
X151.278
Z-3.785 F333.3
X159.5 F500
G2 X161.05 Y61 I0 J-1.55
G1 Y60.35
X166.95
Y61
G2 X168.5 Y62.55 I1.55 J0
G1 X177.05
Y63.1
X150.95
Y62.55
X151.278
Z-4.731 F333.3
X159.5 F500
G2 X161.05 Y61 I0 J-1.55
G1 Y60.35
X166.95
Y61
G2 X168.5 Y62.55 I1.55 J0
G1 X177.05
Y63.1
X150.95
Y62.55
X151.278
Z-5.677 F333.3
X159.5 F500
G2 X161.05 Y61 I0 J-1.55
G1 Y60.35
X166.95
Y61
G2 X168.5 Y62.55 I1.55 J0
G1 X177.05
Y63.1
X150.95
Y62.55
X151.278
Z-6.623 F333.3
X159.5 F500
G2 X161.05 Y61 I0 J-1.55
G1 Y60.35
X166.95
Y61
G2 X168.5 Y62.55 I1.55 J0
G1 X177.05
Y63.1
X150.95
Y62.55
X151.278
Z-7.569 F333.3
X159.5 F500
G2 X161.05 Y61 I0 J-1.55
G1 Y60.35
X166.95
Y61
G2 X168.5 Y62.55 I1.55 J0
G1 X177.05
Y63.1
X150.95
Y62.55
X151.278
Z-8.515 F333.3
X159.5 F500
G2 X161.05 Y61 I0 J-1.55
G1 Y60.35
X166.95
Y61
G2 X168.5 Y62.55 I1.55 J0
G1 X177.05
Y63.1
X150.95
Y62.55
X151.278
Z-9.462 F333.3
X159.5 F500
G2 X161.05 Y61 I0 J-1.55
G1 Y60.35
X166.95
Y61
G2 X168.5 Y62.55 I1.55 J0
G1 X177.05
Y63.1
X150.95
Y62.55
X151.278
Z-10.408 F333.3
X159.5 F500
G2 X161.05 Y61 I0 J-1.55
G1 Y60.35
X166.95
Y61
G2 X168.5 Y62.55 I1.55 J0
G1 X177.05
Y63.1
X150.95
Y62.55
X151.278
Z-11.354 F333.3
X159.5 F500
G2 X161.05 Y61 I0 J-1.55
G1 Y60.35
X166.95
Y61
G2 X168.5 Y62.55 I1.55 J0
G1 X177.05
Y63.1
X150.95
Y62.55
X151.278
Z-12.3 F333.3
X159.5 F1000
G2 X161.05 Y61 I0 J-1.55
G1 Y60.35
X166.95
Y61
G2 X168.5 Y62.55 I1.55 J0
G1 X177.05
Y63.1
X150.95
Y62.55
X151.278
X151.325 Y62.543
X151.368 Y62.523
X151.403 Y62.491
X151.428 Y62.45
X151.452 Y62.409
X151.488 Y62.377
X151.531 Y62.357
X151.578 Y62.35
X159.5 F500
G2 X160.85 Y61 I0 J-1.35
G1 Y60.15
X167.15
Y61
G2 X168.5 Y62.35 I1.35 J0
G1 X177.25
Y63.3
X150.75
Y62.35
X151.578
Z5 F1000
X151.278 Y6.9
Z2.02 F333.3
Z-0.946
X177.05 F500
Y7.45
X168.5
G2 X166.95 Y9 I0 J1.55
G1 Y9.65
X161.05
Y9
G2 X159.5 Y7.45 I-1.55 J0
G1 X150.95
Y6.9
X151.278
Z-1.892 F333.3
X177.05 F500
Y7.45
X168.5
G2 X166.95 Y9 I0 J1.55
G1 Y9.65
X161.05
Y9
G2 X159.5 Y7.45 I-1.55 J0
G1 X150.95
Y6.9
X151.278
Z-2.838 F333.3
X177.05 F500
Y7.45
X168.5
G2 X166.95 Y9 I0 J1.55
G1 Y9.65
X161.05
Y9
G2 X159.5 Y7.45 I-1.55 J0
G1 X150.95
Y6.9
X151.278
Z-3.785 F333.3
X177.05 F500
Y7.45
X168.5
G2 X166.95 Y9 I0 J1.55
G1 Y9.65
X161.05
Y9
G2 X159.5 Y7.45 I-1.55 J0
G1 X150.95
Y6.9
X151.278
Z-4.731 F333.3
X177.05 F500
Y7.45
X168.5
G2 X166.95 Y9 I0 J1.55
G1 Y9.65
X161.05
Y9
G2 X159.5 Y7.45 I-1.55 J0
G1 X150.95
Y6.9
X151.278
Z-5.677 F333.3
X177.05 F500
Y7.45
X168.5
G2 X166.95 Y9 I0 J1.55
G1 Y9.65
X161.05
Y9
G2 X159.5 Y7.45 I-1.55 J0
G1 X150.95
Y6.9
X151.278
Z-6.623 F333.3
X177.05 F500
Y7.45
X168.5
G2 X166.95 Y9 I0 J1.55
G1 Y9.65
X161.05
Y9
G2 X159.5 Y7.45 I-1.55 J0
G1 X150.95
Y6.9
X151.278
Z-7.569 F333.3
X177.05 F500
Y7.45
X168.5
G2 X166.95 Y9 I0 J1.55
G1 Y9.65
X161.05
Y9
G2 X159.5 Y7.45 I-1.55 J0
G1 X150.95
Y6.9
X151.278
Z-8.515 F333.3
X177.05 F500
Y7.45
X168.5
G2 X166.95 Y9 I0 J1.55
G1 Y9.65
X161.05
Y9
G2 X159.5 Y7.45 I-1.55 J0
G1 X150.95
Y6.9
X151.278
Z-9.462 F333.3
X177.05 F500
Y7.45
X168.5
G2 X166.95 Y9 I0 J1.55
G1 Y9.65
X161.05
Y9
G2 X159.5 Y7.45 I-1.55 J0
G1 X150.95
Y6.9
X151.278
Z-10.408 F333.3
X177.05 F500
Y7.45
X168.5
G2 X166.95 Y9 I0 J1.55
G1 Y9.65
X161.05
Y9
G2 X159.5 Y7.45 I-1.55 J0
G1 X150.95
Y6.9
X151.278
Z-11.354 F333.3
X177.05 F500
Y7.45
X168.5
G2 X166.95 Y9 I0 J1.55
G1 Y9.65
X161.05
Y9
G2 X159.5 Y7.45 I-1.55 J0
G1 X150.95
Y6.9
X151.278
Z-12.3 F333.3
X177.05 F1000
Y7.45
X168.5
G2 X166.95 Y9 I0 J1.55
G1 Y9.65
X161.05
Y9
G2 X159.5 Y7.45 I-1.55 J0
G1 X150.95
Y6.9
X151.278
X151.325 Y6.893
X151.368 Y6.873
X151.403 Y6.841
X151.428 Y6.8
X151.452 Y6.759
X151.488 Y6.727
X151.531 Y6.707
X151.578 Y6.7
X177.25 F500
Y7.65
X168.5
G2 X167.15 Y9 I0 J1.35
G1 Y9.85
X160.85
Y9
G2 X159.5 Y7.65 I-1.35 J0
G1 X150.75
Y6.7
X151.578
Z5 F1000
X51.278 Y6.9
Z2.02 F333.3
Z-0.946
X77.05 F500
Y7.45
X68.5
G2 X66.95 Y9 I0 J1.55
G1 Y9.65
X61.05
Y9
G2 X59.5 Y7.45 I-1.55 J0
G1 X50.95
Y6.9
X51.278
Z-1.892 F333.3
X77.05 F500
Y7.45
X68.5
G2 X66.95 Y9 I0 J1.55
G1 Y9.65
X61.05
Y9
G2 X59.5 Y7.45 I-1.55 J0
G1 X50.95
Y6.9
X51.278
Z-2.838 F333.3
X77.05 F500
Y7.45
X68.5
G2 X66.95 Y9 I0 J1.55
G1 Y9.65
X61.05
Y9
G2 X59.5 Y7.45 I-1.55 J0
G1 X50.95
Y6.9
X51.278
Z-3.785 F333.3
X77.05 F500
Y7.45
X68.5
G2 X66.95 Y9 I0 J1.55
G1 Y9.65
X61.05
Y9
G2 X59.5 Y7.45 I-1.55 J0
G1 X50.95
Y6.9
X51.278
Z-4.731 F333.3
X77.05 F500
Y7.45
X68.5
G2 X66.95 Y9 I0 J1.55
G1 Y9.65
X61.05
Y9
G2 X59.5 Y7.45 I-1.55 J0
G1 X50.95
Y6.9
X51.278
Z-5.677 F333.3
X77.05 F500
Y7.45
X68.5
G2 X66.95 Y9 I0 J1.55
G1 Y9.65
X61.05
Y9
G2 X59.5 Y7.45 I-1.55 J0
G1 X50.95
Y6.9
X51.278
Z-6.623 F333.3
X77.05 F500
Y7.45
X68.5
G2 X66.95 Y9 I0 J1.55
G1 Y9.65
X61.05
Y9
G2 X59.5 Y7.45 I-1.55 J0
G1 X50.95
Y6.9
X51.278
Z-7.569 F333.3
X77.05 F500
Y7.45
X68.5
G2 X66.95 Y9 I0 J1.55
G1 Y9.65
X61.05
Y9
G2 X59.5 Y7.45 I-1.55 J0
G1 X50.95
Y6.9
X51.278
Z-8.515 F333.3
X77.05 F500
Y7.45
X68.5
G2 X66.95 Y9 I0 J1.55
G1 Y9.65
X61.05
Y9
G2 X59.5 Y7.45 I-1.55 J0
G1 X50.95
Y6.9
X51.278
Z-9.462 F333.3
X77.05 F500
Y7.45
X68.5
G2 X66.95 Y9 I0 J1.55
G1 Y9.65
X61.05
Y9
G2 X59.5 Y7.45 I-1.55 J0
G1 X50.95
Y6.9
X51.278
Z-10.408 F333.3
X77.05 F500
Y7.45
X68.5
G2 X66.95 Y9 I0 J1.55
G1 Y9.65
X61.05
Y9
G2 X59.5 Y7.45 I-1.55 J0
G1 X50.95
Y6.9
X51.278
Z-11.354 F333.3
X77.05 F500
Y7.45
X68.5
G2 X66.95 Y9 I0 J1.55
G1 Y9.65
X61.05
Y9
G2 X59.5 Y7.45 I-1.55 J0
G1 X50.95
Y6.9
X51.278
Z-12.3 F333.3
X68.5 F1000
X77.05
Y7.45
X68.5
G2 X66.95 Y9 I0 J1.55
G1 Y9.65
X61.05
Y9
G2 X59.5 Y7.45 I-1.55 J0
G1 X50.95
Y6.9
X51.278
X51.325 Y6.893
X51.368 Y6.873
X51.403 Y6.841
X51.428 Y6.8
X51.452 Y6.759
X51.488 Y6.727
X51.531 Y6.707
X51.578 Y6.7
X77.25 F500
Y7.65
X68.5
G2 X67.15 Y9 I0 J1.35
G1 Y9.85
X60.85
Y9
G2 X59.5 Y7.65 I-1.35 J0
G1 X50.75
Y6.7
X51.578
Z5 F1000
X51.278 Y62.55
Z2.02 F333.3
Z-0.946
X59.5 F500
G2 X61.05 Y61 I0 J-1.55
G1 Y60.35
X66.95
Y61
G2 X68.5 Y62.55 I1.55 J0
G1 X77.05
Y63.1
X50.95
Y62.55
X51.278
Z-1.892 F333.3
X59.5 F500
G2 X61.05 Y61 I0 J-1.55
G1 Y60.35
X66.95
Y61
G2 X68.5 Y62.55 I1.55 J0
G1 X77.05
Y63.1
X50.95
Y62.55
X51.278
Z-2.838 F333.3
X59.5 F500
G2 X61.05 Y61 I0 J-1.55
G1 Y60.35
X66.95
Y61
G2 X68.5 Y62.55 I1.55 J0
G1 X77.05
Y63.1
X50.95
Y62.55
X51.278
Z-3.785 F333.3
X59.5 F500
G2 X61.05 Y61 I0 J-1.55
G1 Y60.35
X66.95
Y61
G2 X68.5 Y62.55 I1.55 J0
G1 X77.05
Y63.1
X50.95
Y62.55
X51.278
Z-4.731 F333.3
X59.5 F500
G2 X61.05 Y61 I0 J-1.55
G1 Y60.35
X66.95
Y61
G2 X68.5 Y62.55 I1.55 J0
G1 X77.05
Y63.1
X50.95
Y62.55
X51.278
Z-5.677 F333.3
X59.5 F500
G2 X61.05 Y61 I0 J-1.55
G1 Y60.35
X66.95
Y61
G2 X68.5 Y62.55 I1.55 J0
G1 X77.05
Y63.1
X50.95
Y62.55
X51.278
Z-6.623 F333.3
X59.5 F500
G2 X61.05 Y61 I0 J-1.55
G1 Y60.35
X66.95
Y61
G2 X68.5 Y62.55 I1.55 J0
G1 X77.05
Y63.1
X50.95
Y62.55
X51.278
Z-7.569 F333.3
X59.5 F500
G2 X61.05 Y61 I0 J-1.55
G1 Y60.35
X66.95
Y61
G2 X68.5 Y62.55 I1.55 J0
G1 X77.05
Y63.1
X50.95
Y62.55
X51.278
Z-8.515 F333.3
X59.5 F500
G2 X61.05 Y61 I0 J-1.55
G1 Y60.35
X66.95
Y61
G2 X68.5 Y62.55 I1.55 J0
G1 X77.05
Y63.1
X50.95
Y62.55
X51.278
Z-9.462 F333.3
X59.5 F500
G2 X61.05 Y61 I0 J-1.55
G1 Y60.35
X66.95
Y61
G2 X68.5 Y62.55 I1.55 J0
G1 X77.05
Y63.1
X50.95
Y62.55
X51.278
Z-10.408 F333.3
X59.5 F500
G2 X61.05 Y61 I0 J-1.55
G1 Y60.35
X66.95
Y61
G2 X68.5 Y62.55 I1.55 J0
G1 X77.05
Y63.1
X50.95
Y62.55
X51.278
Z-11.354 F333.3
X59.5 F500
G2 X61.05 Y61 I0 J-1.55
G1 Y60.35
X66.95
Y61
G2 X68.5 Y62.55 I1.55 J0
G1 X77.05
Y63.1
X50.95
Y62.55
X51.278
Z-12.3 F333.3
X59.5 F1000
G2 X61.05 Y61 I0 J-1.55
G1 Y60.35
X66.95
Y61
G2 X68.5 Y62.55 I1.55 J0
G1 X77.05
Y63.1
X50.95
Y62.55
X51.278
X51.325 Y62.543
X51.368 Y62.523
X51.403 Y62.491
X51.428 Y62.45
X51.452 Y62.409
X51.488 Y62.377
X51.531 Y62.357
X51.578 Y62.35
X59.5 F500
G2 X60.85 Y61 I0 J-1.35
G1 Y60.15
X67.15
Y61
G2 X68.5 Y62.35 I1.35 J0
G1 X77.25
Y63.3
X50.75
Y62.35
X51.578
Z5 F1000
X29.297 Y-1.55
Z2.02 F333.3
Z-0.946
X14 F500
G2 X12.45 Y0 I0 J1.55
G1 Y17.144
G3 X11.846 Y17.567 I-0.45 J0
G1 X3.214 Y14.425
G2 X-1.55 Y17.761 I-1.214 J3.336
G1 Y52.239
G2 X3.214 Y55.575 I3.55 J0
G1 X11.846 Y52.433
G3 X12.45 Y52.856 I0.154 J0.423
G1 Y70
G2 X14 Y71.55 I1.55 J0
G1 X107.8
G2 X109.35 Y70 I0 J-1.55
G1 Y38.05
G2 X107.8 Y36.5 I-1.55 J0
G1 X107.75
Y36.4
X120.25
Y36.5
X120.2
G2 X118.65 Y38.05 I0 J1.55
G1 Y70
G2 X120.2 Y71.55 I1.55 J0
G1 X214
G2 X215.55 Y70 I0 J-1.55
G1 Y52.856
G3 X216.154 Y52.433 I0.45 J0
G1 X224.786 Y55.575
G2 X229.55 Y52.239 I1.214 J-3.336
G1 Y17.761
G2 X224.786 Y14.425 I-3.55 J0
G1 X216.154 Y17.567
G3 X215.55 Y17.144 I-0.154 J-0.423
G1 Y0
G2 X214 Y-1.55 I-1.55 J0
G1 X29.297
Z-1.892 F333.3
X14 F500
G2 X12.45 Y0 I0 J1.55
G1 Y17.144
G3 X11.846 Y17.567 I-0.45 J0
G1 X3.214 Y14.425
G2 X-1.55 Y17.761 I-1.214 J3.336
G1 Y52.239
G2 X3.214 Y55.575 I3.55 J0
G1 X11.846 Y52.433
G3 X12.45 Y52.856 I0.154 J0.423
G1 Y70
G2 X14 Y71.55 I1.55 J0
G1 X107.8
G2 X109.35 Y70 I0 J-1.55
G1 Y38.05
G2 X107.8 Y36.5 I-1.55 J0
G1 X107.75
Y36.4
X120.25
Y36.5
X120.2
G2 X118.65 Y38.05 I0 J1.55
G1 Y70
G2 X120.2 Y71.55 I1.55 J0
G1 X214
G2 X215.55 Y70 I0 J-1.55
G1 Y52.856
G3 X216.154 Y52.433 I0.45 J0
G1 X224.786 Y55.575
G2 X229.55 Y52.239 I1.214 J-3.336
G1 Y17.761
G2 X224.786 Y14.425 I-3.55 J0
G1 X216.154 Y17.567
G3 X215.55 Y17.144 I-0.154 J-0.423
G1 Y0
G2 X214 Y-1.55 I-1.55 J0
G1 X29.297
Z-2.838 F333.3
X14 F500
G2 X12.45 Y0 I0 J1.55
G1 Y17.144
G3 X11.846 Y17.567 I-0.45 J0
G1 X3.214 Y14.425
G2 X-1.55 Y17.761 I-1.214 J3.336
G1 Y52.239
G2 X3.214 Y55.575 I3.55 J0
G1 X11.846 Y52.433
G3 X12.45 Y52.856 I0.154 J0.423
G1 Y70
G2 X14 Y71.55 I1.55 J0
G1 X107.8
G2 X109.35 Y70 I0 J-1.55
G1 Y38.05
G2 X107.8 Y36.5 I-1.55 J0
G1 X107.75
Y36.4
X120.25
Y36.5
X120.2
G2 X118.65 Y38.05 I0 J1.55
G1 Y70
G2 X120.2 Y71.55 I1.55 J0
G1 X214
G2 X215.55 Y70 I0 J-1.55
G1 Y52.856
G3 X216.154 Y52.433 I0.45 J0
G1 X224.786 Y55.575
G2 X229.55 Y52.239 I1.214 J-3.336
G1 Y17.761
G2 X224.786 Y14.425 I-3.55 J0
G1 X216.154 Y17.567
G3 X215.55 Y17.144 I-0.154 J-0.423
G1 Y0
G2 X214 Y-1.55 I-1.55 J0
G1 X29.297
Z-3.785 F333.3
X14 F500
G2 X12.45 Y0 I0 J1.55
G1 Y17.144
G3 X11.846 Y17.567 I-0.45 J0
G1 X3.214 Y14.425
G2 X-1.55 Y17.761 I-1.214 J3.336
G1 Y52.239
G2 X3.214 Y55.575 I3.55 J0
G1 X11.846 Y52.433
G3 X12.45 Y52.856 I0.154 J0.423
G1 Y70
G2 X14 Y71.55 I1.55 J0
G1 X107.8
G2 X109.35 Y70 I0 J-1.55
G1 Y38.05
G2 X107.8 Y36.5 I-1.55 J0
G1 X107.75
Y36.4
X120.25
Y36.5
X120.2
G2 X118.65 Y38.05 I0 J1.55
G1 Y70
G2 X120.2 Y71.55 I1.55 J0
G1 X214
G2 X215.55 Y70 I0 J-1.55
G1 Y52.856
G3 X216.154 Y52.433 I0.45 J0
G1 X224.786 Y55.575
G2 X229.55 Y52.239 I1.214 J-3.336
G1 Y17.761
G2 X224.786 Y14.425 I-3.55 J0
G1 X216.154 Y17.567
G3 X215.55 Y17.144 I-0.154 J-0.423
G1 Y0
G2 X214 Y-1.55 I-1.55 J0
G1 X29.297
Z-4.731 F333.3
X14 F500
G2 X12.45 Y0 I0 J1.55
G1 Y17.144
G3 X11.846 Y17.567 I-0.45 J0
G1 X3.214 Y14.425
G2 X-1.55 Y17.761 I-1.214 J3.336
G1 Y52.239
G2 X3.214 Y55.575 I3.55 J0
G1 X11.846 Y52.433
G3 X12.45 Y52.856 I0.154 J0.423
G1 Y70
G2 X14 Y71.55 I1.55 J0
G1 X107.8
G2 X109.35 Y70 I0 J-1.55
G1 Y38.05
G2 X107.8 Y36.5 I-1.55 J0
G1 X107.75
Y36.4
X120.25
Y36.5
X120.2
G2 X118.65 Y38.05 I0 J1.55
G1 Y70
G2 X120.2 Y71.55 I1.55 J0
G1 X214
G2 X215.55 Y70 I0 J-1.55
G1 Y52.856
G3 X216.154 Y52.433 I0.45 J0
G1 X224.786 Y55.575
G2 X229.55 Y52.239 I1.214 J-3.336
G1 Y17.761
G2 X224.786 Y14.425 I-3.55 J0
G1 X216.154 Y17.567
G3 X215.55 Y17.144 I-0.154 J-0.423
G1 Y0
G2 X214 Y-1.55 I-1.55 J0
G1 X29.297
Z-5.677 F333.3
X14 F500
G2 X12.45 Y0 I0 J1.55
G1 Y17.144
G3 X11.846 Y17.567 I-0.45 J0
G1 X3.214 Y14.425
G2 X-1.55 Y17.761 I-1.214 J3.336
G1 Y52.239
G2 X3.214 Y55.575 I3.55 J0
G1 X11.846 Y52.433
G3 X12.45 Y52.856 I0.154 J0.423
G1 Y70
G2 X14 Y71.55 I1.55 J0
G1 X107.8
G2 X109.35 Y70 I0 J-1.55
G1 Y38.05
G2 X107.8 Y36.5 I-1.55 J0
G1 X107.75
Y36.4
X120.25
Y36.5
X120.2
G2 X118.65 Y38.05 I0 J1.55
G1 Y70
G2 X120.2 Y71.55 I1.55 J0
G1 X214
G2 X215.55 Y70 I0 J-1.55
G1 Y52.856
G3 X216.154 Y52.433 I0.45 J0
G1 X224.786 Y55.575
G2 X229.55 Y52.239 I1.214 J-3.336
G1 Y17.761
G2 X224.786 Y14.425 I-3.55 J0
G1 X216.154 Y17.567
G3 X215.55 Y17.144 I-0.154 J-0.423
G1 Y0
G2 X214 Y-1.55 I-1.55 J0
G1 X29.297
Z-6.623 F333.3
X14 F500
G2 X12.45 Y0 I0 J1.55
G1 Y17.144
G3 X11.846 Y17.567 I-0.45 J0
G1 X3.214 Y14.425
G2 X-1.55 Y17.761 I-1.214 J3.336
G1 Y52.239
G2 X3.214 Y55.575 I3.55 J0
G1 X11.846 Y52.433
G3 X12.45 Y52.856 I0.154 J0.423
G1 Y70
G2 X14 Y71.55 I1.55 J0
G1 X107.8
G2 X109.35 Y70 I0 J-1.55
G1 Y38.05
G2 X107.8 Y36.5 I-1.55 J0
G1 X107.75
Y36.4
X120.25
Y36.5
X120.2
G2 X118.65 Y38.05 I0 J1.55
G1 Y70
G2 X120.2 Y71.55 I1.55 J0
G1 X214
G2 X215.55 Y70 I0 J-1.55
G1 Y52.856
G3 X216.154 Y52.433 I0.45 J0
G1 X224.786 Y55.575
G2 X229.55 Y52.239 I1.214 J-3.336
G1 Y17.761
G2 X224.786 Y14.425 I-3.55 J0
G1 X216.154 Y17.567
G3 X215.55 Y17.144 I-0.154 J-0.423
G1 Y0
G2 X214 Y-1.55 I-1.55 J0
G1 X29.297
Z-7.569 F333.3
X14 F500
G2 X12.45 Y0 I0 J1.55
G1 Y17.144
G3 X11.846 Y17.567 I-0.45 J0
G1 X3.214 Y14.425
G2 X-1.55 Y17.761 I-1.214 J3.336
G1 Y52.239
G2 X3.214 Y55.575 I3.55 J0
G1 X11.846 Y52.433
G3 X12.45 Y52.856 I0.154 J0.423
G1 Y70
G2 X14 Y71.55 I1.55 J0
G1 X107.8
G2 X109.35 Y70 I0 J-1.55
G1 Y38.05
G2 X107.8 Y36.5 I-1.55 J0
G1 X107.75
Y36.4
X120.25
Y36.5
X120.2
G2 X118.65 Y38.05 I0 J1.55
G1 Y70
G2 X120.2 Y71.55 I1.55 J0
G1 X214
G2 X215.55 Y70 I0 J-1.55
G1 Y52.856
G3 X216.154 Y52.433 I0.45 J0
G1 X224.786 Y55.575
G2 X229.55 Y52.239 I1.214 J-3.336
G1 Y17.761
G2 X224.786 Y14.425 I-3.55 J0
G1 X216.154 Y17.567
G3 X215.55 Y17.144 I-0.154 J-0.423
G1 Y0
G2 X214 Y-1.55 I-1.55 J0
G1 X29.297
Z-8.515 F333.3
X14 F500
G2 X12.45 Y0 I0 J1.55
G1 Y17.144
G3 X11.846 Y17.567 I-0.45 J0
G1 X3.214 Y14.425
G2 X-1.55 Y17.761 I-1.214 J3.336
G1 Y52.239
G2 X3.214 Y55.575 I3.55 J0
G1 X11.846 Y52.433
G3 X12.45 Y52.856 I0.154 J0.423
G1 Y70
G2 X14 Y71.55 I1.55 J0
G1 X107.8
G2 X109.35 Y70 I0 J-1.55
G1 Y38.05
G2 X107.8 Y36.5 I-1.55 J0
G1 X107.75
Y36.4
X120.25
Y36.5
X120.2
G2 X118.65 Y38.05 I0 J1.55
G1 Y70
G2 X120.2 Y71.55 I1.55 J0
G1 X214
G2 X215.55 Y70 I0 J-1.55
G1 Y52.856
G3 X216.154 Y52.433 I0.45 J0
G1 X224.786 Y55.575
G2 X229.55 Y52.239 I1.214 J-3.336
G1 Y17.761
G2 X224.786 Y14.425 I-3.55 J0
G1 X216.154 Y17.567
G3 X215.55 Y17.144 I-0.154 J-0.423
G1 Y0
G2 X214 Y-1.55 I-1.55 J0
G1 X29.297
Z-9.462 F333.3
X14 F500
G2 X12.45 Y0 I0 J1.55
G1 Y17.144
G3 X11.846 Y17.567 I-0.45 J0
