(1109_wall_265bit_fix)
(T1  D=2.65 CR=0 - ZMIN=-12.3 - flat end mill)
G90 G94
G17
G21
(When using Fusion 360 for Personal Use, the feedrate of)
(rapid moves is reduced to match the feedrate of cutting)
(moves, which can increase machining time. Unrestricted rapid)
(moves are available with a Fusion 360 Subscription.)

(2D Contour tabs 2)
T1
S5000 M3
G54
G0 X215.325 Y52.856
Z10
G1 Z5 F1000
Z1 F333.3
Z-5.95
G2 X210.863 Y49.732 I-3.325 J0 F1000
G1 X202.231 Y52.874
G3 X201.325 Y52.239 I-0.231 J-0.634
G1 Y17.761
G3 X202.231 Y17.126 I0.675 J0
G1 X210.863 Y20.268
G2 X215.325 Y17.144 I1.137 J-3.124
G1 Z5
X12.675
Z1 F333.3
Z-5.95
G2 X17.137 Y20.268 I3.325 J0 F1000
G1 X25.769 Y17.126
G3 X26.675 Y17.761 I0.231 J0.634
G1 Y52.239
G3 X25.769 Y52.874 I-0.675 J0
G1 X17.137 Y49.732
G2 X12.675 Y52.856 I-1.137 J3.124
G1 Z10
(When using Fusion 360 for Personal Use, the feedrate of)
(rapid moves is reduced to match the feedrate of cutting)
(moves, which can increase machining time. Unrestricted rapid)
(moves are available with a Fusion 360 Subscription.)

(2D Contour both 2)
G0 X151.049 Y62.325
G1 Z10 F1000
Z5
Z1 F333.3
Z-12.3
X159.5 F500
G2 X160.825 Y61 I0 J-1.325
G1 Y60.125
X167.175
Y61
G2 X168.5 Y62.325 I1.325 J0
G1 X177.275
Y63.325
X150.725
Y62.325
X151.049
Z5 F1000
Y6.675
Z1 F333.3
Z-12.3
X177.275 F500
Y7.675
X168.5
G2 X167.175 Y9 I0 J1.325
G1 Y9.875
X160.825
Y9
G2 X159.5 Y7.675 I-1.325 J0
G1 X150.725
Y6.675
X151.049
Z5 F1000
X51.049
Z1 F333.3
Z-12.3
X77.275 F500
Y7.675
X68.5
G2 X67.175 Y9 I0 J1.325
G1 Y9.875
X60.825
Y9
G2 X59.5 Y7.675 I-1.325 J0
G1 X50.725
Y6.675
X51.049
Z5 F1000
Y62.325
Z1 F333.3
Z-12.3
X59.5 F500
G2 X60.825 Y61 I0 J-1.325
G1 Y60.125
X67.175
Y61
G2 X68.5 Y62.325 I1.325 J0
G1 X77.275
Y63.325
X50.725
Y62.325
X51.049
Z5 F1000
X29.297 Y-1.325
Z1 F333.3
Z-12.3
X14 F500
G2 X12.675 Y0 I0 J1.325
G1 Y6.585
Z-9.6
Y12.235
Z-12.3 F333.3
Y17.144 F500
G3 X11.769 Y17.778 I-0.675 J0
G1 X3.137 Y14.636
G2 X-1.325 Y17.761 I-1.137 J3.124
G1 Y52.239
G2 X3.137 Y55.364 I3.325 J0
G1 X11.769 Y52.222
G3 X12.675 Y52.856 I0.231 J0.634
G1 Y59.679
Z-9.6
Y65.328
Z-12.3 F333.3
Y70 F500
G2 X14 Y71.325 I1.325 J0
G1 X107.8
G2 X109.125 Y70 I0 J-1.325
G1 Y51.007
Z-9.6
Y45.357
Z-12.3 F333.3
Y38.05 F500
G2 X107.8 Y36.725 I-1.325 J0
G1 X107.525
Y36.175
X120.475
Y36.725
X120.2
G2 X118.875 Y38.05 I0 J1.325
G1 Y70
G2 X120.2 Y71.325 I1.325 J0
G1 X214
G2 X215.325 Y70 I0 J-1.325
G1 Y64.009
Z-9.6
Y58.359
Z-12.3 F333.3
Y52.856 F500
G3 X216.231 Y52.222 I0.675 J0
G1 X224.863 Y55.364
G2 X229.325 Y52.239 I1.137 J-3.124
G1 Y17.761
G2 X224.863 Y14.636 I-3.325 J0
G1 X216.231 Y17.778
G3 X215.325 Y17.144 I-0.231 J-0.634
G1 Y11.803
Z-9.6
Y6.153
Z-12.3 F333.3
Y0 F500
G2 X214 Y-1.325 I-1.325 J0
G1 X29.297
Z10 F1000
M5
M30
