(1110_wall_265bit)
(T1  D=2.65 CR=0 - ZMIN=-13.3 - flat end mill)
G90 G94
G17
G21
(When using Fusion 360 for Personal Use, the feedrate of)
(rapid moves is reduced to match the feedrate of cutting)
(moves, which can increase machining time. Unrestricted rapid)
(moves are available with a Fusion 360 Subscription.)

(2D Pocket tabs)
T1
S5000 M3
G54
G0 X-1.322 Y35.263
Z10
G1 Z5 F1000
Z2.02 F333.3
Z-0.992 F1000
X-1.315 Y35.255
X-1.284 Y35.225
G2 X-1.284 Y34.775 I-0.221 J-0.225
G1 X-1.314 Y34.746
X-1.32 Y34.731
X-1.35 Y32.618
X-1.344 Y32.603
X-1.329 Y32.597
X-1.315 Y32.604
G2 X0.975 Y34.821 I17.188 J-15.46
G3 X0.975 Y35.179 I-0.152 J0.179
G2 X-1.315 Y37.413 I15.108 J17.775
G1 X-1.32 Y37.426
X-1.351 Y39.739
X-1.344 Y39.754
X-1.329 Y39.759
X-1.315 Y39.751
G3 X3.448 Y35.143 I17.377 J13.192
G2 X3.448 Y34.857 I-0.101 J-0.143
G3 X-1.315 Y30.279 I12.446 J-17.713
G1 X-1.319 Y30.267
X-1.352 Y27.659
X-1.345 Y27.644
X-1.329 Y27.639
X-1.315 Y27.649
G2 X6.23 Y34.847 I17.228 J-10.505
G3 X6.23 Y35.153 I-0.085 J0.153
G2 X-1.315 Y42.391 I9.812 J17.779
G1 X-1.318 Y42.401
X-1.353 Y45.647
X-1.349 Y45.66
X-1.337 Y45.667
X-1.324 Y45.665
X-1.315 Y45.655
G3 X9.971 Y35.123 I17.336 J7.264
G1 X10.006 Y35.105
X10.035 Y35.076
X10.053 Y35.04
X10.059 Y35
X10.053 Y34.96
X10.035 Y34.924
X10.006 Y34.895
X9.971 Y34.877
G3 X-1.315 Y24.39 I5.963 J-17.733
G1 X-1.316 Y24.382
X-1.324 Y17.311
X-1.318 Y17.297
X-1.304 Y17.291
X-1.29 Y17.297
X-1.284 Y17.311
G2 X12.425 Y34.009 I17.228 J-0.168
G3 X12.664 Y34.154 I-0.088 J0.413
G1 X12.668 Y34.166
Y35.834
X12.663 Y35.847
G3 X12.425 Y35.991 I-0.325 J-0.269
G2 X-1.284 Y52.692 I3.586 J16.921
G1 X-1.281 Y52.703
X0.171 Y55.034
X0.184 Y55.043
X0.201 Y55.038
X0.208 Y55.023
X0.205 Y52.856
G3 X13.975 Y37.237 I15.802 J0.051
G2 X14.25 Y36.924 I-0.041 J-0.313
G1 Y36.563
Y33.438
Y33.076
G2 X13.975 Y32.763 I-0.315 J0
G3 X0.205 Y17.144 I1.973 J-15.619
G1 X0.208 Y14.976
X0.211 Y14.965
X0.221 Y14.957
X1.671 Y14.444
X1.684 Y14.443
X1.694 Y14.451
X1.698 Y14.462
X1.695 Y17.144
G2 X15.437 Y31.393 I14.258 J0
G3 X15.74 Y31.708 I-0.012 J0.315
G1 Y38.292
G3 X15.437 Y38.607 I-0.315 J0
G2 X1.695 Y52.856 I0.565 J14.296
G1 X1.698 Y55.537
X1.705 Y55.552
X1.721 Y55.557
X3.17 Y55.354
X3.183 Y55.347
X3.188 Y55.334
X3.185 Y52.856
G3 X16.977 Y40.124 I12.812 J0.042
G2 X17.23 Y39.889 I0.018 J-0.235
G1 Y30.111
G2 X16.977 Y29.876 I-0.235 J0
G3 X3.185 Y17.144 I-1.018 J-12.733
G1 X3.188 Y14.666
X3.192 Y14.654
X3.202 Y14.647
X3.215
X4.664 Y15.189
X4.673 Y15.197
X4.677 Y15.208
X4.675 Y17.144
G2 X18.434 Y28.158 I11.288 J0
G3 X18.72 Y28.388 I0.051 J0.23
G1 Y41.612
G3 X18.434 Y41.842 I-0.235 J0
G2 X4.675 Y52.856 I-2.442 J11.05
G1 X4.677 Y54.792
X4.681 Y54.804
X4.691 Y54.811
X4.704
X6.153 Y54.269
X6.163 Y54.261
X6.166 Y54.25
X6.165 Y52.856
G3 X19.355 Y43.639 I9.828 J0.018
X19.636 Y43.751 I-1.659 J4.557
G2 X19.918 Y43.864 I1.942 J-4.448
X20.21 Y43.659 I0.074 J-0.205
G1 Y26.341
G2 X19.918 Y26.136 I-0.218 J0
X19.636 Y26.249 I1.659 J4.559
G3 X19.355 Y26.361 I-1.941 J-4.447
X6.165 Y17.144 I-3.374 J-9.217
G1 X6.166 Y15.75
X6.17 Y15.738
X6.181 Y15.731
X6.193 Y15.732
X7.643 Y16.274
X7.652 Y16.281
X7.656 Y16.293
X7.655 Y17.144
G2 X18.854 Y24.985 I8.345 J0
X20.131 Y24.497 I-14.205 J-39.029
G3 X21.408 Y24.008 I15.482 J38.54
X21.7 Y24.213 I0.074 J0.205
G1 Y45.787
G3 X21.408 Y45.992 I-0.218 J0
X20.131 Y45.503 I14.207 J-39.033
G2 X18.854 Y45.015 I-15.464 J38.492
X7.655 Y52.856 I-2.854 J7.842
G1 X7.656 Y53.708
X7.66 Y53.72
X7.67 Y53.727
X7.683
X9.132 Y53.185
X9.142 Y53.177
X9.145 Y53.166
Y52.856
G3 X18.344 Y46.415 I6.855 J0
X20.621 Y47.267 I-44.808 J123.118
G2 X22.898 Y48.12 I47.196 J-122.562
X23.19 Y47.915 I0.074 J-0.205
G1 Y22.085
G2 X22.898 Y21.88 I-0.218 J0
X20.621 Y22.733 I44.917 J123.409
G3 X18.345 Y23.585 I-47.194 J-122.557
X9.145 Y17.144 I-2.345 J-6.442
G1 Y16.834
X9.149 Y16.822
X9.16 Y16.815
X9.172
X10.627 Y17.361
X10.636 Y17.368
X10.64 Y17.378
G2 X17.835 Y22.185 I5.36 J-0.235
G1 X24.388 Y19.752
G3 X24.68 Y19.957 I0.074 J0.205
G1 Y50.043
G3 X24.388 Y50.248 I-0.218 J0
G1 X17.835 Y47.815
G2 X10.64 Y52.621 I-1.835 J5.041
G1 X10.643 Y52.633
X10.653 Y52.641
X10.665
X12.215 Y52.229
X12.225 Y52.223
X12.229 Y52.213
G3 X17.308 Y49.262 I3.771 J0.643
G1 X25.94 Y52.404
G2 X26.175 Y52.239 I0.06 J-0.164
G1 Y17.761
G2 X25.94 Y17.596 I-0.175 J0
G1 X17.308 Y20.738
G3 X12.229 Y17.787 I-1.308 J-3.594
G1 X12.222 Y17.774
X12.207 Y17.77
X12.194 Y17.778
X-1.323 Y34.711
X-1.328 Y34.725
X-1.322 Y34.738
Z-1.983
X-1.314 Y34.746
X-1.284 Y34.775
G3 X-1.284 Y35.225 I-0.221 J0.225
G1 X-1.315 Y35.255
X-1.321 Y35.269
X-1.35 Y37.4
X-1.344 Y37.414
X-1.329 Y37.42
X-1.315 Y37.413
G3 X0.975 Y35.179 I17.398 J15.541
G2 X0.975 Y34.821 I-0.152 J-0.179
G3 X-1.315 Y32.604 I14.898 J-17.677
G1 X-1.32 Y32.591
X-1.351 Y30.291
X-1.344 Y30.277
X-1.329 Y30.271
X-1.315 Y30.279
G2 X3.448 Y34.857 I17.208 J-13.135
G3 X3.448 Y35.143 I-0.101 J0.143
G2 X-1.315 Y39.751 I12.614 J17.801
G1 X-1.319 Y39.763
X-1.352 Y42.38
X-1.345 Y42.396
X-1.329 Y42.4
X-1.315 Y42.391
G3 X6.23 Y35.153 I17.357 J10.542
G2 X6.23 Y34.847 I-0.085 J-0.153
G3 X-1.315 Y27.649 I9.683 J-17.703
G1 X-1.318 Y27.638
X-1.353 Y24.398
X-1.349 Y24.385
X-1.337 Y24.378
X-1.324 Y24.38
X-1.315 Y24.39
G2 X9.971 Y34.877 I17.248 J-7.246
G1 X10.006 Y34.895
X10.035 Y34.924
X10.053 Y34.96
X10.059 Y35
X10.053 Y35.04
X10.035 Y35.076
X10.006 Y35.105
X9.971 Y35.123
G2 X-1.315 Y45.655 I6.051 J17.796
G1 X-1.316 Y45.663
X-1.324 Y52.692
X-1.318 Y52.706
X-1.304 Y52.712
X-1.29 Y52.706
X-1.284 Y52.692
G3 X12.425 Y35.991 I17.295 J0.22
G2 X12.663 Y35.847 I-0.088 J-0.413
G1 X12.668 Y35.834
Y34.166
X12.664 Y34.154
G2 X12.425 Y34.009 I-0.326 J0.268
G3 X-1.284 Y17.311 I3.518 J-16.865
G1 X-1.281 Y17.301
X0.171 Y14.966
X0.184 Y14.957
X0.201 Y14.961
X0.208 Y14.976
X0.205 Y17.144
G2 X13.975 Y32.763 I15.743 J0
G3 X14.25 Y33.076 I-0.041 J0.313
G1 Y33.438
Y36.563
Y36.924
G3 X13.975 Y37.237 I-0.315 J0
G2 X0.205 Y52.856 I2.031 J15.671
G1 X0.208 Y55.023
X0.211 Y55.035
X0.221 Y55.042
X1.671 Y55.556
X1.684
X1.694 Y55.549
X1.698 Y55.537
X1.695 Y52.856
G3 X15.437 Y38.607 I14.307 J0.047
G2 X15.74 Y38.292 I-0.012 J-0.315
G1 Y31.708
G2 X15.437 Y31.393 I-0.315 J0
G3 X1.695 Y17.144 I0.516 J-14.249
G1 X1.698 Y14.462
X1.705 Y14.447
X1.721 Y14.443
X3.17 Y14.646
X3.183 Y14.653
X3.188 Y14.666
X3.185 Y17.144
G2 X16.977 Y29.876 I12.773 J0
G3 X17.23 Y30.111 I0.018 J0.235
G1 Y39.889
G3 X16.977 Y40.124 I-0.235 J0
G2 X3.185 Y52.856 I-0.98 J12.774
G1 X3.188 Y55.334
X3.192 Y55.346
X3.202 Y55.353
X3.215
X4.664 Y54.811
X4.673 Y54.804
X4.677 Y54.792
X4.675 Y52.856
G3 X18.434 Y41.842 I11.317 J0.036
G2 X18.72 Y41.612 I0.051 J-0.23
G1 Y28.388
G2 X18.434 Y28.158 I-0.235 J0
G3 X4.675 Y17.144 I-2.471 J-11.014
G1 X4.677 Y15.208
X4.681 Y15.196
X4.691 Y15.189
X4.704
X6.153 Y15.732
X6.163 Y15.739
X6.166 Y15.75
X6.165 Y17.144
G2 X19.355 Y26.361 I9.816 J0
X19.636 Y26.249 I-1.659 J-4.559
G3 X19.918 Y26.136 I1.941 J4.447
X20.21 Y26.341 I0.074 J0.205
G1 Y43.659
G3 X19.918 Y43.864 I-0.218 J0
X19.636 Y43.751 I1.66 J-4.561
G2 X19.355 Y43.639 I-1.94 J4.445
X6.165 Y52.856 I-3.361 J9.236
G1 X6.166 Y54.25
X6.17 Y54.262
X6.181 Y54.269
X6.193
X7.643 Y53.727
X7.652 Y53.719
X7.656 Y53.708
X7.655 Y52.856
G3 X18.854 Y45.015 I8.345 J0
X20.131 Y45.503 I-14.187 J38.98
G2 X21.408 Y45.992 I15.484 J-38.544
X21.7 Y45.787 I0.074 J-0.205
G1 Y24.213
G2 X21.408 Y24.008 I-0.218 J0
X20.131 Y24.497 I14.205 J39.029
G3 X18.854 Y24.985 I-15.482 J-38.54
X7.655 Y17.144 I-2.854 J-7.842
G1 X7.656 Y16.293
X7.66 Y16.281
X7.67 Y16.273
X7.683 Y16.274
X9.132 Y16.815
X9.142 Y16.822
X9.145 Y16.834
Y17.144
G2 X18.345 Y23.585 I6.855 J0
X20.621 Y22.733 I-44.917 J-123.409
G3 X22.898 Y21.88 I47.194 J122.557
X23.19 Y22.085 I0.074 J0.205
G1 Y47.915
G3 X22.898 Y48.12 I-0.218 J0
X20.621 Y47.267 I44.919 J-123.415
G2 X18.344 Y46.415 I-47.085 J122.265
X9.145 Y52.856 I-2.344 J6.442
G1 Y53.166
X9.149 Y53.178
X9.16 Y53.185
X9.172
X10.627 Y52.639
X10.636 Y52.632
X10.64 Y52.621
G3 X17.835 Y47.815 I5.36 J0.235
G1 X24.388 Y50.248
G2 X24.68 Y50.043 I0.074 J-0.205
G1 Y19.957
G2 X24.388 Y19.752 I-0.218 J0
G1 X17.835 Y22.185
G3 X10.64 Y17.378 I-1.835 J-5.041
G1 X10.643 Y17.367
X10.653 Y17.359
X10.665 Y17.358
X12.215 Y17.771
X12.224 Y17.777
X12.229 Y17.787
G2 X17.308 Y20.738 I3.771 J-0.643
G1 X25.94 Y17.596
G3 X26.175 Y17.761 I0.06 J0.164
G1 Y52.239
G3 X25.94 Y52.404 I-0.175 J0
G1 X17.308 Y49.262
G2 X12.229 Y52.213 I-1.308 J3.594
G1 X12.222 Y52.226
X12.207 Y52.23
X12.194 Y52.222
X-1.324 Y35.289
X-1.328 Y35.276
X-1.322 Y35.263
Z-2.975
X-1.315 Y35.255
X-1.284 Y35.225
G2 X-1.284 Y34.775 I-0.221 J-0.225
G1 X-1.314 Y34.746
X-1.32 Y34.731
X-1.35 Y32.618
X-1.344 Y32.603
X-1.329 Y32.597
X-1.315 Y32.604
G2 X0.975 Y34.821 I17.188 J-15.46
G3 X0.975 Y35.179 I-0.152 J0.179
G2 X-1.315 Y37.413 I15.108 J17.775
G1 X-1.32 Y37.426
X-1.351 Y39.739
X-1.344 Y39.754
X-1.329 Y39.759
X-1.315 Y39.751
G3 X3.448 Y35.143 I17.377 J13.192
G2 X3.448 Y34.857 I-0.101 J-0.143
G3 X-1.315 Y30.279 I12.446 J-17.713
G1 X-1.319 Y30.267
X-1.352 Y27.659
X-1.345 Y27.644
X-1.329 Y27.639
X-1.315 Y27.649
G2 X6.23 Y34.847 I17.228 J-10.505
G3 X6.23 Y35.153 I-0.085 J0.153
G2 X-1.315 Y42.391 I9.812 J17.779
G1 X-1.318 Y42.401
X-1.353 Y45.647
X-1.349 Y45.66
X-1.337 Y45.667
X-1.324 Y45.665
X-1.315 Y45.655
G3 X9.971 Y35.123 I17.336 J7.264
G1 X10.006 Y35.105
X10.035 Y35.076
X10.053 Y35.04
X10.059 Y35
X10.053 Y34.96
X10.035 Y34.924
X10.006 Y34.895
X9.971 Y34.877
G3 X-1.315 Y24.39 I5.963 J-17.733
G1 X-1.316 Y24.382
X-1.324 Y17.311
X-1.318 Y17.297
X-1.304 Y17.291
X-1.29 Y17.297
X-1.284 Y17.311
G2 X12.425 Y34.009 I17.228 J-0.168
G3 X12.664 Y34.154 I-0.088 J0.413
G1 X12.668 Y34.166
Y35.834
X12.663 Y35.847
G3 X12.425 Y35.991 I-0.325 J-0.269
G2 X-1.284 Y52.692 I3.586 J16.921
G1 X-1.281 Y52.703
X0.171 Y55.034
X0.184 Y55.043
X0.201 Y55.038
X0.208 Y55.023
X0.205 Y52.856
G3 X13.975 Y37.237 I15.802 J0.051
G2 X14.25 Y36.924 I-0.041 J-0.313
G1 Y36.563
Y33.438
Y33.076
G2 X13.975 Y32.763 I-0.315 J0
G3 X0.205 Y17.144 I1.973 J-15.619
G1 X0.208 Y14.976
X0.211 Y14.965
X0.221 Y14.957
X1.671 Y14.444
X1.684 Y14.443
X1.694 Y14.451
X1.698 Y14.462
X1.695 Y17.144
G2 X15.437 Y31.393 I14.258 J0
G3 X15.74 Y31.708 I-0.012 J0.315
G1 Y38.292
G3 X15.437 Y38.607 I-0.315 J0
G2 X1.695 Y52.856 I0.565 J14.296
G1 X1.698 Y55.537
X1.705 Y55.552
X1.721 Y55.557
X3.17 Y55.354
X3.183 Y55.347
X3.188 Y55.334
X3.185 Y52.856
G3 X16.977 Y40.124 I12.812 J0.042
G2 X17.23 Y39.889 I0.018 J-0.235
G1 Y30.111
G2 X16.977 Y29.876 I-0.235 J0
G3 X3.185 Y17.144 I-1.018 J-12.733
G1 X3.188 Y14.666
X3.192 Y14.654
X3.202 Y14.647
X3.215
X4.664 Y15.189
X4.673 Y15.197
X4.677 Y15.208
X4.675 Y17.144
G2 X18.434 Y28.158 I11.288 J0
G3 X18.72 Y28.388 I0.051 J0.23
G1 Y41.612
G3 X18.434 Y41.842 I-0.235 J0
G2 X4.675 Y52.856 I-2.442 J11.05
G1 X4.677 Y54.792
X4.681 Y54.804
X4.691 Y54.811
X4.704
X6.153 Y54.269
X6.163 Y54.261
X6.166 Y54.25
X6.165 Y52.856
G3 X19.355 Y43.639 I9.828 J0.018
X19.636 Y43.751 I-1.659 J4.557
G2 X19.918 Y43.864 I1.942 J-4.448
X20.21 Y43.659 I0.074 J-0.205
G1 Y26.341
G2 X19.918 Y26.136 I-0.218 J0
X19.636 Y26.249 I1.659 J4.559
G3 X19.355 Y26.361 I-1.941 J-4.447
X6.165 Y17.144 I-3.374 J-9.217
G1 X6.166 Y15.75
X6.17 Y15.738
X6.181 Y15.731
X6.193 Y15.732
X7.643 Y16.274
X7.652 Y16.281
X7.656 Y16.293
X7.655 Y17.144
G2 X18.854 Y24.985 I8.345 J0
X20.131 Y24.497 I-14.205 J-39.029
G3 X21.408 Y24.008 I15.482 J38.54
X21.7 Y24.213 I0.074 J0.205
G1 Y45.787
G3 X21.408 Y45.992 I-0.218 J0
X20.131 Y45.503 I14.207 J-39.033
G2 X18.854 Y45.015 I-15.464 J38.492
X7.655 Y52.856 I-2.854 J7.842
G1 X7.656 Y53.708
X7.66 Y53.72
X7.67 Y53.727
X7.683
X9.132 Y53.185
X9.142 Y53.177
X9.145 Y53.166
Y52.856
G3 X18.344 Y46.415 I6.855 J0
X20.621 Y47.267 I-44.808 J123.118
G2 X22.898 Y48.12 I47.196 J-122.562
X23.19 Y47.915 I0.074 J-0.205
G1 Y22.085
G2 X22.898 Y21.88 I-0.218 J0
X20.621 Y22.733 I44.917 J123.409
G3 X18.345 Y23.585 I-47.194 J-122.557
X9.145 Y17.144 I-2.345 J-6.442
G1 Y16.834
X9.149 Y16.822
X9.16 Y16.815
X9.172
X10.627 Y17.361
X10.636 Y17.368
X10.64 Y17.378
G2 X17.835 Y22.185 I5.36 J-0.235
G1 X24.388 Y19.752
G3 X24.68 Y19.957 I0.074 J0.205
G1 Y50.043
G3 X24.388 Y50.248 I-0.218 J0
G1 X17.835 Y47.815
G2 X10.64 Y52.621 I-1.835 J5.041
G1 X10.643 Y52.633
X10.653 Y52.641
X10.665
X12.215 Y52.229
X12.225 Y52.223
X12.229 Y52.213
G3 X17.308 Y49.262 I3.771 J0.643
G1 X25.94 Y52.404
G2 X26.175 Y52.239 I0.06 J-0.164
G1 Y17.761
G2 X25.94 Y17.596 I-0.175 J0
G1 X17.308 Y20.738
G3 X12.229 Y17.787 I-1.308 J-3.594
G1 X12.222 Y17.774
X12.207 Y17.77
X12.194 Y17.778
X-1.323 Y34.711
X-1.328 Y34.725
X-1.322 Y34.738
Z-3.967
X-1.314 Y34.746
X-1.284 Y34.775
G3 X-1.284 Y35.225 I-0.221 J0.225
G1 X-1.315 Y35.255
X-1.321 Y35.269
X-1.35 Y37.4
X-1.344 Y37.414
X-1.329 Y37.42
X-1.315 Y37.413
G3 X0.975 Y35.179 I17.398 J15.541
G2 X0.975 Y34.821 I-0.152 J-0.179
G3 X-1.315 Y32.604 I14.898 J-17.677
G1 X-1.32 Y32.591
X-1.351 Y30.291
X-1.344 Y30.277
X-1.329 Y30.271
X-1.315 Y30.279
G2 X3.448 Y34.857 I17.208 J-13.135
G3 X3.448 Y35.143 I-0.101 J0.143
G2 X-1.315 Y39.751 I12.614 J17.801
G1 X-1.319 Y39.763
X-1.352 Y42.38
X-1.345 Y42.396
X-1.329 Y42.4
X-1.315 Y42.391
G3 X6.23 Y35.153 I17.357 J10.542
G2 X6.23 Y34.847 I-0.085 J-0.153
G3 X-1.315 Y27.649 I9.683 J-17.703
G1 X-1.318 Y27.638
X-1.353 Y24.398
X-1.349 Y24.385
X-1.337 Y24.378
X-1.324 Y24.38
X-1.315 Y24.39
G2 X9.971 Y34.877 I17.248 J-7.246
G1 X10.006 Y34.895
X10.035 Y34.924
X10.053 Y34.96
X10.059 Y35
X10.053 Y35.04
X10.035 Y35.076
X10.006 Y35.105
X9.971 Y35.123
G2 X-1.315 Y45.655 I6.051 J17.796
G1 X-1.316 Y45.663
X-1.324 Y52.692
X-1.318 Y52.706
X-1.304 Y52.712
X-1.29 Y52.706
X-1.284 Y52.692
G3 X12.425 Y35.991 I17.295 J0.22
G2 X12.663 Y35.847 I-0.088 J-0.413
G1 X12.668 Y35.834
Y34.166
X12.664 Y34.154
G2 X12.425 Y34.009 I-0.326 J0.268
G3 X-1.284 Y17.311 I3.518 J-16.865
G1 X-1.281 Y17.301
X0.171 Y14.966
X0.184 Y14.957
X0.201 Y14.961
X0.208 Y14.976
X0.205 Y17.144
G2 X13.975 Y32.763 I15.743 J0
G3 X14.25 Y33.076 I-0.041 J0.313
G1 Y33.438
Y36.563
Y36.924
G3 X13.975 Y37.237 I-0.315 J0
G2 X0.205 Y52.856 I2.031 J15.671
G1 X0.208 Y55.023
X0.211 Y55.035
X0.221 Y55.042
X1.671 Y55.556
X1.684
X1.694 Y55.549
X1.698 Y55.537
X1.695 Y52.856
G3 X15.437 Y38.607 I14.307 J0.047
G2 X15.74 Y38.292 I-0.012 J-0.315
G1 Y31.708
G2 X15.437 Y31.393 I-0.315 J0
G3 X1.695 Y17.144 I0.516 J-14.249
G1 X1.698 Y14.462
X1.705 Y14.447
X1.721 Y14.443
X3.17 Y14.646
X3.183 Y14.653
X3.188 Y14.666
X3.185 Y17.144
G2 X16.977 Y29.876 I12.773 J0
G3 X17.23 Y30.111 I0.018 J0.235
G1 Y39.889
G3 X16.977 Y40.124 I-0.235 J0
G2 X3.185 Y52.856 I-0.98 J12.774
G1 X3.188 Y55.334
X3.192 Y55.346
X3.202 Y55.353
X3.215
X4.664 Y54.811
X4.673 Y54.804
X4.677 Y54.792
X4.675 Y52.856
G3 X18.434 Y41.842 I11.317 J0.036
G2 X18.72 Y41.612 I0.051 J-0.23
G1 Y28.388
G2 X18.434 Y28.158 I-0.235 J0
G3 X4.675 Y17.144 I-2.471 J-11.014
G1 X4.677 Y15.208
X4.681 Y15.196
X4.691 Y15.189
X4.704
X6.153 Y15.732
X6.163 Y15.739
X6.166 Y15.75
X6.165 Y17.144
G2 X19.355 Y26.361 I9.816 J0
X19.636 Y26.249 I-1.659 J-4.559
G3 X19.918 Y26.136 I1.941 J4.447
X20.21 Y26.341 I0.074 J0.205
G1 Y43.659
G3 X19.918 Y43.864 I-0.218 J0
X19.636 Y43.751 I1.66 J-4.561
G2 X19.355 Y43.639 I-1.94 J4.445
X6.165 Y52.856 I-3.361 J9.236
G1 X6.166 Y54.25
X6.17 Y54.262
X6.181 Y54.269
X6.193
X7.643 Y53.727
X7.652 Y53.719
X7.656 Y53.708
X7.655 Y52.856
G3 X18.854 Y45.015 I8.345 J0
X20.131 Y45.503 I-14.187 J38.98
G2 X21.408 Y45.992 I15.484 J-38.544
X21.7 Y45.787 I0.074 J-0.205
G1 Y24.213
G2 X21.408 Y24.008 I-0.218 J0
X20.131 Y24.497 I14.205 J39.029
G3 X18.854 Y24.985 I-15.482 J-38.54
X7.655 Y17.144 I-2.854 J-7.842
G1 X7.656 Y16.293
X7.66 Y16.281
X7.67 Y16.273
X7.683 Y16.274
X9.132 Y16.815
X9.142 Y16.822
X9.145 Y16.834
Y17.144
G2 X18.345 Y23.585 I6.855 J0
X20.621 Y22.733 I-44.917 J-123.409
G3 X22.898 Y21.88 I47.194 J122.557
X23.19 Y22.085 I0.074 J0.205
G1 Y47.915
G3 X22.898 Y48.12 I-0.218 J0
X20.621 Y47.267 I44.919 J-123.415
G2 X18.344 Y46.415 I-47.085 J122.265
X9.145 Y52.856 I-2.344 J6.442
G1 Y53.166
X9.149 Y53.178
X9.16 Y53.185
X9.172
X10.627 Y52.639
X10.636 Y52.632
X10.64 Y52.621
G3 X17.835 Y47.815 I5.36 J0.235
G1 X24.388 Y50.248
G2 X24.68 Y50.043 I0.074 J-0.205
G1 Y19.957
G2 X24.388 Y19.752 I-0.218 J0
G1 X17.835 Y22.185
G3 X10.64 Y17.378 I-1.835 J-5.041
G1 X10.643 Y17.367
X10.653 Y17.359
X10.665 Y17.358
X12.215 Y17.771
X12.224 Y17.777
X12.229 Y17.787
G2 X17.308 Y20.738 I3.771 J-0.643
G1 X25.94 Y17.596
G3 X26.175 Y17.761 I0.06 J0.164
G1 Y52.239
G3 X25.94 Y52.404 I-0.175 J0
G1 X17.308 Y49.262
G2 X12.229 Y52.213 I-1.308 J3.594
G1 X12.222 Y52.226
X12.207 Y52.23
X12.194 Y52.222
X-1.324 Y35.289
X-1.328 Y35.276
X-1.322 Y35.263
Z-4.958
X-1.315 Y35.255
X-1.284 Y35.225
G2 X-1.284 Y34.775 I-0.221 J-0.225
G1 X-1.314 Y34.746
X-1.32 Y34.731
X-1.35 Y32.618
X-1.344 Y32.603
X-1.329 Y32.597
X-1.315 Y32.604
G2 X0.975 Y34.821 I17.188 J-15.46
G3 X0.975 Y35.179 I-0.152 J0.179
G2 X-1.315 Y37.413 I15.108 J17.775
G1 X-1.32 Y37.426
X-1.351 Y39.739
X-1.344 Y39.754
X-1.329 Y39.759
X-1.315 Y39.751
G3 X3.448 Y35.143 I17.377 J13.192
G2 X3.448 Y34.857 I-0.101 J-0.143
G3 X-1.315 Y30.279 I12.446 J-17.713
G1 X-1.319 Y30.267
X-1.352 Y27.659
X-1.345 Y27.644
X-1.329 Y27.639
X-1.315 Y27.649
G2 X6.23 Y34.847 I17.228 J-10.505
G3 X6.23 Y35.153 I-0.085 J0.153
G2 X-1.315 Y42.391 I9.812 J17.779
G1 X-1.318 Y42.401
X-1.353 Y45.647
X-1.349 Y45.66
X-1.337 Y45.667
X-1.324 Y45.665
X-1.315 Y45.655
G3 X9.971 Y35.123 I17.336 J7.264
G1 X10.006 Y35.105
X10.035 Y35.076
X10.053 Y35.04
X10.059 Y35
X10.053 Y34.96
X10.035 Y34.924
X10.006 Y34.895
X9.971 Y34.877
G3 X-1.315 Y24.39 I5.963 J-17.733
G1 X-1.316 Y24.382
X-1.324 Y17.311
X-1.318 Y17.297
X-1.304 Y17.291
X-1.29 Y17.297
X-1.284 Y17.311
G2 X12.425 Y34.009 I17.228 J-0.168
G3 X12.664 Y34.154 I-0.088 J0.413
G1 X12.668 Y34.166
Y35.834
X12.663 Y35.847
G3 X12.425 Y35.991 I-0.325 J-0.269
G2 X-1.284 Y52.692 I3.586 J16.921
G1 X-1.281 Y52.703
X0.171 Y55.034
X0.184 Y55.043
X0.201 Y55.038
X0.208 Y55.023
X0.205 Y52.856
G3 X13.975 Y37.237 I15.802 J0.051
G2 X14.25 Y36.924 I-0.041 J-0.313
G1 Y36.563
Y33.438
Y33.076
G2 X13.975 Y32.763 I-0.315 J0
G3 X0.205 Y17.144 I1.973 J-15.619
G1 X0.208 Y14.976
X0.211 Y14.965
X0.221 Y14.957
X1.671 Y14.444
X1.684 Y14.443
X1.694 Y14.451
X1.698 Y14.462
X1.695 Y17.144
G2 X15.437 Y31.393 I14.258 J0
G3 X15.74 Y31.708 I-0.012 J0.315
G1 Y38.292
G3 X15.437 Y38.607 I-0.315 J0
G2 X1.695 Y52.856 I0.565 J14.296
G1 X1.698 Y55.537
X1.705 Y55.552
X1.721 Y55.557
X3.17 Y55.354
X3.183 Y55.347
X3.188 Y55.334
X3.185 Y52.856
G3 X16.977 Y40.124 I12.812 J0.042
G2 X17.23 Y39.889 I0.018 J-0.235
G1 Y30.111
G2 X16.977 Y29.876 I-0.235 J0
G3 X3.185 Y17.144 I-1.018 J-12.733
G1 X3.188 Y14.666
X3.192 Y14.654
X3.202 Y14.647
X3.215
X4.664 Y15.189
X4.673 Y15.197
X4.677 Y15.208
X4.675 Y17.144
G2 X18.434 Y28.158 I11.288 J0
G3 X18.72 Y28.388 I0.051 J0.23
G1 Y41.612
G3 X18.434 Y41.842 I-0.235 J0
G2 X4.675 Y52.856 I-2.442 J11.05
G1 X4.677 Y54.792
X4.681 Y54.804
X4.691 Y54.811
X4.704
X6.153 Y54.269
X6.163 Y54.261
X6.166 Y54.25
X6.165 Y52.856
G3 X19.355 Y43.639 I9.828 J0.018
X19.636 Y43.751 I-1.659 J4.557
G2 X19.918 Y43.864 I1.942 J-4.448
X20.21 Y43.659 I0.074 J-0.205
G1 Y26.341
G2 X19.918 Y26.136 I-0.218 J0
X19.636 Y26.249 I1.659 J4.559
G3 X19.355 Y26.361 I-1.941 J-4.447
X6.165 Y17.144 I-3.374 J-9.217
G1 X6.166 Y15.75
X6.17 Y15.738
X6.181 Y15.731
X6.193 Y15.732
X7.643 Y16.274
X7.652 Y16.281
X7.656 Y16.293
X7.655 Y17.144
G2 X18.854 Y24.985 I8.345 J0
X20.131 Y24.497 I-14.205 J-39.029
G3 X21.408 Y24.008 I15.482 J38.54
X21.7 Y24.213 I0.074 J0.205
G1 Y45.787
G3 X21.408 Y45.992 I-0.218 J0
X20.131 Y45.503 I14.207 J-39.033
G2 X18.854 Y45.015 I-15.464 J38.492
X7.655 Y52.856 I-2.854 J7.842
G1 X7.656 Y53.708
X7.66 Y53.72
X7.67 Y53.727
X7.683
X9.132 Y53.185
X9.142 Y53.177
X9.145 Y53.166
Y52.856
G3 X18.344 Y46.415 I6.855 J0
X20.621 Y47.267 I-44.808 J123.118
G2 X22.898 Y48.12 I47.196 J-122.562
X23.19 Y47.915 I0.074 J-0.205
G1 Y22.085
G2 X22.898 Y21.88 I-0.218 J0
X20.621 Y22.733 I44.917 J123.409
G3 X18.345 Y23.585 I-47.194 J-122.557
X9.145 Y17.144 I-2.345 J-6.442
G1 Y16.834
X9.149 Y16.822
X9.16 Y16.815
X9.172
X10.627 Y17.361
X10.636 Y17.368
X10.64 Y17.378
G2 X17.835 Y22.185 I5.36 J-0.235
G1 X24.388 Y19.752
G3 X24.68 Y19.957 I0.074 J0.205
G1 Y50.043
G3 X24.388 Y50.248 I-0.218 J0
G1 X17.835 Y47.815
G2 X10.64 Y52.621 I-1.835 J5.041
G1 X10.643 Y52.633
X10.653 Y52.641
X10.665
X12.215 Y52.229
X12.225 Y52.223
X12.229 Y52.213
G3 X17.308 Y49.262 I3.771 J0.643
G1 X25.94 Y52.404
G2 X26.175 Y52.239 I0.06 J-0.164
G1 Y17.761
G2 X25.94 Y17.596 I-0.175 J0
G1 X17.308 Y20.738
G3 X12.229 Y17.787 I-1.308 J-3.594
G1 X12.222 Y17.774
X12.207 Y17.77
X12.194 Y17.778
X-1.323 Y34.711
X-1.328 Y34.725
X-1.322 Y34.738
Z-5.95
X-1.314 Y34.746
X-1.284 Y34.775
G3 X-1.284 Y35.225 I-0.221 J0.225
G1 X-1.315 Y35.255
X-1.321 Y35.269
X-1.35 Y37.4
X-1.344 Y37.414
X-1.329 Y37.42
X-1.315 Y37.413
G3 X0.975 Y35.179 I17.398 J15.541
G2 X0.975 Y34.821 I-0.152 J-0.179
G3 X-1.315 Y32.604 I14.898 J-17.677
G1 X-1.32 Y32.591
X-1.351 Y30.291
X-1.344 Y30.277
X-1.329 Y30.271
X-1.315 Y30.279
G2 X3.448 Y34.857 I17.208 J-13.135
G3 X3.448 Y35.143 I-0.101 J0.143
G2 X-1.315 Y39.751 I12.614 J17.801
G1 X-1.319 Y39.763
X-1.352 Y42.38
X-1.345 Y42.396
X-1.329 Y42.4
X-1.315 Y42.391
G3 X6.23 Y35.153 I17.357 J10.542
G2 X6.23 Y34.847 I-0.085 J-0.153
G3 X-1.315 Y27.649 I9.683 J-17.703
G1 X-1.318 Y27.638
X-1.353 Y24.398
X-1.349 Y24.385
X-1.337 Y24.378
X-1.324 Y24.38
X-1.315 Y24.39
G2 X9.971 Y34.877 I17.248 J-7.246
G1 X10.006 Y34.895
X10.035 Y34.924
X10.053 Y34.96
X10.059 Y35
X10.053 Y35.04
X10.035 Y35.076
X10.006 Y35.105
X9.971 Y35.123
G2 X-1.315 Y45.655 I6.051 J17.796
G1 X-1.316 Y45.663
X-1.324 Y52.692
X-1.318 Y52.706
X-1.304 Y52.712
X-1.29 Y52.706
X-1.284 Y52.692
G3 X12.425 Y35.991 I17.295 J0.22
G2 X12.663 Y35.847 I-0.088 J-0.413
G1 X12.668 Y35.834
Y34.166
X12.664 Y34.154
G2 X12.425 Y34.009 I-0.326 J0.268
G3 X-1.284 Y17.311 I3.518 J-16.865
G1 X-1.281 Y17.301
X0.171 Y14.966
X0.184 Y14.957
X0.201 Y14.961
X0.208 Y14.976
X0.205 Y17.144
G2 X13.975 Y32.763 I15.743 J0
G3 X14.25 Y33.076 I-0.041 J0.313
G1 Y33.438
Y36.563
Y36.924
G3 X13.975 Y37.237 I-0.315 J0
G2 X0.205 Y52.856 I2.031 J15.671
G1 X0.208 Y55.023
X0.211 Y55.035
X0.221 Y55.042
X1.671 Y55.556
X1.684
X1.694 Y55.549
X1.698 Y55.537
X1.695 Y52.856
G3 X15.437 Y38.607 I14.307 J0.047
G2 X15.74 Y38.292 I-0.012 J-0.315
G1 Y31.708
G2 X15.437 Y31.393 I-0.315 J0
G3 X1.695 Y17.144 I0.516 J-14.249
G1 X1.698 Y14.462
X1.705 Y14.447
X1.721 Y14.443
X3.17 Y14.646
X3.183 Y14.653
X3.188 Y14.666
X3.185 Y17.144
G2 X16.977 Y29.876 I12.773 J0
G3 X17.23 Y30.111 I0.018 J0.235
G1 Y39.889
G3 X16.977 Y40.124 I-0.235 J0
G2 X3.185 Y52.856 I-0.98 J12.774
G1 X3.188 Y55.334
X3.192 Y55.346
X3.202 Y55.353
X3.215
X4.664 Y54.811
X4.673 Y54.804
X4.677 Y54.792
X4.675 Y52.856
G3 X18.434 Y41.842 I11.317 J0.036
G2 X18.72 Y41.612 I0.051 J-0.23
G1 Y28.388
G2 X18.434 Y28.158 I-0.235 J0
G3 X4.675 Y17.144 I-2.471 J-11.014
G1 X4.677 Y15.208
X4.681 Y15.196
X4.691 Y15.189
X4.704
X6.153 Y15.732
X6.163 Y15.739
X6.166 Y15.75
X6.165 Y17.144
G2 X19.355 Y26.361 I9.816 J0
X19.636 Y26.249 I-1.659 J-4.559
G3 X19.918 Y26.136 I1.941 J4.447
X20.21 Y26.341 I0.074 J0.205
G1 Y43.659
G3 X19.918 Y43.864 I-0.218 J0
X19.636 Y43.751 I1.66 J-4.561
G2 X19.355 Y43.639 I-1.94 J4.445
X6.165 Y52.856 I-3.361 J9.236
G1 X6.166 Y54.25
X6.17 Y54.262
X6.181 Y54.269
X6.193
X7.643 Y53.727
X7.652 Y53.719
X7.656 Y53.708
X7.655 Y52.856
G3 X18.854 Y45.015 I8.345 J0
X20.131 Y45.503 I-14.187 J38.98
G2 X21.408 Y45.992 I15.484 J-38.544
X21.7 Y45.787 I0.074 J-0.205
G1 Y24.213
G2 X21.408 Y24.008 I-0.218 J0
X20.131 Y24.497 I14.205 J39.029
G3 X18.854 Y24.985 I-15.482 J-38.54
X7.655 Y17.144 I-2.854 J-7.842
G1 X7.656 Y16.293
X7.66 Y16.281
X7.67 Y16.273
X7.683 Y16.274
X9.132 Y16.815
X9.142 Y16.822
X9.145 Y16.834
Y17.144
G2 X18.345 Y23.585 I6.855 J0
X20.621 Y22.733 I-44.917 J-123.409
G3 X22.898 Y21.88 I47.194 J122.557
X23.19 Y22.085 I0.074 J0.205
G1 Y47.915
G3 X22.898 Y48.12 I-0.218 J0
X20.621 Y47.267 I44.919 J-123.415
G2 X18.344 Y46.415 I-47.085 J122.265
X9.145 Y52.856 I-2.344 J6.442
G1 Y53.166
X9.149 Y53.178
X9.16 Y53.185
X9.172
X10.627 Y52.639
X10.636 Y52.632
X10.64 Y52.621
G3 X17.835 Y47.815 I5.36 J0.235
G1 X24.388 Y50.248
G2 X24.68 Y50.043 I0.074 J-0.205
G1 Y19.957
G2 X24.388 Y19.752 I-0.218 J0
G1 X17.835 Y22.185
G3 X10.64 Y17.378 I-1.835 J-5.041
G1 X10.643 Y17.367
X10.653 Y17.359
X10.665 Y17.358
X12.215 Y17.771
X12.224 Y17.777
X12.229 Y17.787
G2 X17.308 Y20.738 I3.771 J-0.643
G1 X25.94 Y17.596
G3 X26.175 Y17.761 I0.06 J0.164
G1 Y52.239
G3 X25.94 Y52.404 I-0.175 J0
G1 X17.308 Y49.262
G2 X12.229 Y52.213 I-1.308 J3.594
G1 X12.007 Y53.519
Z10
X229.322 Y34.737
Z5
Z2.02 F333.3
Z-0.992 F1000
X229.315 Y34.745
X229.284 Y34.775
G2 X229.284 Y35.225 I0.221 J0.225
G1 X229.314 Y35.254
X229.32 Y35.269
X229.35 Y37.382
X229.344 Y37.397
X229.329 Y37.403
X229.315 Y37.396
G2 X227.025 Y35.179 I-17.188 J15.46
G3 X227.025 Y34.821 I0.152 J-0.179
G2 X229.315 Y32.587 I-15.108 J-17.775
G1 X229.32 Y32.574
X229.351 Y30.261
X229.344 Y30.246
X229.329 Y30.241
X229.315 Y30.249
G3 X224.552 Y34.857 I-17.377 J-13.192
G2 X224.552 Y35.143 I0.101 J0.143
G3 X229.315 Y39.721 I-12.446 J17.713
G1 X229.319 Y39.733
X229.352 Y42.341
X229.345 Y42.356
X229.329 Y42.361
X229.315 Y42.351
G2 X221.77 Y35.153 I-17.228 J10.505
G3 X221.77 Y34.847 I0.085 J-0.153
G2 X229.315 Y27.609 I-9.812 J-17.779
G1 X229.318 Y27.599
X229.353 Y24.353
X229.349 Y24.34
X229.337 Y24.333
X229.324 Y24.335
X229.315 Y24.345
G3 X218.029 Y34.877 I-17.336 J-7.264
G1 X217.994 Y34.895
X217.965 Y34.924
X217.947 Y34.96
X217.941 Y35
X217.947 Y35.04
X217.965 Y35.076
X217.994 Y35.105
X218.029 Y35.123
G3 X229.315 Y45.61 I-5.963 J17.733
G1 X229.316 Y45.618
X229.324 Y52.686
X229.318 Y52.7
X229.304 Y52.706
X229.29 Y52.7
X229.284 Y52.686
G2 X215.575 Y35.991 I-17.228 J0.17
G3 X215.336 Y35.846 I0.088 J-0.413
G1 X215.332 Y35.834
Y34.166
X215.337 Y34.153
G3 X215.575 Y34.009 I0.325 J0.269
G2 X229.284 Y17.309 I-3.586 J-16.921
G1 X229.281 Y17.298
X227.829 Y14.966
X227.816 Y14.957
X227.799 Y14.962
X227.792 Y14.977
X227.795 Y17.144
G3 X214.025 Y32.763 I-15.802 J-0.051
G2 X213.75 Y33.076 I0.041 J0.313
G1 Y33.437
Y36.562
Y36.924
G2 X214.025 Y37.237 I0.315 J0
G3 X227.795 Y52.856 I-1.973 J15.619
G1 X227.792 Y55.023
X227.789 Y55.034
X227.779 Y55.042
X226.329 Y55.557
X226.316
X226.306 Y55.55
X226.302 Y55.538
X226.305 Y52.856
G2 X212.563 Y38.607 I-14.258 J0
G3 X212.26 Y38.292 I0.012 J-0.315
G1 Y31.708
G3 X212.563 Y31.393 I0.315 J0
G2 X226.305 Y17.144 I-0.565 J-14.296
G1 X226.302 Y14.463
X226.295 Y14.448
X226.279 Y14.443
X224.83 Y14.646
X224.817 Y14.653
X224.812 Y14.666
X224.815 Y17.144
G3 X211.023 Y29.876 I-12.812 J-0.042
G2 X210.77 Y30.111 I-0.018 J0.235
G1 Y39.889
G2 X211.023 Y40.124 I0.235 J0
G3 X224.815 Y52.856 I1.018 J12.733
G1 X224.812 Y55.335
X224.808 Y55.347
X224.798 Y55.354
X224.785 Y55.353
X223.336 Y54.811
X223.327 Y54.804
X223.323 Y54.792
X223.325 Y52.856
G2 X209.566 Y41.842 I-11.288 J0
G3 X209.28 Y41.612 I-0.051 J-0.23
G1 Y28.388
G3 X209.566 Y28.158 I0.235 J0
G2 X223.325 Y17.144 I2.442 J-11.05
G1 X223.323 Y15.208
X223.319 Y15.196
X223.309 Y15.189
X223.296
X221.847 Y15.731
X221.837 Y15.739
X221.834 Y15.75
X221.835 Y17.144
G3 X208.645 Y26.361 I-9.828 J-0.018
X208.364 Y26.249 I1.659 J-4.557
G2 X208.082 Y26.136 I-1.941 J4.448
X207.79 Y26.341 I-0.074 J0.205
G1 Y43.659
G2 X208.082 Y43.864 I0.218 J0
X208.364 Y43.751 I-1.66 J-4.559
G3 X208.645 Y43.639 I1.941 J4.447
X221.835 Y52.856 I3.374 J9.217
G1 X221.834 Y54.25
X221.83 Y54.262
X221.819 Y54.269
X221.807
X220.357 Y53.726
X220.348 Y53.719
X220.344 Y53.708
X220.345 Y52.856
G2 X209.146 Y45.015 I-8.345 J0
X207.869 Y45.503 I14.205 J39.029
G3 X206.592 Y45.992 I-15.482 J-38.54
X206.3 Y45.787 I-0.074 J-0.205
G1 Y24.213
G3 X206.592 Y24.008 I0.218 J0
X207.869 Y24.497 I-14.207 J39.033
G2 X209.146 Y24.985 I15.464 J-38.492
X220.345 Y17.144 I2.854 J-7.842
G1 X220.344 Y16.292
X220.34 Y16.28
X220.33 Y16.273
X220.317
X218.868 Y16.815
X218.858 Y16.823
X218.855 Y16.834
Y17.144
G3 X209.656 Y23.585 I-6.855 J0
X207.379 Y22.733 I44.808 J-123.116
G2 X205.102 Y21.88 I-47.196 J122.562
X204.81 Y22.085 I-0.074 J0.205
G1 Y47.915
G2 X205.102 Y48.12 I0.218 J0
X207.379 Y47.267 I-44.917 J-123.409
G3 X209.655 Y46.415 I47.194 J122.557
X218.855 Y52.856 I2.345 J6.442
G1 Y53.165
X218.851 Y53.177
X218.84 Y53.185
X218.828 Y53.184
X217.373 Y52.639
X217.364 Y52.632
X217.36 Y52.622
G2 X210.165 Y47.815 I-5.36 J0.235
G1 X203.612 Y50.248
G3 X203.32 Y50.043 I-0.074 J-0.205
G1 Y19.957
G3 X203.612 Y19.752 I0.218 J0
G1 X210.165 Y22.185
G2 X217.36 Y17.379 I1.835 J-5.041
G1 X217.357 Y17.367
X217.347 Y17.359
X217.335
X215.785 Y17.771
X215.775 Y17.777
X215.771 Y17.787
G3 X210.692 Y20.738 I-3.771 J-0.643
G1 X202.06 Y17.596
G2 X201.825 Y17.761 I-0.06 J0.164
G1 Y52.239
G2 X202.06 Y52.404 I0.175 J0
G1 X210.692 Y49.262
G3 X215.771 Y52.213 I1.308 J3.594
G1 X215.778 Y52.226
X215.793 Y52.23
X215.806 Y52.222
X229.323 Y35.289
X229.328 Y35.275
X229.322 Y35.262
Z-1.983
X229.314 Y35.254
X229.284 Y35.225
G3 X229.284 Y34.775 I0.221 J-0.225
G1 X229.315 Y34.745
X229.321 Y34.731
X229.35 Y32.6
X229.344 Y32.586
X229.329 Y32.58
X229.315 Y32.587
G3 X227.025 Y34.821 I-17.398 J-15.541
G2 X227.025 Y35.179 I0.152 J0.179
G3 X229.315 Y37.396 I-14.898 J17.677
G1 X229.32 Y37.409
X229.351 Y39.709
X229.344 Y39.723
X229.329 Y39.729
X229.315 Y39.721
G2 X224.552 Y35.143 I-17.208 J13.135
G3 X224.552 Y34.857 I0.101 J-0.143
G2 X229.315 Y30.249 I-12.614 J-17.801
G1 X229.319 Y30.237
X229.352 Y27.62
X229.345 Y27.604
X229.329 Y27.6
X229.315 Y27.609
G3 X221.77 Y34.847 I-17.357 J-10.542
G2 X221.77 Y35.153 I0.085 J0.153
G3 X229.315 Y42.351 I-9.683 J17.703
G1 X229.318 Y42.362
X229.353 Y45.602
X229.349 Y45.615
X229.337 Y45.622
X229.324 Y45.62
X229.315 Y45.61
G2 X218.029 Y35.123 I-17.248 J7.246
G1 X217.994 Y35.105
X217.965 Y35.076
X217.947 Y35.04
X217.941 Y35
X217.947 Y34.96
X217.965 Y34.924
X217.994 Y34.895
X218.029 Y34.877
G2 X229.315 Y24.345 I-6.051 J-17.796
G1 X229.316 Y24.337
X229.324 Y17.309
X229.318 Y17.295
X229.304 Y17.289
X229.29 Y17.295
X229.284 Y17.309
G3 X215.575 Y34.009 I-17.295 J-0.221
G2 X215.337 Y34.153 I0.088 J0.413
G1 X215.332 Y34.166
Y35.834
X215.336 Y35.846
G2 X215.575 Y35.991 I0.326 J-0.268
G3 X229.284 Y52.686 I-3.518 J16.865
G1 X229.281 Y52.697
X227.829 Y55.033
X227.816 Y55.043
X227.799 Y55.038
X227.792 Y55.023
X227.795 Y52.856
G2 X214.025 Y37.237 I-15.743 J0
G3 X213.75 Y36.924 I0.041 J-0.313
G1 Y36.562
Y33.437
Y33.076
G3 X214.025 Y32.763 I0.315 J0
G2 X227.795 Y17.144 I-2.031 J-15.671
G1 X227.792 Y14.977
X227.789 Y14.965
X227.779 Y14.958
X226.329 Y14.444
X226.316
X226.306 Y14.451
X226.302 Y14.463
X226.305 Y17.144
G3 X212.563 Y31.393 I-14.307 J-0.047
G2 X212.26 Y31.708 I0.012 J0.315
G1 Y38.292
G2 X212.563 Y38.607 I0.315 J0
G3 X226.305 Y52.856 I-0.516 J14.249
G1 X226.302 Y55.538
X226.295 Y55.553
X226.279 Y55.558
X224.83 Y55.354
X224.817 Y55.348
X224.812 Y55.335
X224.815 Y52.856
G2 X211.023 Y40.124 I-12.773 J0
G3 X210.77 Y39.889 I-0.018 J-0.235
G1 Y30.111
G3 X211.023 Y29.876 I0.235 J0
G2 X224.815 Y17.144 I0.98 J-12.774
G1 X224.812 Y14.666
X224.808 Y14.654
X224.798 Y14.647
X224.785
X223.336 Y15.189
X223.327 Y15.196
X223.323 Y15.208
X223.325 Y17.144
G3 X209.566 Y28.158 I-11.317 J-0.036
G2 X209.28 Y28.388 I-0.051 J0.23
G1 Y41.612
G2 X209.566 Y41.842 I0.235 J0
G3 X223.325 Y52.856 I2.471 J11.014
G1 X223.323 Y54.792
X223.319 Y54.804
X223.309 Y54.811
X223.296
X221.847 Y54.269
X221.837 Y54.261
X221.834 Y54.25
X221.835 Y52.856
G2 X208.645 Y43.639 I-9.816 J0
X208.364 Y43.751 I1.659 J4.559
G3 X208.082 Y43.864 I-1.941 J-4.447
X207.79 Y43.659 I-0.074 J-0.205
G1 Y26.341
G3 X208.082 Y26.136 I0.218 J0
X208.364 Y26.249 I-1.66 J4.561
G2 X208.645 Y26.361 I1.94 J-4.445
X221.835 Y17.144 I3.361 J-9.236
G1 X221.834 Y15.75
X221.83 Y15.738
X221.819 Y15.731
X221.807
X220.357 Y16.273
X220.348 Y16.281
X220.344 Y16.292
X220.345 Y17.144
G3 X209.146 Y24.985 I-8.345 J0
X207.869 Y24.497 I14.187 J-38.98
G2 X206.592 Y24.008 I-15.484 J38.544
X206.3 Y24.213 I-0.074 J0.205
G1 Y45.787
G2 X206.592 Y45.992 I0.218 J0
X207.869 Y45.503 I-14.205 J-39.029
G3 X209.146 Y45.015 I15.482 J38.54
X220.345 Y52.856 I2.854 J7.842
G1 X220.344 Y53.708
X220.34 Y53.72
X220.33 Y53.727
X220.317 Y53.726
X218.868 Y53.184
X218.858 Y53.177
X218.855 Y53.165
Y52.856
G2 X209.655 Y46.415 I-6.855 J0
X207.379 Y47.267 I44.917 J123.409
G3 X205.102 Y48.12 I-47.194 J-122.557
X204.81 Y47.915 I-0.074 J-0.205
G1 Y22.085
G3 X205.102 Y21.88 I0.218 J0
X207.379 Y22.733 I-44.919 J123.415
G2 X209.656 Y23.585 I47.084 J-122.263
X218.855 Y17.144 I2.344 J-6.442
G1 Y16.834
X218.851 Y16.822
X218.84 Y16.815
X218.828
X217.373 Y17.361
X217.364 Y17.368
X217.36 Y17.379
G3 X210.165 Y22.185 I-5.36 J-0.235
G1 X203.612 Y19.752
G2 X203.32 Y19.957 I-0.074 J0.205
G1 Y50.043
G2 X203.612 Y50.248 I0.218 J0
G1 X210.165 Y47.815
G3 X217.36 Y52.622 I1.835 J5.041
G1 X217.357 Y52.633
X217.347 Y52.641
X217.335 Y52.642
X215.785 Y52.229
X215.775 Y52.223
X215.771 Y52.213
G2 X210.692 Y49.262 I-3.771 J0.643
G1 X202.06 Y52.404
G3 X201.825 Y52.239 I-0.06 J-0.164
G1 Y17.761
G3 X202.06 Y17.596 I0.175 J0
G1 X210.692 Y20.738
G2 X215.771 Y17.787 I1.308 J-3.594
G1 X215.778 Y17.774
X215.793 Y17.77
X215.806 Y17.778
X229.324 Y34.711
X229.328 Y34.724
X229.322 Y34.737
Z-2.975
X229.315 Y34.745
X229.284 Y34.775
G2 X229.284 Y35.225 I0.221 J0.225
G1 X229.314 Y35.254
X229.32 Y35.269
X229.35 Y37.382
X229.344 Y37.397
X229.329 Y37.403
X229.315 Y37.396
G2 X227.025 Y35.179 I-17.188 J15.46
G3 X227.025 Y34.821 I0.152 J-0.179
G2 X229.315 Y32.587 I-15.108 J-17.775
G1 X229.32 Y32.574
X229.351 Y30.261
X229.344 Y30.246
X229.329 Y30.241
X229.315 Y30.249
G3 X224.552 Y34.857 I-17.377 J-13.192
G2 X224.552 Y35.143 I0.101 J0.143
G3 X229.315 Y39.721 I-12.446 J17.713
G1 X229.319 Y39.733
X229.352 Y42.341
X229.345 Y42.356
X229.329 Y42.361
X229.315 Y42.351
G2 X221.77 Y35.153 I-17.228 J10.505
G3 X221.77 Y34.847 I0.085 J-0.153
G2 X229.315 Y27.609 I-9.812 J-17.779
G1 X229.318 Y27.599
X229.353 Y24.353
X229.349 Y24.34
X229.337 Y24.333
X229.324 Y24.335
X229.315 Y24.345
G3 X218.029 Y34.877 I-17.336 J-7.264
G1 X217.994 Y34.895
X217.965 Y34.924
X217.947 Y34.96
X217.941 Y35
X217.947 Y35.04
X217.965 Y35.076
X217.994 Y35.105
X218.029 Y35.123
G3 X229.315 Y45.61 I-5.963 J17.733
G1 X229.316 Y45.618
X229.324 Y52.686
X229.318 Y52.7
X229.304 Y52.706
X229.29 Y52.7
X229.284 Y52.686
G2 X215.575 Y35.991 I-17.228 J0.17
G3 X215.336 Y35.846 I0.088 J-0.413
G1 X215.332 Y35.834
Y34.166
X215.337 Y34.153
G3 X215.575 Y34.009 I0.325 J0.269
G2 X229.284 Y17.309 I-3.586 J-16.921
G1 X229.281 Y17.298
X227.829 Y14.966
X227.816 Y14.957
X227.799 Y14.962
X227.792 Y14.977
X227.795 Y17.144
G3 X214.025 Y32.763 I-15.802 J-0.051
G2 X213.75 Y33.076 I0.041 J0.313
G1 Y33.437
Y36.562
Y36.924
G2 X214.025 Y37.237 I0.315 J0
G3 X227.795 Y52.856 I-1.973 J15.619
G1 X227.792 Y55.023
X227.789 Y55.034
X227.779 Y55.042
X226.329 Y55.557
X226.316
X226.306 Y55.55
X226.302 Y55.538
X226.305 Y52.856
G2 X212.563 Y38.607 I-14.258 J0
G3 X212.26 Y38.292 I0.012 J-0.315
G1 Y31.708
G3 X212.563 Y31.393 I0.315 J0
G2 X226.305 Y17.144 I-0.565 J-14.296
G1 X226.302 Y14.463
X226.295 Y14.448
X226.279 Y14.443
X224.83 Y14.646
X224.817 Y14.653
X224.812 Y14.666
X224.815 Y17.144
G3 X211.023 Y29.876 I-12.812 J-0.042
G2 X210.77 Y30.111 I-0.018 J0.235
G1 Y39.889
G2 X211.023 Y40.124 I0.235 J0
G3 X224.815 Y52.856 I1.018 J12.733
G1 X224.812 Y55.335
X224.808 Y55.347
X224.798 Y55.354
X224.785 Y55.353
X223.336 Y54.811
X223.327 Y54.804
X223.323 Y54.792
X223.325 Y52.856
G2 X209.566 Y41.842 I-11.288 J0
G3 X209.28 Y41.612 I-0.051 J-0.23
G1 Y28.388
G3 X209.566 Y28.158 I0.235 J0
G2 X223.325 Y17.144 I2.442 J-11.05
G1 X223.323 Y15.208
X223.319 Y15.196
X223.309 Y15.189
X223.296
X221.847 Y15.731
X221.837 Y15.739
X221.834 Y15.75
X221.835 Y17.144
G3 X208.645 Y26.361 I-9.828 J-0.018
X208.364 Y26.249 I1.659 J-4.557
G2 X208.082 Y26.136 I-1.941 J4.448
X207.79 Y26.341 I-0.074 J0.205
G1 Y43.659
G2 X208.082 Y43.864 I0.218 J0
X208.364 Y43.751 I-1.66 J-4.559
G3 X208.645 Y43.639 I1.941 J4.447
X221.835 Y52.856 I3.374 J9.217
G1 X221.834 Y54.25
X221.83 Y54.262
X221.819 Y54.269
X221.807
X220.357 Y53.726
X220.348 Y53.719
X220.344 Y53.708
X220.345 Y52.856
G2 X209.146 Y45.015 I-8.345 J0
X207.869 Y45.503 I14.205 J39.029
G3 X206.592 Y45.992 I-15.482 J-38.54
X206.3 Y45.787 I-0.074 J-0.205
G1 Y24.213
G3 X206.592 Y24.008 I0.218 J0
X207.869 Y24.497 I-14.207 J39.033
G2 X209.146 Y24.985 I15.464 J-38.492
X220.345 Y17.144 I2.854 J-7.842
G1 X220.344 Y16.292
X220.34 Y16.28
X220.33 Y16.273
X220.317
X218.868 Y16.815
X218.858 Y16.823
X218.855 Y16.834
Y17.144
G3 X209.656 Y23.585 I-6.855 J0
X207.379 Y22.733 I44.808 J-123.116
G2 X205.102 Y21.88 I-47.196 J122.562
X204.81 Y22.085 I-0.074 J0.205
G1 Y47.915
G2 X205.102 Y48.12 I0.218 J0
X207.379 Y47.267 I-44.917 J-123.409
G3 X209.655 Y46.415 I47.194 J122.557
X218.855 Y52.856 I2.345 J6.442
G1 Y53.165
X218.851 Y53.177
X218.84 Y53.185
X218.828 Y53.184
X217.373 Y52.639
X217.364 Y52.632
X217.36 Y52.622
G2 X210.165 Y47.815 I-5.36 J0.235
G1 X203.612 Y50.248
G3 X203.32 Y50.043 I-0.074 J-0.205
G1 Y19.957
G3 X203.612 Y19.752 I0.218 J0
G1 X210.165 Y22.185
G2 X217.36 Y17.379 I1.835 J-5.041
G1 X217.357 Y17.367
X217.347 Y17.359
X217.335
X215.785 Y17.771
X215.775 Y17.777
X215.771 Y17.787
G3 X210.692 Y20.738 I-3.771 J-0.643
G1 X202.06 Y17.596
G2 X201.825 Y17.761 I-0.06 J0.164
G1 Y52.239
G2 X202.06 Y52.404 I0.175 J0
G1 X210.692 Y49.262
G3 X215.771 Y52.213 I1.308 J3.594
G1 X215.778 Y52.226
X215.793 Y52.23
X215.806 Y52.222
X229.323 Y35.289
X229.328 Y35.275
X229.322 Y35.262
Z-3.967
X229.314 Y35.254
X229.284 Y35.225
G3 X229.284 Y34.775 I0.221 J-0.225
G1 X229.315 Y34.745
X229.321 Y34.731
X229.35 Y32.6
X229.344 Y32.586
X229.329 Y32.58
X229.315 Y32.587
G3 X227.025 Y34.821 I-17.398 J-15.541
G2 X227.025 Y35.179 I0.152 J0.179
G3 X229.315 Y37.396 I-14.898 J17.677
G1 X229.32 Y37.409
X229.351 Y39.709
X229.344 Y39.723
X229.329 Y39.729
X229.315 Y39.721
G2 X224.552 Y35.143 I-17.208 J13.135
G3 X224.552 Y34.857 I0.101 J-0.143
G2 X229.315 Y30.249 I-12.614 J-17.801
G1 X229.319 Y30.237
X229.352 Y27.62
X229.345 Y27.604
X229.329 Y27.6
X229.315 Y27.609
G3 X221.77 Y34.847 I-17.357 J-10.542
G2 X221.77 Y35.153 I0.085 J0.153
G3 X229.315 Y42.351 I-9.683 J17.703
G1 X229.318 Y42.362
X229.353 Y45.602
X229.349 Y45.615
X229.337 Y45.622
X229.324 Y45.62
X229.315 Y45.61
G2 X218.029 Y35.123 I-17.248 J7.246
G1 X217.994 Y35.105
X217.965 Y35.076
X217.947 Y35.04
X217.941 Y35
X217.947 Y34.96
X217.965 Y34.924
X217.994 Y34.895
X218.029 Y34.877
G2 X229.315 Y24.345 I-6.051 J-17.796
G1 X229.316 Y24.337
X229.324 Y17.309
X229.318 Y17.295
X229.304 Y17.289
X229.29 Y17.295
X229.284 Y17.309
G3 X215.575 Y34.009 I-17.295 J-0.221
G2 X215.337 Y34.153 I0.088 J0.413
G1 X215.332 Y34.166
Y35.834
X215.336 Y35.846
G2 X215.575 Y35.991 I0.326 J-0.268
G3 X229.284 Y52.686 I-3.518 J16.865
G1 X229.281 Y52.697
X227.829 Y55.033
X227.816 Y55.043
X227.799 Y55.038
X227.792 Y55.023
X227.795 Y52.856
G2 X214.025 Y37.237 I-15.743 J0
G3 X213.75 Y36.924 I0.041 J-0.313
G1 Y36.562
Y33.437
Y33.076
G3 X214.025 Y32.763 I0.315 J0
G2 X227.795 Y17.144 I-2.031 J-15.671
G1 X227.792 Y14.977
X227.789 Y14.965
X227.779 Y14.958
X226.329 Y14.444
X226.316
X226.306 Y14.451
X226.302 Y14.463
X226.305 Y17.144
G3 X212.563 Y31.393 I-14.307 J-0.047
G2 X212.26 Y31.708 I0.012 J0.315
G1 Y38.292
G2 X212.563 Y38.607 I0.315 J0
G3 X226.305 Y52.856 I-0.516 J14.249
G1 X226.302 Y55.538
X226.295 Y55.553
X226.279 Y55.558
X224.83 Y55.354
X224.817 Y55.348
X224.812 Y55.335
X224.815 Y52.856
G2 X211.023 Y40.124 I-12.773 J0
G3 X210.77 Y39.889 I-0.018 J-0.235
G1 Y30.111
G3 X211.023 Y29.876 I0.235 J0
G2 X224.815 Y17.144 I0.98 J-12.774
G1 X224.812 Y14.666
X224.808 Y14.654
X224.798 Y14.647
X224.785
X223.336 Y15.189
X223.327 Y15.196
X223.323 Y15.208
X223.325 Y17.144
G3 X209.566 Y28.158 I-11.317 J-0.036
G2 X209.28 Y28.388 I-0.051 J0.23
G1 Y41.612
G2 X209.566 Y41.842 I0.235 J0
G3 X223.325 Y52.856 I2.471 J11.014
G1 X223.323 Y54.792
X223.319 Y54.804
X223.309 Y54.811
X223.296
X221.847 Y54.269
X221.837 Y54.261
X221.834 Y54.25
X221.835 Y52.856
G2 X208.645 Y43.639 I-9.816 J0
X208.364 Y43.751 I1.659 J4.559
G3 X208.082 Y43.864 I-1.941 J-4.447
X207.79 Y43.659 I-0.074 J-0.205
G1 Y26.341
G3 X208.082 Y26.136 I0.218 J0
X208.364 Y26.249 I-1.66 J4.561
G2 X208.645 Y26.361 I1.94 J-4.445
X221.835 Y17.144 I3.361 J-9.236
G1 X221.834 Y15.75
X221.83 Y15.738
X221.819 Y15.731
X221.807
X220.357 Y16.273
X220.348 Y16.281
X220.344 Y16.292
X220.345 Y17.144
G3 X209.146 Y24.985 I-8.345 J0
X207.869 Y24.497 I14.187 J-38.98
G2 X206.592 Y24.008 I-15.484 J38.544
X206.3 Y24.213 I-0.074 J0.205
G1 Y45.787
G2 X206.592 Y45.992 I0.218 J0
X207.869 Y45.503 I-14.205 J-39.029
G3 X209.146 Y45.015 I15.482 J38.54
X220.345 Y52.856 I2.854 J7.842
G1 X220.344 Y53.708
X220.34 Y53.72
X220.33 Y53.727
X220.317 Y53.726
X218.868 Y53.184
X218.858 Y53.177
X218.855 Y53.165
Y52.856
G2 X209.655 Y46.415 I-6.855 J0
X207.379 Y47.267 I44.917 J123.409
G3 X205.102 Y48.12 I-47.194 J-122.557
X204.81 Y47.915 I-0.074 J-0.205
G1 Y22.085
G3 X205.102 Y21.88 I0.218 J0
X207.379 Y22.733 I-44.919 J123.415
G2 X209.656 Y23.585 I47.084 J-122.263
X218.855 Y17.144 I2.344 J-6.442
G1 Y16.834
X218.851 Y16.822
X218.84 Y16.815
X218.828
X217.373 Y17.361
X217.364 Y17.368
X217.36 Y17.379
G3 X210.165 Y22.185 I-5.36 J-0.235
G1 X203.612 Y19.752
G2 X203.32 Y19.957 I-0.074 J0.205
G1 Y50.043
G2 X203.612 Y50.248 I0.218 J0
G1 X210.165 Y47.815
G3 X217.36 Y52.622 I1.835 J5.041
G1 X217.357 Y52.633
X217.347 Y52.641
X217.335 Y52.642
X215.785 Y52.229
X215.775 Y52.223
X215.771 Y52.213
G2 X210.692 Y49.262 I-3.771 J0.643
G1 X202.06 Y52.404
G3 X201.825 Y52.239 I-0.06 J-0.164
G1 Y17.761
G3 X202.06 Y17.596 I0.175 J0
G1 X210.692 Y20.738
G2 X215.771 Y17.787 I1.308 J-3.594
G1 X215.778 Y17.774
X215.793 Y17.77
X215.806 Y17.778
X229.324 Y34.711
X229.328 Y34.724
X229.322 Y34.737
Z-4.958
X229.315 Y34.745
X229.284 Y34.775
G2 X229.284 Y35.225 I0.221 J0.225
G1 X229.314 Y35.254
X229.32 Y35.269
X229.35 Y37.382
X229.344 Y37.397
X229.329 Y37.403
X229.315 Y37.396
G2 X227.025 Y35.179 I-17.188 J15.46
G3 X227.025 Y34.821 I0.152 J-0.179
G2 X229.315 Y32.587 I-15.108 J-17.775
G1 X229.32 Y32.574
X229.351 Y30.261
X229.344 Y30.246
X229.329 Y30.241
X229.315 Y30.249
G3 X224.552 Y34.857 I-17.377 J-13.192
G2 X224.552 Y35.143 I0.101 J0.143
G3 X229.315 Y39.721 I-12.446 J17.713
G1 X229.319 Y39.733
X229.352 Y42.341
X229.345 Y42.356
X229.329 Y42.361
X229.315 Y42.351
G2 X221.77 Y35.153 I-17.228 J10.505
G3 X221.77 Y34.847 I0.085 J-0.153
G2 X229.315 Y27.609 I-9.812 J-17.779
G1 X229.318 Y27.599
X229.353 Y24.353
X229.349 Y24.34
X229.337 Y24.333
X229.324 Y24.335
X229.315 Y24.345
G3 X218.029 Y34.877 I-17.336 J-7.264
G1 X217.994 Y34.895
X217.965 Y34.924
X217.947 Y34.96
X217.941 Y35
X217.947 Y35.04
X217.965 Y35.076
X217.994 Y35.105
X218.029 Y35.123
G3 X229.315 Y45.61 I-5.963 J17.733
G1 X229.316 Y45.618
X229.324 Y52.686
X229.318 Y52.7
X229.304 Y52.706
X229.29 Y52.7
X229.284 Y52.686
G2 X215.575 Y35.991 I-17.228 J0.17
G3 X215.336 Y35.846 I0.088 J-0.413
G1 X215.332 Y35.834
Y34.166
X215.337 Y34.153
G3 X215.575 Y34.009 I0.325 J0.269
G2 X229.284 Y17.309 I-3.586 J-16.921
G1 X229.281 Y17.298
X227.829 Y14.966
X227.816 Y14.957
X227.799 Y14.962
X227.792 Y14.977
X227.795 Y17.144
G3 X214.025 Y32.763 I-15.802 J-0.051
G2 X213.75 Y33.076 I0.041 J0.313
G1 Y33.437
Y36.562
Y36.924
G2 X214.025 Y37.237 I0.315 J0
G3 X227.795 Y52.856 I-1.973 J15.619
G1 X227.792 Y55.023
X227.789 Y55.034
X227.779 Y55.042
X226.329 Y55.557
X226.316
X226.306 Y55.55
X226.302 Y55.538
X226.305 Y52.856
G2 X212.563 Y38.607 I-14.258 J0
G3 X212.26 Y38.292 I0.012 J-0.315
G1 Y31.708
G3 X212.563 Y31.393 I0.315 J0
G2 X226.305 Y17.144 I-0.565 J-14.296
G1 X226.302 Y14.463
X226.295 Y14.448
X226.279 Y14.443
X224.83 Y14.646
X224.817 Y14.653
X224.812 Y14.666
X224.815 Y17.144
G3 X211.023 Y29.876 I-12.812 J-0.042
G2 X210.77 Y30.111 I-0.018 J0.235
G1 Y39.889
G2 X211.023 Y40.124 I0.235 J0
G3 X224.815 Y52.856 I1.018 J12.733
G1 X224.812 Y55.335
X224.808 Y55.347
X224.798 Y55.354
X224.785 Y55.353
X223.336 Y54.811
X223.327 Y54.804
X223.323 Y54.792
X223.325 Y52.856
G2 X209.566 Y41.842 I-11.288 J0
G3 X209.28 Y41.612 I-0.051 J-0.23
G1 Y28.388
G3 X209.566 Y28.158 I0.235 J0
G2 X223.325 Y17.144 I2.442 J-11.05
G1 X223.323 Y15.208
X223.319 Y15.196
X223.309 Y15.189
X223.296
X221.847 Y15.731
X221.837 Y15.739
X221.834 Y15.75
X221.835 Y17.144
G3 X208.645 Y26.361 I-9.828 J-0.018
X208.364 Y26.249 I1.659 J-4.557
G2 X208.082 Y26.136 I-1.941 J4.448
X207.79 Y26.341 I-0.074 J0.205
G1 Y43.659
G2 X208.082 Y43.864 I0.218 J0
X208.364 Y43.751 I-1.66 J-4.559
G3 X208.645 Y43.639 I1.941 J4.447
X221.835 Y52.856 I3.374 J9.217
G1 X221.834 Y54.25
X221.83 Y54.262
X221.819 Y54.269
X221.807
X220.357 Y53.726
X220.348 Y53.719
X220.344 Y53.708
X220.345 Y52.856
G2 X209.146 Y45.015 I-8.345 J0
X207.869 Y45.503 I14.205 J39.029
G3 X206.592 Y45.992 I-15.482 J-38.54
X206.3 Y45.787 I-0.074 J-0.205
G1 Y24.213
G3 X206.592 Y24.008 I0.218 J0
X207.869 Y24.497 I-14.207 J39.033
G2 X209.146 Y24.985 I15.464 J-38.492
X220.345 Y17.144 I2.854 J-7.842
G1 X220.344 Y16.292
X220.34 Y16.28
X220.33 Y16.273
X220.317
X218.868 Y16.815
X218.858 Y16.823
X218.855 Y16.834
Y17.144
G3 X209.656 Y23.585 I-6.855 J0
X207.379 Y22.733 I44.808 J-123.116
G2 X205.102 Y21.88 I-47.196 J122.562
X204.81 Y22.085 I-0.074 J0.205
G1 Y47.915
G2 X205.102 Y48.12 I0.218 J0
X207.379 Y47.267 I-44.917 J-123.409
G3 X209.655 Y46.415 I47.194 J122.557
X218.855 Y52.856 I2.345 J6.442
G1 Y53.165
X218.851 Y53.177
X218.84 Y53.185
X218.828 Y53.184
X217.373 Y52.639
X217.364 Y52.632
X217.36 Y52.622
G2 X210.165 Y47.815 I-5.36 J0.235
G1 X203.612 Y50.248
G3 X203.32 Y50.043 I-0.074 J-0.205
G1 Y19.957
G3 X203.612 Y19.752 I0.218 J0
G1 X210.165 Y22.185
G2 X217.36 Y17.379 I1.835 J-5.041
G1 X217.357 Y17.367
X217.347 Y17.359
X217.335
X215.785 Y17.771
X215.775 Y17.777
X215.771 Y17.787
G3 X210.692 Y20.738 I-3.771 J-0.643
G1 X202.06 Y17.596
G2 X201.825 Y17.761 I-0.06 J0.164
G1 Y52.239
G2 X202.06 Y52.404 I0.175 J0
G1 X210.692 Y49.262
G3 X215.771 Y52.213 I1.308 J3.594
G1 X215.778 Y52.226
X215.793 Y52.23
X215.806 Y52.222
X229.323 Y35.289
X229.328 Y35.275
X229.322 Y35.262
Z-5.95
X229.314 Y35.254
X229.284 Y35.225
G3 X229.284 Y34.775 I0.221 J-0.225
G1 X229.315 Y34.745
X229.321 Y34.731
X229.35 Y32.6
X229.344 Y32.586
X229.329 Y32.58
X229.315 Y32.587
G3 X227.025 Y34.821 I-17.398 J-15.541
G2 X227.025 Y35.179 I0.152 J0.179
G3 X229.315 Y37.396 I-14.898 J17.677
G1 X229.32 Y37.409
X229.351 Y39.709
X229.344 Y39.723
X229.329 Y39.729
X229.315 Y39.721
G2 X224.552 Y35.143 I-17.208 J13.135
G3 X224.552 Y34.857 I0.101 J-0.143
G2 X229.315 Y30.249 I-12.614 J-17.801
G1 X229.319 Y30.237
X229.352 Y27.62
X229.345 Y27.604
X229.329 Y27.6
X229.315 Y27.609
G3 X221.77 Y34.847 I-17.357 J-10.542
G2 X221.77 Y35.153 I0.085 J0.153
G3 X229.315 Y42.351 I-9.683 J17.703
G1 X229.318 Y42.362
X229.353 Y45.602
X229.349 Y45.615
X229.337 Y45.622
X229.324 Y45.62
X229.315 Y45.61
G2 X218.029 Y35.123 I-17.248 J7.246
G1 X217.994 Y35.105
X217.965 Y35.076
X217.947 Y35.04
X217.941 Y35
X217.947 Y34.96
X217.965 Y34.924
X217.994 Y34.895
X218.029 Y34.877
G2 X229.315 Y24.345 I-6.051 J-17.796
G1 X229.316 Y24.337
X229.324 Y17.309
X229.318 Y17.295
X229.304 Y17.289
X229.29 Y17.295
X229.284 Y17.309
G3 X215.575 Y34.009 I-17.295 J-0.221
G2 X215.337 Y34.153 I0.088 J0.413
G1 X215.332 Y34.166
Y35.834
X215.336 Y35.846
G2 X215.575 Y35.991 I0.326 J-0.268
G3 X229.284 Y52.686 I-3.518 J16.865
G1 X229.281 Y52.697
X227.829 Y55.033
X227.816 Y55.043
X227.799 Y55.038
X227.792 Y55.023
X227.795 Y52.856
G2 X214.025 Y37.237 I-15.743 J0
G3 X213.75 Y36.924 I0.041 J-0.313
G1 Y36.562
Y33.437
Y33.076
G3 X214.025 Y32.763 I0.315 J0
G2 X227.795 Y17.144 I-2.031 J-15.671
G1 X227.792 Y14.977
X227.789 Y14.965
X227.779 Y14.958
X226.329 Y14.444
X226.316
X226.306 Y14.451
X226.302 Y14.463
X226.305 Y17.144
G3 X212.563 Y31.393 I-14.307 J-0.047
G2 X212.26 Y31.708 I0.012 J0.315
G1 Y38.292
G2 X212.563 Y38.607 I0.315 J0
G3 X226.305 Y52.856 I-0.516 J14.249
G1 X226.302 Y55.538
X226.295 Y55.553
X226.279 Y55.558
X224.83 Y55.354
X224.817 Y55.348
X224.812 Y55.335
X224.815 Y52.856
G2 X211.023 Y40.124 I-12.773 J0
G3 X210.77 Y39.889 I-0.018 J-0.235
G1 Y30.111
G3 X211.023 Y29.876 I0.235 J0
G2 X224.815 Y17.144 I0.98 J-12.774
G1 X224.812 Y14.666
X224.808 Y14.654
X224.798 Y14.647
X224.785
X223.336 Y15.189
X223.327 Y15.196
X223.323 Y15.208
X223.325 Y17.144
G3 X209.566 Y28.158 I-11.317 J-0.036
G2 X209.28 Y28.388 I-0.051 J0.23
G1 Y41.612
G2 X209.566 Y41.842 I0.235 J0
G3 X223.325 Y52.856 I2.471 J11.014
G1 X223.323 Y54.792
X223.319 Y54.804
X223.309 Y54.811
X223.296
X221.847 Y54.269
X221.837 Y54.261
X221.834 Y54.25
X221.835 Y52.856
G2 X208.645 Y43.639 I-9.816 J0
X208.364 Y43.751 I1.659 J4.559
G3 X208.082 Y43.864 I-1.941 J-4.447
X207.79 Y43.659 I-0.074 J-0.205
G1 Y26.341
G3 X208.082 Y26.136 I0.218 J0
X208.364 Y26.249 I-1.66 J4.561
G2 X208.645 Y26.361 I1.94 J-4.445
X221.835 Y17.144 I3.361 J-9.236
G1 X221.834 Y15.75
X221.83 Y15.738
X221.819 Y15.731
X221.807
X220.357 Y16.273
X220.348 Y16.281
X220.344 Y16.292
X220.345 Y17.144
G3 X209.146 Y24.985 I-8.345 J0
X207.869 Y24.497 I14.187 J-38.98
G2 X206.592 Y24.008 I-15.484 J38.544
X206.3 Y24.213 I-0.074 J0.205
G1 Y45.787
G2 X206.592 Y45.992 I0.218 J0
X207.869 Y45.503 I-14.205 J-39.029
G3 X209.146 Y45.015 I15.482 J38.54
X220.345 Y52.856 I2.854 J7.842
G1 X220.344 Y53.708
X220.34 Y53.72
X220.33 Y53.727
X220.317 Y53.726
X218.868 Y53.184
X218.858 Y53.177
X218.855 Y53.165
Y52.856
G2 X209.655 Y46.415 I-6.855 J0
X207.379 Y47.267 I44.917 J123.409
G3 X205.102 Y48.12 I-47.194 J-122.557
X204.81 Y47.915 I-0.074 J-0.205
G1 Y22.085
G3 X205.102 Y21.88 I0.218 J0
X207.379 Y22.733 I-44.919 J123.415
G2 X209.656 Y23.585 I47.084 J-122.263
X218.855 Y17.144 I2.344 J-6.442
G1 Y16.834
X218.851 Y16.822
X218.84 Y16.815
X218.828
X217.373 Y17.361
X217.364 Y17.368
X217.36 Y17.379
G3 X210.165 Y22.185 I-5.36 J-0.235
G1 X203.612 Y19.752
G2 X203.32 Y19.957 I-0.074 J0.205
G1 Y50.043
G2 X203.612 Y50.248 I0.218 J0
G1 X210.165 Y47.815
G3 X217.36 Y52.622 I1.835 J5.041
G1 X217.357 Y52.633
X217.347 Y52.641
X217.335 Y52.642
X215.785 Y52.229
X215.775 Y52.223
X215.771 Y52.213
G2 X210.692 Y49.262 I-3.771 J0.643
G1 X202.06 Y52.404
G3 X201.825 Y52.239 I-0.06 J-0.164
G1 Y17.761
G3 X202.06 Y17.596 I0.175 J0
G1 X210.692 Y20.738
G2 X215.771 Y17.787 I1.308 J-3.594
G1 X215.993 Y16.481
Z10
(When using Fusion 360 for Personal Use, the feedrate of)
(rapid moves is reduced to match the feedrate of cutting)
(moves, which can increase machining time. Unrestricted rapid)
(moves are available with a Fusion 360 Subscription.)

(2D Contour tabs)
G0 X12.475 Y17.144
G1 Z10 F1000
Z5
Z2.02 F333.3
Z-0.992
G2 X17.206 Y20.456 I3.525 J0 F1000
G1 X25.838 Y17.314
G3 X26.475 Y17.761 I0.162 J0.446
G1 Y52.239
G3 X25.838 Y52.686 I-0.475 J0
G1 X17.206 Y49.544
G2 X12.475 Y52.856 I-1.206 J3.312
G1 Z5
Y17.144
Z1.028 F333.3
Z-1.983
G2 X17.206 Y20.456 I3.525 J0 F1000
G1 X25.838 Y17.314
G3 X26.475 Y17.761 I0.162 J0.446
G1 Y52.239
G3 X25.838 Y52.686 I-0.475 J0
G1 X17.206 Y49.544
G2 X12.475 Y52.856 I-1.206 J3.312
G1 Z5
Y17.144
Z0.037 F333.3
Z-2.975
G2 X17.206 Y20.456 I3.525 J0 F1000
G1 X25.838 Y17.314
G3 X26.475 Y17.761 I0.162 J0.446
G1 Y52.239
G3 X25.838 Y52.686 I-0.475 J0
G1 X17.206 Y49.544
G2 X12.475 Y52.856 I-1.206 J3.312
G1 Z5
Y17.144
Z-0.955 F333.3
Z-3.967
G2 X17.206 Y20.456 I3.525 J0 F1000
G1 X25.838 Y17.314
G3 X26.475 Y17.761 I0.162 J0.446
G1 Y52.239
G3 X25.838 Y52.686 I-0.475 J0
G1 X17.206 Y49.544
G2 X12.475 Y52.856 I-1.206 J3.312
G1 Z5
Y17.144
Z-1.947 F333.3
Z-4.958
G2 X17.206 Y20.456 I3.525 J0 F1000
G1 X25.838 Y17.314
G3 X26.475 Y17.761 I0.162 J0.446
G1 Y52.239
G3 X25.838 Y52.686 I-0.475 J0
G1 X17.206 Y49.544
G2 X12.475 Y52.856 I-1.206 J3.312
G1 Z5
Y17.144
Z-2.938 F333.3
Z-5.95
G2 X17.206 Y20.456 I3.525 J0 F1000
G1 X25.838 Y17.314
G3 X26.475 Y17.761 I0.162 J0.446
G1 Y52.239
G3 X25.838 Y52.686 I-0.475 J0
G1 X17.206 Y49.544
G2 X12.475 Y52.856 I-1.206 J3.312
G1 Z5
X12.675 Y17.144
Z-2.938 F333.3
Z-5.95
G2 X17.137 Y20.268 I3.325 J0 F1000
G1 X25.769 Y17.126
G3 X26.675 Y17.761 I0.231 J0.634
G1 Y52.239
G3 X25.769 Y52.874 I-0.675 J0
G1 X17.137 Y49.732
G2 X12.675 Y52.856 I-1.137 J3.124
G1 Z5
X215.525
Z2.02 F333.3
Z-0.992
G2 X210.794 Y49.544 I-3.525 J0 F1000
G1 X202.162 Y52.686
G3 X201.525 Y52.239 I-0.162 J-0.446
G1 Y17.761
G3 X202.162 Y17.314 I0.475 J0
G1 X210.794 Y20.456
G2 X215.525 Y17.144 I1.206 J-3.312
G1 Z5
Y52.856
Z1.028 F333.3
Z-1.983
G2 X210.794 Y49.544 I-3.525 J0 F1000
G1 X202.162 Y52.686
G3 X201.525 Y52.239 I-0.162 J-0.446
G1 Y17.761
G3 X202.162 Y17.314 I0.475 J0
G1 X210.794 Y20.456
G2 X215.525 Y17.144 I1.206 J-3.312
G1 Z5
Y52.856
Z0.037 F333.3
Z-2.975
G2 X210.794 Y49.544 I-3.525 J0 F1000
G1 X202.162 Y52.686
G3 X201.525 Y52.239 I-0.162 J-0.446
G1 Y17.761
G3 X202.162 Y17.314 I0.475 J0
G1 X210.794 Y20.456
G2 X215.525 Y17.144 I1.206 J-3.312
G1 Z5
Y52.856
Z-0.955 F333.3
Z-3.967
G2 X210.794 Y49.544 I-3.525 J0 F1000
G1 X202.162 Y52.686
G3 X201.525 Y52.239 I-0.162 J-0.446
G1 Y17.761
G3 X202.162 Y17.314 I0.475 J0
G1 X210.794 Y20.456
G2 X215.525 Y17.144 I1.206 J-3.312
G1 Z5
Y52.856
Z-1.947 F333.3
Z-4.958
G2 X210.794 Y49.544 I-3.525 J0 F1000
G1 X202.162 Y52.686
G3 X201.525 Y52.239 I-0.162 J-0.446
G1 Y17.761
G3 X202.162 Y17.314 I0.475 J0
G1 X210.794 Y20.456
G2 X215.525 Y17.144 I1.206 J-3.312
G1 Z5
Y52.856
Z-2.938 F333.3
Z-5.95
G2 X210.794 Y49.544 I-3.525 J0 F1000
G1 X202.162 Y52.686
G3 X201.525 Y52.239 I-0.162 J-0.446
G1 Y17.761
G3 X202.162 Y17.314 I0.475 J0
G1 X210.794 Y20.456
G2 X215.525 Y17.144 I1.206 J-3.312
G1 Z5
X215.325 Y52.856
Z-2.938 F333.3
Z-5.95
G2 X210.863 Y49.732 I-3.325 J0 F1000
G1 X202.231 Y52.874
G3 X201.325 Y52.239 I-0.231 J-0.634
G1 Y17.761
G3 X202.231 Y17.126 I0.675 J0
G1 X210.863 Y20.268
G2 X215.325 Y17.144 I1.137 J-3.124
G1 Z10
(When using Fusion 360 for Personal Use, the feedrate of)
(rapid moves is reduced to match the feedrate of cutting)
(moves, which can increase machining time. Unrestricted rapid)
(moves are available with a Fusion 360 Subscription.)

(Bore1)
G0 X214.813 Y34.735
G1 Z10 F1000
Z-3.95
Z-5.685
G18 G2 X215.077 Z-5.95 I0.265 K0
G1 X215.21
G17 G3 X215.475 Y35 I0 J0.265
X212.525 Y35 Z-6.2 I-1.475 J0
X215.475 Y35 Z-6.45 I1.475 J0
X212.525 Y35 Z-6.7 I-1.475 J0
X215.475 Y35 Z-6.95 I1.475 J0
X212.525 Y35 Z-7.2 I-1.475 J0
X215.475 Y35 Z-7.45 I1.475 J0
X212.525 Y35 Z-7.7 I-1.475 J0
X215.475 Y35 Z-7.95 I1.475 J0
X212.525 Y35 Z-8.2 I-1.475 J0
X215.475 Y35 Z-8.45 I1.475 J0
X212.525 Y35 Z-8.7 I-1.475 J0
X215.475 Y35 Z-8.95 I1.475 J0
X212.525 Y35 Z-9.2 I-1.475 J0
X215.475 Y35 Z-9.45 I1.475 J0
X212.525 Y35 Z-9.7 I-1.475 J0
X215.475 Y35 Z-9.95 I1.475 J0
X212.525 Y35 Z-10.2 I-1.475 J0
X215.475 Y35 Z-10.45 I1.475 J0
X212.525 Y35 Z-10.7 I-1.475 J0
X215.475 Y35 Z-10.95 I1.475 J0
X212.525 Y35 Z-11.2 I-1.475 J0
X215.475 Y35 Z-11.45 I1.475 J0
X212.525 Y35 Z-11.7 I-1.475 J0
X215.475 Y35 Z-11.95 I1.475 J0
X212.525 Y35 Z-12.2 I-1.475 J0
X215.475 Y35 Z-12.45 I1.475 J0
X212.525 Y35 Z-12.7 I-1.475 J0
X215.475 Y35 Z-12.95 I1.475 J0
X212.525 Y35 Z-13.2 I-1.475 J0
X213.544 Y33.597 Z-13.3 I1.475 J0
X214.456 Y36.403 I0.456 J1.403
X213.544 Y33.597 I-0.456 J-1.403
X213.878 Y33.767 I0.082 J0.252
G1 X213.919 Y33.893
X213.937 Y33.949 Z-13.293
X213.955 Y34.003 Z-13.274
X213.97 Y34.05 Z-13.242
X213.983 Y34.09 Z-13.2
X213.993 Y34.12 Z-13.15
X213.999 Y34.139 Z-13.094
X214.001 Y34.145 Z-13.035
Z5
Z10
X214.913 Y34.735
Z-3.95
Z-5.685
G18 G2 X215.178 Z-5.95 I0.265 K0
G1 X215.31
G17 G3 X215.575 Y35 I0 J0.265
X212.425 Y35 Z-6.2 I-1.575 J0
X215.575 Y35 Z-6.45 I1.575 J0
X212.425 Y35 Z-6.7 I-1.575 J0
X215.575 Y35 Z-6.95 I1.575 J0
X212.425 Y35 Z-7.2 I-1.575 J0
X215.575 Y35 Z-7.45 I1.575 J0
X212.425 Y35 Z-7.7 I-1.575 J0
X215.575 Y35 Z-7.95 I1.575 J0
X212.425 Y35 Z-8.2 I-1.575 J0
X215.575 Y35 Z-8.45 I1.575 J0
X212.425 Y35 Z-8.7 I-1.575 J0
X215.575 Y35 Z-8.95 I1.575 J0
X212.425 Y35 Z-9.2 I-1.575 J0
X215.575 Y35 Z-9.45 I1.575 J0
X212.425 Y35 Z-9.7 I-1.575 J0
X215.575 Y35 Z-9.95 I1.575 J0
X212.425 Y35 Z-10.2 I-1.575 J0
X215.575 Y35 Z-10.45 I1.575 J0
X212.425 Y35 Z-10.7 I-1.575 J0
X215.575 Y35 Z-10.95 I1.575 J0
X212.425 Y35 Z-11.2 I-1.575 J0
X215.575 Y35 Z-11.45 I1.575 J0
X212.425 Y35 Z-11.7 I-1.575 J0
X215.575 Y35 Z-11.95 I1.575 J0
X212.425 Y35 Z-12.2 I-1.575 J0
X215.575 Y35 Z-12.45 I1.575 J0
X212.425 Y35 Z-12.7 I-1.575 J0
X215.575 Y35 Z-12.95 I1.575 J0
X212.425 Y35 Z-13.2 I-1.575 J0
X213.513 Y33.502 Z-13.3 I1.575 J0
X214.487 Y36.498 I0.487 J1.498
X213.513 Y33.502 I-0.487 J-1.498
X213.847 Y33.672 I0.082 J0.252
G1 X213.888 Y33.798
X213.906 Y33.854 Z-13.293
X213.924 Y33.908 Z-13.274
X213.939 Y33.955 Z-13.242
X213.952 Y33.995 Z-13.2
X213.962 Y34.025 Z-13.15
X213.968 Y34.044 Z-13.094
X213.97 Y34.05 Z-13.035
Z5
X214.913 Y34.735
Z-3.95
Z-5.685
G18 G2 X215.178 Z-5.95 I0.265 K0
G1 X215.31
G17 G3 X215.575 Y35 I0 J0.265
X212.425 Y35 Z-6.2 I-1.575 J0
X215.575 Y35 Z-6.45 I1.575 J0
X212.425 Y35 Z-6.7 I-1.575 J0
X215.575 Y35 Z-6.95 I1.575 J0
X212.425 Y35 Z-7.2 I-1.575 J0
X215.575 Y35 Z-7.45 I1.575 J0
X212.425 Y35 Z-7.7 I-1.575 J0
X215.575 Y35 Z-7.95 I1.575 J0
X212.425 Y35 Z-8.2 I-1.575 J0
X215.575 Y35 Z-8.45 I1.575 J0
X212.425 Y35 Z-8.7 I-1.575 J0
X215.575 Y35 Z-8.95 I1.575 J0
X212.425 Y35 Z-9.2 I-1.575 J0
X215.575 Y35 Z-9.45 I1.575 J0
X212.425 Y35 Z-9.7 I-1.575 J0
X215.575 Y35 Z-9.95 I1.575 J0
X212.425 Y35 Z-10.2 I-1.575 J0
X215.575 Y35 Z-10.45 I1.575 J0
X212.425 Y35 Z-10.7 I-1.575 J0
X215.575 Y35 Z-10.95 I1.575 J0
X212.425 Y35 Z-11.2 I-1.575 J0
X215.575 Y35 Z-11.45 I1.575 J0
X212.425 Y35 Z-11.7 I-1.575 J0
X215.575 Y35 Z-11.95 I1.575 J0
X212.425 Y35 Z-12.2 I-1.575 J0
X215.575 Y35 Z-12.45 I1.575 J0
X212.425 Y35 Z-12.7 I-1.575 J0
X215.575 Y35 Z-12.95 I1.575 J0
X212.425 Y35 Z-13.2 I-1.575 J0
X213.513 Y33.502 Z-13.3 I1.575 J0
X214.487 Y36.498 I0.487 J1.498
X213.513 Y33.502 I-0.487 J-1.498
X213.847 Y33.672 I0.082 J0.252
G1 X213.888 Y33.798
X213.906 Y33.854 Z-13.293
X213.924 Y33.908 Z-13.274
X213.939 Y33.955 Z-13.242
X213.952 Y33.995 Z-13.2
X213.962 Y34.025 Z-13.15
X213.968 Y34.044 Z-13.094
X213.97 Y34.05 Z-13.035
Z5
X154.005 Y34.862
Z1.735
Z0
X154.137
X154.18 Y34.869
X154.218 Y34.889
X154.249 Y34.919
X154.268 Y34.958
X154.275 Y35
G3 X153.725 Y35 Z-0.25 I-0.275 J0
X154.275 Y35 Z-0.5 I0.275 J0
X153.725 Y35 Z-0.75 I-0.275 J0
X154.275 Y35 Z-1 I0.275 J0
X153.725 Y35 Z-1.25 I-0.275 J0
X154.275 Y35 Z-1.5 I0.275 J0
X153.725 Y35 Z-1.75 I-0.275 J0
X154.275 Y35 Z-2 I0.275 J0
X153.725 Y35 Z-2.25 I-0.275 J0
X154.275 Y35 Z-2.5 I0.275 J0
X153.725 Y35 Z-2.75 I-0.275 J0
X154.275 Y35 Z-3 I0.275 J0
X153.725 Y35 Z-3.25 I-0.275 J0
X154.275 Y35 Z-3.5 I0.275 J0
X153.725 Y35 Z-3.75 I-0.275 J0
X154.275 Y35 Z-4 I0.275 J0
X153.725 Y35 Z-4.25 I-0.275 J0
X154.275 Y35 Z-4.5 I0.275 J0
X153.725 Y35 Z-4.75 I-0.275 J0
X154.275 Y35 Z-5 I0.275 J0
X153.725 Y35 Z-5.25 I-0.275 J0
X154.275 Y35 Z-5.5 I0.275 J0
X153.725 Y35 Z-5.75 I-0.275 J0
X154.275 Y35 Z-6 I0.275 J0
X153.725 Y35 Z-6.25 I-0.275 J0
X154.275 Y35 Z-6.5 I0.275 J0
X153.725 Y35 Z-6.75 I-0.275 J0
X154.275 Y35 Z-7 I0.275 J0
X153.725 Y35 Z-7.25 I-0.275 J0
X154.275 Y35 Z-7.5 I0.275 J0
X153.725 Y35 Z-7.75 I-0.275 J0
X154.275 Y35 Z-8 I0.275 J0
X153.725 Y35 Z-8.25 I-0.275 J0
X154.275 Y35 Z-8.5 I0.275 J0
X153.725 Y35 Z-8.75 I-0.275 J0
X154.275 Y35 Z-9 I0.275 J0
X153.725 Y35 Z-9.25 I-0.275 J0
X154.275 Y35 Z-9.5 I0.275 J0
X153.725 Y35 Z-9.75 I-0.275 J0
X154.275 Y35 Z-10 I0.275 J0
X153.725 Y35 Z-10.25 I-0.275 J0
X154.275 Y35 Z-10.5 I0.275 J0
X153.725 Y35 Z-10.75 I-0.275 J0
X154.275 Y35 Z-11 I0.275 J0
X153.725 Y35 Z-11.25 I-0.275 J0
X154.275 Y35 Z-11.5 I0.275 J0
X153.725 Y35 Z-11.75 I-0.275 J0
X154.275 Y35 Z-12 I0.275 J0
X153.725 Y35 Z-12.25 I-0.275 J0
X154.275 Y35 Z-12.5 I0.275 J0
X153.725 Y35 Z-12.75 I-0.275 J0
X154.275 Y35 Z-13 I0.275 J0
X153.725 Y35 Z-13.25 I-0.275 J0
X153.778 Y34.838 Z-13.3 I0.275 J0
X154.222 Y35.162 I0.222 J0.162
X153.778 Y34.838 I-0.222 J-0.162
G1 X153.808 Y34.808
X153.846 Y34.788
X153.889 Y34.782
X153.931 Y34.788
X153.97 Y34.808
X154.077 Y34.886
Z5
X153.79 Y34.813
Z2
Z0.265
G18 G2 X154.055 Z0 I0.265 K0
G1 X154.188
G17 G3 X154.375 Y35 I0 J0.188
X153.625 Y35 Z-0.25 I-0.375 J0
X154.375 Y35 Z-0.5 I0.375 J0
X153.625 Y35 Z-0.75 I-0.375 J0
X154.375 Y35 Z-1 I0.375 J0
X153.625 Y35 Z-1.25 I-0.375 J0
X154.375 Y35 Z-1.5 I0.375 J0
X153.625 Y35 Z-1.75 I-0.375 J0
X154.375 Y35 Z-2 I0.375 J0
X153.625 Y35 Z-2.25 I-0.375 J0
X154.375 Y35 Z-2.5 I0.375 J0
X153.625 Y35 Z-2.75 I-0.375 J0
X154.375 Y35 Z-3 I0.375 J0
X153.625 Y35 Z-3.25 I-0.375 J0
X154.375 Y35 Z-3.5 I0.375 J0
X153.625 Y35 Z-3.75 I-0.375 J0
X154.375 Y35 Z-4 I0.375 J0
X153.625 Y35 Z-4.25 I-0.375 J0
X154.375 Y35 Z-4.5 I0.375 J0
X153.625 Y35 Z-4.75 I-0.375 J0
X154.375 Y35 Z-5 I0.375 J0
X153.625 Y35 Z-5.25 I-0.375 J0
X154.375 Y35 Z-5.5 I0.375 J0
X153.625 Y35 Z-5.75 I-0.375 J0
X154.375 Y35 Z-6 I0.375 J0
X153.625 Y35 Z-6.25 I-0.375 J0
X154.375 Y35 Z-6.5 I0.375 J0
X153.625 Y35 Z-6.75 I-0.375 J0
X154.375 Y35 Z-7 I0.375 J0
X153.625 Y35 Z-7.25 I-0.375 J0
X154.375 Y35 Z-7.5 I0.375 J0
X153.625 Y35 Z-7.75 I-0.375 J0
X154.375 Y35 Z-8 I0.375 J0
X153.625 Y35 Z-8.25 I-0.375 J0
X154.375 Y35 Z-8.5 I0.375 J0
X153.625 Y35 Z-8.75 I-0.375 J0
X154.375 Y35 Z-9 I0.375 J0
X153.625 Y35 Z-9.25 I-0.375 J0
X154.375 Y35 Z-9.5 I0.375 J0
X153.625 Y35 Z-9.75 I-0.375 J0
X154.375 Y35 Z-10 I0.375 J0
X153.625 Y35 Z-10.25 I-0.375 J0
X154.375 Y35 Z-10.5 I0.375 J0
X153.625 Y35 Z-10.75 I-0.375 J0
X154.375 Y35 Z-11 I0.375 J0
X153.625 Y35 Z-11.25 I-0.375 J0
X154.375 Y35 Z-11.5 I0.375 J0
X153.625 Y35 Z-11.75 I-0.375 J0
X154.375 Y35 Z-12 I0.375 J0
X153.625 Y35 Z-12.25 I-0.375 J0
X154.375 Y35 Z-12.5 I0.375 J0
X153.625 Y35 Z-12.75 I-0.375 J0
X154.375 Y35 Z-13 I0.375 J0
X153.625 Y35 Z-13.25 I-0.375 J0
X153.697 Y34.78 Z-13.3 I0.375 J0
X154.303 Y35.22 I0.303 J0.22
X153.697 Y34.78 I-0.303 J-0.22
X153.959 Y34.738 I0.152 J0.11
G1 X154.066 Y34.816
X154.113 Y34.851 Z-13.293
X154.159 Y34.884 Z-13.274
X154.199 Y34.913 Z-13.242
X154.233 Y34.938 Z-13.2
X154.259 Y34.956 Z-13.15
X154.275 Y34.968 Z-13.094
X154.28 Y34.972 Z-13.035
Z5
X153.79 Y34.813
Z2
Z0.265
G18 G2 X154.055 Z0 I0.265 K0
G1 X154.188
G17 G3 X154.375 Y35 I0 J0.188
X153.625 Y35 Z-0.25 I-0.375 J0
X154.375 Y35 Z-0.5 I0.375 J0
X153.625 Y35 Z-0.75 I-0.375 J0
X154.375 Y35 Z-1 I0.375 J0
X153.625 Y35 Z-1.25 I-0.375 J0
X154.375 Y35 Z-1.5 I0.375 J0
X153.625 Y35 Z-1.75 I-0.375 J0
X154.375 Y35 Z-2 I0.375 J0
X153.625 Y35 Z-2.25 I-0.375 J0
X154.375 Y35 Z-2.5 I0.375 J0
X153.625 Y35 Z-2.75 I-0.375 J0
X154.375 Y35 Z-3 I0.375 J0
X153.625 Y35 Z-3.25 I-0.375 J0
X154.375 Y35 Z-3.5 I0.375 J0
X153.625 Y35 Z-3.75 I-0.375 J0
X154.375 Y35 Z-4 I0.375 J0
X153.625 Y35 Z-4.25 I-0.375 J0
X154.375 Y35 Z-4.5 I0.375 J0
X153.625 Y35 Z-4.75 I-0.375 J0
X154.375 Y35 Z-5 I0.375 J0
X153.625 Y35 Z-5.25 I-0.375 J0
X154.375 Y35 Z-5.5 I0.375 J0
X153.625 Y35 Z-5.75 I-0.375 J0
X154.375 Y35 Z-6 I0.375 J0
X153.625 Y35 Z-6.25 I-0.375 J0
X154.375 Y35 Z-6.5 I0.375 J0
X153.625 Y35 Z-6.75 I-0.375 J0
X154.375 Y35 Z-7 I0.375 J0
X153.625 Y35 Z-7.25 I-0.375 J0
X154.375 Y35 Z-7.5 I0.375 J0
X153.625 Y35 Z-7.75 I-0.375 J0
X154.375 Y35 Z-8 I0.375 J0
X153.625 Y35 Z-8.25 I-0.375 J0
X154.375 Y35 Z-8.5 I0.375 J0
X153.625 Y35 Z-8.75 I-0.375 J0
X154.375 Y35 Z-9 I0.375 J0
X153.625 Y35 Z-9.25 I-0.375 J0
X154.375 Y35 Z-9.5 I0.375 J0
X153.625 Y35 Z-9.75 I-0.375 J0
X154.375 Y35 Z-10 I0.375 J0
X153.625 Y35 Z-10.25 I-0.375 J0
X154.375 Y35 Z-10.5 I0.375 J0
X153.625 Y35 Z-10.75 I-0.375 J0
X154.375 Y35 Z-11 I0.375 J0
X153.625 Y35 Z-11.25 I-0.375 J0
X154.375 Y35 Z-11.5 I0.375 J0
X153.625 Y35 Z-11.75 I-0.375 J0
X154.375 Y35 Z-12 I0.375 J0
X153.625 Y35 Z-12.25 I-0.375 J0
X154.375 Y35 Z-12.5 I0.375 J0
X153.625 Y35 Z-12.75 I-0.375 J0
X154.375 Y35 Z-13 I0.375 J0
X153.625 Y35 Z-13.25 I-0.375 J0
X153.697 Y34.78 Z-13.3 I0.375 J0
X154.303 Y35.22 I0.303 J0.22
X153.697 Y34.78 I-0.303 J-0.22
X153.959 Y34.738 I0.152 J0.11
G1 X154.066 Y34.816
X154.113 Y34.851 Z-13.293
X154.159 Y34.884 Z-13.274
X154.199 Y34.913 Z-13.242
X154.233 Y34.938 Z-13.2
X154.259 Y34.956 Z-13.15
X154.275 Y34.968 Z-13.094
X154.28 Y34.972 Z-13.035
Z5
X136.005 Y34.862
Z1.735
Z0
X136.137
X136.18 Y34.869
X136.218 Y34.889
X136.249 Y34.919
X136.268 Y34.958
X136.275 Y35
G3 X135.725 Y35 Z-0.25 I-0.275 J0
X136.275 Y35 Z-0.5 I0.275 J0
X135.725 Y35 Z-0.75 I-0.275 J0
X136.275 Y35 Z-1 I0.275 J0
X135.725 Y35 Z-1.25 I-0.275 J0
X136.275 Y35 Z-1.5 I0.275 J0
X135.725 Y35 Z-1.75 I-0.275 J0
X136.275 Y35 Z-2 I0.275 J0
X135.725 Y35 Z-2.25 I-0.275 J0
X136.275 Y35 Z-2.5 I0.275 J0
X135.725 Y35 Z-2.75 I-0.275 J0
X136.275 Y35 Z-3 I0.275 J0
X135.725 Y35 Z-3.25 I-0.275 J0
X136.275 Y35 Z-3.5 I0.275 J0
X135.725 Y35 Z-3.75 I-0.275 J0
X136.275 Y35 Z-4 I0.275 J0
X135.725 Y35 Z-4.25 I-0.275 J0
X136.275 Y35 Z-4.5 I0.275 J0
X135.725 Y35 Z-4.75 I-0.275 J0
X136.275 Y35 Z-5 I0.275 J0
X135.725 Y35 Z-5.25 I-0.275 J0
X136.275 Y35 Z-5.5 I0.275 J0
X135.725 Y35 Z-5.75 I-0.275 J0
X136.275 Y35 Z-6 I0.275 J0
X135.725 Y35 Z-6.25 I-0.275 J0
X136.275 Y35 Z-6.5 I0.275 J0
X135.725 Y35 Z-6.75 I-0.275 J0
X136.275 Y35 Z-7 I0.275 J0
X135.725 Y35 Z-7.25 I-0.275 J0
X136.275 Y35 Z-7.5 I0.275 J0
X135.725 Y35 Z-7.75 I-0.275 J0
X136.275 Y35 Z-8 I0.275 J0
X135.725 Y35 Z-8.25 I-0.275 J0
X136.275 Y35 Z-8.5 I0.275 J0
X135.725 Y35 Z-8.75 I-0.275 J0
X136.275 Y35 Z-9 I0.275 J0
X135.725 Y35 Z-9.25 I-0.275 J0
X136.275 Y35 Z-9.5 I0.275 J0
X135.725 Y35 Z-9.75 I-0.275 J0
X136.275 Y35 Z-10 I0.275 J0
X135.725 Y35 Z-10.25 I-0.275 J0
X136.275 Y35 Z-10.5 I0.275 J0
X135.725 Y35 Z-10.75 I-0.275 J0
X136.275 Y35 Z-11 I0.275 J0
X135.725 Y35 Z-11.25 I-0.275 J0
X136.275 Y35 Z-11.5 I0.275 J0
X135.725 Y35 Z-11.75 I-0.275 J0
X136.275 Y35 Z-12 I0.275 J0
X135.725 Y35 Z-12.25 I-0.275 J0
X136.275 Y35 Z-12.5 I0.275 J0
X135.725 Y35 Z-12.75 I-0.275 J0
X136.275 Y35 Z-13 I0.275 J0
X135.725 Y35 Z-13.25 I-0.275 J0
X135.778 Y34.838 Z-13.3 I0.275 J0
X136.222 Y35.162 I0.222 J0.162
X135.778 Y34.838 I-0.222 J-0.162
G1 X135.808 Y34.808
X135.846 Y34.788
X135.889 Y34.782
X135.931 Y34.788
X135.97 Y34.808
X136.077 Y34.886
Z5
X135.79 Y34.813
Z2
Z0.265
G18 G2 X136.055 Z0 I0.265 K0
G1 X136.188
G17 G3 X136.375 Y35 I0 J0.188
X135.625 Y35 Z-0.25 I-0.375 J0
X136.375 Y35 Z-0.5 I0.375 J0
X135.625 Y35 Z-0.75 I-0.375 J0
X136.375 Y35 Z-1 I0.375 J0
X135.625 Y35 Z-1.25 I-0.375 J0
X136.375 Y35 Z-1.5 I0.375 J0
X135.625 Y35 Z-1.75 I-0.375 J0
X136.375 Y35 Z-2 I0.375 J0
X135.625 Y35 Z-2.25 I-0.375 J0
X136.375 Y35 Z-2.5 I0.375 J0
X135.625 Y35 Z-2.75 I-0.375 J0
X136.375 Y35 Z-3 I0.375 J0
X135.625 Y35 Z-3.25 I-0.375 J0
X136.375 Y35 Z-3.5 I0.375 J0
X135.625 Y35 Z-3.75 I-0.375 J0
X136.375 Y35 Z-4 I0.375 J0
X135.625 Y35 Z-4.25 I-0.375 J0
X136.375 Y35 Z-4.5 I0.375 J0
X135.625 Y35 Z-4.75 I-0.375 J0
X136.375 Y35 Z-5 I0.375 J0
X135.625 Y35 Z-5.25 I-0.375 J0
X136.375 Y35 Z-5.5 I0.375 J0
X135.625 Y35 Z-5.75 I-0.375 J0
X136.375 Y35 Z-6 I0.375 J0
X135.625 Y35 Z-6.25 I-0.375 J0
X136.375 Y35 Z-6.5 I0.375 J0
X135.625 Y35 Z-6.75 I-0.375 J0
X136.375 Y35 Z-7 I0.375 J0
X135.625 Y35 Z-7.25 I-0.375 J0
X136.375 Y35 Z-7.5 I0.375 J0
X135.625 Y35 Z-7.75 I-0.375 J0
X136.375 Y35 Z-8 I0.375 J0
X135.625 Y35 Z-8.25 I-0.375 J0
X136.375 Y35 Z-8.5 I0.375 J0
X135.625 Y35 Z-8.75 I-0.375 J0
X136.375 Y35 Z-9 I0.375 J0
X135.625 Y35 Z-9.25 I-0.375 J0
X136.375 Y35 Z-9.5 I0.375 J0
X135.625 Y35 Z-9.75 I-0.375 J0
X136.375 Y35 Z-10 I0.375 J0
X135.625 Y35 Z-10.25 I-0.375 J0
X136.375 Y35 Z-10.5 I0.375 J0
X135.625 Y35 Z-10.75 I-0.375 J0
X136.375 Y35 Z-11 I0.375 J0
X135.625 Y35 Z-11.25 I-0.375 J0
X136.375 Y35 Z-11.5 I0.375 J0
X135.625 Y35 Z-11.75 I-0.375 J0
X136.375 Y35 Z-12 I0.375 J0
X135.625 Y35 Z-12.25 I-0.375 J0
X136.375 Y35 Z-12.5 I0.375 J0
X135.625 Y35 Z-12.75 I-0.375 J0
X136.375 Y35 Z-13 I0.375 J0
X135.625 Y35 Z-13.25 I-0.375 J0
X135.697 Y34.78 Z-13.3 I0.375 J0
X136.303 Y35.22 I0.303 J0.22
X135.697 Y34.78 I-0.303 J-0.22
X135.959 Y34.738 I0.152 J0.11
G1 X136.066 Y34.816
X136.113 Y34.851 Z-13.293
X136.159 Y34.884 Z-13.274
X136.199 Y34.913 Z-13.242
X136.233 Y34.938 Z-13.2
X136.259 Y34.956 Z-13.15
X136.275 Y34.968 Z-13.094
X136.28 Y34.972 Z-13.035
Z5
X135.79 Y34.813
Z2
Z0.265
G18 G2 X136.055 Z0 I0.265 K0
G1 X136.188
G17 G3 X136.375 Y35 I0 J0.188
X135.625 Y35 Z-0.25 I-0.375 J0
X136.375 Y35 Z-0.5 I0.375 J0
X135.625 Y35 Z-0.75 I-0.375 J0
X136.375 Y35 Z-1 I0.375 J0
X135.625 Y35 Z-1.25 I-0.375 J0
X136.375 Y35 Z-1.5 I0.375 J0
X135.625 Y35 Z-1.75 I-0.375 J0
X136.375 Y35 Z-2 I0.375 J0
X135.625 Y35 Z-2.25 I-0.375 J0
X136.375 Y35 Z-2.5 I0.375 J0
X135.625 Y35 Z-2.75 I-0.375 J0
X136.375 Y35 Z-3 I0.375 J0
X135.625 Y35 Z-3.25 I-0.375 J0
X136.375 Y35 Z-3.5 I0.375 J0
X135.625 Y35 Z-3.75 I-0.375 J0
X136.375 Y35 Z-4 I0.375 J0
X135.625 Y35 Z-4.25 I-0.375 J0
X136.375 Y35 Z-4.5 I0.375 J0
X135.625 Y35 Z-4.75 I-0.375 J0
X136.375 Y35 Z-5 I0.375 J0
X135.625 Y35 Z-5.25 I-0.375 J0
X136.375 Y35 Z-5.5 I0.375 J0
X135.625 Y35 Z-5.75 I-0.375 J0
X136.375 Y35 Z-6 I0.375 J0
X135.625 Y35 Z-6.25 I-0.375 J0
X136.375 Y35 Z-6.5 I0.375 J0
X135.625 Y35 Z-6.75 I-0.375 J0
X136.375 Y35 Z-7 I0.375 J0
X135.625 Y35 Z-7.25 I-0.375 J0
X136.375 Y35 Z-7.5 I0.375 J0
X135.625 Y35 Z-7.75 I-0.375 J0
X136.375 Y35 Z-8 I0.375 J0
X135.625 Y35 Z-8.25 I-0.375 J0
X136.375 Y35 Z-8.5 I0.375 J0
X135.625 Y35 Z-8.75 I-0.375 J0
X136.375 Y35 Z-9 I0.375 J0
X135.625 Y35 Z-9.25 I-0.375 J0
X136.375 Y35 Z-9.5 I0.375 J0
X135.625 Y35 Z-9.75 I-0.375 J0
X136.375 Y35 Z-10 I0.375 J0
X135.625 Y35 Z-10.25 I-0.375 J0
X136.375 Y35 Z-10.5 I0.375 J0
X135.625 Y35 Z-10.75 I-0.375 J0
X136.375 Y35 Z-11 I0.375 J0
X135.625 Y35 Z-11.25 I-0.375 J0
X136.375 Y35 Z-11.5 I0.375 J0
X135.625 Y35 Z-11.75 I-0.375 J0
X136.375 Y35 Z-12 I0.375 J0
X135.625 Y35 Z-12.25 I-0.375 J0
X136.375 Y35 Z-12.5 I0.375 J0
X135.625 Y35 Z-12.75 I-0.375 J0
X136.375 Y35 Z-13 I0.375 J0
X135.625 Y35 Z-13.25 I-0.375 J0
X135.697 Y34.78 Z-13.3 I0.375 J0
X136.303 Y35.22 I0.303 J0.22
X135.697 Y34.78 I-0.303 J-0.22
X135.959 Y34.738 I0.152 J0.11
G1 X136.066 Y34.816
X136.113 Y34.851 Z-13.293
X136.159 Y34.884 Z-13.274
X136.199 Y34.913 Z-13.242
X136.233 Y34.938 Z-13.2
X136.259 Y34.956 Z-13.15
X136.275 Y34.968 Z-13.094
X136.28 Y34.972 Z-13.035
Z5
X92.005 Y34.862
Z1.735
Z0
X92.137
X92.18 Y34.869
X92.218 Y34.889
X92.249 Y34.919
X92.268 Y34.958
X92.275 Y35
G3 X91.725 Y35 Z-0.25 I-0.275 J0
X92.275 Y35 Z-0.5 I0.275 J0
X91.725 Y35 Z-0.75 I-0.275 J0
X92.275 Y35 Z-1 I0.275 J0
X91.725 Y35 Z-1.25 I-0.275 J0
X92.275 Y35 Z-1.5 I0.275 J0
X91.725 Y35 Z-1.75 I-0.275 J0
X92.275 Y35 Z-2 I0.275 J0
X91.725 Y35 Z-2.25 I-0.275 J0
X92.275 Y35 Z-2.5 I0.275 J0
X91.725 Y35 Z-2.75 I-0.275 J0
X92.275 Y35 Z-3 I0.275 J0
X91.725 Y35 Z-3.25 I-0.275 J0
X92.275 Y35 Z-3.5 I0.275 J0
X91.725 Y35 Z-3.75 I-0.275 J0
X92.275 Y35 Z-4 I0.275 J0
X91.725 Y35 Z-4.25 I-0.275 J0
X92.275 Y35 Z-4.5 I0.275 J0
X91.725 Y35 Z-4.75 I-0.275 J0
X92.275 Y35 Z-5 I0.275 J0
X91.725 Y35 Z-5.25 I-0.275 J0
X92.275 Y35 Z-5.5 I0.275 J0
X91.725 Y35 Z-5.75 I-0.275 J0
X92.275 Y35 Z-6 I0.275 J0
X91.725 Y35 Z-6.25 I-0.275 J0
X92.275 Y35 Z-6.5 I0.275 J0
X91.725 Y35 Z-6.75 I-0.275 J0
X92.275 Y35 Z-7 I0.275 J0
X91.725 Y35 Z-7.25 I-0.275 J0
X92.275 Y35 Z-7.5 I0.275 J0
X91.725 Y35 Z-7.75 I-0.275 J0
X92.275 Y35 Z-8 I0.275 J0
X91.725 Y35 Z-8.25 I-0.275 J0
X92.275 Y35 Z-8.5 I0.275 J0
X91.725 Y35 Z-8.75 I-0.275 J0
X92.275 Y35 Z-9 I0.275 J0
X91.725 Y35 Z-9.25 I-0.275 J0
X92.275 Y35 Z-9.5 I0.275 J0
X91.725 Y35 Z-9.75 I-0.275 J0
X92.275 Y35 Z-10 I0.275 J0
X91.725 Y35 Z-10.25 I-0.275 J0
X92.275 Y35 Z-10.5 I0.275 J0
X91.725 Y35 Z-10.75 I-0.275 J0
X92.275 Y35 Z-11 I0.275 J0
X91.725 Y35 Z-11.25 I-0.275 J0
X92.275 Y35 Z-11.5 I0.275 J0
X91.725 Y35 Z-11.75 I-0.275 J0
X92.275 Y35 Z-12 I0.275 J0
X91.725 Y35 Z-12.25 I-0.275 J0
X92.275 Y35 Z-12.5 I0.275 J0
X91.725 Y35 Z-12.75 I-0.275 J0
X92.275 Y35 Z-13 I0.275 J0
X91.725 Y35 Z-13.25 I-0.275 J0
X91.778 Y34.838 Z-13.3 I0.275 J0
X92.222 Y35.162 I0.222 J0.162
X91.778 Y34.838 I-0.222 J-0.162
G1 X91.808 Y34.808
X91.846 Y34.788
X91.889 Y34.782
X91.931 Y34.788
X91.97 Y34.808
X92.077 Y34.886
Z5
X91.79 Y34.813
Z2
Z0.265
G18 G2 X92.055 Z0 I0.265 K0
G1 X92.188
G17 G3 X92.375 Y35 I0 J0.188
X91.625 Y35 Z-0.25 I-0.375 J0
X92.375 Y35 Z-0.5 I0.375 J0
X91.625 Y35 Z-0.75 I-0.375 J0
X92.375 Y35 Z-1 I0.375 J0
X91.625 Y35 Z-1.25 I-0.375 J0
X92.375 Y35 Z-1.5 I0.375 J0
X91.625 Y35 Z-1.75 I-0.375 J0
X92.375 Y35 Z-2 I0.375 J0
X91.625 Y35 Z-2.25 I-0.375 J0
X92.375 Y35 Z-2.5 I0.375 J0
X91.625 Y35 Z-2.75 I-0.375 J0
X92.375 Y35 Z-3 I0.375 J0
X91.625 Y35 Z-3.25 I-0.375 J0
X92.375 Y35 Z-3.5 I0.375 J0
X91.625 Y35 Z-3.75 I-0.375 J0
X92.375 Y35 Z-4 I0.375 J0
X91.625 Y35 Z-4.25 I-0.375 J0
X92.375 Y35 Z-4.5 I0.375 J0
X91.625 Y35 Z-4.75 I-0.375 J0
X92.375 Y35 Z-5 I0.375 J0
X91.625 Y35 Z-5.25 I-0.375 J0
X92.375 Y35 Z-5.5 I0.375 J0
X91.625 Y35 Z-5.75 I-0.375 J0
X92.375 Y35 Z-6 I0.375 J0
X91.625 Y35 Z-6.25 I-0.375 J0
X92.375 Y35 Z-6.5 I0.375 J0
X91.625 Y35 Z-6.75 I-0.375 J0
X92.375 Y35 Z-7 I0.375 J0
X91.625 Y35 Z-7.25 I-0.375 J0
X92.375 Y35 Z-7.5 I0.375 J0
X91.625 Y35 Z-7.75 I-0.375 J0
X92.375 Y35 Z-8 I0.375 J0
X91.625 Y35 Z-8.25 I-0.375 J0
X92.375 Y35 Z-8.5 I0.375 J0
X91.625 Y35 Z-8.75 I-0.375 J0
X92.375 Y35 Z-9 I0.375 J0
X91.625 Y35 Z-9.25 I-0.375 J0
X92.375 Y35 Z-9.5 I0.375 J0
X91.625 Y35 Z-9.75 I-0.375 J0
X92.375 Y35 Z-10 I0.375 J0
X91.625 Y35 Z-10.25 I-0.375 J0
X92.375 Y35 Z-10.5 I0.375 J0
X91.625 Y35 Z-10.75 I-0.375 J0
X92.375 Y35 Z-11 I0.375 J0
X91.625 Y35 Z-11.25 I-0.375 J0
X92.375 Y35 Z-11.5 I0.375 J0
X91.625 Y35 Z-11.75 I-0.375 J0
X92.375 Y35 Z-12 I0.375 J0
X91.625 Y35 Z-12.25 I-0.375 J0
X92.375 Y35 Z-12.5 I0.375 J0
X91.625 Y35 Z-12.75 I-0.375 J0
X92.375 Y35 Z-13 I0.375 J0
X91.625 Y35 Z-13.25 I-0.375 J0
X91.697 Y34.78 Z-13.3 I0.375 J0
X92.303 Y35.22 I0.303 J0.22
X91.697 Y34.78 I-0.303 J-0.22
X91.959 Y34.738 I0.152 J0.11
G1 X92.066 Y34.816
X92.113 Y34.851 Z-13.293
X92.159 Y34.884 Z-13.274
X92.199 Y34.913 Z-13.242
X92.233 Y34.938 Z-13.2
X92.259 Y34.956 Z-13.15
X92.275 Y34.968 Z-13.094
X92.28 Y34.972 Z-13.035
Z5
X91.79 Y34.813
Z2
Z0.265
G18 G2 X92.055 Z0 I0.265 K0
G1 X92.188
G17 G3 X92.375 Y35 I0 J0.188
X91.625 Y35 Z-0.25 I-0.375 J0
X92.375 Y35 Z-0.5 I0.375 J0
X91.625 Y35 Z-0.75 I-0.375 J0
X92.375 Y35 Z-1 I0.375 J0
X91.625 Y35 Z-1.25 I-0.375 J0
X92.375 Y35 Z-1.5 I0.375 J0
X91.625 Y35 Z-1.75 I-0.375 J0
X92.375 Y35 Z-2 I0.375 J0
X91.625 Y35 Z-2.25 I-0.375 J0
X92.375 Y35 Z-2.5 I0.375 J0
X91.625 Y35 Z-2.75 I-0.375 J0
X92.375 Y35 Z-3 I0.375 J0
X91.625 Y35 Z-3.25 I-0.375 J0
X92.375 Y35 Z-3.5 I0.375 J0
X91.625 Y35 Z-3.75 I-0.375 J0
X92.375 Y35 Z-4 I0.375 J0
X91.625 Y35 Z-4.25 I-0.375 J0
X92.375 Y35 Z-4.5 I0.375 J0
X91.625 Y35 Z-4.75 I-0.375 J0
X92.375 Y35 Z-5 I0.375 J0
X91.625 Y35 Z-5.25 I-0.375 J0
X92.375 Y35 Z-5.5 I0.375 J0
X91.625 Y35 Z-5.75 I-0.375 J0
X92.375 Y35 Z-6 I0.375 J0
X91.625 Y35 Z-6.25 I-0.375 J0
X92.375 Y35 Z-6.5 I0.375 J0
X91.625 Y35 Z-6.75 I-0.375 J0
X92.375 Y35 Z-7 I0.375 J0
X91.625 Y35 Z-7.25 I-0.375 J0
X92.375 Y35 Z-7.5 I0.375 J0
X91.625 Y35 Z-7.75 I-0.375 J0
X92.375 Y35 Z-8 I0.375 J0
X91.625 Y35 Z-8.25 I-0.375 J0
X92.375 Y35 Z-8.5 I0.375 J0
X91.625 Y35 Z-8.75 I-0.375 J0
X92.375 Y35 Z-9 I0.375 J0
X91.625 Y35 Z-9.25 I-0.375 J0
X92.375 Y35 Z-9.5 I0.375 J0
X91.625 Y35 Z-9.75 I-0.375 J0
X92.375 Y35 Z-10 I0.375 J0
X91.625 Y35 Z-10.25 I-0.375 J0
X92.375 Y35 Z-10.5 I0.375 J0
X91.625 Y35 Z-10.75 I-0.375 J0
X92.375 Y35 Z-11 I0.375 J0
X91.625 Y35 Z-11.25 I-0.375 J0
X92.375 Y35 Z-11.5 I0.375 J0
X91.625 Y35 Z-11.75 I-0.375 J0
X92.375 Y35 Z-12 I0.375 J0
X91.625 Y35 Z-12.25 I-0.375 J0
X92.375 Y35 Z-12.5 I0.375 J0
X91.625 Y35 Z-12.75 I-0.375 J0
X92.375 Y35 Z-13 I0.375 J0
X91.625 Y35 Z-13.25 I-0.375 J0
X91.697 Y34.78 Z-13.3 I0.375 J0
X92.303 Y35.22 I0.303 J0.22
X91.697 Y34.78 I-0.303 J-0.22
X91.959 Y34.738 I0.152 J0.11
G1 X92.066 Y34.816
X92.113 Y34.851 Z-13.293
X92.159 Y34.884 Z-13.274
X92.199 Y34.913 Z-13.242
X92.233 Y34.938 Z-13.2
X92.259 Y34.956 Z-13.15
X92.275 Y34.968 Z-13.094
X92.28 Y34.972 Z-13.035
Z5
X74.005 Y34.862
Z1.735
Z0
X74.137
X74.18 Y34.869
X74.218 Y34.889
X74.249 Y34.919
X74.268 Y34.958
X74.275 Y35
G3 X73.725 Y35 Z-0.25 I-0.275 J0
X74.275 Y35 Z-0.5 I0.275 J0
X73.725 Y35 Z-0.75 I-0.275 J0
X74.275 Y35 Z-1 I0.275 J0
X73.725 Y35 Z-1.25 I-0.275 J0
X74.275 Y35 Z-1.5 I0.275 J0
X73.725 Y35 Z-1.75 I-0.275 J0
X74.275 Y35 Z-2 I0.275 J0
X73.725 Y35 Z-2.25 I-0.275 J0
X74.275 Y35 Z-2.5 I0.275 J0
X73.725 Y35 Z-2.75 I-0.275 J0
X74.275 Y35 Z-3 I0.275 J0
X73.725 Y35 Z-3.25 I-0.275 J0
X74.275 Y35 Z-3.5 I0.275 J0
X73.725 Y35 Z-3.75 I-0.275 J0
X74.275 Y35 Z-4 I0.275 J0
X73.725 Y35 Z-4.25 I-0.275 J0
X74.275 Y35 Z-4.5 I0.275 J0
X73.725 Y35 Z-4.75 I-0.275 J0
X74.275 Y35 Z-5 I0.275 J0
X73.725 Y35 Z-5.25 I-0.275 J0
X74.275 Y35 Z-5.5 I0.275 J0
X73.725 Y35 Z-5.75 I-0.275 J0
X74.275 Y35 Z-6 I0.275 J0
X73.725 Y35 Z-6.25 I-0.275 J0
X74.275 Y35 Z-6.5 I0.275 J0
X73.725 Y35 Z-6.75 I-0.275 J0
X74.275 Y35 Z-7 I0.275 J0
X73.725 Y35 Z-7.25 I-0.275 J0
X74.275 Y35 Z-7.5 I0.275 J0
X73.725 Y35 Z-7.75 I-0.275 J0
X74.275 Y35 Z-8 I0.275 J0
X73.725 Y35 Z-8.25 I-0.275 J0
X74.275 Y35 Z-8.5 I0.275 J0
X73.725 Y35 Z-8.75 I-0.275 J0
X74.275 Y35 Z-9 I0.275 J0
X73.725 Y35 Z-9.25 I-0.275 J0
X74.275 Y35 Z-9.5 I0.275 J0
X73.725 Y35 Z-9.75 I-0.275 J0
X74.275 Y35 Z-10 I0.275 J0
X73.725 Y35 Z-10.25 I-0.275 J0
X74.275 Y35 Z-10.5 I0.275 J0
X73.725 Y35 Z-10.75 I-0.275 J0
X74.275 Y35 Z-11 I0.275 J0
X73.725 Y35 Z-11.25 I-0.275 J0
X74.275 Y35 Z-11.5 I0.275 J0
X73.725 Y35 Z-11.75 I-0.275 J0
X74.275 Y35 Z-12 I0.275 J0
X73.725 Y35 Z-12.25 I-0.275 J0
X74.275 Y35 Z-12.5 I0.275 J0
X73.725 Y35 Z-12.75 I-0.275 J0
X74.275 Y35 Z-13 I0.275 J0
X73.725 Y35 Z-13.25 I-0.275 J0
X73.778 Y34.838 Z-13.3 I0.275 J0
X74.222 Y35.162 I0.222 J0.162
X73.778 Y34.838 I-0.222 J-0.162
G1 X73.808 Y34.808
X73.846 Y34.788
X73.889 Y34.782
X73.931 Y34.788
X73.97 Y34.808
X74.077 Y34.886
Z5
X73.79 Y34.813
Z2
Z0.265
G18 G2 X74.055 Z0 I0.265 K0
G1 X74.188
G17 G3 X74.375 Y35 I0 J0.188
X73.625 Y35 Z-0.25 I-0.375 J0
X74.375 Y35 Z-0.5 I0.375 J0
X73.625 Y35 Z-0.75 I-0.375 J0
X74.375 Y35 Z-1 I0.375 J0
X73.625 Y35 Z-1.25 I-0.375 J0
X74.375 Y35 Z-1.5 I0.375 J0
X73.625 Y35 Z-1.75 I-0.375 J0
X74.375 Y35 Z-2 I0.375 J0
X73.625 Y35 Z-2.25 I-0.375 J0
X74.375 Y35 Z-2.5 I0.375 J0
X73.625 Y35 Z-2.75 I-0.375 J0
X74.375 Y35 Z-3 I0.375 J0
X73.625 Y35 Z-3.25 I-0.375 J0
X74.375 Y35 Z-3.5 I0.375 J0
X73.625 Y35 Z-3.75 I-0.375 J0
X74.375 Y35 Z-4 I0.375 J0
X73.625 Y35 Z-4.25 I-0.375 J0
X74.375 Y35 Z-4.5 I0.375 J0
X73.625 Y35 Z-4.75 I-0.375 J0
X74.375 Y35 Z-5 I0.375 J0
X73.625 Y35 Z-5.25 I-0.375 J0
X74.375 Y35 Z-5.5 I0.375 J0
X73.625 Y35 Z-5.75 I-0.375 J0
X74.375 Y35 Z-6 I0.375 J0
X73.625 Y35 Z-6.25 I-0.375 J0
X74.375 Y35 Z-6.5 I0.375 J0
X73.625 Y35 Z-6.75 I-0.375 J0
X74.375 Y35 Z-7 I0.375 J0
X73.625 Y35 Z-7.25 I-0.375 J0
X74.375 Y35 Z-7.5 I0.375 J0
X73.625 Y35 Z-7.75 I-0.375 J0
X74.375 Y35 Z-8 I0.375 J0
X73.625 Y35 Z-8.25 I-0.375 J0
X74.375 Y35 Z-8.5 I0.375 J0
X73.625 Y35 Z-8.75 I-0.375 J0
X74.375 Y35 Z-9 I0.375 J0
X73.625 Y35 Z-9.25 I-0.375 J0
X74.375 Y35 Z-9.5 I0.375 J0
X73.625 Y35 Z-9.75 I-0.375 J0
X74.375 Y35 Z-10 I0.375 J0
X73.625 Y35 Z-10.25 I-0.375 J0
X74.375 Y35 Z-10.5 I0.375 J0
X73.625 Y35 Z-10.75 I-0.375 J0
X74.375 Y35 Z-11 I0.375 J0
X73.625 Y35 Z-11.25 I-0.375 J0
X74.375 Y35 Z-11.5 I0.375 J0
X73.625 Y35 Z-11.75 I-0.375 J0
X74.375 Y35 Z-12 I0.375 J0
X73.625 Y35 Z-12.25 I-0.375 J0
X74.375 Y35 Z-12.5 I0.375 J0
X73.625 Y35 Z-12.75 I-0.375 J0
X74.375 Y35 Z-13 I0.375 J0
X73.625 Y35 Z-13.25 I-0.375 J0
X73.697 Y34.78 Z-13.3 I0.375 J0
X74.303 Y35.22 I0.303 J0.22
X73.697 Y34.78 I-0.303 J-0.22
X73.959 Y34.738 I0.152 J0.11
G1 X74.066 Y34.816
X74.113 Y34.851 Z-13.293
X74.159 Y34.884 Z-13.274
X74.199 Y34.913 Z-13.242
X74.233 Y34.938 Z-13.2
X74.259 Y34.956 Z-13.15
X74.275 Y34.968 Z-13.094
X74.28 Y34.972 Z-13.035
Z5
X73.79 Y34.813
Z2
Z0.265
G18 G2 X74.055 Z0 I0.265 K0
G1 X74.188
G17 G3 X74.375 Y35 I0 J0.188
X73.625 Y35 Z-0.25 I-0.375 J0
X74.375 Y35 Z-0.5 I0.375 J0
X73.625 Y35 Z-0.75 I-0.375 J0
X74.375 Y35 Z-1 I0.375 J0
X73.625 Y35 Z-1.25 I-0.375 J0
X74.375 Y35 Z-1.5 I0.375 J0
X73.625 Y35 Z-1.75 I-0.375 J0
X74.375 Y35 Z-2 I0.375 J0
X73.625 Y35 Z-2.25 I-0.375 J0
X74.375 Y35 Z-2.5 I0.375 J0
X73.625 Y35 Z-2.75 I-0.375 J0
X74.375 Y35 Z-3 I0.375 J0
X73.625 Y35 Z-3.25 I-0.375 J0
X74.375 Y35 Z-3.5 I0.375 J0
X73.625 Y35 Z-3.75 I-0.375 J0
X74.375 Y35 Z-4 I0.375 J0
X73.625 Y35 Z-4.25 I-0.375 J0
X74.375 Y35 Z-4.5 I0.375 J0
X73.625 Y35 Z-4.75 I-0.375 J0
X74.375 Y35 Z-5 I0.375 J0
X73.625 Y35 Z-5.25 I-0.375 J0
X74.375 Y35 Z-5.5 I0.375 J0
X73.625 Y35 Z-5.75 I-0.375 J0
X74.375 Y35 Z-6 I0.375 J0
X73.625 Y35 Z-6.25 I-0.375 J0
X74.375 Y35 Z-6.5 I0.375 J0
X73.625 Y35 Z-6.75 I-0.375 J0
X74.375 Y35 Z-7 I0.375 J0
X73.625 Y35 Z-7.25 I-0.375 J0
X74.375 Y35 Z-7.5 I0.375 J0
X73.625 Y35 Z-7.75 I-0.375 J0
X74.375 Y35 Z-8 I0.375 J0
X73.625 Y35 Z-8.25 I-0.375 J0
X74.375 Y35 Z-8.5 I0.375 J0
X73.625 Y35 Z-8.75 I-0.375 J0
X74.375 Y35 Z-9 I0.375 J0
X73.625 Y35 Z-9.25 I-0.375 J0
X74.375 Y35 Z-9.5 I0.375 J0
X73.625 Y35 Z-9.75 I-0.375 J0
X74.375 Y35 Z-10 I0.375 J0
X73.625 Y35 Z-10.25 I-0.375 J0
X74.375 Y35 Z-10.5 I0.375 J0
X73.625 Y35 Z-10.75 I-0.375 J0
X74.375 Y35 Z-11 I0.375 J0
X73.625 Y35 Z-11.25 I-0.375 J0
X74.375 Y35 Z-11.5 I0.375 J0
X73.625 Y35 Z-11.75 I-0.375 J0
X74.375 Y35 Z-12 I0.375 J0
X73.625 Y35 Z-12.25 I-0.375 J0
X74.375 Y35 Z-12.5 I0.375 J0
X73.625 Y35 Z-12.75 I-0.375 J0
X74.375 Y35 Z-13 I0.375 J0
X73.625 Y35 Z-13.25 I-0.375 J0
X73.697 Y34.78 Z-13.3 I0.375 J0
X74.303 Y35.22 I0.303 J0.22
X73.697 Y34.78 I-0.303 J-0.22
X73.959 Y34.738 I0.152 J0.11
G1 X74.066 Y34.816
X74.113 Y34.851 Z-13.293
X74.159 Y34.884 Z-13.274
X74.199 Y34.913 Z-13.242
X74.233 Y34.938 Z-13.2
X74.259 Y34.956 Z-13.15
X74.275 Y34.968 Z-13.094
X74.28 Y34.972 Z-13.035
Z5
X14.813 Y34.735
Z-3.95
Z-5.685
G18 G2 X15.078 Z-5.95 I0.265 K0
G1 X15.21
G17 G3 X15.475 Y35 I0 J0.265
X12.525 Y35 Z-6.2 I-1.475 J0
X15.475 Y35 Z-6.45 I1.475 J0
X12.525 Y35 Z-6.7 I-1.475 J0
X15.475 Y35 Z-6.95 I1.475 J0
X12.525 Y35 Z-7.2 I-1.475 J0
X15.475 Y35 Z-7.45 I1.475 J0
X12.525 Y35 Z-7.7 I-1.475 J0
X15.475 Y35 Z-7.95 I1.475 J0
X12.525 Y35 Z-8.2 I-1.475 J0
X15.475 Y35 Z-8.45 I1.475 J0
X12.525 Y35 Z-8.7 I-1.475 J0
X15.475 Y35 Z-8.95 I1.475 J0
X12.525 Y35 Z-9.2 I-1.475 J0
X15.475 Y35 Z-9.45 I1.475 J0
X12.525 Y35 Z-9.7 I-1.475 J0
X15.475 Y35 Z-9.95 I1.475 J0
X12.525 Y35 Z-10.2 I-1.475 J0
X15.475 Y35 Z-10.45 I1.475 J0
X12.525 Y35 Z-10.7 I-1.475 J0
X15.475 Y35 Z-10.95 I1.475 J0
X12.525 Y35 Z-11.2 I-1.475 J0
X15.475 Y35 Z-11.45 I1.475 J0
X12.525 Y35 Z-11.7 I-1.475 J0
X15.475 Y35 Z-11.95 I1.475 J0
X12.525 Y35 Z-12.2 I-1.475 J0
X15.475 Y35 Z-12.45 I1.475 J0
X12.525 Y35 Z-12.7 I-1.475 J0
X15.475 Y35 Z-12.95 I1.475 J0
X12.525 Y35 Z-13.2 I-1.475 J0
X13.544 Y33.597 Z-13.3 I1.475 J0
X14.456 Y36.403 I0.456 J1.403
X13.544 Y33.597 I-0.456 J-1.403
X13.878 Y33.767 I0.082 J0.252
G1 X13.919 Y33.893
X13.937 Y33.949 Z-13.293
X13.955 Y34.003 Z-13.274
X13.97 Y34.05 Z-13.242
X13.983 Y34.09 Z-13.2
X13.993 Y34.12 Z-13.15
X13.999 Y34.139 Z-13.094
X14.001 Y34.145 Z-13.035
Z5
X14.913 Y34.735
Z-3.95
Z-5.685
G18 G2 X15.177 Z-5.95 I0.265 K0
G1 X15.31
G17 G3 X15.575 Y35 I0 J0.265
X12.425 Y35 Z-6.2 I-1.575 J0
X15.575 Y35 Z-6.45 I1.575 J0
X12.425 Y35 Z-6.7 I-1.575 J0
X15.575 Y35 Z-6.95 I1.575 J0
X12.425 Y35 Z-7.2 I-1.575 J0
X15.575 Y35 Z-7.45 I1.575 J0
X12.425 Y35 Z-7.7 I-1.575 J0
X15.575 Y35 Z-7.95 I1.575 J0
X12.425 Y35 Z-8.2 I-1.575 J0
X15.575 Y35 Z-8.45 I1.575 J0
X12.425 Y35 Z-8.7 I-1.575 J0
X15.575 Y35 Z-8.95 I1.575 J0
X12.425 Y35 Z-9.2 I-1.575 J0
X15.575 Y35 Z-9.45 I1.575 J0
X12.425 Y35 Z-9.7 I-1.575 J0
X15.575 Y35 Z-9.95 I1.575 J0
X12.425 Y35 Z-10.2 I-1.575 J0
X15.575 Y35 Z-10.45 I1.575 J0
X12.425 Y35 Z-10.7 I-1.575 J0
X15.575 Y35 Z-10.95 I1.575 J0
X12.425 Y35 Z-11.2 I-1.575 J0
X15.575 Y35 Z-11.45 I1.575 J0
X12.425 Y35 Z-11.7 I-1.575 J0
X15.575 Y35 Z-11.95 I1.575 J0
X12.425 Y35 Z-12.2 I-1.575 J0
X15.575 Y35 Z-12.45 I1.575 J0
X12.425 Y35 Z-12.7 I-1.575 J0
X15.575 Y35 Z-12.95 I1.575 J0
X12.425 Y35 Z-13.2 I-1.575 J0
X13.513 Y33.502 Z-13.3 I1.575 J0
X14.487 Y36.498 I0.487 J1.498
X13.513 Y33.502 I-0.487 J-1.498
X13.847 Y33.672 I0.082 J0.252
G1 X13.888 Y33.798
X13.906 Y33.854 Z-13.293
X13.924 Y33.908 Z-13.274
X13.939 Y33.955 Z-13.242
X13.952 Y33.995 Z-13.2
X13.962 Y34.025 Z-13.15
X13.968 Y34.044 Z-13.094
X13.97 Y34.05 Z-13.035
Z5
X14.913 Y34.735
Z-3.95
Z-5.685
G18 G2 X15.177 Z-5.95 I0.265 K0
G1 X15.31
G17 G3 X15.575 Y35 I0 J0.265
X12.425 Y35 Z-6.2 I-1.575 J0
X15.575 Y35 Z-6.45 I1.575 J0
X12.425 Y35 Z-6.7 I-1.575 J0
X15.575 Y35 Z-6.95 I1.575 J0
X12.425 Y35 Z-7.2 I-1.575 J0
X15.575 Y35 Z-7.45 I1.575 J0
X12.425 Y35 Z-7.7 I-1.575 J0
X15.575 Y35 Z-7.95 I1.575 J0
X12.425 Y35 Z-8.2 I-1.575 J0
X15.575 Y35 Z-8.45 I1.575 J0
X12.425 Y35 Z-8.7 I-1.575 J0
X15.575 Y35 Z-8.95 I1.575 J0
X12.425 Y35 Z-9.2 I-1.575 J0
X15.575 Y35 Z-9.45 I1.575 J0
X12.425 Y35 Z-9.7 I-1.575 J0
X15.575 Y35 Z-9.95 I1.575 J0
X12.425 Y35 Z-10.2 I-1.575 J0
X15.575 Y35 Z-10.45 I1.575 J0
X12.425 Y35 Z-10.7 I-1.575 J0
X15.575 Y35 Z-10.95 I1.575 J0
X12.425 Y35 Z-11.2 I-1.575 J0
X15.575 Y35 Z-11.45 I1.575 J0
X12.425 Y35 Z-11.7 I-1.575 J0
X15.575 Y35 Z-11.95 I1.575 J0
X12.425 Y35 Z-12.2 I-1.575 J0
X15.575 Y35 Z-12.45 I1.575 J0
X12.425 Y35 Z-12.7 I-1.575 J0
X15.575 Y35 Z-12.95 I1.575 J0
X12.425 Y35 Z-13.2 I-1.575 J0
X13.513 Y33.502 Z-13.3 I1.575 J0
X14.487 Y36.498 I0.487 J1.498
X13.513 Y33.502 I-0.487 J-1.498
X13.847 Y33.672 I0.082 J0.252
G1 X13.888 Y33.798
X13.906 Y33.854 Z-13.293
X13.924 Y33.908 Z-13.274
X13.939 Y33.955 Z-13.242
X13.952 Y33.995 Z-13.2
X13.962 Y34.025 Z-13.15
X13.968 Y34.044 Z-13.094
X13.97 Y34.05 Z-13.035
Z10
(When using Fusion 360 for Personal Use, the feedrate of)
(rapid moves is reduced to match the feedrate of cutting)
(moves, which can increase machining time. Unrestricted rapid)
(moves are available with a Fusion 360 Subscription.)

(2D Contour both)
G0 X151.248 Y62.525
G1 Z10 F1000
Z5
Z2.02 F333.3
Z-0.946
X159.5 F500
G2 X161.025 Y61 I0 J-1.525
G1 Y60.325
X166.975
Y61
G2 X168.5 Y62.525 I1.525 J0
G1 X177.075
Y63.125
X150.925
Y62.525
X151.248
Z-1.892 F333.3
X159.5 F500
G2 X161.025 Y61 I0 J-1.525
G1 Y60.325
X166.975
Y61
G2 X168.5 Y62.525 I1.525 J0
G1 X177.075
Y63.125
X150.925
Y62.525
X151.248
Z-2.838 F333.3
X159.5 F500
G2 X161.025 Y61 I0 J-1.525
G1 Y60.325
X166.975
Y61
G2 X168.5 Y62.525 I1.525 J0
G1 X177.075
Y63.125
X150.925
Y62.525
X151.248
Z-3.785 F333.3
X159.5 F500
G2 X161.025 Y61 I0 J-1.525
G1 Y60.325
X166.975
Y61
G2 X168.5 Y62.525 I1.525 J0
G1 X177.075
Y63.125
X150.925
Y62.525
X151.248
Z-4.731 F333.3
X159.5 F500
G2 X161.025 Y61 I0 J-1.525
G1 Y60.325
X166.975
Y61
G2 X168.5 Y62.525 I1.525 J0
G1 X177.075
Y63.125
X150.925
Y62.525
X151.248
Z-5.677 F333.3
X159.5 F500
G2 X161.025 Y61 I0 J-1.525
G1 Y60.325
X166.975
Y61
G2 X168.5 Y62.525 I1.525 J0
G1 X177.075
Y63.125
X150.925
Y62.525
X151.248
Z-6.623 F333.3
X159.5 F500
G2 X161.025 Y61 I0 J-1.525
G1 Y60.325
X166.975
Y61
G2 X168.5 Y62.525 I1.525 J0
G1 X177.075
Y63.125
X150.925
Y62.525
X151.248
Z-7.569 F333.3
X159.5 F500
G2 X161.025 Y61 I0 J-1.525
G1 Y60.325
X166.975
Y61
G2 X168.5 Y62.525 I1.525 J0
G1 X177.075
Y63.125
X150.925
Y62.525
X151.248
Z-8.515 F333.3
X159.5 F500
G2 X161.025 Y61 I0 J-1.525
G1 Y60.325
X166.975
Y61
G2 X168.5 Y62.525 I1.525 J0
G1 X177.075
Y63.125
X150.925
Y62.525
X151.248
Z-9.462 F333.3
X159.5 F500
G2 X161.025 Y61 I0 J-1.525
G1 Y60.325
X166.975
Y61
G2 X168.5 Y62.525 I1.525 J0
G1 X177.075
Y63.125
X150.925
Y62.525
X151.248
Z-10.408 F333.3
X159.5 F500
G2 X161.025 Y61 I0 J-1.525
G1 Y60.325
X166.975
Y61
G2 X168.5 Y62.525 I1.525 J0
G1 X177.075
Y63.125
X150.925
Y62.525
X151.248
Z-11.354 F333.3
X159.5 F500
G2 X161.025 Y61 I0 J-1.525
G1 Y60.325
X166.975
Y61
G2 X168.5 Y62.525 I1.525 J0
G1 X177.075
Y63.125
X150.925
Y62.525
X151.248
Z-12.3 F333.3
X159.5 F1000
G2 X161.025 Y61 I0 J-1.525
G1 Y60.325
X166.975
Y61
G2 X168.5 Y62.525 I1.525 J0
G1 X177.075
Y63.125
X150.925
Y62.525
X151.248
X151.295 Y62.518
X151.339 Y62.498
X151.374 Y62.466
X151.398 Y62.425
X151.423 Y62.384
X151.458 Y62.352
X151.501 Y62.332
X151.548 Y62.325
X159.5 F500
G2 X160.825 Y61 I0 J-1.325
G1 Y60.125
X167.175
Y61
G2 X168.5 Y62.325 I1.325 J0
G1 X177.275
Y63.325
X150.725
Y62.325
X151.548
Z5 F1000
X151.248 Y6.875
Z2.02 F333.3
Z-0.946
X177.075 F500
Y7.475
X168.5
G2 X166.975 Y9 I0 J1.525
G1 Y9.675
X161.025
Y9
G2 X159.5 Y7.475 I-1.525 J0
G1 X150.925
Y6.875
X151.248
Z-1.892 F333.3
X177.075 F500
Y7.475
X168.5
G2 X166.975 Y9 I0 J1.525
G1 Y9.675
X161.025
Y9
G2 X159.5 Y7.475 I-1.525 J0
G1 X150.925
Y6.875
X151.248
Z-2.838 F333.3
X177.075 F500
Y7.475
X168.5
G2 X166.975 Y9 I0 J1.525
G1 Y9.675
X161.025
Y9
G2 X159.5 Y7.475 I-1.525 J0
G1 X150.925
Y6.875
X151.248
Z-3.785 F333.3
X177.075 F500
Y7.475
X168.5
G2 X166.975 Y9 I0 J1.525
G1 Y9.675
X161.025
Y9
G2 X159.5 Y7.475 I-1.525 J0
G1 X150.925
Y6.875
X151.248
Z-4.731 F333.3
X177.075 F500
Y7.475
X168.5
G2 X166.975 Y9 I0 J1.525
G1 Y9.675
X161.025
Y9
G2 X159.5 Y7.475 I-1.525 J0
G1 X150.925
Y6.875
X151.248
Z-5.677 F333.3
X177.075 F500
Y7.475
X168.5
G2 X166.975 Y9 I0 J1.525
G1 Y9.675
X161.025
Y9
G2 X159.5 Y7.475 I-1.525 J0
G1 X150.925
Y6.875
X151.248
Z-6.623 F333.3
X177.075 F500
Y7.475
X168.5
G2 X166.975 Y9 I0 J1.525
G1 Y9.675
X161.025
Y9
G2 X159.5 Y7.475 I-1.525 J0
G1 X150.925
Y6.875
X151.248
Z-7.569 F333.3
X177.075 F500
Y7.475
X168.5
G2 X166.975 Y9 I0 J1.525
G1 Y9.675
X161.025
Y9
G2 X159.5 Y7.475 I-1.525 J0
G1 X150.925
Y6.875
X151.248
Z-8.515 F333.3
X177.075 F500
Y7.475
X168.5
G2 X166.975 Y9 I0 J1.525
G1 Y9.675
X161.025
Y9
G2 X159.5 Y7.475 I-1.525 J0
G1 X150.925
Y6.875
X151.248
Z-9.462 F333.3
X177.075 F500
Y7.475
X168.5
G2 X166.975 Y9 I0 J1.525
G1 Y9.675
X161.025
Y9
G2 X159.5 Y7.475 I-1.525 J0
G1 X150.925
Y6.875
X151.248
Z-10.408 F333.3
X177.075 F500
Y7.475
X168.5
G2 X166.975 Y9 I0 J1.525
G1 Y9.675
X161.025
Y9
G2 X159.5 Y7.475 I-1.525 J0
G1 X150.925
Y6.875
X151.248
Z-11.354 F333.3
X177.075 F500
Y7.475
X168.5
G2 X166.975 Y9 I0 J1.525
G1 Y9.675
X161.025
Y9
G2 X159.5 Y7.475 I-1.525 J0
G1 X150.925
Y6.875
X151.248
Z-12.3 F333.3
X177.075 F1000
Y7.475
X168.5
G2 X166.975 Y9 I0 J1.525
G1 Y9.675
X161.025
Y9
G2 X159.5 Y7.475 I-1.525 J0
G1 X150.925
Y6.875
X151.248
X151.295 Y6.868
X151.339 Y6.848
X151.374 Y6.816
X151.398 Y6.775
X151.423 Y6.734
X151.458 Y6.702
X151.501 Y6.682
X151.548 Y6.675
X177.275 F500
Y7.675
X168.5
G2 X167.175 Y9 I0 J1.325
G1 Y9.875
X160.825
Y9
G2 X159.5 Y7.675 I-1.325 J0
G1 X150.725
Y6.675
X151.548
Z5 F1000
X51.248 Y6.875
Z2.02 F333.3
Z-0.946
X77.075 F500
Y7.475
X68.5
G2 X66.975 Y9 I0 J1.525
G1 Y9.675
X61.025
Y9
G2 X59.5 Y7.475 I-1.525 J0
G1 X50.925
Y6.875
X51.248
Z-1.892 F333.3
X77.075 F500
Y7.475
X68.5
G2 X66.975 Y9 I0 J1.525
G1 Y9.675
X61.025
Y9
G2 X59.5 Y7.475 I-1.525 J0
G1 X50.925
Y6.875
X51.248
Z-2.838 F333.3
X77.075 F500
Y7.475
X68.5
G2 X66.975 Y9 I0 J1.525
G1 Y9.675
X61.025
Y9
G2 X59.5 Y7.475 I-1.525 J0
G1 X50.925
Y6.875
X51.248
Z-3.785 F333.3
X77.075 F500
Y7.475
X68.5
G2 X66.975 Y9 I0 J1.525
G1 Y9.675
X61.025
Y9
G2 X59.5 Y7.475 I-1.525 J0
G1 X50.925
Y6.875
X51.248
Z-4.731 F333.3
X77.075 F500
Y7.475
X68.5
G2 X66.975 Y9 I0 J1.525
G1 Y9.675
X61.025
Y9
G2 X59.5 Y7.475 I-1.525 J0
G1 X50.925
Y6.875
X51.248
Z-5.677 F333.3
X77.075 F500
Y7.475
X68.5
G2 X66.975 Y9 I0 J1.525
G1 Y9.675
X61.025
Y9
G2 X59.5 Y7.475 I-1.525 J0
G1 X50.925
Y6.875
X51.248
Z-6.623 F333.3
X77.075 F500
Y7.475
X68.5
G2 X66.975 Y9 I0 J1.525
G1 Y9.675
X61.025
Y9
G2 X59.5 Y7.475 I-1.525 J0
G1 X50.925
Y6.875
X51.248
Z-7.569 F333.3
X77.075 F500
Y7.475
X68.5
G2 X66.975 Y9 I0 J1.525
G1 Y9.675
X61.025
Y9
G2 X59.5 Y7.475 I-1.525 J0
G1 X50.925
Y6.875
X51.248
Z-8.515 F333.3
X77.075 F500
Y7.475
X68.5
G2 X66.975 Y9 I0 J1.525
G1 Y9.675
X61.025
Y9
G2 X59.5 Y7.475 I-1.525 J0
G1 X50.925
Y6.875
X51.248
Z-9.462 F333.3
X77.075 F500
Y7.475
X68.5
G2 X66.975 Y9 I0 J1.525
G1 Y9.675
X61.025
Y9
G2 X59.5 Y7.475 I-1.525 J0
G1 X50.925
Y6.875
X51.248
Z-10.408 F333.3
X77.075 F500
Y7.475
X68.5
G2 X66.975 Y9 I0 J1.525
G1 Y9.675
X61.025
Y9
G2 X59.5 Y7.475 I-1.525 J0
G1 X50.925
Y6.875
X51.248
Z-11.354 F333.3
X77.075 F500
Y7.475
X68.5
G2 X66.975 Y9 I0 J1.525
G1 Y9.675
X61.025
Y9
G2 X59.5 Y7.475 I-1.525 J0
G1 X50.925
Y6.875
X51.248
Z-12.3 F333.3
X68.5 F1000
X77.075
Y7.475
X68.5
G2 X66.975 Y9 I0 J1.525
G1 Y9.675
X61.025
Y9
G2 X59.5 Y7.475 I-1.525 J0
G1 X50.925
Y6.875
X51.248
X51.295 Y6.868
X51.339 Y6.848
X51.374 Y6.816
X51.398 Y6.775
X51.423 Y6.734
X51.458 Y6.702
X51.501 Y6.682
X51.548 Y6.675
X77.275 F500
Y7.675
X68.5
G2 X67.175 Y9 I0 J1.325
G1 Y9.875
X60.825
Y9
G2 X59.5 Y7.675 I-1.325 J0
G1 X50.725
Y6.675
X51.548
Z5 F1000
X51.248 Y62.525
Z2.02 F333.3
Z-0.946
X59.5 F500
G2 X61.025 Y61 I0 J-1.525
G1 Y60.325
X66.975
Y61
G2 X68.5 Y62.525 I1.525 J0
G1 X77.075
Y63.125
X50.925
Y62.525
X51.248
Z-1.892 F333.3
X59.5 F500
G2 X61.025 Y61 I0 J-1.525
G1 Y60.325
X66.975
Y61
G2 X68.5 Y62.525 I1.525 J0
G1 X77.075
Y63.125
X50.925
Y62.525
X51.248
Z-2.838 F333.3
X59.5 F500
G2 X61.025 Y61 I0 J-1.525
G1 Y60.325
X66.975
Y61
G2 X68.5 Y62.525 I1.525 J0
G1 X77.075
Y63.125
X50.925
Y62.525
X51.248
Z-3.785 F333.3
X59.5 F500
G2 X61.025 Y61 I0 J-1.525
G1 Y60.325
X66.975
Y61
G2 X68.5 Y62.525 I1.525 J0
G1 X77.075
Y63.125
X50.925
Y62.525
X51.248
Z-4.731 F333.3
X59.5 F500
G2 X61.025 Y61 I0 J-1.525
G1 Y60.325
X66.975
Y61
G2 X68.5 Y62.525 I1.525 J0
G1 X77.075
Y63.125
X50.925
Y62.525
X51.248
Z-5.677 F333.3
X59.5 F500
G2 X61.025 Y61 I0 J-1.525
G1 Y60.325
X66.975
Y61
G2 X68.5 Y62.525 I1.525 J0
G1 X77.075
Y63.125
X50.925
Y62.525
X51.248
Z-6.623 F333.3
X59.5 F500
G2 X61.025 Y61 I0 J-1.525
G1 Y60.325
X66.975
Y61
G2 X68.5 Y62.525 I1.525 J0
G1 X77.075
Y63.125
X50.925
Y62.525
X51.248
Z-7.569 F333.3
X59.5 F500
G2 X61.025 Y61 I0 J-1.525
G1 Y60.325
X66.975
Y61
G2 X68.5 Y62.525 I1.525 J0
G1 X77.075
Y63.125
X50.925
Y62.525
X51.248
Z-8.515 F333.3
X59.5 F500
G2 X61.025 Y61 I0 J-1.525
G1 Y60.325
X66.975
Y61
G2 X68.5 Y62.525 I1.525 J0
G1 X77.075
Y63.125
X50.925
Y62.525
X51.248
Z-9.462 F333.3
X59.5 F500
G2 X61.025 Y61 I0 J-1.525
G1 Y60.325
X66.975
Y61
G2 X68.5 Y62.525 I1.525 J0
G1 X77.075
Y63.125
X50.925
Y62.525
X51.248
Z-10.408 F333.3
X59.5 F500
G2 X61.025 Y61 I0 J-1.525
G1 Y60.325
X66.975
Y61
G2 X68.5 Y62.525 I1.525 J0
G1 X77.075
Y63.125
X50.925
Y62.525
X51.248
Z-11.354 F333.3
X59.5 F500
G2 X61.025 Y61 I0 J-1.525
G1 Y60.325
X66.975
Y61
G2 X68.5 Y62.525 I1.525 J0
G1 X77.075
Y63.125
X50.925
Y62.525
X51.248
Z-12.3 F333.3
X59.5 F1000
G2 X61.025 Y61 I0 J-1.525
G1 Y60.325
X66.975
Y61
G2 X68.5 Y62.525 I1.525 J0
G1 X77.075
Y63.125
X50.925
Y62.525
X51.248
X51.295 Y62.518
X51.339 Y62.498
X51.374 Y62.466
X51.398 Y62.425
X51.423 Y62.384
X51.458 Y62.352
X51.501 Y62.332
X51.548 Y62.325
X59.5 F500
G2 X60.825 Y61 I0 J-1.325
G1 Y60.125
X67.175
Y61
G2 X68.5 Y62.325 I1.325 J0
G1 X77.275
Y63.325
X50.725
Y62.325
X51.548
Z5 F1000
X29.297 Y-1.525
Z2.02 F333.3
Z-0.946
X14 F500
G2 X12.475 Y0 I0 J1.525
G1 Y17.144
G3 X11.838 Y17.59 I-0.475 J0
G1 X3.206 Y14.448
G2 X-1.525 Y17.761 I-1.206 J3.312
G1 Y52.239
G2 X3.206 Y55.552 I3.525 J0
G1 X11.838 Y52.41
G3 X12.475 Y52.856 I0.162 J0.446
G1 Y70
G2 X14 Y71.525 I1.525 J0
G1 X107.8
G2 X109.325 Y70 I0 J-1.525
G1 Y38.05
G2 X107.8 Y36.525 I-1.525 J0
G1 X107.725
Y36.375
X120.275
Y36.525
X120.2
G2 X118.675 Y38.05 I0 J1.525
G1 Y70
G2 X120.2 Y71.525 I1.525 J0
G1 X214
G2 X215.525 Y70 I0 J-1.525
G1 Y52.856
G3 X216.162 Y52.41 I0.475 J0
G1 X224.794 Y55.552
G2 X229.525 Y52.239 I1.206 J-3.312
G1 Y17.761
G2 X224.794 Y14.448 I-3.525 J0
G1 X216.162 Y17.59
G3 X215.525 Y17.144 I-0.162 J-0.446
G1 Y0
G2 X214 Y-1.525 I-1.525 J0
G1 X29.297
Z-1.892 F333.3
X14 F500
G2 X12.475 Y0 I0 J1.525
G1 Y17.144
G3 X11.838 Y17.59 I-0.475 J0
G1 X3.206 Y14.448
G2 X-1.525 Y17.761 I-1.206 J3.312
G1 Y52.239
G2 X3.206 Y55.552 I3.525 J0
G1 X11.838 Y52.41
G3 X12.475 Y52.856 I0.162 J0.446
G1 Y70
G2 X14 Y71.525 I1.525 J0
G1 X107.8
G2 X109.325 Y70 I0 J-1.525
G1 Y38.05
G2 X107.8 Y36.525 I-1.525 J0
G1 X107.725
Y36.375
X120.275
Y36.525
X120.2
G2 X118.675 Y38.05 I0 J1.525
G1 Y70
G2 X120.2 Y71.525 I1.525 J0
G1 X214
G2 X215.525 Y70 I0 J-1.525
G1 Y52.856
G3 X216.162 Y52.41 I0.475 J0
G1 X224.794 Y55.552
G2 X229.525 Y52.239 I1.206 J-3.312
G1 Y17.761
G2 X224.794 Y14.448 I-3.525 J0
G1 X216.162 Y17.59
G3 X215.525 Y17.144 I-0.162 J-0.446
G1 Y0
G2 X214 Y-1.525 I-1.525 J0
G1 X29.297
Z-2.838 F333.3
X14 F500
G2 X12.475 Y0 I0 J1.525
G1 Y17.144
G3 X11.838 Y17.59 I-0.475 J0
G1 X3.206 Y14.448
G2 X-1.525 Y17.761 I-1.206 J3.312
G1 Y52.239
G2 X3.206 Y55.552 I3.525 J0
G1 X11.838 Y52.41
G3 X12.475 Y52.856 I0.162 J0.446
G1 Y70
G2 X14 Y71.525 I1.525 J0
G1 X107.8
G2 X109.325 Y70 I0 J-1.525
G1 Y38.05
G2 X107.8 Y36.525 I-1.525 J0
G1 X107.725
Y36.375
X120.275
Y36.525
X120.2
G2 X118.675 Y38.05 I0 J1.525
G1 Y70
G2 X120.2 Y71.525 I1.525 J0
G1 X214
G2 X215.525 Y70 I0 J-1.525
G1 Y52.856
G3 X216.162 Y52.41 I0.475 J0
G1 X224.794 Y55.552
G2 X229.525 Y52.239 I1.206 J-3.312
G1 Y17.761
G2 X224.794 Y14.448 I-3.525 J0
G1 X216.162 Y17.59
G3 X215.525 Y17.144 I-0.162 J-0.446
G1 Y0
G2 X214 Y-1.525 I-1.525 J0
G1 X29.297
Z-3.785 F333.3
X14 F500
G2 X12.475 Y0 I0 J1.525
G1 Y17.144
G3 X11.838 Y17.59 I-0.475 J0
G1 X3.206 Y14.448
G2 X-1.525 Y17.761 I-1.206 J3.312
G1 Y52.239
G2 X3.206 Y55.552 I3.525 J0
G1 X11.838 Y52.41
G3 X12.475 Y52.856 I0.162 J0.446
G1 Y70
G2 X14 Y71.525 I1.525 J0
G1 X107.8
G2 X109.325 Y70 I0 J-1.525
G1 Y38.05
G2 X107.8 Y36.525 I-1.525 J0
G1 X107.725
Y36.375
X120.275
Y36.525
X120.2
G2 X118.675 Y38.05 I0 J1.525
G1 Y70
G2 X120.2 Y71.525 I1.525 J0
G1 X214
G2 X215.525 Y70 I0 J-1.525
G1 Y52.856
G3 X216.162 Y52.41 I0.475 J0
G1 X224.794 Y55.552
G2 X229.525 Y52.239 I1.206 J-3.312
G1 Y17.761
G2 X224.794 Y14.448 I-3.525 J0
G1 X216.162 Y17.59
G3 X215.525 Y17.144 I-0.162 J-0.446
G1 Y0
G2 X214 Y-1.525 I-1.525 J0
G1 X29.297
Z-4.731 F333.3
X14 F500
G2 X12.475 Y0 I0 J1.525
G1 Y17.144
G3 X11.838 Y17.59 I-0.475 J0
G1 X3.206 Y14.448
G2 X-1.525 Y17.761 I-1.206 J3.312
G1 Y52.239
G2 X3.206 Y55.552 I3.525 J0
G1 X11.838 Y52.41
G3 X12.475 Y52.856 I0.162 J0.446
G1 Y70
G2 X14 Y71.525 I1.525 J0
G1 X107.8
G2 X109.325 Y70 I0 J-1.525
G1 Y38.05
G2 X107.8 Y36.525 I-1.525 J0
G1 X107.725
Y36.375
X120.275
Y36.525
X120.2
G2 X118.675 Y38.05 I0 J1.525
G1 Y70
G2 X120.2 Y71.525 I1.525 J0
G1 X214
G2 X215.525 Y70 I0 J-1.525
G1 Y52.856
G3 X216.162 Y52.41 I0.475 J0
G1 X224.794 Y55.552
G2 X229.525 Y52.239 I1.206 J-3.312
G1 Y17.761
G2 X224.794 Y14.448 I-3.525 J0
G1 X216.162 Y17.59
G3 X215.525 Y17.144 I-0.162 J-0.446
G1 Y0
G2 X214 Y-1.525 I-1.525 J0
G1 X29.297
Z-5.677 F333.3
X14 F500
G2 X12.475 Y0 I0 J1.525
G1 Y17.144
G3 X11.838 Y17.59 I-0.475 J0
G1 X3.206 Y14.448
G2 X-1.525 Y17.761 I-1.206 J3.312
G1 Y52.239
G2 X3.206 Y55.552 I3.525 J0
G1 X11.838 Y52.41
G3 X12.475 Y52.856 I0.162 J0.446
G1 Y70
G2 X14 Y71.525 I1.525 J0
G1 X107.8
G2 X109.325 Y70 I0 J-1.525
G1 Y38.05
G2 X107.8 Y36.525 I-1.525 J0
G1 X107.725
Y36.375
X120.275
Y36.525
X120.2
G2 X118.675 Y38.05 I0 J1.525
G1 Y70
G2 X120.2 Y71.525 I1.525 J0
G1 X214
G2 X215.525 Y70 I0 J-1.525
G1 Y52.856
G3 X216.162 Y52.41 I0.475 J0
G1 X224.794 Y55.552
G2 X229.525 Y52.239 I1.206 J-3.312
G1 Y17.761
G2 X224.794 Y14.448 I-3.525 J0
G1 X216.162 Y17.59
G3 X215.525 Y17.144 I-0.162 J-0.446
G1 Y0
G2 X214 Y-1.525 I-1.525 J0
G1 X29.297
Z-6.623 F333.3
X14 F500
G2 X12.475 Y0 I0 J1.525
G1 Y17.144
G3 X11.838 Y17.59 I-0.475 J0
G1 X3.206 Y14.448
G2 X-1.525 Y17.761 I-1.206 J3.312
G1 Y52.239
G2 X3.206 Y55.552 I3.525 J0
G1 X11.838 Y52.41
G3 X12.475 Y52.856 I0.162 J0.446
G1 Y70
G2 X14 Y71.525 I1.525 J0
G1 X107.8
G2 X109.325 Y70 I0 J-1.525
G1 Y38.05
G2 X107.8 Y36.525 I-1.525 J0
G1 X107.725
Y36.375
X120.275
Y36.525
X120.2
G2 X118.675 Y38.05 I0 J1.525
G1 Y70
G2 X120.2 Y71.525 I1.525 J0
G1 X214
G2 X215.525 Y70 I0 J-1.525
G1 Y52.856
G3 X216.162 Y52.41 I0.475 J0
G1 X224.794 Y55.552
G2 X229.525 Y52.239 I1.206 J-3.312
G1 Y17.761
G2 X224.794 Y14.448 I-3.525 J0
G1 X216.162 Y17.59
G3 X215.525 Y17.144 I-0.162 J-0.446
G1 Y0
G2 X214 Y-1.525 I-1.525 J0
G1 X29.297
Z-7.569 F333.3
X14 F500
G2 X12.475 Y0 I0 J1.525
G1 Y17.144
G3 X11.838 Y17.59 I-0.475 J0
G1 X3.206 Y14.448
G2 X-1.525 Y17.761 I-1.206 J3.312
G1 Y52.239
G2 X3.206 Y55.552 I3.525 J0
G1 X11.838 Y52.41
G3 X12.475 Y52.856 I0.162 J0.446
G1 Y70
G2 X14 Y71.525 I1.525 J0
G1 X107.8
G2 X109.325 Y70 I0 J-1.525
G1 Y38.05
G2 X107.8 Y36.525 I-1.525 J0
G1 X107.725
Y36.375
X120.275
Y36.525
X120.2
G2 X118.675 Y38.05 I0 J1.525
G1 Y70
G2 X120.2 Y71.525 I1.525 J0
G1 X214
G2 X215.525 Y70 I0 J-1.525
G1 Y52.856
G3 X216.162 Y52.41 I0.475 J0
G1 X224.794 Y55.552
G2 X229.525 Y52.239 I1.206 J-3.312
G1 Y17.761
G2 X224.794 Y14.448 I-3.525 J0
G1 X216.162 Y17.59
G3 X215.525 Y17.144 I-0.162 J-0.446
G1 Y0
G2 X214 Y-1.525 I-1.525 J0
G1 X29.297
Z-8.515 F333.3
X14 F500
G2 X12.475 Y0 I0 J1.525
G1 Y17.144
G3 X11.838 Y17.59 I-0.475 J0
G1 X3.206 Y14.448
G2 X-1.525 Y17.761 I-1.206 J3.312
G1 Y52.239
G2 X3.206 Y55.552 I3.525 J0
G1 X11.838 Y52.41
G3 X12.475 Y52.856 I0.162 J0.446
G1 Y70
G2 X14 Y71.525 I1.525 J0
G1 X107.8
G2 X109.325 Y70 I0 J-1.525
G1 Y38.05
G2 X107.8 Y36.525 I-1.525 J0
G1 X107.725
Y36.375
X120.275
Y36.525
X120.2
G2 X118.675 Y38.05 I0 J1.525
G1 Y70
G2 X120.2 Y71.525 I1.525 J0
G1 X214
G2 X215.525 Y70 I0 J-1.525
G1 Y52.856
G3 X216.162 Y52.41 I0.475 J0
G1 X224.794 Y55.552
G2 X229.525 Y52.239 I1.206 J-3.312
G1 Y17.761
G2 X224.794 Y14.448 I-3.525 J0
G1 X216.162 Y17.59
G3 X215.525 Y17.144 I-0.162 J-0.446
G1 Y0
G2 X214 Y-1.525 I-1.525 J0
G1 X29.297
Z-9.462 F333.3
X14 F500
G2 X12.475 Y0 I0 J1.525
G1 Y17.144
G3 X11.838 Y17.59 I-0.475 J0
G1 X3.206 Y14.448
G2 X-1.525 Y17.761 I-1.206 J3.312
