(1111_tab_test_27bit_1mm_down)
(T1  D=2.7 CR=0 - ZMIN=-12.3 - flat end mill)
G90 G94
G17
G21
(When using Fusion 360 for Personal Use, the feedrate of)
(rapid moves is reduced to match the feedrate of cutting)
(moves, which can increase machining time. Unrestricted rapid)
(moves are available with a Fusion 360 Subscription.)

(2D Pocket1)
T1
S5000 M3
G54
G0 X35.347 Y25.252
Z10
G1 Z5 F1000
Z2.06 F333.3
Z-0.992 F1000
X35.34 Y25.245
X35.32 Y25.225
G3 X35.32 Y24.775 I0.221 J-0.225
G1 X35.34 Y24.755
X35.346 Y24.741
X35.374 Y22.611
X35.368 Y22.596
X35.353 Y22.59
X35.339 Y22.597
G3 X33.064 Y24.821 I-17.423 J-15.551
G2 X33.064 Y25.179 I0.153 J0.179
G3 X35.34 Y27.387 I-14.936 J17.677
G1 X35.345 Y27.4
X35.376 Y29.7
X35.369 Y29.715
X35.354 Y29.721
X35.34 Y29.713
G2 X30.595 Y25.143 I-17.233 J13.143
G3 X30.595 Y24.857 I0.102 J-0.143
G2 X35.339 Y20.257 I-12.658 J-17.801
G1 X35.344 Y20.245
X35.377 Y17.626
X35.37 Y17.611
X35.354 Y17.606
X35.34 Y17.616
G3 X27.821 Y24.847 I-17.382 J-10.549
G2 X27.821 Y25.153 I0.085 J0.153
G3 X35.34 Y32.344 I-9.734 J17.703
G1 X35.343 Y32.355
X35.378 Y35.597
X35.374 Y35.61
X35.362 Y35.617
X35.349 Y35.615
X35.34 Y35.605
G2 X24.106 Y25.123 I-17.273 J7.251
G1 X24.07 Y25.104
X24.042 Y25.076
X24.024 Y25.04
X24.018 Y25
X24.024 Y24.96
X24.042 Y24.924
X24.07 Y24.896
X24.106 Y24.877
G2 X35.34 Y14.35 I-6.128 J-17.796
G1 X35.341 Y14.342
X35.349 Y7.307
X35.343 Y7.292
X35.329 Y7.286
X35.315 Y7.292
X35.309 Y7.306
G3 X21.599 Y24.029 I-17.321 J-0.218
G2 X21.265 Y24.442 I0.088 J0.413
G1 Y25.558
G2 X21.599 Y25.971 I0.422 J0
G3 X35.309 Y42.69 I-3.542 J16.886
G1 X35.306 Y42.7
X33.854 Y45.048
X33.841 Y45.057
X33.824 Y45.052
X33.817 Y45.037
X33.82 Y42.856
G2 X20.049 Y27.215 I-15.768 J0
G3 X19.775 Y26.902 I0.041 J-0.313
G1 Y23.098
G3 X20.049 Y22.785 I0.315 J0
G2 X33.82 Y7.144 I-2.056 J-15.693
G1 X33.817 Y4.963
X33.814 Y4.951
X33.804 Y4.944
X32.354 Y4.421
X32.341
X32.331 Y4.428
X32.327 Y4.44
X32.33 Y7.144
G3 X18.587 Y21.417 I-14.332 J-0.047
G2 X18.285 Y21.732 I0.013 J0.315
G1 Y28.268
G2 X18.587 Y28.583 I0.315 J0
G3 X32.33 Y42.856 I-0.541 J14.273
G1 X32.327 Y45.56
X32.32 Y45.575
X32.304 Y45.58
X30.855 Y45.39
X30.842 Y45.383
X30.837 Y45.37
X30.84 Y42.856
G2 X17.048 Y30.097 I-12.798 J0
G3 X16.795 Y29.862 I-0.018 J-0.235
G1 Y20.138
G3 X17.048 Y19.903 I0.235 J0
G2 X30.84 Y7.144 I0.955 J-12.801
G1 X30.837 Y4.63
X30.833 Y4.618
X30.823 Y4.611
X30.81
X29.361 Y5.153
X29.352 Y5.16
X29.348 Y5.172
X29.35 Y7.144
G3 X15.59 Y18.189 I-11.342 J-0.036
G2 X15.305 Y18.419 I-0.05 J0.23
G1 Y31.581
G2 X15.59 Y31.811 I0.235 J0
G3 X29.35 Y42.856 I2.447 J11.045
G1 X29.348 Y44.828
X29.344 Y44.84
X29.334 Y44.847
X29.321 Y44.846
X27.872 Y44.304
X27.862 Y44.297
X27.859 Y44.285
X27.86 Y42.856
G2 X14.637 Y33.616 I-9.84 J0
X14.372 Y33.722 I1.562 J4.291
G3 X14.107 Y33.828 I-1.827 J-4.185
X13.815 Y33.624 I-0.074 J-0.205
G1 Y16.376
G3 X14.107 Y16.172 I0.218 J0
X14.372 Y16.278 I-1.562 J4.292
G2 X14.637 Y16.384 I1.826 J-4.184
X27.86 Y7.144 I3.37 J-9.259
G1 X27.859 Y5.714
X27.855 Y5.702
X27.844 Y5.695
X27.832
X26.382 Y6.238
X26.373 Y6.246
X26.369 Y6.257
X26.37 Y7.144
G3 X15.137 Y15.009 I-8.37 J0
X13.877 Y14.526 I13.824 J-37.983
G2 X12.617 Y14.044 I-15.098 J37.537
X12.325 Y14.248 I-0.074 J0.205
G1 Y35.752
G2 X12.617 Y35.956 I0.218 J0
X13.877 Y35.474 I-13.837 J-38.016
G3 X15.137 Y34.991 I15.097 J37.534
X26.37 Y42.856 I2.863 J7.865
G1 X26.369 Y43.743
X26.365 Y43.755
X26.355 Y43.762
X26.342
X24.893 Y43.22
X24.883 Y43.212
X24.88 Y43.201
Y42.856
G2 X15.647 Y36.391 I-6.88 J0
X13.387 Y37.238 I44.26 J121.603
G3 X11.127 Y38.084 I-46.52 J-120.757
X10.835 Y37.879 I-0.074 J-0.205
G1 Y12.121
G3 X11.127 Y11.916 I0.218 J0
X13.387 Y12.762 I-44.26 J121.604
G2 X15.647 Y13.609 I46.52 J-120.757
X24.88 Y7.144 I2.353 J-6.465
G1 Y6.799
X24.876 Y6.787
X24.865 Y6.78
X24.853
X23.399 Y7.324
X23.39 Y7.331
X23.386 Y7.342
G3 X16.157 Y12.209 I-5.386 J-0.198
G1 X9.637 Y9.788
G2 X9.345 Y9.993 I-0.074 J0.205
G1 Y40.007
G2 X9.637 Y40.212 I0.218 J0
G1 X16.157 Y37.791
G3 X23.386 Y42.658 I1.843 J5.065
G1 X23.383 Y42.67
X23.373 Y42.677
X23.361 Y42.678
X21.813 Y42.247
X21.804 Y42.241
X21.799 Y42.231
G2 X16.683 Y39.238 I-3.799 J0.625
G1 X8.051 Y42.38
X8.004 Y42.389
X7.957 Y42.383
X7.914 Y42.362
X7.88 Y42.329
X7.858 Y42.286
X7.85 Y42.239
Y7.761
X7.858 Y7.714
X7.88 Y7.671
X7.914 Y7.638
X7.957 Y7.617
X8.004 Y7.611
X8.051 Y7.62
X16.683 Y10.762
G2 X21.799 Y7.768 I1.317 J-3.618
G1 X21.807 Y7.755
X21.821 Y7.752
X21.834 Y7.759
X35.349 Y24.721
X35.353 Y24.735
X35.347 Y24.748
Z-1.983
X35.34 Y24.755
X35.32 Y24.775
G2 X35.32 Y25.225 I0.221 J0.225
G1 X35.34 Y25.245
X35.346 Y25.259
X35.375 Y27.373
X35.369 Y27.388
X35.354 Y27.393
X35.34 Y27.387
G2 X33.064 Y25.179 I-17.212 J15.47
G3 X33.064 Y24.821 I0.153 J-0.179
G2 X35.339 Y22.597 I-15.147 J-17.775
G1 X35.344 Y22.584
X35.375 Y20.27
X35.369 Y20.255
X35.354 Y20.249
X35.339 Y20.257
G3 X30.595 Y24.857 I-17.402 J-13.201
G2 X30.595 Y25.143 I0.102 J0.143
G3 X35.34 Y29.713 I-12.489 J17.714
G1 X35.344 Y29.725
X35.377 Y32.334
X35.37 Y32.349
X35.354 Y32.354
X35.34 Y32.344
G2 X27.821 Y25.153 I-17.253 J10.512
G3 X27.821 Y24.847 I0.085 J-0.153
G2 X35.34 Y17.616 I-9.864 J-17.78
G1 X35.343 Y17.606
X35.378 Y14.358
X35.374 Y14.345
X35.362 Y14.338
X35.349 Y14.34
X35.34 Y14.35
G3 X24.106 Y24.877 I-17.361 J-7.269
G1 X24.07 Y24.896
X24.042 Y24.924
X24.024 Y24.96
X24.018 Y25
X24.024 Y25.04
X24.042 Y25.076
X24.07 Y25.104
X24.106 Y25.123
G3 X35.34 Y35.605 I-6.039 J17.733
G1 X35.341 Y35.613
X35.349 Y42.69
X35.343 Y42.704
X35.329 Y42.71
X35.315 Y42.704
X35.309 Y42.69
G2 X21.599 Y25.971 I-17.252 J0.167
G3 X21.265 Y25.558 I0.088 J-0.413
G1 Y24.442
G3 X21.599 Y24.029 I0.422 J0
G2 X35.309 Y7.306 I-3.611 J-16.941
G1 X35.306 Y7.295
X33.854 Y4.952
X33.841 Y4.943
X33.824 Y4.948
X33.817 Y4.963
X33.82 Y7.144
G3 X20.049 Y22.785 I-15.827 J-0.051
G2 X19.775 Y23.098 I0.041 J0.313
G1 Y26.902
G2 X20.049 Y27.215 I0.315 J0
G3 X33.82 Y42.856 I-1.998 J15.641
G1 X33.817 Y45.037
X33.814 Y45.049
X33.804 Y45.056
X32.354 Y45.579
X32.341
X32.331 Y45.572
X32.327 Y45.56
X32.33 Y42.856
G2 X18.587 Y28.583 I-14.283 J0
G3 X18.285 Y28.268 I0.013 J-0.315
G1 Y21.732
G3 X18.587 Y21.417 I0.315 J0
G2 X32.33 Y7.144 I-0.589 J-14.32
G1 X32.327 Y4.44
X32.32 Y4.425
X32.304 Y4.42
X30.855 Y4.61
X30.842 Y4.617
X30.837 Y4.63
X30.84 Y7.144
G3 X17.048 Y19.903 I-12.837 J-0.042
G2 X16.795 Y20.138 I-0.018 J0.235
G1 Y29.862
G2 X17.048 Y30.097 I0.235 J0
G3 X30.84 Y42.856 I0.994 J12.76
G1 X30.837 Y45.37
X30.833 Y45.382
X30.823 Y45.389
X30.81
X29.361 Y44.846
X29.352 Y44.839
X29.348 Y44.828
X29.35 Y42.856
G2 X15.59 Y31.811 I-11.313 J0
G3 X15.305 Y31.581 I-0.05 J-0.23
G1 Y18.419
G3 X15.59 Y18.189 I0.235 J0
G2 X29.35 Y7.144 I2.418 J-11.082
G1 X29.348 Y5.172
X29.344 Y5.16
X29.334 Y5.153
X29.321
X27.872 Y5.695
X27.862 Y5.702
X27.859 Y5.714
X27.86 Y7.144
G3 X14.637 Y16.384 I-9.853 J-0.019
X14.372 Y16.278 I1.561 J-4.29
G2 X14.107 Y16.172 I-1.827 J4.186
X13.815 Y16.376 I-0.074 J0.205
G1 Y33.624
G2 X14.107 Y33.828 I0.218 J0
X14.372 Y33.722 I-1.562 J-4.291
G3 X14.637 Y33.616 I1.827 J4.185
X27.86 Y42.856 I3.383 J9.24
G1 X27.859 Y44.285
X27.855 Y44.297
X27.844 Y44.305
X27.832 Y44.304
X26.382 Y43.762
X26.373 Y43.755
X26.369 Y43.743
X26.37 Y42.856
G2 X15.137 Y34.991 I-8.37 J0
X13.877 Y35.474 I13.837 J38.016
G3 X12.617 Y35.956 I-15.097 J-37.534
X12.325 Y35.752 I-0.074 J-0.205
G1 Y14.248
G3 X12.617 Y14.044 I0.218 J0
X13.877 Y14.526 I-13.838 J38.02
G2 X15.137 Y15.009 I15.084 J-37.5
X26.37 Y7.144 I2.863 J-7.865
G1 X26.369 Y6.257
X26.365 Y6.245
X26.355 Y6.238
X26.342
X24.893 Y6.78
X24.883 Y6.788
X24.88 Y6.799
Y7.144
G3 X15.647 Y13.609 I-6.88 J0
X13.387 Y12.762 I44.26 J-121.604
G2 X11.127 Y11.916 I-46.52 J120.757
X10.835 Y12.121 I-0.074 J0.205
G1 Y37.879
G2 X11.127 Y38.084 I0.218 J0
X13.387 Y37.238 I-44.26 J-121.603
G3 X15.647 Y36.391 I46.52 J120.757
X24.88 Y42.856 I2.353 J6.465
G1 Y43.201
X24.876 Y43.213
X24.865 Y43.22
X24.853
X23.399 Y42.676
X23.39 Y42.669
X23.386 Y42.658
G2 X16.157 Y37.791 I-5.386 J0.199
G1 X9.637 Y40.212
G3 X9.345 Y40.007 I-0.074 J-0.205
G1 Y9.993
G3 X9.637 Y9.788 I0.218 J0
G1 X16.157 Y12.209
G2 X23.386 Y7.342 I1.843 J-5.065
G1 X23.383 Y7.33
X23.373 Y7.323
X23.361 Y7.322
X21.813 Y7.752
X21.804 Y7.758
X21.799 Y7.768
G3 X16.683 Y10.762 I-3.799 J-0.624
G1 X8.051 Y7.62
X8.004 Y7.611
X7.957 Y7.617
X7.914 Y7.638
X7.88 Y7.671
X7.858 Y7.714
X7.85 Y7.761
Y42.239
X7.858 Y42.286
X7.88 Y42.329
X7.914 Y42.362
X7.957 Y42.383
X8.004 Y42.389
X8.051 Y42.38
X16.683 Y39.238
G3 X21.799 Y42.231 I1.317 J3.618
G1 X21.807 Y42.244
X21.821 Y42.248
X21.834 Y42.24
X35.349 Y25.279
X35.353 Y25.265
X35.347 Y25.252
Z-2.975
X35.34 Y25.245
X35.32 Y25.225
G3 X35.32 Y24.775 I0.221 J-0.225
G1 X35.34 Y24.755
X35.346 Y24.741
X35.374 Y22.611
X35.368 Y22.596
X35.353 Y22.59
X35.339 Y22.597
G3 X33.064 Y24.821 I-17.423 J-15.551
G2 X33.064 Y25.179 I0.153 J0.179
G3 X35.34 Y27.387 I-14.936 J17.677
G1 X35.345 Y27.4
X35.376 Y29.7
X35.369 Y29.715
X35.354 Y29.721
X35.34 Y29.713
G2 X30.595 Y25.143 I-17.233 J13.143
G3 X30.595 Y24.857 I0.102 J-0.143
G2 X35.339 Y20.257 I-12.658 J-17.801
G1 X35.344 Y20.245
X35.377 Y17.626
X35.37 Y17.611
X35.354 Y17.606
X35.34 Y17.616
G3 X27.821 Y24.847 I-17.382 J-10.549
G2 X27.821 Y25.153 I0.085 J0.153
G3 X35.34 Y32.344 I-9.734 J17.703
G1 X35.343 Y32.355
X35.378 Y35.597
X35.374 Y35.61
X35.362 Y35.617
X35.349 Y35.615
X35.34 Y35.605
G2 X24.106 Y25.123 I-17.273 J7.251
G1 X24.07 Y25.104
X24.042 Y25.076
X24.024 Y25.04
X24.018 Y25
X24.024 Y24.96
X24.042 Y24.924
X24.07 Y24.896
X24.106 Y24.877
G2 X35.34 Y14.35 I-6.128 J-17.796
G1 X35.341 Y14.342
X35.349 Y7.307
X35.343 Y7.292
X35.329 Y7.286
X35.315 Y7.292
X35.309 Y7.306
G3 X21.599 Y24.029 I-17.321 J-0.218
G2 X21.265 Y24.442 I0.088 J0.413
G1 Y25.558
G2 X21.599 Y25.971 I0.422 J0
G3 X35.309 Y42.69 I-3.542 J16.886
G1 X35.306 Y42.7
X33.854 Y45.048
X33.841 Y45.057
X33.824 Y45.052
X33.817 Y45.037
X33.82 Y42.856
G2 X20.049 Y27.215 I-15.768 J0
G3 X19.775 Y26.902 I0.041 J-0.313
G1 Y23.098
G3 X20.049 Y22.785 I0.315 J0
G2 X33.82 Y7.144 I-2.056 J-15.693
G1 X33.817 Y4.963
X33.814 Y4.951
X33.804 Y4.944
X32.354 Y4.421
X32.341
X32.331 Y4.428
X32.327 Y4.44
X32.33 Y7.144
G3 X18.587 Y21.417 I-14.332 J-0.047
G2 X18.285 Y21.732 I0.013 J0.315
G1 Y28.268
G2 X18.587 Y28.583 I0.315 J0
G3 X32.33 Y42.856 I-0.541 J14.273
G1 X32.327 Y45.56
X32.32 Y45.575
X32.304 Y45.58
X30.855 Y45.39
X30.842 Y45.383
X30.837 Y45.37
X30.84 Y42.856
G2 X17.048 Y30.097 I-12.798 J0
G3 X16.795 Y29.862 I-0.018 J-0.235
G1 Y20.138
G3 X17.048 Y19.903 I0.235 J0
G2 X30.84 Y7.144 I0.955 J-12.801
G1 X30.837 Y4.63
X30.833 Y4.618
X30.823 Y4.611
X30.81
X29.361 Y5.153
X29.352 Y5.16
X29.348 Y5.172
X29.35 Y7.144
G3 X15.59 Y18.189 I-11.342 J-0.036
G2 X15.305 Y18.419 I-0.05 J0.23
G1 Y31.581
G2 X15.59 Y31.811 I0.235 J0
G3 X29.35 Y42.856 I2.447 J11.045
G1 X29.348 Y44.828
X29.344 Y44.84
X29.334 Y44.847
X29.321 Y44.846
X27.872 Y44.304
X27.862 Y44.297
X27.859 Y44.285
X27.86 Y42.856
G2 X14.637 Y33.616 I-9.84 J0
X14.372 Y33.722 I1.562 J4.291
G3 X14.107 Y33.828 I-1.827 J-4.185
X13.815 Y33.624 I-0.074 J-0.205
G1 Y16.376
G3 X14.107 Y16.172 I0.218 J0
X14.372 Y16.278 I-1.562 J4.292
G2 X14.637 Y16.384 I1.826 J-4.184
X27.86 Y7.144 I3.37 J-9.259
G1 X27.859 Y5.714
X27.855 Y5.702
X27.844 Y5.695
X27.832
X26.382 Y6.238
X26.373 Y6.246
X26.369 Y6.257
X26.37 Y7.144
G3 X15.137 Y15.009 I-8.37 J0
X13.877 Y14.526 I13.824 J-37.983
G2 X12.617 Y14.044 I-15.098 J37.537
X12.325 Y14.248 I-0.074 J0.205
G1 Y35.752
G2 X12.617 Y35.956 I0.218 J0
X13.877 Y35.474 I-13.837 J-38.016
G3 X15.137 Y34.991 I15.097 J37.534
X26.37 Y42.856 I2.863 J7.865
G1 X26.369 Y43.743
X26.365 Y43.755
X26.355 Y43.762
X26.342
X24.893 Y43.22
X24.883 Y43.212
X24.88 Y43.201
Y42.856
G2 X15.647 Y36.391 I-6.88 J0
X13.387 Y37.238 I44.26 J121.603
G3 X11.127 Y38.084 I-46.52 J-120.757
X10.835 Y37.879 I-0.074 J-0.205
G1 Y12.121
G3 X11.127 Y11.916 I0.218 J0
X13.387 Y12.762 I-44.26 J121.604
G2 X15.647 Y13.609 I46.52 J-120.757
X24.88 Y7.144 I2.353 J-6.465
G1 Y6.799
X24.876 Y6.787
X24.865 Y6.78
X24.853
X23.399 Y7.324
X23.39 Y7.331
X23.386 Y7.342
G3 X16.157 Y12.209 I-5.386 J-0.198
G1 X9.637 Y9.788
G2 X9.345 Y9.993 I-0.074 J0.205
G1 Y40.007
G2 X9.637 Y40.212 I0.218 J0
G1 X16.157 Y37.791
G3 X23.386 Y42.658 I1.843 J5.065
G1 X23.383 Y42.67
X23.373 Y42.677
X23.361 Y42.678
X21.813 Y42.247
X21.804 Y42.241
X21.799 Y42.231
G2 X16.683 Y39.238 I-3.799 J0.625
G1 X8.051 Y42.38
X8.004 Y42.389
X7.957 Y42.383
X7.914 Y42.362
X7.88 Y42.329
X7.858 Y42.286
X7.85 Y42.239
Y7.761
X7.858 Y7.714
X7.88 Y7.671
X7.914 Y7.638
X7.957 Y7.617
X8.004 Y7.611
X8.051 Y7.62
X16.683 Y10.762
G2 X21.799 Y7.768 I1.317 J-3.618
G1 X21.807 Y7.755
X21.821 Y7.752
X21.834 Y7.759
X35.349 Y24.721
X35.353 Y24.735
X35.347 Y24.748
Z-3.967
X35.34 Y24.755
X35.32 Y24.775
G2 X35.32 Y25.225 I0.221 J0.225
G1 X35.34 Y25.245
X35.346 Y25.259
X35.375 Y27.373
X35.369 Y27.388
X35.354 Y27.393
X35.34 Y27.387
G2 X33.064 Y25.179 I-17.212 J15.47
G3 X33.064 Y24.821 I0.153 J-0.179
G2 X35.339 Y22.597 I-15.147 J-17.775
G1 X35.344 Y22.584
X35.375 Y20.27
X35.369 Y20.255
X35.354 Y20.249
X35.339 Y20.257
G3 X30.595 Y24.857 I-17.402 J-13.201
G2 X30.595 Y25.143 I0.102 J0.143
G3 X35.34 Y29.713 I-12.489 J17.714
G1 X35.344 Y29.725
X35.377 Y32.334
X35.37 Y32.349
X35.354 Y32.354
X35.34 Y32.344
G2 X27.821 Y25.153 I-17.253 J10.512
G3 X27.821 Y24.847 I0.085 J-0.153
G2 X35.34 Y17.616 I-9.864 J-17.78
G1 X35.343 Y17.606
X35.378 Y14.358
X35.374 Y14.345
X35.362 Y14.338
X35.349 Y14.34
X35.34 Y14.35
G3 X24.106 Y24.877 I-17.361 J-7.269
G1 X24.07 Y24.896
X24.042 Y24.924
X24.024 Y24.96
X24.018 Y25
X24.024 Y25.04
X24.042 Y25.076
X24.07 Y25.104
X24.106 Y25.123
G3 X35.34 Y35.605 I-6.039 J17.733
G1 X35.341 Y35.613
X35.349 Y42.69
X35.343 Y42.704
X35.329 Y42.71
X35.315 Y42.704
X35.309 Y42.69
G2 X21.599 Y25.971 I-17.252 J0.167
G3 X21.265 Y25.558 I0.088 J-0.413
G1 Y24.442
G3 X21.599 Y24.029 I0.422 J0
G2 X35.309 Y7.306 I-3.611 J-16.941
G1 X35.306 Y7.295
X33.854 Y4.952
X33.841 Y4.943
X33.824 Y4.948
X33.817 Y4.963
X33.82 Y7.144
G3 X20.049 Y22.785 I-15.827 J-0.051
G2 X19.775 Y23.098 I0.041 J0.313
G1 Y26.902
G2 X20.049 Y27.215 I0.315 J0
G3 X33.82 Y42.856 I-1.998 J15.641
G1 X33.817 Y45.037
X33.814 Y45.049
X33.804 Y45.056
X32.354 Y45.579
X32.341
X32.331 Y45.572
X32.327 Y45.56
X32.33 Y42.856
G2 X18.587 Y28.583 I-14.283 J0
G3 X18.285 Y28.268 I0.013 J-0.315
G1 Y21.732
G3 X18.587 Y21.417 I0.315 J0
G2 X32.33 Y7.144 I-0.589 J-14.32
G1 X32.327 Y4.44
X32.32 Y4.425
X32.304 Y4.42
X30.855 Y4.61
X30.842 Y4.617
X30.837 Y4.63
X30.84 Y7.144
G3 X17.048 Y19.903 I-12.837 J-0.042
G2 X16.795 Y20.138 I-0.018 J0.235
G1 Y29.862
G2 X17.048 Y30.097 I0.235 J0
G3 X30.84 Y42.856 I0.994 J12.76
G1 X30.837 Y45.37
X30.833 Y45.382
X30.823 Y45.389
X30.81
X29.361 Y44.846
X29.352 Y44.839
X29.348 Y44.828
X29.35 Y42.856
G2 X15.59 Y31.811 I-11.313 J0
G3 X15.305 Y31.581 I-0.05 J-0.23
G1 Y18.419
G3 X15.59 Y18.189 I0.235 J0
G2 X29.35 Y7.144 I2.418 J-11.082
G1 X29.348 Y5.172
X29.344 Y5.16
X29.334 Y5.153
X29.321
X27.872 Y5.695
X27.862 Y5.702
X27.859 Y5.714
X27.86 Y7.144
G3 X14.637 Y16.384 I-9.853 J-0.019
X14.372 Y16.278 I1.561 J-4.29
G2 X14.107 Y16.172 I-1.827 J4.186
X13.815 Y16.376 I-0.074 J0.205
G1 Y33.624
G2 X14.107 Y33.828 I0.218 J0
X14.372 Y33.722 I-1.562 J-4.291
G3 X14.637 Y33.616 I1.827 J4.185
X27.86 Y42.856 I3.383 J9.24
G1 X27.859 Y44.285
X27.855 Y44.297
X27.844 Y44.305
X27.832 Y44.304
X26.382 Y43.762
X26.373 Y43.755
X26.369 Y43.743
X26.37 Y42.856
G2 X15.137 Y34.991 I-8.37 J0
X13.877 Y35.474 I13.837 J38.016
G3 X12.617 Y35.956 I-15.097 J-37.534
X12.325 Y35.752 I-0.074 J-0.205
G1 Y14.248
G3 X12.617 Y14.044 I0.218 J0
X13.877 Y14.526 I-13.838 J38.02
G2 X15.137 Y15.009 I15.084 J-37.5
X26.37 Y7.144 I2.863 J-7.865
G1 X26.369 Y6.257
X26.365 Y6.245
X26.355 Y6.238
X26.342
X24.893 Y6.78
X24.883 Y6.788
X24.88 Y6.799
Y7.144
G3 X15.647 Y13.609 I-6.88 J0
X13.387 Y12.762 I44.26 J-121.604
G2 X11.127 Y11.916 I-46.52 J120.757
X10.835 Y12.121 I-0.074 J0.205
G1 Y37.879
G2 X11.127 Y38.084 I0.218 J0
X13.387 Y37.238 I-44.26 J-121.603
G3 X15.647 Y36.391 I46.52 J120.757
X24.88 Y42.856 I2.353 J6.465
G1 Y43.201
X24.876 Y43.213
X24.865 Y43.22
X24.853
X23.399 Y42.676
X23.39 Y42.669
X23.386 Y42.658
G2 X16.157 Y37.791 I-5.386 J0.199
G1 X9.637 Y40.212
G3 X9.345 Y40.007 I-0.074 J-0.205
G1 Y9.993
G3 X9.637 Y9.788 I0.218 J0
G1 X16.157 Y12.209
G2 X23.386 Y7.342 I1.843 J-5.065
G1 X23.383 Y7.33
X23.373 Y7.323
X23.361 Y7.322
X21.813 Y7.752
X21.804 Y7.758
X21.799 Y7.768
G3 X16.683 Y10.762 I-3.799 J-0.624
G1 X8.051 Y7.62
X8.004 Y7.611
X7.957 Y7.617
X7.914 Y7.638
X7.88 Y7.671
X7.858 Y7.714
X7.85 Y7.761
Y42.239
X7.858 Y42.286
X7.88 Y42.329
X7.914 Y42.362
X7.957 Y42.383
X8.004 Y42.389
X8.051 Y42.38
X16.683 Y39.238
G3 X21.799 Y42.231 I1.317 J3.618
G1 X21.807 Y42.244
X21.821 Y42.248
X21.834 Y42.24
X35.349 Y25.279
X35.353 Y25.265
X35.347 Y25.252
Z-4.958
X35.34 Y25.245
X35.32 Y25.225
G3 X35.32 Y24.775 I0.221 J-0.225
G1 X35.34 Y24.755
X35.346 Y24.741
X35.374 Y22.611
X35.368 Y22.596
X35.353 Y22.59
X35.339 Y22.597
G3 X33.064 Y24.821 I-17.423 J-15.551
G2 X33.064 Y25.179 I0.153 J0.179
G3 X35.34 Y27.387 I-14.936 J17.677
G1 X35.345 Y27.4
X35.376 Y29.7
X35.369 Y29.715
X35.354 Y29.721
X35.34 Y29.713
G2 X30.595 Y25.143 I-17.233 J13.143
G3 X30.595 Y24.857 I0.102 J-0.143
G2 X35.339 Y20.257 I-12.658 J-17.801
G1 X35.344 Y20.245
X35.377 Y17.626
X35.37 Y17.611
X35.354 Y17.606
X35.34 Y17.616
G3 X27.821 Y24.847 I-17.382 J-10.549
G2 X27.821 Y25.153 I0.085 J0.153
G3 X35.34 Y32.344 I-9.734 J17.703
G1 X35.343 Y32.355
X35.378 Y35.597
X35.374 Y35.61
X35.362 Y35.617
X35.349 Y35.615
X35.34 Y35.605
G2 X24.106 Y25.123 I-17.273 J7.251
G1 X24.07 Y25.104
X24.042 Y25.076
X24.024 Y25.04
X24.018 Y25
X24.024 Y24.96
X24.042 Y24.924
X24.07 Y24.896
X24.106 Y24.877
G2 X35.34 Y14.35 I-6.128 J-17.796
G1 X35.341 Y14.342
X35.349 Y7.307
X35.343 Y7.292
X35.329 Y7.286
X35.315 Y7.292
X35.309 Y7.306
G3 X21.599 Y24.029 I-17.321 J-0.218
G2 X21.265 Y24.442 I0.088 J0.413
G1 Y25.558
G2 X21.599 Y25.971 I0.422 J0
G3 X35.309 Y42.69 I-3.542 J16.886
G1 X35.306 Y42.7
X33.854 Y45.048
X33.841 Y45.057
X33.824 Y45.052
X33.817 Y45.037
X33.82 Y42.856
G2 X20.049 Y27.215 I-15.768 J0
G3 X19.775 Y26.902 I0.041 J-0.313
G1 Y23.098
G3 X20.049 Y22.785 I0.315 J0
G2 X33.82 Y7.144 I-2.056 J-15.693
G1 X33.817 Y4.963
X33.814 Y4.951
X33.804 Y4.944
X32.354 Y4.421
X32.341
X32.331 Y4.428
X32.327 Y4.44
X32.33 Y7.144
G3 X18.587 Y21.417 I-14.332 J-0.047
G2 X18.285 Y21.732 I0.013 J0.315
G1 Y28.268
G2 X18.587 Y28.583 I0.315 J0
G3 X32.33 Y42.856 I-0.541 J14.273
G1 X32.327 Y45.56
X32.32 Y45.575
X32.304 Y45.58
X30.855 Y45.39
X30.842 Y45.383
X30.837 Y45.37
X30.84 Y42.856
G2 X17.048 Y30.097 I-12.798 J0
G3 X16.795 Y29.862 I-0.018 J-0.235
G1 Y20.138
G3 X17.048 Y19.903 I0.235 J0
G2 X30.84 Y7.144 I0.955 J-12.801
G1 X30.837 Y4.63
X30.833 Y4.618
X30.823 Y4.611
X30.81
X29.361 Y5.153
X29.352 Y5.16
X29.348 Y5.172
X29.35 Y7.144
G3 X15.59 Y18.189 I-11.342 J-0.036
G2 X15.305 Y18.419 I-0.05 J0.23
G1 Y31.581
G2 X15.59 Y31.811 I0.235 J0
G3 X29.35 Y42.856 I2.447 J11.045
G1 X29.348 Y44.828
X29.344 Y44.84
X29.334 Y44.847
X29.321 Y44.846
X27.872 Y44.304
X27.862 Y44.297
X27.859 Y44.285
X27.86 Y42.856
G2 X14.637 Y33.616 I-9.84 J0
X14.372 Y33.722 I1.562 J4.291
G3 X14.107 Y33.828 I-1.827 J-4.185
X13.815 Y33.624 I-0.074 J-0.205
G1 Y16.376
G3 X14.107 Y16.172 I0.218 J0
X14.372 Y16.278 I-1.562 J4.292
G2 X14.637 Y16.384 I1.826 J-4.184
X27.86 Y7.144 I3.37 J-9.259
G1 X27.859 Y5.714
X27.855 Y5.702
X27.844 Y5.695
X27.832
X26.382 Y6.238
X26.373 Y6.246
X26.369 Y6.257
X26.37 Y7.144
G3 X15.137 Y15.009 I-8.37 J0
X13.877 Y14.526 I13.824 J-37.983
G2 X12.617 Y14.044 I-15.098 J37.537
X12.325 Y14.248 I-0.074 J0.205
G1 Y35.752
G2 X12.617 Y35.956 I0.218 J0
X13.877 Y35.474 I-13.837 J-38.016
G3 X15.137 Y34.991 I15.097 J37.534
X26.37 Y42.856 I2.863 J7.865
G1 X26.369 Y43.743
X26.365 Y43.755
X26.355 Y43.762
X26.342
X24.893 Y43.22
X24.883 Y43.212
X24.88 Y43.201
Y42.856
G2 X15.647 Y36.391 I-6.88 J0
X13.387 Y37.238 I44.26 J121.603
G3 X11.127 Y38.084 I-46.52 J-120.757
X10.835 Y37.879 I-0.074 J-0.205
G1 Y12.121
G3 X11.127 Y11.916 I0.218 J0
X13.387 Y12.762 I-44.26 J121.604
G2 X15.647 Y13.609 I46.52 J-120.757
X24.88 Y7.144 I2.353 J-6.465
G1 Y6.799
X24.876 Y6.787
X24.865 Y6.78
X24.853
X23.399 Y7.324
X23.39 Y7.331
X23.386 Y7.342
G3 X16.157 Y12.209 I-5.386 J-0.198
G1 X9.637 Y9.788
G2 X9.345 Y9.993 I-0.074 J0.205
G1 Y40.007
G2 X9.637 Y40.212 I0.218 J0
G1 X16.157 Y37.791
G3 X23.386 Y42.658 I1.843 J5.065
G1 X23.383 Y42.67
X23.373 Y42.677
X23.361 Y42.678
X21.813 Y42.247
X21.804 Y42.241
X21.799 Y42.231
G2 X16.683 Y39.238 I-3.799 J0.625
G1 X8.051 Y42.38
X8.004 Y42.389
X7.957 Y42.383
X7.914 Y42.362
X7.88 Y42.329
X7.858 Y42.286
X7.85 Y42.239
Y7.761
X7.858 Y7.714
X7.88 Y7.671
X7.914 Y7.638
X7.957 Y7.617
X8.004 Y7.611
X8.051 Y7.62
X16.683 Y10.762
G2 X21.799 Y7.768 I1.317 J-3.618
G1 X21.807 Y7.755
X21.821 Y7.752
X21.834 Y7.759
X35.349 Y24.721
X35.353 Y24.735
X35.347 Y24.748
Z-5.95
X35.34 Y24.755
X35.32 Y24.775
G2 X35.32 Y25.225 I0.221 J0.225
G1 X35.34 Y25.245
X35.346 Y25.259
X35.375 Y27.373
X35.369 Y27.388
X35.354 Y27.393
X35.34 Y27.387
G2 X33.064 Y25.179 I-17.212 J15.47
G3 X33.064 Y24.821 I0.153 J-0.179
G2 X35.339 Y22.597 I-15.147 J-17.775
G1 X35.344 Y22.584
X35.375 Y20.27
X35.369 Y20.255
X35.354 Y20.249
X35.339 Y20.257
G3 X30.595 Y24.857 I-17.402 J-13.201
G2 X30.595 Y25.143 I0.102 J0.143
G3 X35.34 Y29.713 I-12.489 J17.714
G1 X35.344 Y29.725
X35.377 Y32.334
X35.37 Y32.349
X35.354 Y32.354
X35.34 Y32.344
G2 X27.821 Y25.153 I-17.253 J10.512
G3 X27.821 Y24.847 I0.085 J-0.153
G2 X35.34 Y17.616 I-9.864 J-17.78
G1 X35.343 Y17.606
X35.378 Y14.358
X35.374 Y14.345
X35.362 Y14.338
X35.349 Y14.34
X35.34 Y14.35
G3 X24.106 Y24.877 I-17.361 J-7.269
G1 X24.07 Y24.896
X24.042 Y24.924
X24.024 Y24.96
X24.018 Y25
X24.024 Y25.04
X24.042 Y25.076
X24.07 Y25.104
X24.106 Y25.123
G3 X35.34 Y35.605 I-6.039 J17.733
G1 X35.341 Y35.613
X35.349 Y42.69
X35.343 Y42.704
X35.329 Y42.71
X35.315 Y42.704
X35.309 Y42.69
G2 X21.599 Y25.971 I-17.252 J0.167
G3 X21.265 Y25.558 I0.088 J-0.413
G1 Y24.442
G3 X21.599 Y24.029 I0.422 J0
G2 X35.309 Y7.306 I-3.611 J-16.941
G1 X35.306 Y7.295
X33.854 Y4.952
X33.841 Y4.943
X33.824 Y4.948
X33.817 Y4.963
X33.82 Y7.144
G3 X20.049 Y22.785 I-15.827 J-0.051
G2 X19.775 Y23.098 I0.041 J0.313
G1 Y26.902
G2 X20.049 Y27.215 I0.315 J0
G3 X33.82 Y42.856 I-1.998 J15.641
G1 X33.817 Y45.037
X33.814 Y45.049
X33.804 Y45.056
X32.354 Y45.579
X32.341
X32.331 Y45.572
X32.327 Y45.56
X32.33 Y42.856
G2 X18.587 Y28.583 I-14.283 J0
G3 X18.285 Y28.268 I0.013 J-0.315
G1 Y21.732
G3 X18.587 Y21.417 I0.315 J0
G2 X32.33 Y7.144 I-0.589 J-14.32
G1 X32.327 Y4.44
X32.32 Y4.425
X32.304 Y4.42
X30.855 Y4.61
X30.842 Y4.617
X30.837 Y4.63
X30.84 Y7.144
G3 X17.048 Y19.903 I-12.837 J-0.042
G2 X16.795 Y20.138 I-0.018 J0.235
G1 Y29.862
G2 X17.048 Y30.097 I0.235 J0
G3 X30.84 Y42.856 I0.994 J12.76
G1 X30.837 Y45.37
X30.833 Y45.382
X30.823 Y45.389
X30.81
X29.361 Y44.846
X29.352 Y44.839
X29.348 Y44.828
X29.35 Y42.856
G2 X15.59 Y31.811 I-11.313 J0
G3 X15.305 Y31.581 I-0.05 J-0.23
G1 Y18.419
G3 X15.59 Y18.189 I0.235 J0
G2 X29.35 Y7.144 I2.418 J-11.082
G1 X29.348 Y5.172
X29.344 Y5.16
X29.334 Y5.153
X29.321
X27.872 Y5.695
X27.862 Y5.702
X27.859 Y5.714
X27.86 Y7.144
G3 X14.637 Y16.384 I-9.853 J-0.019
X14.372 Y16.278 I1.561 J-4.29
G2 X14.107 Y16.172 I-1.827 J4.186
X13.815 Y16.376 I-0.074 J0.205
G1 Y33.624
G2 X14.107 Y33.828 I0.218 J0
X14.372 Y33.722 I-1.562 J-4.291
G3 X14.637 Y33.616 I1.827 J4.185
X27.86 Y42.856 I3.383 J9.24
G1 X27.859 Y44.285
X27.855 Y44.297
X27.844 Y44.305
X27.832 Y44.304
X26.382 Y43.762
X26.373 Y43.755
X26.369 Y43.743
X26.37 Y42.856
G2 X15.137 Y34.991 I-8.37 J0
X13.877 Y35.474 I13.837 J38.016
G3 X12.617 Y35.956 I-15.097 J-37.534
X12.325 Y35.752 I-0.074 J-0.205
G1 Y14.248
G3 X12.617 Y14.044 I0.218 J0
X13.877 Y14.526 I-13.838 J38.02
G2 X15.137 Y15.009 I15.084 J-37.5
X26.37 Y7.144 I2.863 J-7.865
G1 X26.369 Y6.257
X26.365 Y6.245
X26.355 Y6.238
X26.342
X24.893 Y6.78
X24.883 Y6.788
X24.88 Y6.799
Y7.144
G3 X15.647 Y13.609 I-6.88 J0
X13.387 Y12.762 I44.26 J-121.604
G2 X11.127 Y11.916 I-46.52 J120.757
X10.835 Y12.121 I-0.074 J0.205
G1 Y37.879
G2 X11.127 Y38.084 I0.218 J0
X13.387 Y37.238 I-44.26 J-121.603
G3 X15.647 Y36.391 I46.52 J120.757
X24.88 Y42.856 I2.353 J6.465
G1 Y43.201
X24.876 Y43.213
X24.865 Y43.22
X24.853
X23.399 Y42.676
X23.39 Y42.669
X23.386 Y42.658
G2 X16.157 Y37.791 I-5.386 J0.199
G1 X9.637 Y40.212
G3 X9.345 Y40.007 I-0.074 J-0.205
G1 Y9.993
G3 X9.637 Y9.788 I0.218 J0
G1 X16.157 Y12.209
G2 X23.386 Y7.342 I1.843 J-5.065
G1 X23.383 Y7.33
X23.373 Y7.323
X23.361 Y7.322
X21.813 Y7.752
X21.804 Y7.758
X21.799 Y7.768
G3 X16.683 Y10.762 I-3.799 J-0.624
G1 X8.051 Y7.62
X8.004 Y7.611
X7.957 Y7.617
X7.914 Y7.638
X7.88 Y7.671
X7.858 Y7.714
X7.85 Y7.761
Y42.239
X7.858 Y42.286
X7.88 Y42.329
X7.914 Y42.362
X7.957 Y42.383
X8.004 Y42.389
X8.051 Y42.38
X16.683 Y39.238
G3 X21.799 Y42.231 I1.317 J3.618
G1 X22.018 Y43.563
Z10
(When using Fusion 360 for Personal Use, the feedrate of)
(rapid moves is reduced to match the feedrate of cutting)
(moves, which can increase machining time. Unrestricted rapid)
(moves are available with a Fusion 360 Subscription.)

(2D Contour2 2)
G0 X21.53 Y42.856
G1 Z10 F1000
Z5
Z2.06 F333.3
Z-0.992
G2 X16.793 Y39.539 I-3.53 J0 F1000
G1 X8.161 Y42.681
G3 X7.53 Y42.239 I-0.161 J-0.442
G1 Y7.761
G3 X8.161 Y7.319 I0.47 J0
G1 X16.793 Y10.461
G2 X21.53 Y7.144 I1.207 J-3.317
G1 Z5
Y42.856
Z1.068 F333.3
Z-1.983
G2 X16.793 Y39.539 I-3.53 J0 F1000
G1 X8.161 Y42.681
G3 X7.53 Y42.239 I-0.161 J-0.442
G1 Y7.761
G3 X8.161 Y7.319 I0.47 J0
G1 X16.793 Y10.461
G2 X21.53 Y7.144 I1.207 J-3.317
G1 Z5
Y42.856
Z0.077 F333.3
Z-2.975
G2 X16.793 Y39.539 I-3.53 J0 F1000
G1 X8.161 Y42.681
G3 X7.53 Y42.239 I-0.161 J-0.442
G1 Y7.761
G3 X8.161 Y7.319 I0.47 J0
G1 X16.793 Y10.461
G2 X21.53 Y7.144 I1.207 J-3.317
G1 Z5
Y42.856
Z-0.915 F333.3
Z-3.967
G2 X16.793 Y39.539 I-3.53 J0 F1000
G1 X8.161 Y42.681
G3 X7.53 Y42.239 I-0.161 J-0.442
G1 Y7.761
G3 X8.161 Y7.319 I0.47 J0
G1 X16.793 Y10.461
G2 X21.53 Y7.144 I1.207 J-3.317
G1 Z5
Y42.856
Z-1.907 F333.3
Z-4.958
G2 X16.793 Y39.539 I-3.53 J0 F1000
G1 X8.161 Y42.681
G3 X7.53 Y42.239 I-0.161 J-0.442
G1 Y7.761
G3 X8.161 Y7.319 I0.47 J0
G1 X16.793 Y10.461
G2 X21.53 Y7.144 I1.207 J-3.317
G1 Z5
Y42.856
Z-2.898 F333.3
Z-5.95
G2 X16.793 Y39.539 I-3.53 J0 F1000
G1 X8.161 Y42.681
G3 X7.53 Y42.239 I-0.161 J-0.442
G1 Y7.761
G3 X8.161 Y7.319 I0.47 J0
G1 X16.793 Y10.461
G2 X21.53 Y7.144 I1.207 J-3.317
G1 Z5
X21.35 Y42.856
Z-2.898 F333.3
Z-5.95
G2 X16.854 Y39.708 I-3.35 J0 F1000
G1 X8.222 Y42.85
G3 X7.35 Y42.239 I-0.222 J-0.611
G1 Y7.761
G3 X8.222 Y7.15 I0.65 J0
G1 X16.854 Y10.292
G2 X21.35 Y7.144 I1.146 J-3.148
G1 Z10
(When using Fusion 360 for Personal Use, the feedrate of)
(rapid moves is reduced to match the feedrate of cutting)
(moves, which can increase machining time. Unrestricted rapid)
(moves are available with a Fusion 360 Subscription.)

(2D Contour3 2)
G0 X-1.53 Y0
G1 Z10 F1000
Z5
Z2.02 F333.3
Z-0.946
Y50 F1000
G2 X0 Y51.53 I1.53 J0
G1 X20
G2 X21.53 Y50 I0 J-1.53
G1 Y42.856
G3 X22.161 Y42.415 I0.47 J0
G1 X30.793 Y45.556
G2 X35.53 Y42.239 I1.207 J-3.317
G1 Y7.761
G2 X30.793 Y4.444 I-3.53 J0
G1 X22.161 Y7.585
G3 X21.53 Y7.144 I-0.161 J-0.442
G1 Y0
G2 X20 Y-1.53 I-1.53 J0
G1 X0
G2 X-1.53 Y0 I0 J1.53
G1 Z-1.892 F333.3
Y50 F1000
G2 X0 Y51.53 I1.53 J0
G1 X20
G2 X21.53 Y50 I0 J-1.53
G1 Y42.856
G3 X22.161 Y42.415 I0.47 J0
G1 X30.793 Y45.556
G2 X35.53 Y42.239 I1.207 J-3.317
G1 Y7.761
G2 X30.793 Y4.444 I-3.53 J0
G1 X22.161 Y7.585
G3 X21.53 Y7.144 I-0.161 J-0.442
G1 Y0
G2 X20 Y-1.53 I-1.53 J0
G1 X0
G2 X-1.53 Y0 I0 J1.53
G1 Z-2.838 F333.3
Y50 F1000
G2 X0 Y51.53 I1.53 J0
G1 X20
G2 X21.53 Y50 I0 J-1.53
G1 Y42.856
G3 X22.161 Y42.415 I0.47 J0
G1 X30.793 Y45.556
G2 X35.53 Y42.239 I1.207 J-3.317
G1 Y7.761
G2 X30.793 Y4.444 I-3.53 J0
G1 X22.161 Y7.585
G3 X21.53 Y7.144 I-0.161 J-0.442
G1 Y0
G2 X20 Y-1.53 I-1.53 J0
G1 X0
G2 X-1.53 Y0 I0 J1.53
G1 Z-3.785 F333.3
Y50 F1000
G2 X0 Y51.53 I1.53 J0
G1 X20
G2 X21.53 Y50 I0 J-1.53
G1 Y42.856
G3 X22.161 Y42.415 I0.47 J0
G1 X30.793 Y45.556
G2 X35.53 Y42.239 I1.207 J-3.317
G1 Y7.761
G2 X30.793 Y4.444 I-3.53 J0
G1 X22.161 Y7.585
G3 X21.53 Y7.144 I-0.161 J-0.442
G1 Y0
G2 X20 Y-1.53 I-1.53 J0
G1 X0
G2 X-1.53 Y0 I0 J1.53
G1 Z-4.731 F333.3
Y50 F1000
G2 X0 Y51.53 I1.53 J0
G1 X20
G2 X21.53 Y50 I0 J-1.53
G1 Y42.856
G3 X22.161 Y42.415 I0.47 J0
G1 X30.793 Y45.556
G2 X35.53 Y42.239 I1.207 J-3.317
G1 Y7.761
G2 X30.793 Y4.444 I-3.53 J0
G1 X22.161 Y7.585
G3 X21.53 Y7.144 I-0.161 J-0.442
G1 Y0
G2 X20 Y-1.53 I-1.53 J0
G1 X0
G2 X-1.53 Y0 I0 J1.53
G1 Z-5.677 F333.3
Y50 F1000
G2 X0 Y51.53 I1.53 J0
G1 X20
G2 X21.53 Y50 I0 J-1.53
G1 Y42.856
G3 X22.161 Y42.415 I0.47 J0
G1 X30.793 Y45.556
G2 X35.53 Y42.239 I1.207 J-3.317
G1 Y7.761
G2 X30.793 Y4.444 I-3.53 J0
G1 X22.161 Y7.585
G3 X21.53 Y7.144 I-0.161 J-0.442
G1 Y0
G2 X20 Y-1.53 I-1.53 J0
G1 X0
G2 X-1.53 Y0 I0 J1.53
G1 Z-6.623 F333.3
Y50 F1000
G2 X0 Y51.53 I1.53 J0
G1 X20
G2 X21.53 Y50 I0 J-1.53
G1 Y42.856
G3 X22.161 Y42.415 I0.47 J0
G1 X30.793 Y45.556
G2 X35.53 Y42.239 I1.207 J-3.317
G1 Y7.761
G2 X30.793 Y4.444 I-3.53 J0
G1 X22.161 Y7.585
G3 X21.53 Y7.144 I-0.161 J-0.442
G1 Y0
G2 X20 Y-1.53 I-1.53 J0
G1 X0
G2 X-1.53 Y0 I0 J1.53
G1 Z-7.569 F333.3
Y50 F1000
G2 X0 Y51.53 I1.53 J0
G1 X20
G2 X21.53 Y50 I0 J-1.53
G1 Y42.856
G3 X22.161 Y42.415 I0.47 J0
G1 X30.793 Y45.556
G2 X35.53 Y42.239 I1.207 J-3.317
G1 Y7.761
G2 X30.793 Y4.444 I-3.53 J0
G1 X22.161 Y7.585
G3 X21.53 Y7.144 I-0.161 J-0.442
G1 Y0
G2 X20 Y-1.53 I-1.53 J0
G1 X0
G2 X-1.53 Y0 I0 J1.53
G1 Z-8.515 F333.3
Y50 F1000
G2 X0 Y51.53 I1.53 J0
G1 X20
G2 X21.53 Y50 I0 J-1.53
G1 Y42.856
G3 X22.161 Y42.415 I0.47 J0
G1 X30.793 Y45.556
G2 X35.53 Y42.239 I1.207 J-3.317
G1 Y7.761
G2 X30.793 Y4.444 I-3.53 J0
G1 X22.161 Y7.585
G3 X21.53 Y7.144 I-0.161 J-0.442
G1 Y0
G2 X20 Y-1.53 I-1.53 J0
G1 X0
G2 X-1.53 Y0 I0 J1.53
G1 Z-9.462 F333.3
Y50 F1000
G2 X0 Y51.53 I1.53 J0
G1 X20
G2 X21.53 Y50 I0 J-1.53
G1 Y42.856
G3 X22.161 Y42.415 I0.47 J0
G1 X30.793 Y45.556
G2 X35.53 Y42.239 I1.207 J-3.317
G1 Y7.761
G2 X30.793 Y4.444 I-3.53 J0
G1 X22.161 Y7.585
G3 X21.53 Y7.144 I-0.161 J-0.442
G1 Y0
G2 X20 Y-1.53 I-1.53 J0
G1 X0
G2 X-1.53 Y0 I0 J1.53
G1 Z-10.408 F333.3
Y20.69 F1000
Z-9.6
Y26.39
Z-10.408 F333.3
Y50 F1000
G2 X0 Y51.53 I1.53 J0
G1 X12.262
Z-9.6
X17.962
Z-10.408 F333.3
X20 F1000
G2 X21.53 Y50 I0 J-1.53
G1 Y42.856
G3 X22.161 Y42.415 I0.47 J0
G1 X30.793 Y45.556
G2 X35.53 Y42.239 I1.207 J-3.317
G1 Y7.761
G2 X30.793 Y4.444 I-3.53 J0
G1 X22.161 Y7.585
G3 X21.53 Y7.144 I-0.161 J-0.442
G1 Y0
G2 X20 Y-1.53 I-1.53 J0
G1 X17.515
Z-9.6
X11.815
Z-10.408 F333.3
X0 F1000
G2 X-1.53 Y0 I0 J1.53
G1 Z-11.354 F333.3
Y20.69 F1000
Z-9.6
Y26.39
Z-11.354 F333.3
Y50 F1000
G2 X0 Y51.53 I1.53 J0
G1 X12.262
Z-9.6
X17.962
Z-11.354 F333.3
X20 F1000
G2 X21.53 Y50 I0 J-1.53
G1 Y42.856
G3 X22.161 Y42.415 I0.47 J0
G1 X30.793 Y45.556
G2 X35.53 Y42.239 I1.207 J-3.317
G1 Y7.761
G2 X30.793 Y4.444 I-3.53 J0
G1 X22.161 Y7.585
G3 X21.53 Y7.144 I-0.161 J-0.442
G1 Y0
G2 X20 Y-1.53 I-1.53 J0
G1 X17.515
Z-9.6
X11.815
Z-11.354 F333.3
X0 F1000
G2 X-1.53 Y0 I0 J1.53
G1 Z-12.3 F333.3
Y20.69 F1000
Z-9.6
Y26.39
Z-12.3 F333.3
Y50 F1000
G2 X0 Y51.53 I1.53 J0
G1 X12.262
Z-9.6
X17.962
Z-12.3 F333.3
X20 F1000
G2 X21.53 Y50 I0 J-1.53
G1 Y42.856
G3 X22.161 Y42.415 I0.47 J0
G1 X30.793 Y45.556
G2 X35.53 Y42.239 I1.207 J-3.317
G1 Y7.761
G2 X30.793 Y4.444 I-3.53 J0
G1 X22.161 Y7.585
G3 X21.53 Y7.144 I-0.161 J-0.442
G1 Y0
G2 X20 Y-1.53 I-1.53 J0
G1 X17.515
Z-9.6
X11.815
Z-12.3 F333.3
X0 F1000
G2 X-1.53 Y0 I0 J1.53
G1 X-1.524 Y0.042
X-1.505 Y0.081
X-1.477 Y0.113
X-1.44 Y0.135
X-1.403 Y0.157
X-1.375 Y0.189
X-1.356 Y0.228
X-1.35 Y0.27
Y20.69
Z-9.6
Y26.39
Z-12.3 F333.3
Y50 F1000
G2 X0 Y51.35 I1.35 J0
G1 X12.262
Z-9.6
X17.962
Z-12.3 F333.3
X20 F1000
G2 X21.35 Y50 I0 J-1.35
G1 Y42.856
G3 X22.222 Y42.245 I0.65 J0
G1 X30.854 Y45.387
G2 X35.35 Y42.239 I1.146 J-3.148
G1 Y7.761
G2 X30.854 Y4.613 I-3.35 J0
G1 X22.222 Y7.754
G3 X21.35 Y7.144 I-0.222 J-0.611
G1 Y0
G2 X20 Y-1.35 I-1.35 J0
G1 X17.515
Z-9.6
X11.815
Z-12.3 F333.3
X0 F1000
G2 X-1.35 Y0 I0 J1.35
G1 Y0.27
Z10
M5
M30
