(1112_tab_test_29bit_715_tab_thickness)
(T1  D=2.9 CR=0 - ZMIN=-12.3 - flat end mill)
G90 G94
G17
G21
(When using Fusion 360 for Personal Use, the feedrate of)
(rapid moves is reduced to match the feedrate of cutting)
(moves, which can increase machining time. Unrestricted rapid)
(moves are available with a Fusion 360 Subscription.)

(2D Pocket1)
T1
S5000 M3
G54
G0 X35.447 Y24.79
Z10
G1 Z5 F1000
Z2.06 F333.3
Z-1.03 F1000
X35.44 Y24.799
G2 X35.44 Y25.201 I0.243 J0.201
G1 X35.445 Y25.213
X35.475 Y27.335
X35.469 Y27.35
X35.454 Y27.356
X35.44 Y27.349
G2 X33.217 Y25.178 I-17.311 J15.507
G3 X33.217 Y24.822 I0.153 J-0.178
G2 X35.44 Y22.634 I-15.301 J-17.777
G1 X35.445 Y22.621
X35.476 Y20.302
X35.469 Y20.287
X35.454 Y20.282
X35.44 Y20.29
G3 X30.833 Y24.81 I-17.504 J-13.235
G2 X30.833 Y25.19 I0.138 J0.19
G3 X35.44 Y29.68 I-12.724 J17.666
G1 X35.444 Y29.692
X35.477 Y32.306
X35.47 Y32.321
X35.454 Y32.326
X35.44 Y32.317
G2 X28.025 Y25.152 I-17.351 J10.54
G3 X28.025 Y24.848 I0.086 J-0.152
G2 X35.44 Y17.643 I-10.068 J-17.781
G1 X35.443 Y17.633
X35.478 Y14.376
X35.474 Y14.364
X35.462 Y14.357
X35.449 Y14.358
X35.44 Y14.368
G3 X24.405 Y24.878 I-17.463 J-7.289
G1 X24.365 Y24.9
X24.336 Y24.935
X24.321 Y24.977
Y25.023
X24.336 Y25.065
X24.365 Y25.1
X24.405 Y25.122
G3 X35.44 Y35.585 I-6.337 J17.734
G1 X35.441 Y35.593
X35.449 Y42.694
X35.443 Y42.708
X35.429 Y42.714
X35.415 Y42.708
X35.409 Y42.694
G2 X21.697 Y25.889 I-17.352 J0.162
G3 X21.365 Y25.477 I0.09 J-0.412
G1 Y24.523
G3 X21.697 Y24.111 I0.422 J0
G2 X35.409 Y7.302 I-3.709 J-17.023
G1 X35.406 Y7.291
X33.954 Y4.897
X33.941 Y4.887
X33.924 Y4.892
X33.917 Y4.907
X33.92 Y7.144
G3 X20.148 Y22.873 I-15.927 J-0.052
G2 X19.875 Y23.185 I0.043 J0.312
G1 Y26.815
G2 X20.148 Y27.127 I0.315 J0
G3 X33.92 Y42.856 I-2.096 J15.729
G1 X33.917 Y45.092
X33.914 Y45.104
X33.905 Y45.111
X32.454 Y45.666
X32.441 Y45.667
X32.431 Y45.659
X32.427 Y45.647
X32.43 Y42.856
G2 X18.685 Y28.488 I-14.383 J0
G3 X18.385 Y28.173 I0.015 J-0.315
G1 Y21.827
G3 X18.685 Y21.512 I0.315 J0
G2 X32.43 Y7.144 I-0.688 J-14.416
G1 X32.427 Y4.352
X32.42 Y4.337
X32.405 Y4.332
X30.955 Y4.473
X30.942 Y4.479
X30.937 Y4.493
X30.94 Y7.144
G3 X17.146 Y20.01 I-12.937 J-0.042
G2 X16.895 Y20.245 I-0.016 J0.235
G1 Y29.755
G2 X17.146 Y29.99 I0.235 J0
G3 X30.94 Y42.856 I0.896 J12.867
G1 X30.937 Y45.508
X30.933 Y45.52
X30.923 Y45.527
X30.91 Y45.526
X29.461 Y44.99
X29.451 Y44.982
X29.448 Y44.971
X29.45 Y42.856
G2 X15.688 Y31.688 I-11.413 J0
G3 X15.405 Y31.458 I-0.048 J-0.23
G1 Y18.542
G3 X15.688 Y18.312 I0.235 J0
G2 X29.45 Y7.144 I2.32 J-11.205
G1 X29.448 Y5.029
X29.444 Y5.017
X29.433 Y5.01
X29.421 Y5.011
X27.971 Y5.552
X27.962 Y5.56
X27.958 Y5.571
X27.96 Y7.144
G3 X14.604 Y16.473 I-9.952 J-0.022
G1 X14.406 Y16.394
X14.207 Y16.315
G2 X13.915 Y16.519 I-0.074 J0.205
G1 Y33.481
G2 X14.207 Y33.685 I0.218 J0
G1 X14.406 Y33.606
X14.604 Y33.527
G3 X27.96 Y42.856 I3.419 J9.33
G1 X27.958 Y44.429
X27.954 Y44.441
X27.944 Y44.448
X27.931
X26.482 Y43.906
X26.473 Y43.898
X26.469 Y43.887
X26.47 Y42.856
G2 X15.103 Y34.897 I-8.47 J0
X13.91 Y35.355 I12.411 J34.099
G3 X12.717 Y35.813 I-13.604 J-33.641
X12.425 Y35.609 I-0.074 J-0.205
G1 Y14.391
G3 X12.717 Y14.187 I0.218 J0
X13.91 Y14.645 I-12.412 J34.103
G2 X15.103 Y15.103 I13.592 J-33.61
X26.47 Y7.144 I2.897 J-7.959
G1 X26.469 Y6.113
X26.465 Y6.101
X26.455 Y6.094
X26.442
X24.993 Y6.638
X24.983 Y6.645
X24.98 Y6.656
Y7.144
G3 X15.613 Y13.703 I-6.98 J0
X13.42 Y12.881 I41.679 J-114.514
G2 X11.227 Y12.059 I-43.872 J113.692
X10.935 Y12.263 I-0.074 J0.205
G1 Y37.737
G2 X11.227 Y37.941 I0.218 J0
X13.42 Y37.119 I-41.68 J-114.513
G3 X15.613 Y36.297 I43.872 J113.691
X24.98 Y42.856 I2.387 J6.559
G1 Y43.344
X24.976 Y43.355
X24.965 Y43.363
X24.953 Y43.362
X23.503 Y42.82
X23.493 Y42.813
X23.49 Y42.802
G2 X16.122 Y37.697 I-5.49 J0.054
G1 X9.737 Y40.069
G3 X9.445 Y39.865 I-0.074 J-0.205
G1 Y10.135
G3 X9.737 Y9.931 I0.218 J0
G1 X16.122 Y12.303
G2 X23.49 Y7.198 I1.878 J-5.159
G1 X23.486 Y7.186
X23.476 Y7.179
X23.464
X21.925 Y7.677
X21.916 Y7.683
X21.912 Y7.693
G3 X16.649 Y10.855 I-3.912 J-0.549
G1 X8.017 Y7.714
X7.993 Y7.711
X7.971 Y7.72
X7.956 Y7.738
X7.95 Y7.761
Y42.239
X7.956 Y42.262
X7.971 Y42.28
X7.993 Y42.289
X8.017 Y42.286
X16.649 Y39.144
G3 X21.912 Y42.307 I1.351 J3.712
G1 X21.919 Y42.32
X21.934 Y42.324
X21.947 Y42.317
X35.447 Y25.235
X35.452 Y25.222
X35.447 Y25.21
Z-2.06
X35.44 Y25.201
G3 X35.44 Y24.799 I0.243 J-0.201
G1 X35.445 Y24.787
X35.475 Y22.648
X35.469 Y22.633
X35.454 Y22.628
X35.44 Y22.634
G3 X33.217 Y24.822 I-17.525 J-15.589
G2 X33.217 Y25.178 I0.153 J0.178
G3 X35.44 Y27.349 I-15.088 J17.678
G1 X35.445 Y27.362
X35.476 Y29.667
X35.469 Y29.682
X35.454 Y29.688
X35.44 Y29.68
G2 X30.833 Y25.19 I-17.331 J13.177
G3 X30.833 Y24.81 I0.138 J-0.19
G2 X35.44 Y20.29 I-12.897 J-17.755
G1 X35.444 Y20.278
X35.477 Y17.654
X35.47 Y17.638
X35.454 Y17.634
X35.44 Y17.643
G3 X28.025 Y24.848 I-17.484 J-10.577
G2 X28.025 Y25.152 I0.086 J0.152
G3 X35.44 Y32.317 I-9.936 J17.704
G1 X35.443 Y32.327
X35.478 Y35.577
X35.474 Y35.59
X35.462 Y35.597
X35.449 Y35.595
X35.44 Y35.585
G2 X24.405 Y25.122 I-17.372 J7.271
G1 X24.365 Y25.1
X24.336 Y25.065
X24.321 Y25.023
Y24.977
X24.336 Y24.935
X24.365 Y24.9
X24.405 Y24.878
G2 X35.44 Y14.368 I-6.428 J-17.798
G1 X35.442 Y14.361
X35.449 Y7.302
X35.443 Y7.288
X35.429 Y7.282
X35.415 Y7.288
X35.409 Y7.302
G3 X21.697 Y24.111 I-17.421 J-0.214
G2 X21.365 Y24.523 I0.09 J0.412
G1 Y25.477
G2 X21.697 Y25.889 I0.422 J0
G3 X35.409 Y42.694 I-3.64 J16.967
G1 X35.406 Y42.705
X33.955 Y45.103
X33.941 Y45.112
X33.924 Y45.108
X33.917 Y45.092
X33.92 Y42.856
G2 X20.148 Y27.127 I-15.868 J0
G3 X19.875 Y26.815 I0.043 J-0.312
G1 Y23.185
G3 X20.148 Y22.873 I0.315 J0
G2 X33.92 Y7.144 I-2.155 J-15.781
G1 X33.917 Y4.907
X33.914 Y4.896
X33.905 Y4.889
X32.454 Y4.333
X32.441
X32.431 Y4.34
X32.427 Y4.352
X32.43 Y7.144
G3 X18.685 Y21.512 I-14.432 J-0.047
G2 X18.385 Y21.827 I0.015 J0.315
G1 Y28.173
G2 X18.685 Y28.488 I0.315 J0
G3 X32.43 Y42.856 I-0.638 J14.369
G1 X32.427 Y45.647
X32.42 Y45.662
X32.405 Y45.667
X30.955 Y45.528
X30.942 Y45.521
X30.937 Y45.508
X30.94 Y42.856
G2 X17.146 Y29.99 I-12.898 J0
G3 X16.895 Y29.755 I-0.016 J-0.235
G1 Y20.245
G3 X17.146 Y20.01 I0.235 J0
G2 X30.94 Y7.144 I0.857 J-12.909
G1 X30.937 Y4.493
X30.933 Y4.481
X30.923 Y4.474
X30.91
X29.461 Y5.011
X29.451 Y5.018
X29.448 Y5.029
X29.45 Y7.144
G3 X15.688 Y18.312 I-11.442 J-0.037
G2 X15.405 Y18.542 I-0.048 J0.23
G1 Y31.458
G2 X15.688 Y31.688 I0.235 J0
G3 X29.45 Y42.856 I2.349 J11.168
G1 X29.448 Y44.971
X29.444 Y44.983
X29.433 Y44.99
X29.421
X27.971 Y44.448
X27.962 Y44.44
X27.958 Y44.429
X27.96 Y42.856
G2 X14.604 Y33.527 I-9.936 J0
G1 X14.406 Y33.606
X14.207 Y33.685
G3 X13.915 Y33.481 I-0.074 J-0.205
G1 Y16.519
G3 X14.207 Y16.315 I0.218 J0
G1 X14.406 Y16.394
X14.604 Y16.473
G2 X27.96 Y7.144 I3.404 J-9.352
G1 X27.958 Y5.571
X27.954 Y5.559
X27.944 Y5.552
X27.931 Y5.553
X26.482 Y6.094
X26.473 Y6.102
X26.469 Y6.113
X26.47 Y7.144
G3 X15.103 Y15.103 I-8.47 J0
X13.91 Y14.645 I12.399 J-34.069
G2 X12.717 Y14.187 I-13.605 J33.645
X12.425 Y14.391 I-0.074 J0.205
G1 Y35.609
G2 X12.717 Y35.813 I0.218 J0
X13.91 Y35.355 I-12.411 J-34.099
G3 X15.103 Y34.897 I13.604 J33.641
X26.47 Y42.856 I2.897 J7.959
G1 X26.469 Y43.887
X26.465 Y43.899
X26.455 Y43.906
X26.442
X24.993 Y43.362
X24.983 Y43.355
X24.98 Y43.344
Y42.856
G2 X15.613 Y36.297 I-6.98 J0
X13.42 Y37.119 I41.68 J114.513
G3 X11.227 Y37.941 I-43.872 J-113.691
X10.935 Y37.737 I-0.074 J-0.205
G1 Y12.263
G3 X11.227 Y12.059 I0.218 J0
X13.42 Y12.881 I-41.679 J114.514
G2 X15.613 Y13.703 I43.872 J-113.692
X24.98 Y7.144 I2.387 J-6.559
G1 Y6.656
X24.976 Y6.644
X24.965 Y6.637
X24.953 Y6.638
X23.503 Y7.18
X23.493 Y7.187
X23.49 Y7.198
G3 X16.122 Y12.303 I-5.49 J-0.054
G1 X9.737 Y9.931
G2 X9.445 Y10.135 I-0.074 J0.205
G1 Y39.865
G2 X9.737 Y40.069 I0.218 J0
G1 X16.122 Y37.697
G3 X23.49 Y42.802 I1.878 J5.159
G1 X23.486 Y42.814
X23.476 Y42.821
X23.464
X21.925 Y42.323
X21.916 Y42.317
X21.912 Y42.307
G2 X16.649 Y39.144 I-3.912 J0.549
G1 X8.017 Y42.286
X7.993 Y42.289
X7.971 Y42.28
X7.956 Y42.262
X7.95 Y42.239
Y7.761
X7.956 Y7.738
X7.971 Y7.72
X7.993 Y7.711
X8.017 Y7.714
X16.649 Y10.855
G2 X21.912 Y7.693 I1.351 J-3.712
G1 X21.919 Y7.68
X21.934 Y7.676
X21.947 Y7.683
X35.447 Y24.765
X35.452 Y24.778
X35.447 Y24.79
Z-3.09
X35.44 Y24.799
G2 X35.44 Y25.201 I0.243 J0.201
G1 X35.445 Y25.213
X35.475 Y27.335
X35.469 Y27.35
X35.454 Y27.356
X35.44 Y27.349
G2 X33.217 Y25.178 I-17.311 J15.507
G3 X33.217 Y24.822 I0.153 J-0.178
G2 X35.44 Y22.634 I-15.301 J-17.777
G1 X35.445 Y22.621
X35.476 Y20.302
X35.469 Y20.287
X35.454 Y20.282
X35.44 Y20.29
G3 X30.833 Y24.81 I-17.504 J-13.235
G2 X30.833 Y25.19 I0.138 J0.19
G3 X35.44 Y29.68 I-12.724 J17.666
G1 X35.444 Y29.692
X35.477 Y32.306
X35.47 Y32.321
X35.454 Y32.326
X35.44 Y32.317
G2 X28.025 Y25.152 I-17.351 J10.54
G3 X28.025 Y24.848 I0.086 J-0.152
G2 X35.44 Y17.643 I-10.068 J-17.781
G1 X35.443 Y17.633
X35.478 Y14.376
X35.474 Y14.364
X35.462 Y14.357
X35.449 Y14.358
X35.44 Y14.368
G3 X24.405 Y24.878 I-17.463 J-7.289
G1 X24.365 Y24.9
X24.336 Y24.935
X24.321 Y24.977
Y25.023
X24.336 Y25.065
X24.365 Y25.1
X24.405 Y25.122
G3 X35.44 Y35.585 I-6.337 J17.734
G1 X35.441 Y35.593
X35.449 Y42.694
X35.443 Y42.708
X35.429 Y42.714
X35.415 Y42.708
X35.409 Y42.694
G2 X21.697 Y25.889 I-17.352 J0.162
G3 X21.365 Y25.477 I0.09 J-0.412
G1 Y24.523
G3 X21.697 Y24.111 I0.422 J0
G2 X35.409 Y7.302 I-3.709 J-17.023
G1 X35.406 Y7.291
X33.954 Y4.897
X33.941 Y4.887
X33.924 Y4.892
X33.917 Y4.907
X33.92 Y7.144
G3 X20.148 Y22.873 I-15.927 J-0.052
G2 X19.875 Y23.185 I0.043 J0.312
G1 Y26.815
G2 X20.148 Y27.127 I0.315 J0
G3 X33.92 Y42.856 I-2.096 J15.729
G1 X33.917 Y45.092
X33.914 Y45.104
X33.905 Y45.111
X32.454 Y45.666
X32.441 Y45.667
X32.431 Y45.659
X32.427 Y45.647
X32.43 Y42.856
G2 X18.685 Y28.488 I-14.383 J0
G3 X18.385 Y28.173 I0.015 J-0.315
G1 Y21.827
G3 X18.685 Y21.512 I0.315 J0
G2 X32.43 Y7.144 I-0.688 J-14.416
G1 X32.427 Y4.352
X32.42 Y4.337
X32.405 Y4.332
X30.955 Y4.473
X30.942 Y4.479
X30.937 Y4.493
X30.94 Y7.144
G3 X17.146 Y20.01 I-12.937 J-0.042
G2 X16.895 Y20.245 I-0.016 J0.235
G1 Y29.755
G2 X17.146 Y29.99 I0.235 J0
G3 X30.94 Y42.856 I0.896 J12.867
G1 X30.937 Y45.508
X30.933 Y45.52
X30.923 Y45.527
X30.91 Y45.526
X29.461 Y44.99
X29.451 Y44.982
X29.448 Y44.971
X29.45 Y42.856
G2 X15.688 Y31.688 I-11.413 J0
G3 X15.405 Y31.458 I-0.048 J-0.23
G1 Y18.542
G3 X15.688 Y18.312 I0.235 J0
G2 X29.45 Y7.144 I2.32 J-11.205
G1 X29.448 Y5.029
X29.444 Y5.017
X29.433 Y5.01
X29.421 Y5.011
X27.971 Y5.552
X27.962 Y5.56
X27.958 Y5.571
X27.96 Y7.144
G3 X14.604 Y16.473 I-9.952 J-0.022
G1 X14.406 Y16.394
X14.207 Y16.315
G2 X13.915 Y16.519 I-0.074 J0.205
G1 Y33.481
G2 X14.207 Y33.685 I0.218 J0
G1 X14.406 Y33.606
X14.604 Y33.527
G3 X27.96 Y42.856 I3.419 J9.33
G1 X27.958 Y44.429
X27.954 Y44.441
X27.944 Y44.448
X27.931
X26.482 Y43.906
X26.473 Y43.898
X26.469 Y43.887
X26.47 Y42.856
G2 X15.103 Y34.897 I-8.47 J0
X13.91 Y35.355 I12.411 J34.099
G3 X12.717 Y35.813 I-13.604 J-33.641
X12.425 Y35.609 I-0.074 J-0.205
G1 Y14.391
G3 X12.717 Y14.187 I0.218 J0
X13.91 Y14.645 I-12.412 J34.103
G2 X15.103 Y15.103 I13.592 J-33.61
X26.47 Y7.144 I2.897 J-7.959
G1 X26.469 Y6.113
X26.465 Y6.101
X26.455 Y6.094
X26.442
X24.993 Y6.638
X24.983 Y6.645
X24.98 Y6.656
Y7.144
G3 X15.613 Y13.703 I-6.98 J0
X13.42 Y12.881 I41.679 J-114.514
G2 X11.227 Y12.059 I-43.872 J113.692
X10.935 Y12.263 I-0.074 J0.205
G1 Y37.737
G2 X11.227 Y37.941 I0.218 J0
X13.42 Y37.119 I-41.68 J-114.513
G3 X15.613 Y36.297 I43.872 J113.691
X24.98 Y42.856 I2.387 J6.559
G1 Y43.344
X24.976 Y43.355
X24.965 Y43.363
X24.953 Y43.362
X23.503 Y42.82
X23.493 Y42.813
X23.49 Y42.802
G2 X16.122 Y37.697 I-5.49 J0.054
G1 X9.737 Y40.069
G3 X9.445 Y39.865 I-0.074 J-0.205
G1 Y10.135
G3 X9.737 Y9.931 I0.218 J0
G1 X16.122 Y12.303
G2 X23.49 Y7.198 I1.878 J-5.159
G1 X23.486 Y7.186
X23.476 Y7.179
X23.464
X21.925 Y7.677
X21.916 Y7.683
X21.912 Y7.693
G3 X16.649 Y10.855 I-3.912 J-0.549
G1 X8.017 Y7.714
X7.993 Y7.711
X7.971 Y7.72
X7.956 Y7.738
X7.95 Y7.761
Y42.239
X7.956 Y42.262
X7.971 Y42.28
X7.993 Y42.289
X8.017 Y42.286
X16.649 Y39.144
G3 X21.912 Y42.307 I1.351 J3.712
G1 X21.919 Y42.32
X21.934 Y42.324
X21.947 Y42.317
X35.447 Y25.235
X35.452 Y25.222
X35.447 Y25.21
Z-4.12
X35.44 Y25.201
G3 X35.44 Y24.799 I0.243 J-0.201
G1 X35.445 Y24.787
X35.475 Y22.648
X35.469 Y22.633
X35.454 Y22.628
X35.44 Y22.634
G3 X33.217 Y24.822 I-17.525 J-15.589
G2 X33.217 Y25.178 I0.153 J0.178
G3 X35.44 Y27.349 I-15.088 J17.678
G1 X35.445 Y27.362
X35.476 Y29.667
X35.469 Y29.682
X35.454 Y29.688
X35.44 Y29.68
G2 X30.833 Y25.19 I-17.331 J13.177
G3 X30.833 Y24.81 I0.138 J-0.19
G2 X35.44 Y20.29 I-12.897 J-17.755
G1 X35.444 Y20.278
X35.477 Y17.654
X35.47 Y17.638
X35.454 Y17.634
X35.44 Y17.643
G3 X28.025 Y24.848 I-17.484 J-10.577
G2 X28.025 Y25.152 I0.086 J0.152
G3 X35.44 Y32.317 I-9.936 J17.704
G1 X35.443 Y32.327
X35.478 Y35.577
X35.474 Y35.59
X35.462 Y35.597
X35.449 Y35.595
X35.44 Y35.585
G2 X24.405 Y25.122 I-17.372 J7.271
G1 X24.365 Y25.1
X24.336 Y25.065
X24.321 Y25.023
Y24.977
X24.336 Y24.935
X24.365 Y24.9
X24.405 Y24.878
G2 X35.44 Y14.368 I-6.428 J-17.798
G1 X35.442 Y14.361
X35.449 Y7.302
X35.443 Y7.288
X35.429 Y7.282
X35.415 Y7.288
X35.409 Y7.302
G3 X21.697 Y24.111 I-17.421 J-0.214
G2 X21.365 Y24.523 I0.09 J0.412
G1 Y25.477
G2 X21.697 Y25.889 I0.422 J0
G3 X35.409 Y42.694 I-3.64 J16.967
G1 X35.406 Y42.705
X33.955 Y45.103
X33.941 Y45.112
X33.924 Y45.108
X33.917 Y45.092
X33.92 Y42.856
G2 X20.148 Y27.127 I-15.868 J0
G3 X19.875 Y26.815 I0.043 J-0.312
G1 Y23.185
G3 X20.148 Y22.873 I0.315 J0
G2 X33.92 Y7.144 I-2.155 J-15.781
G1 X33.917 Y4.907
X33.914 Y4.896
X33.905 Y4.889
X32.454 Y4.333
X32.441
X32.431 Y4.34
X32.427 Y4.352
X32.43 Y7.144
G3 X18.685 Y21.512 I-14.432 J-0.047
G2 X18.385 Y21.827 I0.015 J0.315
G1 Y28.173
G2 X18.685 Y28.488 I0.315 J0
G3 X32.43 Y42.856 I-0.638 J14.369
G1 X32.427 Y45.647
X32.42 Y45.662
X32.405 Y45.667
X30.955 Y45.528
X30.942 Y45.521
X30.937 Y45.508
X30.94 Y42.856
G2 X17.146 Y29.99 I-12.898 J0
G3 X16.895 Y29.755 I-0.016 J-0.235
G1 Y20.245
G3 X17.146 Y20.01 I0.235 J0
G2 X30.94 Y7.144 I0.857 J-12.909
G1 X30.937 Y4.493
X30.933 Y4.481
X30.923 Y4.474
X30.91
X29.461 Y5.011
X29.451 Y5.018
X29.448 Y5.029
X29.45 Y7.144
G3 X15.688 Y18.312 I-11.442 J-0.037
G2 X15.405 Y18.542 I-0.048 J0.23
G1 Y31.458
G2 X15.688 Y31.688 I0.235 J0
G3 X29.45 Y42.856 I2.349 J11.168
G1 X29.448 Y44.971
X29.444 Y44.983
X29.433 Y44.99
X29.421
X27.971 Y44.448
X27.962 Y44.44
X27.958 Y44.429
X27.96 Y42.856
G2 X14.604 Y33.527 I-9.936 J0
G1 X14.406 Y33.606
X14.207 Y33.685
G3 X13.915 Y33.481 I-0.074 J-0.205
G1 Y16.519
G3 X14.207 Y16.315 I0.218 J0
G1 X14.406 Y16.394
X14.604 Y16.473
G2 X27.96 Y7.144 I3.404 J-9.352
G1 X27.958 Y5.571
X27.954 Y5.559
X27.944 Y5.552
X27.931 Y5.553
X26.482 Y6.094
X26.473 Y6.102
X26.469 Y6.113
X26.47 Y7.144
G3 X15.103 Y15.103 I-8.47 J0
X13.91 Y14.645 I12.399 J-34.069
G2 X12.717 Y14.187 I-13.605 J33.645
X12.425 Y14.391 I-0.074 J0.205
G1 Y35.609
G2 X12.717 Y35.813 I0.218 J0
X13.91 Y35.355 I-12.411 J-34.099
G3 X15.103 Y34.897 I13.604 J33.641
X26.47 Y42.856 I2.897 J7.959
G1 X26.469 Y43.887
X26.465 Y43.899
X26.455 Y43.906
X26.442
X24.993 Y43.362
X24.983 Y43.355
X24.98 Y43.344
Y42.856
G2 X15.613 Y36.297 I-6.98 J0
X13.42 Y37.119 I41.68 J114.513
G3 X11.227 Y37.941 I-43.872 J-113.691
X10.935 Y37.737 I-0.074 J-0.205
G1 Y12.263
G3 X11.227 Y12.059 I0.218 J0
X13.42 Y12.881 I-41.679 J114.514
G2 X15.613 Y13.703 I43.872 J-113.692
X24.98 Y7.144 I2.387 J-6.559
G1 Y6.656
X24.976 Y6.644
X24.965 Y6.637
X24.953 Y6.638
X23.503 Y7.18
X23.493 Y7.187
X23.49 Y7.198
G3 X16.122 Y12.303 I-5.49 J-0.054
G1 X9.737 Y9.931
G2 X9.445 Y10.135 I-0.074 J0.205
G1 Y39.865
G2 X9.737 Y40.069 I0.218 J0
G1 X16.122 Y37.697
G3 X23.49 Y42.802 I1.878 J5.159
G1 X23.486 Y42.814
X23.476 Y42.821
X23.464
X21.925 Y42.323
X21.916 Y42.317
X21.912 Y42.307
G2 X16.649 Y39.144 I-3.912 J0.549
G1 X8.017 Y42.286
X7.993 Y42.289
X7.971 Y42.28
X7.956 Y42.262
X7.95 Y42.239
Y7.761
X7.956 Y7.738
X7.971 Y7.72
X7.993 Y7.711
X8.017 Y7.714
X16.649 Y10.855
G2 X21.912 Y7.693 I1.351 J-3.712
G1 X21.919 Y7.68
X21.934 Y7.676
X21.947 Y7.683
X35.447 Y24.765
X35.452 Y24.778
X35.447 Y24.79
Z-5.15
X35.44 Y24.799
G2 X35.44 Y25.201 I0.243 J0.201
G1 X35.445 Y25.213
X35.475 Y27.335
X35.469 Y27.35
X35.454 Y27.356
X35.44 Y27.349
G2 X33.217 Y25.178 I-17.311 J15.507
G3 X33.217 Y24.822 I0.153 J-0.178
G2 X35.44 Y22.634 I-15.301 J-17.777
G1 X35.445 Y22.621
X35.476 Y20.302
X35.469 Y20.287
X35.454 Y20.282
X35.44 Y20.29
G3 X30.833 Y24.81 I-17.504 J-13.235
G2 X30.833 Y25.19 I0.138 J0.19
G3 X35.44 Y29.68 I-12.724 J17.666
G1 X35.444 Y29.692
X35.477 Y32.306
X35.47 Y32.321
X35.454 Y32.326
X35.44 Y32.317
G2 X28.025 Y25.152 I-17.351 J10.54
G3 X28.025 Y24.848 I0.086 J-0.152
G2 X35.44 Y17.643 I-10.068 J-17.781
G1 X35.443 Y17.633
X35.478 Y14.376
X35.474 Y14.364
X35.462 Y14.357
X35.449 Y14.358
X35.44 Y14.368
G3 X24.405 Y24.878 I-17.463 J-7.289
G1 X24.365 Y24.9
X24.336 Y24.935
X24.321 Y24.977
Y25.023
X24.336 Y25.065
X24.365 Y25.1
X24.405 Y25.122
G3 X35.44 Y35.585 I-6.337 J17.734
G1 X35.441 Y35.593
X35.449 Y42.694
X35.443 Y42.708
X35.429 Y42.714
X35.415 Y42.708
X35.409 Y42.694
G2 X21.697 Y25.889 I-17.352 J0.162
G3 X21.365 Y25.477 I0.09 J-0.412
G1 Y24.523
G3 X21.697 Y24.111 I0.422 J0
G2 X35.409 Y7.302 I-3.709 J-17.023
G1 X35.406 Y7.291
X33.954 Y4.897
X33.941 Y4.887
X33.924 Y4.892
X33.917 Y4.907
X33.92 Y7.144
G3 X20.148 Y22.873 I-15.927 J-0.052
G2 X19.875 Y23.185 I0.043 J0.312
G1 Y26.815
G2 X20.148 Y27.127 I0.315 J0
G3 X33.92 Y42.856 I-2.096 J15.729
G1 X33.917 Y45.092
X33.914 Y45.104
X33.905 Y45.111
X32.454 Y45.666
X32.441 Y45.667
X32.431 Y45.659
X32.427 Y45.647
X32.43 Y42.856
G2 X18.685 Y28.488 I-14.383 J0
G3 X18.385 Y28.173 I0.015 J-0.315
G1 Y21.827
G3 X18.685 Y21.512 I0.315 J0
G2 X32.43 Y7.144 I-0.688 J-14.416
G1 X32.427 Y4.352
X32.42 Y4.337
X32.405 Y4.332
X30.955 Y4.473
X30.942 Y4.479
X30.937 Y4.493
X30.94 Y7.144
G3 X17.146 Y20.01 I-12.937 J-0.042
G2 X16.895 Y20.245 I-0.016 J0.235
G1 Y29.755
G2 X17.146 Y29.99 I0.235 J0
G3 X30.94 Y42.856 I0.896 J12.867
G1 X30.937 Y45.508
X30.933 Y45.52
X30.923 Y45.527
X30.91 Y45.526
X29.461 Y44.99
X29.451 Y44.982
X29.448 Y44.971
X29.45 Y42.856
G2 X15.688 Y31.688 I-11.413 J0
G3 X15.405 Y31.458 I-0.048 J-0.23
G1 Y18.542
G3 X15.688 Y18.312 I0.235 J0
G2 X29.45 Y7.144 I2.32 J-11.205
G1 X29.448 Y5.029
X29.444 Y5.017
X29.433 Y5.01
X29.421 Y5.011
X27.971 Y5.552
X27.962 Y5.56
X27.958 Y5.571
X27.96 Y7.144
G3 X14.604 Y16.473 I-9.952 J-0.022
G1 X14.406 Y16.394
X14.207 Y16.315
G2 X13.915 Y16.519 I-0.074 J0.205
G1 Y33.481
G2 X14.207 Y33.685 I0.218 J0
G1 X14.406 Y33.606
X14.604 Y33.527
G3 X27.96 Y42.856 I3.419 J9.33
G1 X27.958 Y44.429
X27.954 Y44.441
X27.944 Y44.448
X27.931
X26.482 Y43.906
X26.473 Y43.898
X26.469 Y43.887
X26.47 Y42.856
G2 X15.103 Y34.897 I-8.47 J0
X13.91 Y35.355 I12.411 J34.099
G3 X12.717 Y35.813 I-13.604 J-33.641
X12.425 Y35.609 I-0.074 J-0.205
G1 Y14.391
G3 X12.717 Y14.187 I0.218 J0
X13.91 Y14.645 I-12.412 J34.103
G2 X15.103 Y15.103 I13.592 J-33.61
X26.47 Y7.144 I2.897 J-7.959
G1 X26.469 Y6.113
X26.465 Y6.101
X26.455 Y6.094
X26.442
X24.993 Y6.638
X24.983 Y6.645
X24.98 Y6.656
Y7.144
G3 X15.613 Y13.703 I-6.98 J0
X13.42 Y12.881 I41.679 J-114.514
G2 X11.227 Y12.059 I-43.872 J113.692
X10.935 Y12.263 I-0.074 J0.205
G1 Y37.737
G2 X11.227 Y37.941 I0.218 J0
X13.42 Y37.119 I-41.68 J-114.513
G3 X15.613 Y36.297 I43.872 J113.691
X24.98 Y42.856 I2.387 J6.559
G1 Y43.344
X24.976 Y43.355
X24.965 Y43.363
X24.953 Y43.362
X23.503 Y42.82
X23.493 Y42.813
X23.49 Y42.802
G2 X16.122 Y37.697 I-5.49 J0.054
G1 X9.737 Y40.069
G3 X9.445 Y39.865 I-0.074 J-0.205
G1 Y10.135
G3 X9.737 Y9.931 I0.218 J0
G1 X16.122 Y12.303
G2 X23.49 Y7.198 I1.878 J-5.159
G1 X23.486 Y7.186
X23.476 Y7.179
X23.464
X21.925 Y7.677
X21.916 Y7.683
X21.912 Y7.693
G3 X16.649 Y10.855 I-3.912 J-0.549
G1 X8.017 Y7.714
X7.993 Y7.711
X7.971 Y7.72
X7.956 Y7.738
X7.95 Y7.761
Y42.239
X7.956 Y42.262
X7.971 Y42.28
X7.993 Y42.289
X8.017 Y42.286
X16.649 Y39.144
G3 X21.912 Y42.307 I1.351 J3.712
G1 X22.113 Y43.743
Z10
(When using Fusion 360 for Personal Use, the feedrate of)
(rapid moves is reduced to match the feedrate of cutting)
(moves, which can increase machining time. Unrestricted rapid)
(moves are available with a Fusion 360 Subscription.)

(2D Contour2 2)
G0 X21.63 Y42.856
G1 Z10 F1000
Z5
Z2.06 F333.3
Z-1.03
G2 X16.759 Y39.445 I-3.63 J0 F1000
G1 X8.127 Y42.587
G3 X7.63 Y42.239 I-0.127 J-0.348
G1 Y7.761
G3 X8.127 Y7.413 I0.37 J0
G1 X16.759 Y10.555
G2 X21.63 Y7.144 I1.241 J-3.411
G1 Z5
Y42.856
Z1.03 F333.3
Z-2.06
G2 X16.759 Y39.445 I-3.63 J0 F1000
G1 X8.127 Y42.587
G3 X7.63 Y42.239 I-0.127 J-0.348
G1 Y7.761
G3 X8.127 Y7.413 I0.37 J0
G1 X16.759 Y10.555
G2 X21.63 Y7.144 I1.241 J-3.411
G1 Z5
Y42.856
Z0 F333.3
Z-3.09
G2 X16.759 Y39.445 I-3.63 J0 F1000
G1 X8.127 Y42.587
G3 X7.63 Y42.239 I-0.127 J-0.348
G1 Y7.761
G3 X8.127 Y7.413 I0.37 J0
G1 X16.759 Y10.555
G2 X21.63 Y7.144 I1.241 J-3.411
G1 Z5
Y42.856
Z-1.03 F333.3
Z-4.12
G2 X16.759 Y39.445 I-3.63 J0 F1000
G1 X8.127 Y42.587
G3 X7.63 Y42.239 I-0.127 J-0.348
G1 Y7.761
G3 X8.127 Y7.413 I0.37 J0
G1 X16.759 Y10.555
G2 X21.63 Y7.144 I1.241 J-3.411
G1 Z5
Y42.856
Z-2.06 F333.3
Z-5.15
G2 X16.759 Y39.445 I-3.63 J0 F1000
G1 X8.127 Y42.587
G3 X7.63 Y42.239 I-0.127 J-0.348
G1 Y7.761
G3 X8.127 Y7.413 I0.37 J0
G1 X16.759 Y10.555
G2 X21.63 Y7.144 I1.241 J-3.411
G1 Z5
X21.45 Y42.856
Z-2.06 F333.3
Z-5.15
G2 X16.82 Y39.614 I-3.45 J0 F1000
G1 X8.188 Y42.756
G3 X7.45 Y42.239 I-0.188 J-0.517
G1 Y7.761
G3 X8.188 Y7.244 I0.55 J0
G1 X16.82 Y10.386
G2 X21.45 Y7.144 I1.18 J-3.242
G1 Z10
(When using Fusion 360 for Personal Use, the feedrate of)
(rapid moves is reduced to match the feedrate of cutting)
(moves, which can increase machining time. Unrestricted rapid)
(moves are available with a Fusion 360 Subscription.)

(2D Contour3 2)
G0 X-1.63 Y0
G1 Z10 F1000
Z5
Z2.02 F333.3
Z-0.946
Y50 F1000
G2 X0 Y51.63 I1.63 J0
G1 X20
G2 X21.63 Y50 I0 J-1.63
G1 Y42.856
G3 X22.127 Y42.509 I0.37 J0
G1 X30.759 Y45.65
G2 X35.63 Y42.239 I1.241 J-3.411
G1 Y7.761
G2 X30.759 Y4.35 I-3.63 J0
G1 X22.127 Y7.491
G3 X21.63 Y7.144 I-0.127 J-0.348
G1 Y0
G2 X20 Y-1.63 I-1.63 J0
G1 X0
G2 X-1.63 Y0 I0 J1.63
G1 Z-1.892 F333.3
Y50 F1000
G2 X0 Y51.63 I1.63 J0
G1 X20
G2 X21.63 Y50 I0 J-1.63
G1 Y42.856
G3 X22.127 Y42.509 I0.37 J0
G1 X30.759 Y45.65
G2 X35.63 Y42.239 I1.241 J-3.411
G1 Y7.761
G2 X30.759 Y4.35 I-3.63 J0
G1 X22.127 Y7.491
G3 X21.63 Y7.144 I-0.127 J-0.348
G1 Y0
G2 X20 Y-1.63 I-1.63 J0
G1 X0
G2 X-1.63 Y0 I0 J1.63
G1 Z-2.838 F333.3
Y50 F1000
G2 X0 Y51.63 I1.63 J0
G1 X20
G2 X21.63 Y50 I0 J-1.63
G1 Y42.856
G3 X22.127 Y42.509 I0.37 J0
G1 X30.759 Y45.65
G2 X35.63 Y42.239 I1.241 J-3.411
G1 Y7.761
G2 X30.759 Y4.35 I-3.63 J0
G1 X22.127 Y7.491
G3 X21.63 Y7.144 I-0.127 J-0.348
G1 Y0
G2 X20 Y-1.63 I-1.63 J0
G1 X0
G2 X-1.63 Y0 I0 J1.63
G1 Z-3.785 F333.3
Y50 F1000
G2 X0 Y51.63 I1.63 J0
G1 X20
G2 X21.63 Y50 I0 J-1.63
G1 Y42.856
G3 X22.127 Y42.509 I0.37 J0
G1 X30.759 Y45.65
G2 X35.63 Y42.239 I1.241 J-3.411
G1 Y7.761
G2 X30.759 Y4.35 I-3.63 J0
G1 X22.127 Y7.491
G3 X21.63 Y7.144 I-0.127 J-0.348
G1 Y0
G2 X20 Y-1.63 I-1.63 J0
G1 X0
G2 X-1.63 Y0 I0 J1.63
G1 Z-4.731 F333.3
Y50 F1000
G2 X0 Y51.63 I1.63 J0
G1 X20
G2 X21.63 Y50 I0 J-1.63
G1 Y42.856
G3 X22.127 Y42.509 I0.37 J0
G1 X30.759 Y45.65
G2 X35.63 Y42.239 I1.241 J-3.411
G1 Y7.761
G2 X30.759 Y4.35 I-3.63 J0
G1 X22.127 Y7.491
G3 X21.63 Y7.144 I-0.127 J-0.348
G1 Y0
G2 X20 Y-1.63 I-1.63 J0
G1 X0
G2 X-1.63 Y0 I0 J1.63
G1 Z-5.677 F333.3
Y50 F1000
G2 X0 Y51.63 I1.63 J0
G1 X20
G2 X21.63 Y50 I0 J-1.63
G1 Y42.856
G3 X22.127 Y42.509 I0.37 J0
G1 X30.759 Y45.65
G2 X35.63 Y42.239 I1.241 J-3.411
G1 Y7.761
G2 X30.759 Y4.35 I-3.63 J0
G1 X22.127 Y7.491
G3 X21.63 Y7.144 I-0.127 J-0.348
G1 Y0
G2 X20 Y-1.63 I-1.63 J0
G1 X0
G2 X-1.63 Y0 I0 J1.63
G1 Z-6.623 F333.3
Y50 F1000
G2 X0 Y51.63 I1.63 J0
G1 X20
G2 X21.63 Y50 I0 J-1.63
G1 Y42.856
G3 X22.127 Y42.509 I0.37 J0
G1 X30.759 Y45.65
G2 X35.63 Y42.239 I1.241 J-3.411
G1 Y7.761
G2 X30.759 Y4.35 I-3.63 J0
G1 X22.127 Y7.491
G3 X21.63 Y7.144 I-0.127 J-0.348
G1 Y0
G2 X20 Y-1.63 I-1.63 J0
G1 X0
G2 X-1.63 Y0 I0 J1.63
G1 Z-7.569 F333.3
Y50 F1000
G2 X0 Y51.63 I1.63 J0
G1 X20
G2 X21.63 Y50 I0 J-1.63
G1 Y42.856
G3 X22.127 Y42.509 I0.37 J0
G1 X30.759 Y45.65
G2 X35.63 Y42.239 I1.241 J-3.411
G1 Y7.761
G2 X30.759 Y4.35 I-3.63 J0
G1 X22.127 Y7.491
G3 X21.63 Y7.144 I-0.127 J-0.348
G1 Y0
G2 X20 Y-1.63 I-1.63 J0
G1 X0
G2 X-1.63 Y0 I0 J1.63
G1 Z-8.515 F333.3
Y50 F1000
G2 X0 Y51.63 I1.63 J0
G1 X20
G2 X21.63 Y50 I0 J-1.63
G1 Y42.856
G3 X22.127 Y42.509 I0.37 J0
G1 X30.759 Y45.65
G2 X35.63 Y42.239 I1.241 J-3.411
G1 Y7.761
G2 X30.759 Y4.35 I-3.63 J0
G1 X22.127 Y7.491
G3 X21.63 Y7.144 I-0.127 J-0.348
G1 Y0
G2 X20 Y-1.63 I-1.63 J0
G1 X0
G2 X-1.63 Y0 I0 J1.63
G1 Z-9.462 F333.3
Y50 F1000
G2 X0 Y51.63 I1.63 J0
G1 X20
G2 X21.63 Y50 I0 J-1.63
G1 Y42.856
G3 X22.127 Y42.509 I0.37 J0
G1 X30.759 Y45.65
G2 X35.63 Y42.239 I1.241 J-3.411
G1 Y7.761
G2 X30.759 Y4.35 I-3.63 J0
G1 X22.127 Y7.491
G3 X21.63 Y7.144 I-0.127 J-0.348
G1 Y0
G2 X20 Y-1.63 I-1.63 J0
G1 X0
G2 X-1.63 Y0 I0 J1.63
G1 Z-10.408 F333.3
Y20.59 F1000
Z-9.6
Y26.49
Z-10.408 F333.3
Y50 F1000
G2 X0 Y51.63 I1.63 J0
G1 X12.162
Z-9.6
X18.062
Z-10.408 F333.3
X20 F1000
G2 X21.63 Y50 I0 J-1.63
G1 Y42.856
G3 X22.127 Y42.509 I0.37 J0
G1 X30.759 Y45.65
G2 X35.63 Y42.239 I1.241 J-3.411
G1 Y7.761
G2 X30.759 Y4.35 I-3.63 J0
G1 X22.127 Y7.491
G3 X21.63 Y7.144 I-0.127 J-0.348
G1 Y0
G2 X20 Y-1.63 I-1.63 J0
G1 X17.615
Z-9.6
X11.715
Z-10.408 F333.3
X0 F1000
G2 X-1.63 Y0 I0 J1.63
G1 Z-11.354 F333.3
Y20.59 F1000
Z-9.6
Y26.49
Z-11.354 F333.3
Y50 F1000
G2 X0 Y51.63 I1.63 J0
G1 X12.162
Z-9.6
X18.062
Z-11.354 F333.3
X20 F1000
G2 X21.63 Y50 I0 J-1.63
G1 Y42.856
G3 X22.127 Y42.509 I0.37 J0
G1 X30.759 Y45.65
G2 X35.63 Y42.239 I1.241 J-3.411
G1 Y7.761
G2 X30.759 Y4.35 I-3.63 J0
G1 X22.127 Y7.491
G3 X21.63 Y7.144 I-0.127 J-0.348
G1 Y0
G2 X20 Y-1.63 I-1.63 J0
G1 X17.615
Z-9.6
X11.715
Z-11.354 F333.3
X0 F1000
G2 X-1.63 Y0 I0 J1.63
G1 Z-12.3 F333.3
Y20.59 F1000
Z-9.6
Y26.49
Z-12.3 F333.3
Y50 F1000
G2 X0 Y51.63 I1.63 J0
G1 X12.162
Z-9.6
X18.062
Z-12.3 F333.3
X20 F1000
G2 X21.63 Y50 I0 J-1.63
G1 Y42.856
G3 X22.127 Y42.509 I0.37 J0
G1 X30.759 Y45.65
G2 X35.63 Y42.239 I1.241 J-3.411
G1 Y7.761
G2 X30.759 Y4.35 I-3.63 J0
G1 X22.127 Y7.491
G3 X21.63 Y7.144 I-0.127 J-0.348
G1 Y0
G2 X20 Y-1.63 I-1.63 J0
G1 X17.615
Z-9.6
X11.715
Z-12.3 F333.3
X0 F1000
G2 X-1.63 Y0 I0 J1.63
G1 X-1.624 Y0.042
X-1.605 Y0.081
X-1.577 Y0.113
X-1.54 Y0.135
X-1.503 Y0.157
X-1.475 Y0.189
X-1.456 Y0.228
X-1.45 Y0.27
Y20.59
Z-9.6
Y26.49
Z-12.3 F333.3
Y50 F1000
G2 X0 Y51.45 I1.45 J0
G1 X12.162
Z-9.6
X18.062
Z-12.3 F333.3
X20 F1000
G2 X21.45 Y50 I0 J-1.45
G1 Y42.856
G3 X22.188 Y42.339 I0.55 J0
G1 X30.82 Y45.481
G2 X35.45 Y42.239 I1.18 J-3.242
G1 Y7.761
G2 X30.82 Y4.519 I-3.45 J0
G1 X22.188 Y7.661
G3 X21.45 Y7.144 I-0.188 J-0.517
G1 Y0
G2 X20 Y-1.45 I-1.45 J0
G1 X17.615
Z-9.6
X11.715
Z-12.3 F333.3
X0 F1000
G2 X-1.45 Y0 I0 J1.45
G1 Y0.27
Z10
M5
M30
