(1114_wall_29bit_tab_depth_635)
(T1  D=2.9 CR=0 - ZMIN=-13.3 - flat end mill)
G90 G94
G17
G21
(When using Fusion 360 for Personal Use, the feedrate of)
(rapid moves is reduced to match the feedrate of cutting)
(moves, which can increase machining time. Unrestricted rapid)
(moves are available with a Fusion 360 Subscription.)

(2D Pocket tabs)
T1
S5000 M3
G54
G0 X-1.447 Y33.102
Z10
G1 Z5 F1000
Z2.02 F333.3
Z-0.992 F1000
X-1.44 Y33.11
G2 X0.315 Y34.824 I17.307 J-15.967
G3 X0.315 Y35.176 I-0.156 J0.176
G2 X-1.439 Y36.902 I15.774 J17.781
G1 X-1.444 Y36.916
X-1.475 Y39.434
X-1.469 Y39.449
X-1.454 Y39.454
X-1.44 Y39.446
G3 X2.899 Y35.189 I17.506 J13.5
G2 X2.899 Y34.811 I-0.14 J-0.189
G3 X-1.44 Y30.582 I12.991 J-17.667
G1 X-1.444 Y30.57
X-1.476 Y27.714
X-1.47 Y27.698
X-1.453 Y27.694
X-1.439 Y27.703
G2 X5.955 Y34.848 I17.351 J-10.559
G3 X5.955 Y35.152 I-0.086 J0.152
G2 X-1.44 Y42.337 I10.089 J17.781
G1 X-1.443 Y42.348
X-1.479 Y45.995
X-1.474 Y46.007
X-1.462 Y46.014
X-1.449 Y46.012
X-1.44 Y46.002
G3 X10.017 Y35.123 I17.461 J6.917
G1 X10.053 Y35.105
X10.081 Y35.076
X10.1 Y35.04
X10.106 Y35
X10.1 Y34.96
X10.081 Y34.924
X10.053 Y34.895
X10.017 Y34.877
G3 X-1.44 Y24.045 I5.917 J-17.733
G1 X-1.441 Y24.037
X-1.159 Y16.314
X-1.153 Y16.3
X-1.139 Y16.295
X-1.125 Y16.301
X-1.119 Y16.315
X-1.12 Y17.144
G2 X12.587 Y33.874 I17.064 J0
G3 X12.87 Y34.08 I-0.084 J0.414
G1 X12.88 Y34.088
X12.892 Y34.089
X14.55 Y33.677
X14.561 Y33.669
X14.565 Y33.657
Y32.796
G2 X14.285 Y32.483 I-0.315 J0
G3 X0.52 Y17.144 I1.665 J-15.339
G1 X0.523 Y14.658
Y14.646
Z5
X12.876 Y35.911
Z2.02 F333.3
Z-0.992 F1000
X12.87 Y35.921
G3 X12.587 Y36.126 I-0.367 J-0.208
G2 X-1.12 Y52.856 I3.424 J16.786
G1 X-1.119 Y53.685
X-1.113 Y53.699
X0.488 Y55.356
X0.503 Y55.363
X0.517 Y55.357
X0.523 Y55.343
X0.52 Y52.856
G3 X14.285 Y37.517 I15.486 J0.05
G2 X14.565 Y37.204 I-0.035 J-0.313
G1 Y36.344
Y36.333
Z5
X2.163 Y55.685
Z2.02 F333.3
Z-0.992 F1000
Y55.673
X2.16 Y52.856
G3 X15.892 Y39.062 I13.84 J0.045
G2 X16.205 Y38.746 I-0.002 J-0.315
G1 Y31.254
G2 X15.892 Y30.938 I-0.315 J0
G3 X2.16 Y17.144 I0.063 J-13.795
G1 X2.163 Y14.327
X2.167 Y14.316
X2.176 Y14.308
X2.188
X3.788 Y14.737
X3.798 Y14.744
X3.803 Y14.756
X3.8 Y17.144
G2 X17.579 Y29.196 I12.16 J0
G3 X17.845 Y29.429 I0.031 J0.233
G1 Y40.571
G3 X17.579 Y40.804 I-0.235 J0
G2 X3.8 Y52.856 I-1.584 J12.092
G1 X3.803 Y55.243
X3.807 Y55.255
X3.817 Y55.262
X3.83
X5.429 Y54.665
X5.438 Y54.658
X5.442 Y54.647
X5.44 Y52.856
G3 X19.179 Y42.833 I10.55 J0.033
G2 X19.485 Y42.609 I0.071 J-0.224
G1 Y27.391
G2 X19.179 Y27.167 I-0.235 J0
G3 X5.44 Y17.144 I-3.213 J-10.023
G1 X5.442 Y15.353
X5.446 Y15.341
X5.456 Y15.334
X5.469
X7.068 Y15.931
X7.078 Y15.938
X7.081 Y15.95
X7.08 Y17.144
G2 X19.051 Y25.526 I8.92 J0
X19.942 Y25.178 I-6.955 J-19.109
G3 X20.833 Y24.829 I7.846 J18.761
X21.125 Y25.034 I0.074 J0.205
G1 Y44.966
G3 X20.833 Y45.171 I-0.218 J0
X19.942 Y44.822 I6.956 J-19.112
G2 X19.051 Y44.474 I-7.84 J18.746
X7.08 Y52.856 I-3.051 J8.382
G1 X7.081 Y54.05
X7.085 Y54.062
X7.096 Y54.069
X7.108
X8.708 Y53.473
X8.717 Y53.465
X8.721 Y53.454
X8.72 Y52.856
G3 X18.49 Y46.015 I7.28 J0
X20.481 Y46.764 I-34.33 J94.328
G2 X22.473 Y47.513 I36.396 J-93.778
X22.765 Y47.308 I0.074 J-0.205
G1 Y22.692
G2 X22.473 Y22.487 I-0.218 J0
X20.481 Y23.236 I34.403 J94.521
G3 X18.49 Y23.985 I-36.395 J-93.773
X8.72 Y17.144 I-2.49 J-6.841
G1 X8.721 Y16.546
X8.725 Y16.534
X8.735 Y16.527
X8.748
X10.347 Y17.125
X10.356 Y17.132
X10.36 Y17.144
G2 X17.929 Y22.444 I5.64 J0
G1 X24.113 Y20.145
G3 X24.405 Y20.35 I0.074 J0.205
G1 Y49.65
G3 X24.113 Y49.855 I-0.218 J0
G1 X17.929 Y47.556
G2 X10.36 Y52.856 I-1.929 J5.3
G1 X10.364 Y52.868
X10.374 Y52.875
X10.386
X12.075 Y52.323
X12.084 Y52.317
X12.088 Y52.307
G3 X17.351 Y49.145 I3.912 J0.549
G1 X25.983 Y52.286
X26.007 Y52.289
X26.029 Y52.28
X26.044 Y52.262
X26.05 Y52.239
Y17.761
X26.044 Y17.738
X26.029 Y17.72
X26.007 Y17.711
X25.983 Y17.714
X17.351 Y20.856
G3 X12.088 Y17.693 I-1.351 J-3.712
G1 X12.081 Y17.68
X12.067 Y17.676
X12.054 Y17.683
X-1.448 Y33.075
X-1.453 Y33.089
X-1.447 Y33.102
Z-1.983
X-1.44 Y33.11
G2 X0.315 Y34.824 I17.307 J-15.967
G3 X0.315 Y35.176 I-0.156 J0.176
G2 X-1.439 Y36.902 I15.774 J17.781
G1 X-1.444 Y36.916
X-1.475 Y39.434
X-1.469 Y39.449
X-1.454 Y39.454
X-1.44 Y39.446
G3 X2.899 Y35.189 I17.506 J13.5
G2 X2.899 Y34.811 I-0.14 J-0.189
G3 X-1.44 Y30.582 I12.991 J-17.667
G1 X-1.444 Y30.57
X-1.476 Y27.714
X-1.47 Y27.698
X-1.453 Y27.694
X-1.439 Y27.703
G2 X5.955 Y34.848 I17.351 J-10.559
G3 X5.955 Y35.152 I-0.086 J0.152
G2 X-1.44 Y42.337 I10.089 J17.781
G1 X-1.443 Y42.348
X-1.479 Y45.995
X-1.474 Y46.007
X-1.462 Y46.014
X-1.449 Y46.012
X-1.44 Y46.002
G3 X10.017 Y35.123 I17.461 J6.917
G1 X10.053 Y35.105
X10.081 Y35.076
X10.1 Y35.04
X10.106 Y35
X10.1 Y34.96
X10.081 Y34.924
X10.053 Y34.895
X10.017 Y34.877
G3 X-1.44 Y24.045 I5.917 J-17.733
G1 X-1.441 Y24.037
X-1.159 Y16.314
X-1.153 Y16.3
X-1.139 Y16.295
X-1.125 Y16.301
X-1.119 Y16.315
X-1.12 Y17.144
G2 X12.587 Y33.874 I17.064 J0
G3 X12.87 Y34.08 I-0.084 J0.414
G1 X12.88 Y34.088
X12.892 Y34.089
X14.55 Y33.677
X14.561 Y33.669
X14.565 Y33.657
Y32.796
G2 X14.285 Y32.483 I-0.315 J0
G3 X0.52 Y17.144 I1.665 J-15.339
G1 X0.523 Y14.658
Y14.646
Z1.028
X12.876 Y35.911
Z-1.983
X12.87 Y35.921
G3 X12.587 Y36.126 I-0.367 J-0.208
G2 X-1.12 Y52.856 I3.424 J16.786
G1 X-1.119 Y53.685
X-1.113 Y53.699
X0.488 Y55.356
X0.503 Y55.363
X0.517 Y55.357
X0.523 Y55.343
X0.52 Y52.856
G3 X14.285 Y37.517 I15.486 J0.05
G2 X14.565 Y37.204 I-0.035 J-0.313
G1 Y36.344
Y36.333
Z1.028
X2.163 Y55.685
Z-1.983
Y55.673
X2.16 Y52.856
G3 X15.892 Y39.062 I13.84 J0.045
G2 X16.205 Y38.746 I-0.002 J-0.315
G1 Y31.254
G2 X15.892 Y30.938 I-0.315 J0
G3 X2.16 Y17.144 I0.063 J-13.795
G1 X2.163 Y14.327
X2.167 Y14.316
X2.176 Y14.308
X2.188
X3.788 Y14.737
X3.798 Y14.744
X3.803 Y14.756
X3.8 Y17.144
G2 X17.579 Y29.196 I12.16 J0
G3 X17.845 Y29.429 I0.031 J0.233
G1 Y40.571
G3 X17.579 Y40.804 I-0.235 J0
G2 X3.8 Y52.856 I-1.584 J12.092
G1 X3.803 Y55.243
X3.807 Y55.255
X3.817 Y55.262
X3.83
X5.429 Y54.665
X5.438 Y54.658
X5.442 Y54.647
X5.44 Y52.856
G3 X19.179 Y42.833 I10.55 J0.033
G2 X19.485 Y42.609 I0.071 J-0.224
G1 Y27.391
G2 X19.179 Y27.167 I-0.235 J0
G3 X5.44 Y17.144 I-3.213 J-10.023
G1 X5.442 Y15.353
X5.446 Y15.341
X5.456 Y15.334
X5.469
X7.068 Y15.931
X7.078 Y15.938
X7.081 Y15.95
X7.08 Y17.144
G2 X19.051 Y25.526 I8.92 J0
X19.942 Y25.178 I-6.955 J-19.109
G3 X20.833 Y24.829 I7.846 J18.761
X21.125 Y25.034 I0.074 J0.205
G1 Y44.966
G3 X20.833 Y45.171 I-0.218 J0
X19.942 Y44.822 I6.956 J-19.112
G2 X19.051 Y44.474 I-7.84 J18.746
X7.08 Y52.856 I-3.051 J8.382
G1 X7.081 Y54.05
X7.085 Y54.062
X7.096 Y54.069
X7.108
X8.708 Y53.473
X8.717 Y53.465
X8.721 Y53.454
X8.72 Y52.856
G3 X18.49 Y46.015 I7.28 J0
X20.481 Y46.764 I-34.33 J94.328
G2 X22.473 Y47.513 I36.396 J-93.778
X22.765 Y47.308 I0.074 J-0.205
G1 Y22.692
G2 X22.473 Y22.487 I-0.218 J0
X20.481 Y23.236 I34.403 J94.521
G3 X18.49 Y23.985 I-36.395 J-93.773
X8.72 Y17.144 I-2.49 J-6.841
G1 X8.721 Y16.546
X8.725 Y16.534
X8.735 Y16.527
X8.748
X10.347 Y17.125
X10.356 Y17.132
X10.36 Y17.144
G2 X17.929 Y22.444 I5.64 J0
G1 X24.113 Y20.145
G3 X24.405 Y20.35 I0.074 J0.205
G1 Y49.65
G3 X24.113 Y49.855 I-0.218 J0
G1 X17.929 Y47.556
G2 X10.36 Y52.856 I-1.929 J5.3
G1 X10.364 Y52.868
X10.374 Y52.875
X10.386
X12.075 Y52.323
X12.084 Y52.317
X12.088 Y52.307
G3 X17.351 Y49.145 I3.912 J0.549
G1 X25.983 Y52.286
X26.007 Y52.289
X26.029 Y52.28
X26.044 Y52.262
X26.05 Y52.239
Y17.761
X26.044 Y17.738
X26.029 Y17.72
X26.007 Y17.711
X25.983 Y17.714
X17.351 Y20.856
G3 X12.088 Y17.693 I-1.351 J-3.712
G1 X12.081 Y17.68
X12.067 Y17.676
X12.054 Y17.683
X-1.448 Y33.075
X-1.453 Y33.089
X-1.447 Y33.102
Z-2.975
X-1.44 Y33.11
G2 X0.315 Y34.824 I17.307 J-15.967
G3 X0.315 Y35.176 I-0.156 J0.176
G2 X-1.439 Y36.902 I15.774 J17.781
G1 X-1.444 Y36.916
X-1.475 Y39.434
X-1.469 Y39.449
X-1.454 Y39.454
X-1.44 Y39.446
G3 X2.899 Y35.189 I17.506 J13.5
G2 X2.899 Y34.811 I-0.14 J-0.189
G3 X-1.44 Y30.582 I12.991 J-17.667
G1 X-1.444 Y30.57
X-1.476 Y27.714
X-1.47 Y27.698
X-1.453 Y27.694
X-1.439 Y27.703
G2 X5.955 Y34.848 I17.351 J-10.559
G3 X5.955 Y35.152 I-0.086 J0.152
G2 X-1.44 Y42.337 I10.089 J17.781
G1 X-1.443 Y42.348
X-1.479 Y45.995
X-1.474 Y46.007
X-1.462 Y46.014
X-1.449 Y46.012
X-1.44 Y46.002
G3 X10.017 Y35.123 I17.461 J6.917
G1 X10.053 Y35.105
X10.081 Y35.076
X10.1 Y35.04
X10.106 Y35
X10.1 Y34.96
X10.081 Y34.924
X10.053 Y34.895
X10.017 Y34.877
G3 X-1.44 Y24.045 I5.917 J-17.733
G1 X-1.441 Y24.037
X-1.159 Y16.314
X-1.153 Y16.3
X-1.139 Y16.295
X-1.125 Y16.301
X-1.119 Y16.315
X-1.12 Y17.144
G2 X12.587 Y33.874 I17.064 J0
G3 X12.87 Y34.08 I-0.084 J0.414
G1 X12.88 Y34.088
X12.892 Y34.089
X14.55 Y33.677
X14.561 Y33.669
X14.565 Y33.657
Y32.796
G2 X14.285 Y32.483 I-0.315 J0
G3 X0.52 Y17.144 I1.665 J-15.339
G1 X0.523 Y14.658
Y14.646
Z0.037
X12.876 Y35.911
Z-2.975
X12.87 Y35.921
G3 X12.587 Y36.126 I-0.367 J-0.208
G2 X-1.12 Y52.856 I3.424 J16.786
G1 X-1.119 Y53.685
X-1.113 Y53.699
X0.488 Y55.356
X0.503 Y55.363
X0.517 Y55.357
X0.523 Y55.343
X0.52 Y52.856
G3 X14.285 Y37.517 I15.486 J0.05
G2 X14.565 Y37.204 I-0.035 J-0.313
G1 Y36.344
Y36.333
Z0.037
X2.163 Y55.685
Z-2.975
Y55.673
X2.16 Y52.856
G3 X15.892 Y39.062 I13.84 J0.045
G2 X16.205 Y38.746 I-0.002 J-0.315
G1 Y31.254
G2 X15.892 Y30.938 I-0.315 J0
G3 X2.16 Y17.144 I0.063 J-13.795
G1 X2.163 Y14.327
X2.167 Y14.316
X2.176 Y14.308
X2.188
X3.788 Y14.737
X3.798 Y14.744
X3.803 Y14.756
X3.8 Y17.144
G2 X17.579 Y29.196 I12.16 J0
G3 X17.845 Y29.429 I0.031 J0.233
G1 Y40.571
G3 X17.579 Y40.804 I-0.235 J0
G2 X3.8 Y52.856 I-1.584 J12.092
G1 X3.803 Y55.243
X3.807 Y55.255
X3.817 Y55.262
X3.83
X5.429 Y54.665
X5.438 Y54.658
X5.442 Y54.647
X5.44 Y52.856
G3 X19.179 Y42.833 I10.55 J0.033
G2 X19.485 Y42.609 I0.071 J-0.224
G1 Y27.391
G2 X19.179 Y27.167 I-0.235 J0
G3 X5.44 Y17.144 I-3.213 J-10.023
G1 X5.442 Y15.353
X5.446 Y15.341
X5.456 Y15.334
X5.469
X7.068 Y15.931
X7.078 Y15.938
X7.081 Y15.95
X7.08 Y17.144
G2 X19.051 Y25.526 I8.92 J0
X19.942 Y25.178 I-6.955 J-19.109
G3 X20.833 Y24.829 I7.846 J18.761
X21.125 Y25.034 I0.074 J0.205
G1 Y44.966
G3 X20.833 Y45.171 I-0.218 J0
X19.942 Y44.822 I6.956 J-19.112
G2 X19.051 Y44.474 I-7.84 J18.746
X7.08 Y52.856 I-3.051 J8.382
G1 X7.081 Y54.05
X7.085 Y54.062
X7.096 Y54.069
X7.108
X8.708 Y53.473
X8.717 Y53.465
X8.721 Y53.454
X8.72 Y52.856
G3 X18.49 Y46.015 I7.28 J0
X20.481 Y46.764 I-34.33 J94.328
G2 X22.473 Y47.513 I36.396 J-93.778
X22.765 Y47.308 I0.074 J-0.205
G1 Y22.692
G2 X22.473 Y22.487 I-0.218 J0
X20.481 Y23.236 I34.403 J94.521
G3 X18.49 Y23.985 I-36.395 J-93.773
X8.72 Y17.144 I-2.49 J-6.841
G1 X8.721 Y16.546
X8.725 Y16.534
X8.735 Y16.527
X8.748
X10.347 Y17.125
X10.356 Y17.132
X10.36 Y17.144
G2 X17.929 Y22.444 I5.64 J0
G1 X24.113 Y20.145
G3 X24.405 Y20.35 I0.074 J0.205
G1 Y49.65
G3 X24.113 Y49.855 I-0.218 J0
G1 X17.929 Y47.556
G2 X10.36 Y52.856 I-1.929 J5.3
G1 X10.364 Y52.868
X10.374 Y52.875
X10.386
X12.075 Y52.323
X12.084 Y52.317
X12.088 Y52.307
G3 X17.351 Y49.145 I3.912 J0.549
G1 X25.983 Y52.286
X26.007 Y52.289
X26.029 Y52.28
X26.044 Y52.262
X26.05 Y52.239
Y17.761
X26.044 Y17.738
X26.029 Y17.72
X26.007 Y17.711
X25.983 Y17.714
X17.351 Y20.856
G3 X12.088 Y17.693 I-1.351 J-3.712
G1 X12.081 Y17.68
X12.067 Y17.676
X12.054 Y17.683
X-1.448 Y33.075
X-1.453 Y33.089
X-1.447 Y33.102
Z-3.967
X-1.44 Y33.11
G2 X0.315 Y34.824 I17.307 J-15.967
G3 X0.315 Y35.176 I-0.156 J0.176
G2 X-1.439 Y36.902 I15.774 J17.781
G1 X-1.444 Y36.916
X-1.475 Y39.434
X-1.469 Y39.449
X-1.454 Y39.454
X-1.44 Y39.446
G3 X2.899 Y35.189 I17.506 J13.5
G2 X2.899 Y34.811 I-0.14 J-0.189
G3 X-1.44 Y30.582 I12.991 J-17.667
G1 X-1.444 Y30.57
X-1.476 Y27.714
X-1.47 Y27.698
X-1.453 Y27.694
X-1.439 Y27.703
G2 X5.955 Y34.848 I17.351 J-10.559
G3 X5.955 Y35.152 I-0.086 J0.152
G2 X-1.44 Y42.337 I10.089 J17.781
G1 X-1.443 Y42.348
X-1.479 Y45.995
X-1.474 Y46.007
X-1.462 Y46.014
X-1.449 Y46.012
X-1.44 Y46.002
G3 X10.017 Y35.123 I17.461 J6.917
G1 X10.053 Y35.105
X10.081 Y35.076
X10.1 Y35.04
X10.106 Y35
X10.1 Y34.96
X10.081 Y34.924
X10.053 Y34.895
X10.017 Y34.877
G3 X-1.44 Y24.045 I5.917 J-17.733
G1 X-1.441 Y24.037
X-1.159 Y16.314
X-1.153 Y16.3
X-1.139 Y16.295
X-1.125 Y16.301
X-1.119 Y16.315
X-1.12 Y17.144
G2 X12.587 Y33.874 I17.064 J0
G3 X12.87 Y34.08 I-0.084 J0.414
G1 X12.88 Y34.088
X12.892 Y34.089
X14.55 Y33.677
X14.561 Y33.669
X14.565 Y33.657
Y32.796
G2 X14.285 Y32.483 I-0.315 J0
G3 X0.52 Y17.144 I1.665 J-15.339
G1 X0.523 Y14.658
Y14.646
Z-0.955
X12.876 Y35.911
Z-3.967
X12.87 Y35.921
G3 X12.587 Y36.126 I-0.367 J-0.208
G2 X-1.12 Y52.856 I3.424 J16.786
G1 X-1.119 Y53.685
X-1.113 Y53.699
X0.488 Y55.356
X0.503 Y55.363
X0.517 Y55.357
X0.523 Y55.343
X0.52 Y52.856
G3 X14.285 Y37.517 I15.486 J0.05
G2 X14.565 Y37.204 I-0.035 J-0.313
G1 Y36.344
Y36.333
Z-0.955
X2.163 Y55.685
Z-3.967
Y55.673
X2.16 Y52.856
G3 X15.892 Y39.062 I13.84 J0.045
G2 X16.205 Y38.746 I-0.002 J-0.315
G1 Y31.254
G2 X15.892 Y30.938 I-0.315 J0
G3 X2.16 Y17.144 I0.063 J-13.795
G1 X2.163 Y14.327
X2.167 Y14.316
X2.176 Y14.308
X2.188
X3.788 Y14.737
X3.798 Y14.744
X3.803 Y14.756
X3.8 Y17.144
G2 X17.579 Y29.196 I12.16 J0
G3 X17.845 Y29.429 I0.031 J0.233
G1 Y40.571
G3 X17.579 Y40.804 I-0.235 J0
G2 X3.8 Y52.856 I-1.584 J12.092
G1 X3.803 Y55.243
X3.807 Y55.255
X3.817 Y55.262
X3.83
X5.429 Y54.665
X5.438 Y54.658
X5.442 Y54.647
X5.44 Y52.856
G3 X19.179 Y42.833 I10.55 J0.033
G2 X19.485 Y42.609 I0.071 J-0.224
G1 Y27.391
G2 X19.179 Y27.167 I-0.235 J0
G3 X5.44 Y17.144 I-3.213 J-10.023
G1 X5.442 Y15.353
X5.446 Y15.341
X5.456 Y15.334
X5.469
X7.068 Y15.931
X7.078 Y15.938
X7.081 Y15.95
X7.08 Y17.144
G2 X19.051 Y25.526 I8.92 J0
X19.942 Y25.178 I-6.955 J-19.109
G3 X20.833 Y24.829 I7.846 J18.761
X21.125 Y25.034 I0.074 J0.205
G1 Y44.966
G3 X20.833 Y45.171 I-0.218 J0
X19.942 Y44.822 I6.956 J-19.112
G2 X19.051 Y44.474 I-7.84 J18.746
X7.08 Y52.856 I-3.051 J8.382
G1 X7.081 Y54.05
X7.085 Y54.062
X7.096 Y54.069
X7.108
X8.708 Y53.473
X8.717 Y53.465
X8.721 Y53.454
X8.72 Y52.856
G3 X18.49 Y46.015 I7.28 J0
X20.481 Y46.764 I-34.33 J94.328
G2 X22.473 Y47.513 I36.396 J-93.778
X22.765 Y47.308 I0.074 J-0.205
G1 Y22.692
G2 X22.473 Y22.487 I-0.218 J0
X20.481 Y23.236 I34.403 J94.521
G3 X18.49 Y23.985 I-36.395 J-93.773
X8.72 Y17.144 I-2.49 J-6.841
G1 X8.721 Y16.546
X8.725 Y16.534
X8.735 Y16.527
X8.748
X10.347 Y17.125
X10.356 Y17.132
X10.36 Y17.144
G2 X17.929 Y22.444 I5.64 J0
G1 X24.113 Y20.145
G3 X24.405 Y20.35 I0.074 J0.205
G1 Y49.65
G3 X24.113 Y49.855 I-0.218 J0
G1 X17.929 Y47.556
G2 X10.36 Y52.856 I-1.929 J5.3
G1 X10.364 Y52.868
X10.374 Y52.875
X10.386
X12.075 Y52.323
X12.084 Y52.317
X12.088 Y52.307
G3 X17.351 Y49.145 I3.912 J0.549
G1 X25.983 Y52.286
X26.007 Y52.289
X26.029 Y52.28
X26.044 Y52.262
X26.05 Y52.239
Y17.761
X26.044 Y17.738
X26.029 Y17.72
X26.007 Y17.711
X25.983 Y17.714
X17.351 Y20.856
G3 X12.088 Y17.693 I-1.351 J-3.712
G1 X12.081 Y17.68
X12.067 Y17.676
X12.054 Y17.683
X-1.448 Y33.075
X-1.453 Y33.089
X-1.447 Y33.102
Z-4.958
X-1.44 Y33.11
G2 X0.315 Y34.824 I17.307 J-15.967
G3 X0.315 Y35.176 I-0.156 J0.176
G2 X-1.439 Y36.902 I15.774 J17.781
G1 X-1.444 Y36.916
X-1.475 Y39.434
X-1.469 Y39.449
X-1.454 Y39.454
X-1.44 Y39.446
G3 X2.899 Y35.189 I17.506 J13.5
G2 X2.899 Y34.811 I-0.14 J-0.189
G3 X-1.44 Y30.582 I12.991 J-17.667
G1 X-1.444 Y30.57
X-1.476 Y27.714
X-1.47 Y27.698
X-1.453 Y27.694
X-1.439 Y27.703
G2 X5.955 Y34.848 I17.351 J-10.559
G3 X5.955 Y35.152 I-0.086 J0.152
G2 X-1.44 Y42.337 I10.089 J17.781
G1 X-1.443 Y42.348
X-1.479 Y45.995
X-1.474 Y46.007
X-1.462 Y46.014
X-1.449 Y46.012
X-1.44 Y46.002
G3 X10.017 Y35.123 I17.461 J6.917
G1 X10.053 Y35.105
X10.081 Y35.076
X10.1 Y35.04
X10.106 Y35
X10.1 Y34.96
X10.081 Y34.924
X10.053 Y34.895
X10.017 Y34.877
G3 X-1.44 Y24.045 I5.917 J-17.733
G1 X-1.441 Y24.037
X-1.159 Y16.314
X-1.153 Y16.3
X-1.139 Y16.295
X-1.125 Y16.301
X-1.119 Y16.315
X-1.12 Y17.144
G2 X12.587 Y33.874 I17.064 J0
G3 X12.87 Y34.08 I-0.084 J0.414
G1 X12.88 Y34.088
X12.892 Y34.089
X14.55 Y33.677
X14.561 Y33.669
X14.565 Y33.657
Y32.796
G2 X14.285 Y32.483 I-0.315 J0
G3 X0.52 Y17.144 I1.665 J-15.339
G1 X0.523 Y14.658
Y14.646
Z-1.947
X12.876 Y35.911
Z-4.958
X12.87 Y35.921
G3 X12.587 Y36.126 I-0.367 J-0.208
G2 X-1.12 Y52.856 I3.424 J16.786
G1 X-1.119 Y53.685
X-1.113 Y53.699
X0.488 Y55.356
X0.503 Y55.363
X0.517 Y55.357
X0.523 Y55.343
X0.52 Y52.856
G3 X14.285 Y37.517 I15.486 J0.05
G2 X14.565 Y37.204 I-0.035 J-0.313
G1 Y36.344
Y36.333
Z-1.947
X2.163 Y55.685
Z-4.958
Y55.673
X2.16 Y52.856
G3 X15.892 Y39.062 I13.84 J0.045
G2 X16.205 Y38.746 I-0.002 J-0.315
G1 Y31.254
G2 X15.892 Y30.938 I-0.315 J0
G3 X2.16 Y17.144 I0.063 J-13.795
G1 X2.163 Y14.327
X2.167 Y14.316
X2.176 Y14.308
X2.188
X3.788 Y14.737
X3.798 Y14.744
X3.803 Y14.756
X3.8 Y17.144
G2 X17.579 Y29.196 I12.16 J0
G3 X17.845 Y29.429 I0.031 J0.233
G1 Y40.571
G3 X17.579 Y40.804 I-0.235 J0
G2 X3.8 Y52.856 I-1.584 J12.092
G1 X3.803 Y55.243
X3.807 Y55.255
X3.817 Y55.262
X3.83
X5.429 Y54.665
X5.438 Y54.658
X5.442 Y54.647
X5.44 Y52.856
G3 X19.179 Y42.833 I10.55 J0.033
G2 X19.485 Y42.609 I0.071 J-0.224
G1 Y27.391
G2 X19.179 Y27.167 I-0.235 J0
G3 X5.44 Y17.144 I-3.213 J-10.023
G1 X5.442 Y15.353
X5.446 Y15.341
X5.456 Y15.334
X5.469
X7.068 Y15.931
X7.078 Y15.938
X7.081 Y15.95
X7.08 Y17.144
G2 X19.051 Y25.526 I8.92 J0
X19.942 Y25.178 I-6.955 J-19.109
G3 X20.833 Y24.829 I7.846 J18.761
X21.125 Y25.034 I0.074 J0.205
G1 Y44.966
G3 X20.833 Y45.171 I-0.218 J0
X19.942 Y44.822 I6.956 J-19.112
G2 X19.051 Y44.474 I-7.84 J18.746
X7.08 Y52.856 I-3.051 J8.382
G1 X7.081 Y54.05
X7.085 Y54.062
X7.096 Y54.069
X7.108
X8.708 Y53.473
X8.717 Y53.465
X8.721 Y53.454
X8.72 Y52.856
G3 X18.49 Y46.015 I7.28 J0
X20.481 Y46.764 I-34.33 J94.328
G2 X22.473 Y47.513 I36.396 J-93.778
X22.765 Y47.308 I0.074 J-0.205
G1 Y22.692
G2 X22.473 Y22.487 I-0.218 J0
X20.481 Y23.236 I34.403 J94.521
G3 X18.49 Y23.985 I-36.395 J-93.773
X8.72 Y17.144 I-2.49 J-6.841
G1 X8.721 Y16.546
X8.725 Y16.534
X8.735 Y16.527
X8.748
X10.347 Y17.125
X10.356 Y17.132
X10.36 Y17.144
G2 X17.929 Y22.444 I5.64 J0
G1 X24.113 Y20.145
G3 X24.405 Y20.35 I0.074 J0.205
G1 Y49.65
G3 X24.113 Y49.855 I-0.218 J0
G1 X17.929 Y47.556
G2 X10.36 Y52.856 I-1.929 J5.3
G1 X10.364 Y52.868
X10.374 Y52.875
X10.386
X12.075 Y52.323
X12.084 Y52.317
X12.088 Y52.307
G3 X17.351 Y49.145 I3.912 J0.549
G1 X25.983 Y52.286
X26.007 Y52.289
X26.029 Y52.28
X26.044 Y52.262
X26.05 Y52.239
Y17.761
X26.044 Y17.738
X26.029 Y17.72
X26.007 Y17.711
X25.983 Y17.714
X17.351 Y20.856
G3 X12.088 Y17.693 I-1.351 J-3.712
G1 X12.081 Y17.68
X12.067 Y17.676
X12.054 Y17.683
X-1.448 Y33.075
X-1.453 Y33.089
X-1.447 Y33.102
Z-5.95
X-1.44 Y33.11
G2 X0.315 Y34.824 I17.307 J-15.967
G3 X0.315 Y35.176 I-0.156 J0.176
G2 X-1.439 Y36.902 I15.774 J17.781
G1 X-1.444 Y36.916
X-1.475 Y39.434
X-1.469 Y39.449
X-1.454 Y39.454
X-1.44 Y39.446
G3 X2.899 Y35.189 I17.506 J13.5
G2 X2.899 Y34.811 I-0.14 J-0.189
G3 X-1.44 Y30.582 I12.991 J-17.667
G1 X-1.444 Y30.57
X-1.476 Y27.714
X-1.47 Y27.698
X-1.453 Y27.694
X-1.439 Y27.703
G2 X5.955 Y34.848 I17.351 J-10.559
G3 X5.955 Y35.152 I-0.086 J0.152
G2 X-1.44 Y42.337 I10.089 J17.781
G1 X-1.443 Y42.348
X-1.479 Y45.995
X-1.474 Y46.007
X-1.462 Y46.014
X-1.449 Y46.012
X-1.44 Y46.002
G3 X10.017 Y35.123 I17.461 J6.917
G1 X10.053 Y35.105
X10.081 Y35.076
X10.1 Y35.04
X10.106 Y35
X10.1 Y34.96
X10.081 Y34.924
X10.053 Y34.895
X10.017 Y34.877
G3 X-1.44 Y24.045 I5.917 J-17.733
G1 X-1.441 Y24.037
X-1.159 Y16.314
X-1.153 Y16.3
X-1.139 Y16.295
X-1.125 Y16.301
X-1.119 Y16.315
X-1.12 Y17.144
G2 X12.587 Y33.874 I17.064 J0
G3 X12.87 Y34.08 I-0.084 J0.414
G1 X12.88 Y34.088
X12.892 Y34.089
X14.55 Y33.677
X14.561 Y33.669
X14.565 Y33.657
Y32.796
G2 X14.285 Y32.483 I-0.315 J0
G3 X0.52 Y17.144 I1.665 J-15.339
G1 X0.523 Y14.658
Y14.646
Z-2.938
X12.876 Y35.911
Z-5.95
X12.87 Y35.921
G3 X12.587 Y36.126 I-0.367 J-0.208
G2 X-1.12 Y52.856 I3.424 J16.786
G1 X-1.119 Y53.685
X-1.113 Y53.699
X0.488 Y55.356
X0.503 Y55.363
X0.517 Y55.357
X0.523 Y55.343
X0.52 Y52.856
G3 X14.285 Y37.517 I15.486 J0.05
G2 X14.565 Y37.204 I-0.035 J-0.313
G1 Y36.344
Y36.333
Z-2.938
X2.163 Y55.685
Z-5.95
Y55.673
X2.16 Y52.856
G3 X15.892 Y39.062 I13.84 J0.045
G2 X16.205 Y38.746 I-0.002 J-0.315
G1 Y31.254
G2 X15.892 Y30.938 I-0.315 J0
G3 X2.16 Y17.144 I0.063 J-13.795
G1 X2.163 Y14.327
X2.167 Y14.316
X2.176 Y14.308
X2.188
X3.788 Y14.737
X3.798 Y14.744
X3.803 Y14.756
X3.8 Y17.144
G2 X17.579 Y29.196 I12.16 J0
G3 X17.845 Y29.429 I0.031 J0.233
G1 Y40.571
G3 X17.579 Y40.804 I-0.235 J0
G2 X3.8 Y52.856 I-1.584 J12.092
G1 X3.803 Y55.243
X3.807 Y55.255
X3.817 Y55.262
X3.83
X5.429 Y54.665
X5.438 Y54.658
X5.442 Y54.647
X5.44 Y52.856
G3 X19.179 Y42.833 I10.55 J0.033
G2 X19.485 Y42.609 I0.071 J-0.224
G1 Y27.391
G2 X19.179 Y27.167 I-0.235 J0
G3 X5.44 Y17.144 I-3.213 J-10.023
G1 X5.442 Y15.353
X5.446 Y15.341
X5.456 Y15.334
X5.469
X7.068 Y15.931
X7.078 Y15.938
X7.081 Y15.95
X7.08 Y17.144
G2 X19.051 Y25.526 I8.92 J0
X19.942 Y25.178 I-6.955 J-19.109
G3 X20.833 Y24.829 I7.846 J18.761
X21.125 Y25.034 I0.074 J0.205
G1 Y44.966
G3 X20.833 Y45.171 I-0.218 J0
X19.942 Y44.822 I6.956 J-19.112
G2 X19.051 Y44.474 I-7.84 J18.746
X7.08 Y52.856 I-3.051 J8.382
G1 X7.081 Y54.05
X7.085 Y54.062
X7.096 Y54.069
X7.108
X8.708 Y53.473
X8.717 Y53.465
X8.721 Y53.454
X8.72 Y52.856
G3 X18.49 Y46.015 I7.28 J0
X20.481 Y46.764 I-34.33 J94.328
G2 X22.473 Y47.513 I36.396 J-93.778
X22.765 Y47.308 I0.074 J-0.205
G1 Y22.692
G2 X22.473 Y22.487 I-0.218 J0
X20.481 Y23.236 I34.403 J94.521
G3 X18.49 Y23.985 I-36.395 J-93.773
X8.72 Y17.144 I-2.49 J-6.841
G1 X8.721 Y16.546
X8.725 Y16.534
X8.735 Y16.527
X8.748
X10.347 Y17.125
X10.356 Y17.132
X10.36 Y17.144
G2 X17.929 Y22.444 I5.64 J0
G1 X24.113 Y20.145
G3 X24.405 Y20.35 I0.074 J0.205
G1 Y49.65
G3 X24.113 Y49.855 I-0.218 J0
G1 X17.929 Y47.556
G2 X10.36 Y52.856 I-1.929 J5.3
G1 X10.364 Y52.868
X10.374 Y52.875
X10.386
X12.075 Y52.323
X12.084 Y52.317
X12.088 Y52.307
G3 X17.351 Y49.145 I3.912 J0.549
G1 X25.983 Y52.286
X26.007 Y52.289
X26.029 Y52.28
X26.044 Y52.262
X26.05 Y52.239
Y17.761
X26.044 Y17.738
X26.029 Y17.72
X26.007 Y17.711
X25.983 Y17.714
X17.351 Y20.856
G3 X12.088 Y17.693 I-1.351 J-3.712
G1 X11.887 Y16.257
Z10
X229.447 Y36.898
Z5
Z2.02 F333.3
Z-0.992 F1000
X229.44 Y36.89
G2 X227.685 Y35.176 I-17.307 J15.967
G3 X227.685 Y34.824 I0.156 J-0.176
G2 X229.439 Y33.098 I-15.774 J-17.781
G1 X229.444 Y33.084
X229.475 Y30.566
X229.469 Y30.551
X229.454 Y30.546
X229.439 Y30.554
G3 X225.101 Y34.811 I-17.506 J-13.5
G2 X225.101 Y35.189 I0.14 J0.189
G3 X229.44 Y39.418 I-12.991 J17.667
G1 X229.444 Y39.43
X229.476 Y42.286
X229.47 Y42.302
X229.453 Y42.306
X229.439 Y42.297
G2 X222.045 Y35.152 I-17.351 J10.559
G3 X222.045 Y34.848 I0.086 J-0.152
G2 X229.44 Y27.663 I-10.089 J-17.781
G1 X229.443 Y27.652
X229.479 Y24.005
X229.474 Y23.993
X229.462 Y23.986
X229.449 Y23.988
X229.44 Y23.998
G3 X217.983 Y34.877 I-17.461 J-6.917
G1 X217.947 Y34.895
X217.919 Y34.924
X217.9 Y34.96
X217.894 Y35
X217.9 Y35.04
X217.919 Y35.076
X217.947 Y35.105
X217.983 Y35.123
G3 X229.44 Y45.955 I-5.917 J17.733
G1 X229.441 Y45.963
X229.159 Y53.686
X229.153 Y53.7
X229.139 Y53.705
X229.125 Y53.7
X229.119 Y53.685
X229.12 Y52.856
G2 X215.413 Y36.126 I-17.064 J0
G3 X215.13 Y35.92 I0.084 J-0.414
G1 X215.12 Y35.912
X215.108 Y35.911
X213.45 Y36.325
X213.439 Y36.332
X213.435 Y36.344
Y37.204
G2 X213.715 Y37.517 I0.315 J0
G3 X227.48 Y52.856 I-1.665 J15.339
G1 X227.477 Y55.343
Y55.354
Z5
X215.124 Y34.089
Z2.02 F333.3
Z-0.992 F1000
X215.13 Y34.079
G3 X215.413 Y33.874 I0.367 J0.208
G2 X229.12 Y17.144 I-3.424 J-16.786
G1 X229.119 Y16.315
X229.113 Y16.301
X227.512 Y14.644
X227.497 Y14.637
X227.483 Y14.643
X227.477 Y14.657
X227.48 Y17.144
G3 X213.715 Y32.483 I-15.486 J-0.05
G2 X213.435 Y32.796 I0.035 J0.313
G1 Y33.656
Y33.667
Z5
X225.837 Y14.315
Z2.02 F333.3
Z-0.992 F1000
Y14.327
X225.84 Y17.144
G3 X212.108 Y30.938 I-13.84 J-0.045
G2 X211.795 Y31.254 I0.002 J0.315
G1 Y38.746
G2 X212.108 Y39.062 I0.315 J0
G3 X225.84 Y52.856 I-0.063 J13.795
G1 X225.837 Y55.673
X225.833 Y55.685
X225.824 Y55.692
X225.812
X224.212 Y55.263
X224.202 Y55.256
X224.197 Y55.244
X224.2 Y52.856
G2 X210.421 Y40.804 I-12.16 J0
G3 X210.155 Y40.571 I-0.031 J-0.233
G1 Y29.429
G3 X210.421 Y29.196 I0.235 J0
G2 X224.2 Y17.144 I1.584 J-12.092
G1 X224.197 Y14.757
X224.193 Y14.745
X224.183 Y14.738
X224.17
X222.571 Y15.335
X222.562 Y15.342
X222.558 Y15.353
X222.56 Y17.144
G3 X208.821 Y27.167 I-10.55 J-0.033
G2 X208.515 Y27.391 I-0.071 J0.224
G1 Y42.609
G2 X208.821 Y42.833 I0.235 J0
G3 X222.56 Y52.856 I3.213 J10.023
G1 X222.558 Y54.646
X222.554 Y54.658
X222.544 Y54.665
X222.531
X220.932 Y54.068
X220.922 Y54.061
X220.919 Y54.05
X220.92 Y52.856
G2 X208.949 Y44.474 I-8.92 J0
X208.058 Y44.822 I6.955 J19.109
G3 X207.167 Y45.171 I-7.846 J-18.761
X206.875 Y44.966 I-0.074 J-0.205
G1 Y25.034
G3 X207.167 Y24.829 I0.218 J0
X208.058 Y25.178 I-6.956 J19.112
G2 X208.949 Y25.526 I7.841 J-18.747
X220.92 Y17.144 I3.051 J-8.382
G1 X220.919 Y15.95
X220.915 Y15.938
X220.904 Y15.931
X220.892
X219.292 Y16.527
X219.283 Y16.535
X219.279 Y16.546
X219.28 Y17.144
G3 X209.51 Y23.985 I-7.28 J0
X207.519 Y23.236 I34.33 J-94.328
G2 X205.527 Y22.487 I-36.396 J93.778
X205.235 Y22.692 I-0.074 J0.205
G1 Y47.308
G2 X205.527 Y47.513 I0.218 J0
X207.519 Y46.764 I-34.403 J-94.521
G3 X209.51 Y46.015 I36.395 J93.773
X219.28 Y52.856 I2.49 J6.841
G1 X219.279 Y53.453
X219.275 Y53.465
X219.265 Y53.472
X219.252
X217.653 Y52.875
X217.644 Y52.868
X217.64 Y52.856
G2 X210.071 Y47.556 I-5.64 J0
G1 X203.887 Y49.855
G3 X203.595 Y49.65 I-0.074 J-0.205
G1 Y20.35
G3 X203.887 Y20.145 I0.218 J0
G1 X210.071 Y22.444
G2 X217.64 Y17.144 I1.929 J-5.3
G1 X217.636 Y17.132
X217.626 Y17.125
X217.614
X215.925 Y17.677
X215.916 Y17.683
X215.912 Y17.693
G3 X210.649 Y20.855 I-3.912 J-0.549
G1 X202.017 Y17.714
X201.993 Y17.711
X201.971 Y17.72
X201.956 Y17.738
X201.95 Y17.761
Y52.239
X201.956 Y52.262
X201.971 Y52.28
X201.993 Y52.289
X202.017 Y52.286
X210.649 Y49.144
G3 X215.912 Y52.307 I1.351 J3.712
G1 X215.919 Y52.32
X215.933 Y52.324
X215.946 Y52.317
X229.448 Y36.925
X229.453 Y36.911
X229.447 Y36.898
Z-1.983
X229.44 Y36.89
G2 X227.685 Y35.176 I-17.307 J15.967
G3 X227.685 Y34.824 I0.156 J-0.176
G2 X229.439 Y33.098 I-15.774 J-17.781
G1 X229.444 Y33.084
X229.475 Y30.566
X229.469 Y30.551
X229.454 Y30.546
X229.439 Y30.554
G3 X225.101 Y34.811 I-17.506 J-13.5
G2 X225.101 Y35.189 I0.14 J0.189
G3 X229.44 Y39.418 I-12.991 J17.667
G1 X229.444 Y39.43
X229.476 Y42.286
X229.47 Y42.302
X229.453 Y42.306
X229.439 Y42.297
G2 X222.045 Y35.152 I-17.351 J10.559
G3 X222.045 Y34.848 I0.086 J-0.152
G2 X229.44 Y27.663 I-10.089 J-17.781
G1 X229.443 Y27.652
X229.479 Y24.005
X229.474 Y23.993
X229.462 Y23.986
X229.449 Y23.988
X229.44 Y23.998
G3 X217.983 Y34.877 I-17.461 J-6.917
G1 X217.947 Y34.895
X217.919 Y34.924
X217.9 Y34.96
X217.894 Y35
X217.9 Y35.04
X217.919 Y35.076
X217.947 Y35.105
X217.983 Y35.123
G3 X229.44 Y45.955 I-5.917 J17.733
G1 X229.441 Y45.963
X229.159 Y53.686
X229.153 Y53.7
X229.139 Y53.705
X229.125 Y53.7
X229.119 Y53.685
X229.12 Y52.856
G2 X215.413 Y36.126 I-17.064 J0
G3 X215.13 Y35.92 I0.084 J-0.414
G1 X215.12 Y35.912
X215.108 Y35.911
X213.45 Y36.325
X213.439 Y36.332
X213.435 Y36.344
Y37.204
G2 X213.715 Y37.517 I0.315 J0
G3 X227.48 Y52.856 I-1.665 J15.339
G1 X227.477 Y55.343
Y55.354
Z1.028
X215.124 Y34.089
Z-1.983
X215.13 Y34.079
G3 X215.413 Y33.874 I0.367 J0.208
G2 X229.12 Y17.144 I-3.424 J-16.786
G1 X229.119 Y16.315
X229.113 Y16.301
X227.512 Y14.644
X227.497 Y14.637
X227.483 Y14.643
X227.477 Y14.657
X227.48 Y17.144
G3 X213.715 Y32.483 I-15.486 J-0.05
G2 X213.435 Y32.796 I0.035 J0.313
G1 Y33.656
Y33.667
Z1.028
X225.837 Y14.315
Z-1.983
Y14.327
X225.84 Y17.144
G3 X212.108 Y30.938 I-13.84 J-0.045
G2 X211.795 Y31.254 I0.002 J0.315
G1 Y38.746
G2 X212.108 Y39.062 I0.315 J0
G3 X225.84 Y52.856 I-0.063 J13.795
G1 X225.837 Y55.673
X225.833 Y55.685
X225.824 Y55.692
X225.812
X224.212 Y55.263
X224.202 Y55.256
X224.197 Y55.244
X224.2 Y52.856
G2 X210.421 Y40.804 I-12.16 J0
G3 X210.155 Y40.571 I-0.031 J-0.233
G1 Y29.429
G3 X210.421 Y29.196 I0.235 J0
G2 X224.2 Y17.144 I1.584 J-12.092
G1 X224.197 Y14.757
X224.193 Y14.745
X224.183 Y14.738
X224.17
X222.571 Y15.335
X222.562 Y15.342
X222.558 Y15.353
X222.56 Y17.144
G3 X208.821 Y27.167 I-10.55 J-0.033
G2 X208.515 Y27.391 I-0.071 J0.224
G1 Y42.609
G2 X208.821 Y42.833 I0.235 J0
G3 X222.56 Y52.856 I3.213 J10.023
G1 X222.558 Y54.646
X222.554 Y54.658
X222.544 Y54.665
X222.531
X220.932 Y54.068
X220.922 Y54.061
X220.919 Y54.05
X220.92 Y52.856
G2 X208.949 Y44.474 I-8.92 J0
X208.058 Y44.822 I6.955 J19.109
G3 X207.167 Y45.171 I-7.846 J-18.761
X206.875 Y44.966 I-0.074 J-0.205
G1 Y25.034
G3 X207.167 Y24.829 I0.218 J0
X208.058 Y25.178 I-6.956 J19.112
G2 X208.949 Y25.526 I7.841 J-18.747
X220.92 Y17.144 I3.051 J-8.382
G1 X220.919 Y15.95
X220.915 Y15.938
X220.904 Y15.931
X220.892
X219.292 Y16.527
X219.283 Y16.535
X219.279 Y16.546
X219.28 Y17.144
G3 X209.51 Y23.985 I-7.28 J0
X207.519 Y23.236 I34.33 J-94.328
G2 X205.527 Y22.487 I-36.396 J93.778
X205.235 Y22.692 I-0.074 J0.205
G1 Y47.308
G2 X205.527 Y47.513 I0.218 J0
X207.519 Y46.764 I-34.403 J-94.521
G3 X209.51 Y46.015 I36.395 J93.773
X219.28 Y52.856 I2.49 J6.841
G1 X219.279 Y53.453
X219.275 Y53.465
X219.265 Y53.472
X219.252
X217.653 Y52.875
X217.644 Y52.868
X217.64 Y52.856
G2 X210.071 Y47.556 I-5.64 J0
G1 X203.887 Y49.855
G3 X203.595 Y49.65 I-0.074 J-0.205
G1 Y20.35
G3 X203.887 Y20.145 I0.218 J0
G1 X210.071 Y22.444
G2 X217.64 Y17.144 I1.929 J-5.3
G1 X217.636 Y17.132
X217.626 Y17.125
X217.614
X215.925 Y17.677
X215.916 Y17.683
X215.912 Y17.693
G3 X210.649 Y20.855 I-3.912 J-0.549
G1 X202.017 Y17.714
X201.993 Y17.711
X201.971 Y17.72
X201.956 Y17.738
X201.95 Y17.761
Y52.239
X201.956 Y52.262
X201.971 Y52.28
X201.993 Y52.289
X202.017 Y52.286
X210.649 Y49.144
G3 X215.912 Y52.307 I1.351 J3.712
G1 X215.919 Y52.32
X215.933 Y52.324
X215.946 Y52.317
X229.448 Y36.925
X229.453 Y36.911
X229.447 Y36.898
Z-2.975
X229.44 Y36.89
G2 X227.685 Y35.176 I-17.307 J15.967
G3 X227.685 Y34.824 I0.156 J-0.176
G2 X229.439 Y33.098 I-15.774 J-17.781
G1 X229.444 Y33.084
X229.475 Y30.566
X229.469 Y30.551
X229.454 Y30.546
X229.439 Y30.554
G3 X225.101 Y34.811 I-17.506 J-13.5
G2 X225.101 Y35.189 I0.14 J0.189
G3 X229.44 Y39.418 I-12.991 J17.667
G1 X229.444 Y39.43
X229.476 Y42.286
X229.47 Y42.302
X229.453 Y42.306
X229.439 Y42.297
G2 X222.045 Y35.152 I-17.351 J10.559
G3 X222.045 Y34.848 I0.086 J-0.152
G2 X229.44 Y27.663 I-10.089 J-17.781
G1 X229.443 Y27.652
X229.479 Y24.005
X229.474 Y23.993
X229.462 Y23.986
X229.449 Y23.988
X229.44 Y23.998
G3 X217.983 Y34.877 I-17.461 J-6.917
G1 X217.947 Y34.895
X217.919 Y34.924
X217.9 Y34.96
X217.894 Y35
X217.9 Y35.04
X217.919 Y35.076
X217.947 Y35.105
X217.983 Y35.123
G3 X229.44 Y45.955 I-5.917 J17.733
G1 X229.441 Y45.963
X229.159 Y53.686
X229.153 Y53.7
X229.139 Y53.705
X229.125 Y53.7
X229.119 Y53.685
X229.12 Y52.856
G2 X215.413 Y36.126 I-17.064 J0
G3 X215.13 Y35.92 I0.084 J-0.414
G1 X215.12 Y35.912
X215.108 Y35.911
X213.45 Y36.325
X213.439 Y36.332
X213.435 Y36.344
Y37.204
G2 X213.715 Y37.517 I0.315 J0
G3 X227.48 Y52.856 I-1.665 J15.339
G1 X227.477 Y55.343
Y55.354
Z0.037
X215.124 Y34.089
Z-2.975
X215.13 Y34.079
G3 X215.413 Y33.874 I0.367 J0.208
G2 X229.12 Y17.144 I-3.424 J-16.786
G1 X229.119 Y16.315
X229.113 Y16.301
X227.512 Y14.644
X227.497 Y14.637
X227.483 Y14.643
X227.477 Y14.657
X227.48 Y17.144
G3 X213.715 Y32.483 I-15.486 J-0.05
G2 X213.435 Y32.796 I0.035 J0.313
G1 Y33.656
Y33.667
Z0.037
X225.837 Y14.315
Z-2.975
Y14.327
X225.84 Y17.144
G3 X212.108 Y30.938 I-13.84 J-0.045
G2 X211.795 Y31.254 I0.002 J0.315
G1 Y38.746
G2 X212.108 Y39.062 I0.315 J0
G3 X225.84 Y52.856 I-0.063 J13.795
G1 X225.837 Y55.673
X225.833 Y55.685
X225.824 Y55.692
X225.812
X224.212 Y55.263
X224.202 Y55.256
X224.197 Y55.244
X224.2 Y52.856
G2 X210.421 Y40.804 I-12.16 J0
G3 X210.155 Y40.571 I-0.031 J-0.233
G1 Y29.429
G3 X210.421 Y29.196 I0.235 J0
G2 X224.2 Y17.144 I1.584 J-12.092
G1 X224.197 Y14.757
X224.193 Y14.745
X224.183 Y14.738
X224.17
X222.571 Y15.335
X222.562 Y15.342
X222.558 Y15.353
X222.56 Y17.144
G3 X208.821 Y27.167 I-10.55 J-0.033
G2 X208.515 Y27.391 I-0.071 J0.224
G1 Y42.609
G2 X208.821 Y42.833 I0.235 J0
G3 X222.56 Y52.856 I3.213 J10.023
G1 X222.558 Y54.646
X222.554 Y54.658
X222.544 Y54.665
X222.531
X220.932 Y54.068
X220.922 Y54.061
X220.919 Y54.05
X220.92 Y52.856
G2 X208.949 Y44.474 I-8.92 J0
X208.058 Y44.822 I6.955 J19.109
G3 X207.167 Y45.171 I-7.846 J-18.761
X206.875 Y44.966 I-0.074 J-0.205
G1 Y25.034
G3 X207.167 Y24.829 I0.218 J0
X208.058 Y25.178 I-6.956 J19.112
G2 X208.949 Y25.526 I7.841 J-18.747
X220.92 Y17.144 I3.051 J-8.382
G1 X220.919 Y15.95
X220.915 Y15.938
X220.904 Y15.931
X220.892
X219.292 Y16.527
X219.283 Y16.535
X219.279 Y16.546
X219.28 Y17.144
G3 X209.51 Y23.985 I-7.28 J0
X207.519 Y23.236 I34.33 J-94.328
G2 X205.527 Y22.487 I-36.396 J93.778
X205.235 Y22.692 I-0.074 J0.205
G1 Y47.308
G2 X205.527 Y47.513 I0.218 J0
X207.519 Y46.764 I-34.403 J-94.521
G3 X209.51 Y46.015 I36.395 J93.773
X219.28 Y52.856 I2.49 J6.841
G1 X219.279 Y53.453
X219.275 Y53.465
X219.265 Y53.472
X219.252
X217.653 Y52.875
X217.644 Y52.868
X217.64 Y52.856
G2 X210.071 Y47.556 I-5.64 J0
G1 X203.887 Y49.855
G3 X203.595 Y49.65 I-0.074 J-0.205
G1 Y20.35
G3 X203.887 Y20.145 I0.218 J0
G1 X210.071 Y22.444
G2 X217.64 Y17.144 I1.929 J-5.3
G1 X217.636 Y17.132
X217.626 Y17.125
X217.614
X215.925 Y17.677
X215.916 Y17.683
X215.912 Y17.693
G3 X210.649 Y20.855 I-3.912 J-0.549
G1 X202.017 Y17.714
X201.993 Y17.711
X201.971 Y17.72
X201.956 Y17.738
X201.95 Y17.761
Y52.239
X201.956 Y52.262
X201.971 Y52.28
X201.993 Y52.289
X202.017 Y52.286
X210.649 Y49.144
G3 X215.912 Y52.307 I1.351 J3.712
G1 X215.919 Y52.32
X215.933 Y52.324
X215.946 Y52.317
X229.448 Y36.925
X229.453 Y36.911
X229.447 Y36.898
Z-3.967
X229.44 Y36.89
G2 X227.685 Y35.176 I-17.307 J15.967
G3 X227.685 Y34.824 I0.156 J-0.176
G2 X229.439 Y33.098 I-15.774 J-17.781
G1 X229.444 Y33.084
X229.475 Y30.566
X229.469 Y30.551
X229.454 Y30.546
X229.439 Y30.554
G3 X225.101 Y34.811 I-17.506 J-13.5
G2 X225.101 Y35.189 I0.14 J0.189
G3 X229.44 Y39.418 I-12.991 J17.667
G1 X229.444 Y39.43
X229.476 Y42.286
X229.47 Y42.302
X229.453 Y42.306
X229.439 Y42.297
G2 X222.045 Y35.152 I-17.351 J10.559
G3 X222.045 Y34.848 I0.086 J-0.152
G2 X229.44 Y27.663 I-10.089 J-17.781
G1 X229.443 Y27.652
X229.479 Y24.005
X229.474 Y23.993
X229.462 Y23.986
X229.449 Y23.988
X229.44 Y23.998
G3 X217.983 Y34.877 I-17.461 J-6.917
G1 X217.947 Y34.895
X217.919 Y34.924
X217.9 Y34.96
X217.894 Y35
X217.9 Y35.04
X217.919 Y35.076
X217.947 Y35.105
X217.983 Y35.123
G3 X229.44 Y45.955 I-5.917 J17.733
G1 X229.441 Y45.963
X229.159 Y53.686
X229.153 Y53.7
X229.139 Y53.705
X229.125 Y53.7
X229.119 Y53.685
X229.12 Y52.856
G2 X215.413 Y36.126 I-17.064 J0
G3 X215.13 Y35.92 I0.084 J-0.414
G1 X215.12 Y35.912
X215.108 Y35.911
X213.45 Y36.325
X213.439 Y36.332
X213.435 Y36.344
Y37.204
G2 X213.715 Y37.517 I0.315 J0
G3 X227.48 Y52.856 I-1.665 J15.339
G1 X227.477 Y55.343
Y55.354
Z-0.955
X215.124 Y34.089
Z-3.967
X215.13 Y34.079
G3 X215.413 Y33.874 I0.367 J0.208
G2 X229.12 Y17.144 I-3.424 J-16.786
G1 X229.119 Y16.315
X229.113 Y16.301
X227.512 Y14.644
X227.497 Y14.637
X227.483 Y14.643
X227.477 Y14.657
X227.48 Y17.144
G3 X213.715 Y32.483 I-15.486 J-0.05
G2 X213.435 Y32.796 I0.035 J0.313
G1 Y33.656
Y33.667
Z-0.955
X225.837 Y14.315
Z-3.967
Y14.327
X225.84 Y17.144
G3 X212.108 Y30.938 I-13.84 J-0.045
G2 X211.795 Y31.254 I0.002 J0.315
G1 Y38.746
G2 X212.108 Y39.062 I0.315 J0
G3 X225.84 Y52.856 I-0.063 J13.795
G1 X225.837 Y55.673
X225.833 Y55.685
X225.824 Y55.692
X225.812
X224.212 Y55.263
X224.202 Y55.256
X224.197 Y55.244
X224.2 Y52.856
G2 X210.421 Y40.804 I-12.16 J0
G3 X210.155 Y40.571 I-0.031 J-0.233
G1 Y29.429
G3 X210.421 Y29.196 I0.235 J0
G2 X224.2 Y17.144 I1.584 J-12.092
G1 X224.197 Y14.757
X224.193 Y14.745
X224.183 Y14.738
X224.17
X222.571 Y15.335
X222.562 Y15.342
X222.558 Y15.353
X222.56 Y17.144
G3 X208.821 Y27.167 I-10.55 J-0.033
G2 X208.515 Y27.391 I-0.071 J0.224
G1 Y42.609
G2 X208.821 Y42.833 I0.235 J0
G3 X222.56 Y52.856 I3.213 J10.023
G1 X222.558 Y54.646
X222.554 Y54.658
X222.544 Y54.665
X222.531
X220.932 Y54.068
X220.922 Y54.061
X220.919 Y54.05
X220.92 Y52.856
G2 X208.949 Y44.474 I-8.92 J0
X208.058 Y44.822 I6.955 J19.109
G3 X207.167 Y45.171 I-7.846 J-18.761
X206.875 Y44.966 I-0.074 J-0.205
G1 Y25.034
G3 X207.167 Y24.829 I0.218 J0
X208.058 Y25.178 I-6.956 J19.112
G2 X208.949 Y25.526 I7.841 J-18.747
X220.92 Y17.144 I3.051 J-8.382
G1 X220.919 Y15.95
X220.915 Y15.938
X220.904 Y15.931
X220.892
X219.292 Y16.527
X219.283 Y16.535
X219.279 Y16.546
X219.28 Y17.144
G3 X209.51 Y23.985 I-7.28 J0
X207.519 Y23.236 I34.33 J-94.328
G2 X205.527 Y22.487 I-36.396 J93.778
X205.235 Y22.692 I-0.074 J0.205
G1 Y47.308
G2 X205.527 Y47.513 I0.218 J0
X207.519 Y46.764 I-34.403 J-94.521
G3 X209.51 Y46.015 I36.395 J93.773
X219.28 Y52.856 I2.49 J6.841
G1 X219.279 Y53.453
X219.275 Y53.465
X219.265 Y53.472
X219.252
X217.653 Y52.875
X217.644 Y52.868
X217.64 Y52.856
G2 X210.071 Y47.556 I-5.64 J0
G1 X203.887 Y49.855
G3 X203.595 Y49.65 I-0.074 J-0.205
G1 Y20.35
G3 X203.887 Y20.145 I0.218 J0
G1 X210.071 Y22.444
G2 X217.64 Y17.144 I1.929 J-5.3
G1 X217.636 Y17.132
X217.626 Y17.125
X217.614
X215.925 Y17.677
X215.916 Y17.683
X215.912 Y17.693
G3 X210.649 Y20.855 I-3.912 J-0.549
G1 X202.017 Y17.714
X201.993 Y17.711
X201.971 Y17.72
X201.956 Y17.738
X201.95 Y17.761
Y52.239
X201.956 Y52.262
X201.971 Y52.28
X201.993 Y52.289
X202.017 Y52.286
X210.649 Y49.144
G3 X215.912 Y52.307 I1.351 J3.712
G1 X215.919 Y52.32
X215.933 Y52.324
X215.946 Y52.317
X229.448 Y36.925
X229.453 Y36.911
X229.447 Y36.898
Z-4.958
X229.44 Y36.89
G2 X227.685 Y35.176 I-17.307 J15.967
G3 X227.685 Y34.824 I0.156 J-0.176
G2 X229.439 Y33.098 I-15.774 J-17.781
G1 X229.444 Y33.084
X229.475 Y30.566
X229.469 Y30.551
X229.454 Y30.546
X229.439 Y30.554
G3 X225.101 Y34.811 I-17.506 J-13.5
G2 X225.101 Y35.189 I0.14 J0.189
G3 X229.44 Y39.418 I-12.991 J17.667
G1 X229.444 Y39.43
X229.476 Y42.286
X229.47 Y42.302
X229.453 Y42.306
X229.439 Y42.297
G2 X222.045 Y35.152 I-17.351 J10.559
G3 X222.045 Y34.848 I0.086 J-0.152
G2 X229.44 Y27.663 I-10.089 J-17.781
G1 X229.443 Y27.652
X229.479 Y24.005
X229.474 Y23.993
X229.462 Y23.986
X229.449 Y23.988
X229.44 Y23.998
G3 X217.983 Y34.877 I-17.461 J-6.917
G1 X217.947 Y34.895
X217.919 Y34.924
X217.9 Y34.96
X217.894 Y35
X217.9 Y35.04
X217.919 Y35.076
X217.947 Y35.105
X217.983 Y35.123
G3 X229.44 Y45.955 I-5.917 J17.733
G1 X229.441 Y45.963
X229.159 Y53.686
X229.153 Y53.7
X229.139 Y53.705
X229.125 Y53.7
X229.119 Y53.685
X229.12 Y52.856
G2 X215.413 Y36.126 I-17.064 J0
G3 X215.13 Y35.92 I0.084 J-0.414
G1 X215.12 Y35.912
X215.108 Y35.911
X213.45 Y36.325
X213.439 Y36.332
X213.435 Y36.344
Y37.204
G2 X213.715 Y37.517 I0.315 J0
G3 X227.48 Y52.856 I-1.665 J15.339
G1 X227.477 Y55.343
Y55.354
Z-1.947
X215.124 Y34.089
Z-4.958
X215.13 Y34.079
G3 X215.413 Y33.874 I0.367 J0.208
G2 X229.12 Y17.144 I-3.424 J-16.786
G1 X229.119 Y16.315
X229.113 Y16.301
X227.512 Y14.644
X227.497 Y14.637
X227.483 Y14.643
X227.477 Y14.657
X227.48 Y17.144
G3 X213.715 Y32.483 I-15.486 J-0.05
G2 X213.435 Y32.796 I0.035 J0.313
G1 Y33.656
Y33.667
Z-1.947
X225.837 Y14.315
Z-4.958
Y14.327
X225.84 Y17.144
G3 X212.108 Y30.938 I-13.84 J-0.045
G2 X211.795 Y31.254 I0.002 J0.315
G1 Y38.746
G2 X212.108 Y39.062 I0.315 J0
G3 X225.84 Y52.856 I-0.063 J13.795
G1 X225.837 Y55.673
X225.833 Y55.685
X225.824 Y55.692
X225.812
X224.212 Y55.263
X224.202 Y55.256
X224.197 Y55.244
X224.2 Y52.856
G2 X210.421 Y40.804 I-12.16 J0
G3 X210.155 Y40.571 I-0.031 J-0.233
G1 Y29.429
G3 X210.421 Y29.196 I0.235 J0
G2 X224.2 Y17.144 I1.584 J-12.092
G1 X224.197 Y14.757
X224.193 Y14.745
X224.183 Y14.738
X224.17
X222.571 Y15.335
X222.562 Y15.342
X222.558 Y15.353
X222.56 Y17.144
G3 X208.821 Y27.167 I-10.55 J-0.033
G2 X208.515 Y27.391 I-0.071 J0.224
G1 Y42.609
G2 X208.821 Y42.833 I0.235 J0
G3 X222.56 Y52.856 I3.213 J10.023
G1 X222.558 Y54.646
X222.554 Y54.658
X222.544 Y54.665
X222.531
X220.932 Y54.068
X220.922 Y54.061
X220.919 Y54.05
X220.92 Y52.856
G2 X208.949 Y44.474 I-8.92 J0
X208.058 Y44.822 I6.955 J19.109
G3 X207.167 Y45.171 I-7.846 J-18.761
X206.875 Y44.966 I-0.074 J-0.205
G1 Y25.034
G3 X207.167 Y24.829 I0.218 J0
X208.058 Y25.178 I-6.956 J19.112
G2 X208.949 Y25.526 I7.841 J-18.747
X220.92 Y17.144 I3.051 J-8.382
G1 X220.919 Y15.95
X220.915 Y15.938
X220.904 Y15.931
X220.892
X219.292 Y16.527
X219.283 Y16.535
X219.279 Y16.546
X219.28 Y17.144
G3 X209.51 Y23.985 I-7.28 J0
X207.519 Y23.236 I34.33 J-94.328
G2 X205.527 Y22.487 I-36.396 J93.778
X205.235 Y22.692 I-0.074 J0.205
G1 Y47.308
G2 X205.527 Y47.513 I0.218 J0
X207.519 Y46.764 I-34.403 J-94.521
G3 X209.51 Y46.015 I36.395 J93.773
X219.28 Y52.856 I2.49 J6.841
G1 X219.279 Y53.453
X219.275 Y53.465
X219.265 Y53.472
X219.252
X217.653 Y52.875
X217.644 Y52.868
X217.64 Y52.856
G2 X210.071 Y47.556 I-5.64 J0
G1 X203.887 Y49.855
G3 X203.595 Y49.65 I-0.074 J-0.205
G1 Y20.35
G3 X203.887 Y20.145 I0.218 J0
G1 X210.071 Y22.444
G2 X217.64 Y17.144 I1.929 J-5.3
G1 X217.636 Y17.132
X217.626 Y17.125
X217.614
X215.925 Y17.677
X215.916 Y17.683
X215.912 Y17.693
G3 X210.649 Y20.855 I-3.912 J-0.549
G1 X202.017 Y17.714
X201.993 Y17.711
X201.971 Y17.72
X201.956 Y17.738
X201.95 Y17.761
Y52.239
X201.956 Y52.262
X201.971 Y52.28
X201.993 Y52.289
X202.017 Y52.286
X210.649 Y49.144
G3 X215.912 Y52.307 I1.351 J3.712
G1 X215.919 Y52.32
X215.933 Y52.324
X215.946 Y52.317
X229.448 Y36.925
X229.453 Y36.911
X229.447 Y36.898
Z-5.95
X229.44 Y36.89
G2 X227.685 Y35.176 I-17.307 J15.967
G3 X227.685 Y34.824 I0.156 J-0.176
G2 X229.439 Y33.098 I-15.774 J-17.781
G1 X229.444 Y33.084
X229.475 Y30.566
X229.469 Y30.551
X229.454 Y30.546
X229.439 Y30.554
G3 X225.101 Y34.811 I-17.506 J-13.5
G2 X225.101 Y35.189 I0.14 J0.189
G3 X229.44 Y39.418 I-12.991 J17.667
G1 X229.444 Y39.43
X229.476 Y42.286
X229.47 Y42.302
X229.453 Y42.306
X229.439 Y42.297
G2 X222.045 Y35.152 I-17.351 J10.559
G3 X222.045 Y34.848 I0.086 J-0.152
G2 X229.44 Y27.663 I-10.089 J-17.781
G1 X229.443 Y27.652
X229.479 Y24.005
X229.474 Y23.993
X229.462 Y23.986
X229.449 Y23.988
X229.44 Y23.998
G3 X217.983 Y34.877 I-17.461 J-6.917
G1 X217.947 Y34.895
X217.919 Y34.924
X217.9 Y34.96
X217.894 Y35
X217.9 Y35.04
X217.919 Y35.076
X217.947 Y35.105
X217.983 Y35.123
G3 X229.44 Y45.955 I-5.917 J17.733
G1 X229.441 Y45.963
X229.159 Y53.686
X229.153 Y53.7
X229.139 Y53.705
X229.125 Y53.7
X229.119 Y53.685
X229.12 Y52.856
G2 X215.413 Y36.126 I-17.064 J0
G3 X215.13 Y35.92 I0.084 J-0.414
G1 X215.12 Y35.912
X215.108 Y35.911
X213.45 Y36.325
X213.439 Y36.332
X213.435 Y36.344
Y37.204
G2 X213.715 Y37.517 I0.315 J0
G3 X227.48 Y52.856 I-1.665 J15.339
G1 X227.477 Y55.343
Y55.354
Z-2.938
X215.124 Y34.089
Z-5.95
X215.13 Y34.079
G3 X215.413 Y33.874 I0.367 J0.208
G2 X229.12 Y17.144 I-3.424 J-16.786
G1 X229.119 Y16.315
X229.113 Y16.301
X227.512 Y14.644
X227.497 Y14.637
X227.483 Y14.643
X227.477 Y14.657
X227.48 Y17.144
G3 X213.715 Y32.483 I-15.486 J-0.05
G2 X213.435 Y32.796 I0.035 J0.313
G1 Y33.656
Y33.667
Z-2.938
X225.837 Y14.315
Z-5.95
Y14.327
X225.84 Y17.144
G3 X212.108 Y30.938 I-13.84 J-0.045
G2 X211.795 Y31.254 I0.002 J0.315
G1 Y38.746
G2 X212.108 Y39.062 I0.315 J0
G3 X225.84 Y52.856 I-0.063 J13.795
G1 X225.837 Y55.673
X225.833 Y55.685
X225.824 Y55.692
X225.812
X224.212 Y55.263
X224.202 Y55.256
X224.197 Y55.244
X224.2 Y52.856
G2 X210.421 Y40.804 I-12.16 J0
G3 X210.155 Y40.571 I-0.031 J-0.233
G1 Y29.429
G3 X210.421 Y29.196 I0.235 J0
G2 X224.2 Y17.144 I1.584 J-12.092
G1 X224.197 Y14.757
X224.193 Y14.745
X224.183 Y14.738
X224.17
X222.571 Y15.335
X222.562 Y15.342
X222.558 Y15.353
X222.56 Y17.144
G3 X208.821 Y27.167 I-10.55 J-0.033
G2 X208.515 Y27.391 I-0.071 J0.224
G1 Y42.609
G2 X208.821 Y42.833 I0.235 J0
G3 X222.56 Y52.856 I3.213 J10.023
G1 X222.558 Y54.646
X222.554 Y54.658
X222.544 Y54.665
X222.531
X220.932 Y54.068
X220.922 Y54.061
X220.919 Y54.05
X220.92 Y52.856
G2 X208.949 Y44.474 I-8.92 J0
X208.058 Y44.822 I6.955 J19.109
G3 X207.167 Y45.171 I-7.846 J-18.761
X206.875 Y44.966 I-0.074 J-0.205
G1 Y25.034
G3 X207.167 Y24.829 I0.218 J0
X208.058 Y25.178 I-6.956 J19.112
G2 X208.949 Y25.526 I7.841 J-18.747
X220.92 Y17.144 I3.051 J-8.382
G1 X220.919 Y15.95
X220.915 Y15.938
X220.904 Y15.931
X220.892
X219.292 Y16.527
X219.283 Y16.535
X219.279 Y16.546
X219.28 Y17.144
G3 X209.51 Y23.985 I-7.28 J0
X207.519 Y23.236 I34.33 J-94.328
G2 X205.527 Y22.487 I-36.396 J93.778
X205.235 Y22.692 I-0.074 J0.205
G1 Y47.308
G2 X205.527 Y47.513 I0.218 J0
X207.519 Y46.764 I-34.403 J-94.521
G3 X209.51 Y46.015 I36.395 J93.773
X219.28 Y52.856 I2.49 J6.841
G1 X219.279 Y53.453
X219.275 Y53.465
X219.265 Y53.472
X219.252
X217.653 Y52.875
X217.644 Y52.868
X217.64 Y52.856
G2 X210.071 Y47.556 I-5.64 J0
G1 X203.887 Y49.855
G3 X203.595 Y49.65 I-0.074 J-0.205
G1 Y20.35
G3 X203.887 Y20.145 I0.218 J0
G1 X210.071 Y22.444
G2 X217.64 Y17.144 I1.929 J-5.3
G1 X217.636 Y17.132
X217.626 Y17.125
X217.614
X215.925 Y17.677
X215.916 Y17.683
X215.912 Y17.693
G3 X210.649 Y20.855 I-3.912 J-0.549
G1 X202.017 Y17.714
X201.993 Y17.711
X201.971 Y17.72
X201.956 Y17.738
X201.95 Y17.761
Y52.239
X201.956 Y52.262
X201.971 Y52.28
X201.993 Y52.289
X202.017 Y52.286
X210.649 Y49.144
G3 X215.912 Y52.307 I1.351 J3.712
G1 X216.113 Y53.743
Z10
(When using Fusion 360 for Personal Use, the feedrate of)
(rapid moves is reduced to match the feedrate of cutting)
(moves, which can increase machining time. Unrestricted rapid)
(moves are available with a Fusion 360 Subscription.)

(2D Contour tabs)
G0 X12.35 Y17.144
G1 Z10 F1000
Z5
Z2.02 F333.3
Z-0.992
G2 X17.248 Y20.574 I3.65 J0 F1000
G1 X25.88 Y17.432
G3 X26.35 Y17.761 I0.12 J0.329
G1 Y52.239
G3 X25.88 Y52.568 I-0.35 J0
G1 X17.248 Y49.426
G2 X12.35 Y52.856 I-1.248 J3.43
G1 Z5
Y17.144
Z1.028 F333.3
Z-1.983
G2 X17.248 Y20.574 I3.65 J0 F1000
G1 X25.88 Y17.432
G3 X26.35 Y17.761 I0.12 J0.329
G1 Y52.239
G3 X25.88 Y52.568 I-0.35 J0
G1 X17.248 Y49.426
G2 X12.35 Y52.856 I-1.248 J3.43
G1 Z5
Y17.144
Z0.037 F333.3
Z-2.975
G2 X17.248 Y20.574 I3.65 J0 F1000
G1 X25.88 Y17.432
G3 X26.35 Y17.761 I0.12 J0.329
G1 Y52.239
G3 X25.88 Y52.568 I-0.35 J0
G1 X17.248 Y49.426
G2 X12.35 Y52.856 I-1.248 J3.43
G1 Z5
Y17.144
Z-0.955 F333.3
Z-3.967
G2 X17.248 Y20.574 I3.65 J0 F1000
G1 X25.88 Y17.432
G3 X26.35 Y17.761 I0.12 J0.329
G1 Y52.239
G3 X25.88 Y52.568 I-0.35 J0
G1 X17.248 Y49.426
G2 X12.35 Y52.856 I-1.248 J3.43
G1 Z5
Y17.144
Z-1.947 F333.3
Z-4.958
G2 X17.248 Y20.574 I3.65 J0 F1000
G1 X25.88 Y17.432
G3 X26.35 Y17.761 I0.12 J0.329
G1 Y52.239
G3 X25.88 Y52.568 I-0.35 J0
G1 X17.248 Y49.426
G2 X12.35 Y52.856 I-1.248 J3.43
G1 Z5
Y17.144
Z-2.938 F333.3
Z-5.95
G2 X17.248 Y20.574 I3.65 J0 F1000
G1 X25.88 Y17.432
G3 X26.35 Y17.761 I0.12 J0.329
G1 Y52.239
G3 X25.88 Y52.568 I-0.35 J0
G1 X17.248 Y49.426
G2 X12.35 Y52.856 I-1.248 J3.43
G1 Z5
X12.55 Y17.144
Z-2.938 F333.3
Z-5.95
G2 X17.18 Y20.386 I3.45 J0 F1000
G1 X25.812 Y17.244
G3 X26.55 Y17.761 I0.188 J0.517
G1 Y52.239
G3 X25.812 Y52.756 I-0.55 J0
G1 X17.18 Y49.614
G2 X12.55 Y52.856 I-1.18 J3.242
G1 Z5
X215.65
Z2.02 F333.3
Z-0.992
G2 X210.752 Y49.426 I-3.65 J0 F1000
G1 X202.12 Y52.568
G3 X201.65 Y52.239 I-0.12 J-0.329
G1 Y17.761
G3 X202.12 Y17.432 I0.35 J0
G1 X210.752 Y20.574
G2 X215.65 Y17.144 I1.248 J-3.43
G1 Z5
Y52.856
Z1.028 F333.3
Z-1.983
G2 X210.752 Y49.426 I-3.65 J0 F1000
G1 X202.12 Y52.568
G3 X201.65 Y52.239 I-0.12 J-0.329
G1 Y17.761
G3 X202.12 Y17.432 I0.35 J0
G1 X210.752 Y20.574
G2 X215.65 Y17.144 I1.248 J-3.43
G1 Z5
Y52.856
Z0.037 F333.3
Z-2.975
G2 X210.752 Y49.426 I-3.65 J0 F1000
G1 X202.12 Y52.568
G3 X201.65 Y52.239 I-0.12 J-0.329
G1 Y17.761
G3 X202.12 Y17.432 I0.35 J0
G1 X210.752 Y20.574
G2 X215.65 Y17.144 I1.248 J-3.43
G1 Z5
Y52.856
Z-0.955 F333.3
Z-3.967
G2 X210.752 Y49.426 I-3.65 J0 F1000
G1 X202.12 Y52.568
G3 X201.65 Y52.239 I-0.12 J-0.329
G1 Y17.761
G3 X202.12 Y17.432 I0.35 J0
G1 X210.752 Y20.574
G2 X215.65 Y17.144 I1.248 J-3.43
G1 Z5
Y52.856
Z-1.947 F333.3
Z-4.958
G2 X210.752 Y49.426 I-3.65 J0 F1000
G1 X202.12 Y52.568
G3 X201.65 Y52.239 I-0.12 J-0.329
G1 Y17.761
G3 X202.12 Y17.432 I0.35 J0
G1 X210.752 Y20.574
G2 X215.65 Y17.144 I1.248 J-3.43
G1 Z5
Y52.856
Z-2.938 F333.3
Z-5.95
G2 X210.752 Y49.426 I-3.65 J0 F1000
G1 X202.12 Y52.568
G3 X201.65 Y52.239 I-0.12 J-0.329
G1 Y17.761
G3 X202.12 Y17.432 I0.35 J0
G1 X210.752 Y20.574
G2 X215.65 Y17.144 I1.248 J-3.43
G1 Z5
X215.45 Y52.856
Z-2.938 F333.3
Z-5.95
G2 X210.82 Y49.614 I-3.45 J0 F1000
G1 X202.188 Y52.756
G3 X201.45 Y52.239 I-0.188 J-0.517
G1 Y17.761
G3 X202.188 Y17.244 I0.55 J0
G1 X210.82 Y20.386
G2 X215.45 Y17.144 I1.18 J-3.242
G1 Z10
(When using Fusion 360 for Personal Use, the feedrate of)
(rapid moves is reduced to match the feedrate of cutting)
(moves, which can increase machining time. Unrestricted rapid)
(moves are available with a Fusion 360 Subscription.)

(Bore1)
G0 X214.625 Y34.71
G1 Z10 F1000
Z-3.95
Z-5.66
G18 G2 X214.915 Z-5.95 I0.29 K0
G1 X215.06
G17 G3 X215.35 Y35 I0 J0.29
X212.65 Y35 Z-6.2 I-1.35 J0
X215.35 Y35 Z-6.45 I1.35 J0
X212.65 Y35 Z-6.7 I-1.35 J0
X215.35 Y35 Z-6.95 I1.35 J0
X212.65 Y35 Z-7.2 I-1.35 J0
X215.35 Y35 Z-7.45 I1.35 J0
X212.65 Y35 Z-7.7 I-1.35 J0
X215.35 Y35 Z-7.95 I1.35 J0
X212.65 Y35 Z-8.2 I-1.35 J0
X215.35 Y35 Z-8.45 I1.35 J0
X212.65 Y35 Z-8.7 I-1.35 J0
X215.35 Y35 Z-8.95 I1.35 J0
X212.65 Y35 Z-9.2 I-1.35 J0
X215.35 Y35 Z-9.45 I1.35 J0
X212.65 Y35 Z-9.7 I-1.35 J0
X215.35 Y35 Z-9.95 I1.35 J0
X212.65 Y35 Z-10.2 I-1.35 J0
X215.35 Y35 Z-10.45 I1.35 J0
X212.65 Y35 Z-10.7 I-1.35 J0
X215.35 Y35 Z-10.95 I1.35 J0
X212.65 Y35 Z-11.2 I-1.35 J0
X215.35 Y35 Z-11.45 I1.35 J0
X212.65 Y35 Z-11.7 I-1.35 J0
X215.35 Y35 Z-11.95 I1.35 J0
X212.65 Y35 Z-12.2 I-1.35 J0
X215.35 Y35 Z-12.45 I1.35 J0
X212.65 Y35 Z-12.7 I-1.35 J0
X215.35 Y35 Z-12.95 I1.35 J0
X212.65 Y35 Z-13.2 I-1.35 J0
X213.583 Y33.716 Z-13.3 I1.35 J0
X214.417 Y36.284 I0.417 J1.284
X213.583 Y33.716 I-0.417 J-1.284
X213.948 Y33.902 I0.09 J0.276
G1 X213.993 Y34.04
X214.013 Y34.102 Z-13.293
X214.032 Y34.16 Z-13.271
X214.049 Y34.212 Z-13.237
X214.063 Y34.256 Z-13.191
X214.074 Y34.289 Z-13.136
X214.08 Y34.309 Z-13.075
X214.083 Y34.316 Z-13.01
Z5
Z10
X214.725 Y34.71
Z-3.95
Z-5.66
G18 G2 X215.015 Z-5.95 I0.29 K0
G1 X215.16
G17 G3 X215.45 Y35 I0 J0.29
X212.55 Y35 Z-6.2 I-1.45 J0
X215.45 Y35 Z-6.45 I1.45 J0
X212.55 Y35 Z-6.7 I-1.45 J0
X215.45 Y35 Z-6.95 I1.45 J0
X212.55 Y35 Z-7.2 I-1.45 J0
X215.45 Y35 Z-7.45 I1.45 J0
X212.55 Y35 Z-7.7 I-1.45 J0
X215.45 Y35 Z-7.95 I1.45 J0
X212.55 Y35 Z-8.2 I-1.45 J0
X215.45 Y35 Z-8.45 I1.45 J0
X212.55 Y35 Z-8.7 I-1.45 J0
X215.45 Y35 Z-8.95 I1.45 J0
X212.55 Y35 Z-9.2 I-1.45 J0
X215.45 Y35 Z-9.45 I1.45 J0
X212.55 Y35 Z-9.7 I-1.45 J0
X215.45 Y35 Z-9.95 I1.45 J0
X212.55 Y35 Z-10.2 I-1.45 J0
X215.45 Y35 Z-10.45 I1.45 J0
X212.55 Y35 Z-10.7 I-1.45 J0
X215.45 Y35 Z-10.95 I1.45 J0
X212.55 Y35 Z-11.2 I-1.45 J0
X215.45 Y35 Z-11.45 I1.45 J0
X212.55 Y35 Z-11.7 I-1.45 J0
X215.45 Y35 Z-11.95 I1.45 J0
X212.55 Y35 Z-12.2 I-1.45 J0
X215.45 Y35 Z-12.45 I1.45 J0
X212.55 Y35 Z-12.7 I-1.45 J0
X215.45 Y35 Z-12.95 I1.45 J0
X212.55 Y35 Z-13.2 I-1.45 J0
X213.552 Y33.621 Z-13.3 I1.45 J0
X214.448 Y36.379 I0.448 J1.379
X213.552 Y33.621 I-0.448 J-1.379
X213.917 Y33.807 I0.09 J0.276
G1 X213.962 Y33.945
X213.982 Y34.006 Z-13.293
X214.001 Y34.065 Z-13.271
X214.018 Y34.117 Z-13.237
X214.032 Y34.161 Z-13.191
X214.043 Y34.194 Z-13.136
X214.05 Y34.214 Z-13.075
X214.052 Y34.221 Z-13.01
Z5
X214.725 Y34.71
Z-3.95
Z-5.66
G18 G2 X215.015 Z-5.95 I0.29 K0
G1 X215.16
G17 G3 X215.45 Y35 I0 J0.29
X212.55 Y35 Z-6.2 I-1.45 J0
X215.45 Y35 Z-6.45 I1.45 J0
X212.55 Y35 Z-6.7 I-1.45 J0
X215.45 Y35 Z-6.95 I1.45 J0
X212.55 Y35 Z-7.2 I-1.45 J0
X215.45 Y35 Z-7.45 I1.45 J0
X212.55 Y35 Z-7.7 I-1.45 J0
X215.45 Y35 Z-7.95 I1.45 J0
X212.55 Y35 Z-8.2 I-1.45 J0
X215.45 Y35 Z-8.45 I1.45 J0
X212.55 Y35 Z-8.7 I-1.45 J0
X215.45 Y35 Z-8.95 I1.45 J0
X212.55 Y35 Z-9.2 I-1.45 J0
X215.45 Y35 Z-9.45 I1.45 J0
X212.55 Y35 Z-9.7 I-1.45 J0
X215.45 Y35 Z-9.95 I1.45 J0
X212.55 Y35 Z-10.2 I-1.45 J0
X215.45 Y35 Z-10.45 I1.45 J0
X212.55 Y35 Z-10.7 I-1.45 J0
X215.45 Y35 Z-10.95 I1.45 J0
X212.55 Y35 Z-11.2 I-1.45 J0
X215.45 Y35 Z-11.45 I1.45 J0
X212.55 Y35 Z-11.7 I-1.45 J0
X215.45 Y35 Z-11.95 I1.45 J0
X212.55 Y35 Z-12.2 I-1.45 J0
X215.45 Y35 Z-12.45 I1.45 J0
X212.55 Y35 Z-12.7 I-1.45 J0
X215.45 Y35 Z-12.95 I1.45 J0
X212.55 Y35 Z-13.2 I-1.45 J0
X213.552 Y33.621 Z-13.3 I1.45 J0
X214.448 Y36.379 I0.448 J1.379
X213.552 Y33.621 I-0.448 J-1.379
X213.917 Y33.807 I0.09 J0.276
G1 X213.962 Y33.945
X213.982 Y34.006 Z-13.293
X214.001 Y34.065 Z-13.271
X214.018 Y34.117 Z-13.237
X214.032 Y34.161 Z-13.191
X214.043 Y34.194 Z-13.136
X214.05 Y34.214 Z-13.075
X214.052 Y34.221 Z-13.01
Z5
X153.93 Y34.925
Z1.71
Z0
X154.075
X154.104 Y34.931
X154.128 Y34.947
X154.144 Y34.971
X154.15 Y35
G3 X153.85 Y35 Z-0.25 I-0.15 J0
X154.15 Y35 Z-0.5 I0.15 J0
X153.85 Y35 Z-0.75 I-0.15 J0
X154.15 Y35 Z-1 I0.15 J0
X153.85 Y35 Z-1.25 I-0.15 J0
X154.15 Y35 Z-1.5 I0.15 J0
X153.85 Y35 Z-1.75 I-0.15 J0
X154.15 Y35 Z-2 I0.15 J0
X153.85 Y35 Z-2.25 I-0.15 J0
X154.15 Y35 Z-2.5 I0.15 J0
X153.85 Y35 Z-2.75 I-0.15 J0
X154.15 Y35 Z-3 I0.15 J0
X153.85 Y35 Z-3.25 I-0.15 J0
X154.15 Y35 Z-3.5 I0.15 J0
X153.85 Y35 Z-3.75 I-0.15 J0
X154.15 Y35 Z-4 I0.15 J0
X153.85 Y35 Z-4.25 I-0.15 J0
X154.15 Y35 Z-4.5 I0.15 J0
X153.85 Y35 Z-4.75 I-0.15 J0
X154.15 Y35 Z-5 I0.15 J0
X153.85 Y35 Z-5.25 I-0.15 J0
X154.15 Y35 Z-5.5 I0.15 J0
X153.85 Y35 Z-5.75 I-0.15 J0
X154.15 Y35 Z-6 I0.15 J0
X153.85 Y35 Z-6.25 I-0.15 J0
X154.15 Y35 Z-6.5 I0.15 J0
X153.85 Y35 Z-6.75 I-0.15 J0
X154.15 Y35 Z-7 I0.15 J0
X153.85 Y35 Z-7.25 I-0.15 J0
X154.15 Y35 Z-7.5 I0.15 J0
X153.85 Y35 Z-7.75 I-0.15 J0
X154.15 Y35 Z-8 I0.15 J0
X153.85 Y35 Z-8.25 I-0.15 J0
X154.15 Y35 Z-8.5 I0.15 J0
X153.85 Y35 Z-8.75 I-0.15 J0
X154.15 Y35 Z-9 I0.15 J0
X153.85 Y35 Z-9.25 I-0.15 J0
X154.15 Y35 Z-9.5 I0.15 J0
X153.85 Y35 Z-9.75 I-0.15 J0
X154.15 Y35 Z-10 I0.15 J0
X153.85 Y35 Z-10.25 I-0.15 J0
X154.15 Y35 Z-10.5 I0.15 J0
X153.85 Y35 Z-10.75 I-0.15 J0
X154.15 Y35 Z-11 I0.15 J0
X153.85 Y35 Z-11.25 I-0.15 J0
X154.15 Y35 Z-11.5 I0.15 J0
X153.85 Y35 Z-11.75 I-0.15 J0
X154.15 Y35 Z-12 I0.15 J0
X153.85 Y35 Z-12.25 I-0.15 J0
X154.15 Y35 Z-12.5 I0.15 J0
X153.85 Y35 Z-12.75 I-0.15 J0
X154.15 Y35 Z-13 I0.15 J0
X153.85 Y35 Z-13.25 I-0.15 J0
X153.879 Y34.912 Z-13.3 I0.15 J0
X154.121 Y35.088 I0.121 J0.088
X153.879 Y34.912 I-0.121 J-0.088
G1 X153.9 Y34.892
X153.928 Y34.882
X153.957 Y34.883
X153.983 Y34.895
X154.101 Y34.98
Z5
X153.98 Y34.875
Z1.71
Z0
X154.125
X154.164 Y34.881
X154.198 Y34.899
X154.226 Y34.927
X154.244 Y34.961
X154.25 Y35
G3 X153.75 Y35 Z-0.25 I-0.25 J0
X154.25 Y35 Z-0.5 I0.25 J0
X153.75 Y35 Z-0.75 I-0.25 J0
X154.25 Y35 Z-1 I0.25 J0
X153.75 Y35 Z-1.25 I-0.25 J0
X154.25 Y35 Z-1.5 I0.25 J0
X153.75 Y35 Z-1.75 I-0.25 J0
X154.25 Y35 Z-2 I0.25 J0
X153.75 Y35 Z-2.25 I-0.25 J0
X154.25 Y35 Z-2.5 I0.25 J0
X153.75 Y35 Z-2.75 I-0.25 J0
X154.25 Y35 Z-3 I0.25 J0
X153.75 Y35 Z-3.25 I-0.25 J0
X154.25 Y35 Z-3.5 I0.25 J0
X153.75 Y35 Z-3.75 I-0.25 J0
X154.25 Y35 Z-4 I0.25 J0
X153.75 Y35 Z-4.25 I-0.25 J0
X154.25 Y35 Z-4.5 I0.25 J0
X153.75 Y35 Z-4.75 I-0.25 J0
X154.25 Y35 Z-5 I0.25 J0
X153.75 Y35 Z-5.25 I-0.25 J0
X154.25 Y35 Z-5.5 I0.25 J0
X153.75 Y35 Z-5.75 I-0.25 J0
X154.25 Y35 Z-6 I0.25 J0
X153.75 Y35 Z-6.25 I-0.25 J0
X154.25 Y35 Z-6.5 I0.25 J0
X153.75 Y35 Z-6.75 I-0.25 J0
X154.25 Y35 Z-7 I0.25 J0
X153.75 Y35 Z-7.25 I-0.25 J0
X154.25 Y35 Z-7.5 I0.25 J0
X153.75 Y35 Z-7.75 I-0.25 J0
X154.25 Y35 Z-8 I0.25 J0
X153.75 Y35 Z-8.25 I-0.25 J0
X154.25 Y35 Z-8.5 I0.25 J0
X153.75 Y35 Z-8.75 I-0.25 J0
X154.25 Y35 Z-9 I0.25 J0
X153.75 Y35 Z-9.25 I-0.25 J0
X154.25 Y35 Z-9.5 I0.25 J0
X153.75 Y35 Z-9.75 I-0.25 J0
X154.25 Y35 Z-10 I0.25 J0
X153.75 Y35 Z-10.25 I-0.25 J0
X154.25 Y35 Z-10.5 I0.25 J0
X153.75 Y35 Z-10.75 I-0.25 J0
X154.25 Y35 Z-11 I0.25 J0
X153.75 Y35 Z-11.25 I-0.25 J0
X154.25 Y35 Z-11.5 I0.25 J0
X153.75 Y35 Z-11.75 I-0.25 J0
X154.25 Y35 Z-12 I0.25 J0
X153.75 Y35 Z-12.25 I-0.25 J0
X154.25 Y35 Z-12.5 I0.25 J0
X153.75 Y35 Z-12.75 I-0.25 J0
X154.25 Y35 Z-13 I0.25 J0
X153.75 Y35 Z-13.25 I-0.25 J0
X153.798 Y34.853 Z-13.3 I0.25 J0
X154.202 Y35.147 I0.202 J0.147
X153.798 Y34.853 I-0.202 J-0.147
G1 X153.825 Y34.825
X153.86 Y34.808
X153.899 Y34.802
X153.938 Y34.808
X153.972 Y34.825
X154.09 Y34.911
Z5
X153.98 Y34.875
Z1.71
Z0
X154.125
X154.164 Y34.881
X154.198 Y34.899
X154.226 Y34.927
X154.244 Y34.961
X154.25 Y35
G3 X153.75 Y35 Z-0.25 I-0.25 J0
X154.25 Y35 Z-0.5 I0.25 J0
X153.75 Y35 Z-0.75 I-0.25 J0
X154.25 Y35 Z-1 I0.25 J0
X153.75 Y35 Z-1.25 I-0.25 J0
X154.25 Y35 Z-1.5 I0.25 J0
X153.75 Y35 Z-1.75 I-0.25 J0
X154.25 Y35 Z-2 I0.25 J0
X153.75 Y35 Z-2.25 I-0.25 J0
X154.25 Y35 Z-2.5 I0.25 J0
X153.75 Y35 Z-2.75 I-0.25 J0
X154.25 Y35 Z-3 I0.25 J0
X153.75 Y35 Z-3.25 I-0.25 J0
X154.25 Y35 Z-3.5 I0.25 J0
X153.75 Y35 Z-3.75 I-0.25 J0
X154.25 Y35 Z-4 I0.25 J0
X153.75 Y35 Z-4.25 I-0.25 J0
X154.25 Y35 Z-4.5 I0.25 J0
X153.75 Y35 Z-4.75 I-0.25 J0
X154.25 Y35 Z-5 I0.25 J0
X153.75 Y35 Z-5.25 I-0.25 J0
X154.25 Y35 Z-5.5 I0.25 J0
X153.75 Y35 Z-5.75 I-0.25 J0
X154.25 Y35 Z-6 I0.25 J0
X153.75 Y35 Z-6.25 I-0.25 J0
X154.25 Y35 Z-6.5 I0.25 J0
X153.75 Y35 Z-6.75 I-0.25 J0
X154.25 Y35 Z-7 I0.25 J0
X153.75 Y35 Z-7.25 I-0.25 J0
X154.25 Y35 Z-7.5 I0.25 J0
X153.75 Y35 Z-7.75 I-0.25 J0
X154.25 Y35 Z-8 I0.25 J0
X153.75 Y35 Z-8.25 I-0.25 J0
X154.25 Y35 Z-8.5 I0.25 J0
X153.75 Y35 Z-8.75 I-0.25 J0
X154.25 Y35 Z-9 I0.25 J0
X153.75 Y35 Z-9.25 I-0.25 J0
X154.25 Y35 Z-9.5 I0.25 J0
X153.75 Y35 Z-9.75 I-0.25 J0
X154.25 Y35 Z-10 I0.25 J0
X153.75 Y35 Z-10.25 I-0.25 J0
X154.25 Y35 Z-10.5 I0.25 J0
X153.75 Y35 Z-10.75 I-0.25 J0
X154.25 Y35 Z-11 I0.25 J0
X153.75 Y35 Z-11.25 I-0.25 J0
X154.25 Y35 Z-11.5 I0.25 J0
X153.75 Y35 Z-11.75 I-0.25 J0
X154.25 Y35 Z-12 I0.25 J0
X153.75 Y35 Z-12.25 I-0.25 J0
X154.25 Y35 Z-12.5 I0.25 J0
X153.75 Y35 Z-12.75 I-0.25 J0
X154.25 Y35 Z-13 I0.25 J0
X153.75 Y35 Z-13.25 I-0.25 J0
X153.798 Y34.853 Z-13.3 I0.25 J0
X154.202 Y35.147 I0.202 J0.147
X153.798 Y34.853 I-0.202 J-0.147
G1 X153.825 Y34.825
X153.86 Y34.808
X153.899 Y34.802
X153.938 Y34.808
X153.972 Y34.825
X154.09 Y34.911
Z5
X135.93 Y34.925
Z1.71
Z0
X136.075
X136.104 Y34.931
X136.128 Y34.947
X136.144 Y34.971
X136.15 Y35
G3 X135.85 Y35 Z-0.25 I-0.15 J0
X136.15 Y35 Z-0.5 I0.15 J0
X135.85 Y35 Z-0.75 I-0.15 J0
X136.15 Y35 Z-1 I0.15 J0
X135.85 Y35 Z-1.25 I-0.15 J0
X136.15 Y35 Z-1.5 I0.15 J0
X135.85 Y35 Z-1.75 I-0.15 J0
X136.15 Y35 Z-2 I0.15 J0
X135.85 Y35 Z-2.25 I-0.15 J0
X136.15 Y35 Z-2.5 I0.15 J0
X135.85 Y35 Z-2.75 I-0.15 J0
X136.15 Y35 Z-3 I0.15 J0
X135.85 Y35 Z-3.25 I-0.15 J0
X136.15 Y35 Z-3.5 I0.15 J0
X135.85 Y35 Z-3.75 I-0.15 J0
X136.15 Y35 Z-4 I0.15 J0
X135.85 Y35 Z-4.25 I-0.15 J0
X136.15 Y35 Z-4.5 I0.15 J0
X135.85 Y35 Z-4.75 I-0.15 J0
X136.15 Y35 Z-5 I0.15 J0
X135.85 Y35 Z-5.25 I-0.15 J0
X136.15 Y35 Z-5.5 I0.15 J0
X135.85 Y35 Z-5.75 I-0.15 J0
X136.15 Y35 Z-6 I0.15 J0
X135.85 Y35 Z-6.25 I-0.15 J0
X136.15 Y35 Z-6.5 I0.15 J0
X135.85 Y35 Z-6.75 I-0.15 J0
X136.15 Y35 Z-7 I0.15 J0
X135.85 Y35 Z-7.25 I-0.15 J0
X136.15 Y35 Z-7.5 I0.15 J0
X135.85 Y35 Z-7.75 I-0.15 J0
X136.15 Y35 Z-8 I0.15 J0
X135.85 Y35 Z-8.25 I-0.15 J0
X136.15 Y35 Z-8.5 I0.15 J0
X135.85 Y35 Z-8.75 I-0.15 J0
X136.15 Y35 Z-9 I0.15 J0
X135.85 Y35 Z-9.25 I-0.15 J0
X136.15 Y35 Z-9.5 I0.15 J0
X135.85 Y35 Z-9.75 I-0.15 J0
X136.15 Y35 Z-10 I0.15 J0
X135.85 Y35 Z-10.25 I-0.15 J0
X136.15 Y35 Z-10.5 I0.15 J0
X135.85 Y35 Z-10.75 I-0.15 J0
X136.15 Y35 Z-11 I0.15 J0
X135.85 Y35 Z-11.25 I-0.15 J0
X136.15 Y35 Z-11.5 I0.15 J0
X135.85 Y35 Z-11.75 I-0.15 J0
X136.15 Y35 Z-12 I0.15 J0
X135.85 Y35 Z-12.25 I-0.15 J0
X136.15 Y35 Z-12.5 I0.15 J0
X135.85 Y35 Z-12.75 I-0.15 J0
X136.15 Y35 Z-13 I0.15 J0
X135.85 Y35 Z-13.25 I-0.15 J0
X135.879 Y34.912 Z-13.3 I0.15 J0
X136.121 Y35.088 I0.121 J0.088
X135.879 Y34.912 I-0.121 J-0.088
G1 X135.9 Y34.892
X135.928 Y34.882
X135.957 Y34.883
X135.983 Y34.895
X136.101 Y34.98
Z5
X135.98 Y34.875
Z1.71
Z0
X136.125
X136.164 Y34.881
X136.198 Y34.899
X136.226 Y34.927
X136.244 Y34.961
X136.25 Y35
G3 X135.75 Y35 Z-0.25 I-0.25 J0
X136.25 Y35 Z-0.5 I0.25 J0
X135.75 Y35 Z-0.75 I-0.25 J0
X136.25 Y35 Z-1 I0.25 J0
X135.75 Y35 Z-1.25 I-0.25 J0
X136.25 Y35 Z-1.5 I0.25 J0
X135.75 Y35 Z-1.75 I-0.25 J0
X136.25 Y35 Z-2 I0.25 J0
X135.75 Y35 Z-2.25 I-0.25 J0
X136.25 Y35 Z-2.5 I0.25 J0
X135.75 Y35 Z-2.75 I-0.25 J0
X136.25 Y35 Z-3 I0.25 J0
X135.75 Y35 Z-3.25 I-0.25 J0
X136.25 Y35 Z-3.5 I0.25 J0
X135.75 Y35 Z-3.75 I-0.25 J0
X136.25 Y35 Z-4 I0.25 J0
X135.75 Y35 Z-4.25 I-0.25 J0
X136.25 Y35 Z-4.5 I0.25 J0
X135.75 Y35 Z-4.75 I-0.25 J0
X136.25 Y35 Z-5 I0.25 J0
X135.75 Y35 Z-5.25 I-0.25 J0
X136.25 Y35 Z-5.5 I0.25 J0
X135.75 Y35 Z-5.75 I-0.25 J0
X136.25 Y35 Z-6 I0.25 J0
X135.75 Y35 Z-6.25 I-0.25 J0
X136.25 Y35 Z-6.5 I0.25 J0
X135.75 Y35 Z-6.75 I-0.25 J0
X136.25 Y35 Z-7 I0.25 J0
X135.75 Y35 Z-7.25 I-0.25 J0
X136.25 Y35 Z-7.5 I0.25 J0
X135.75 Y35 Z-7.75 I-0.25 J0
X136.25 Y35 Z-8 I0.25 J0
X135.75 Y35 Z-8.25 I-0.25 J0
X136.25 Y35 Z-8.5 I0.25 J0
X135.75 Y35 Z-8.75 I-0.25 J0
X136.25 Y35 Z-9 I0.25 J0
X135.75 Y35 Z-9.25 I-0.25 J0
X136.25 Y35 Z-9.5 I0.25 J0
X135.75 Y35 Z-9.75 I-0.25 J0
X136.25 Y35 Z-10 I0.25 J0
X135.75 Y35 Z-10.25 I-0.25 J0
X136.25 Y35 Z-10.5 I0.25 J0
X135.75 Y35 Z-10.75 I-0.25 J0
X136.25 Y35 Z-11 I0.25 J0
X135.75 Y35 Z-11.25 I-0.25 J0
X136.25 Y35 Z-11.5 I0.25 J0
X135.75 Y35 Z-11.75 I-0.25 J0
X136.25 Y35 Z-12 I0.25 J0
X135.75 Y35 Z-12.25 I-0.25 J0
X136.25 Y35 Z-12.5 I0.25 J0
X135.75 Y35 Z-12.75 I-0.25 J0
X136.25 Y35 Z-13 I0.25 J0
X135.75 Y35 Z-13.25 I-0.25 J0
X135.798 Y34.853 Z-13.3 I0.25 J0
X136.202 Y35.147 I0.202 J0.147
X135.798 Y34.853 I-0.202 J-0.147
G1 X135.825 Y34.825
X135.86 Y34.808
X135.899 Y34.802
X135.938 Y34.808
X135.972 Y34.825
X136.09 Y34.911
Z5
X135.98 Y34.875
Z1.71
Z0
X136.125
X136.164 Y34.881
X136.198 Y34.899
X136.226 Y34.927
X136.244 Y34.961
X136.25 Y35
G3 X135.75 Y35 Z-0.25 I-0.25 J0
X136.25 Y35 Z-0.5 I0.25 J0
X135.75 Y35 Z-0.75 I-0.25 J0
X136.25 Y35 Z-1 I0.25 J0
X135.75 Y35 Z-1.25 I-0.25 J0
X136.25 Y35 Z-1.5 I0.25 J0
X135.75 Y35 Z-1.75 I-0.25 J0
X136.25 Y35 Z-2 I0.25 J0
X135.75 Y35 Z-2.25 I-0.25 J0
X136.25 Y35 Z-2.5 I0.25 J0
X135.75 Y35 Z-2.75 I-0.25 J0
X136.25 Y35 Z-3 I0.25 J0
X135.75 Y35 Z-3.25 I-0.25 J0
X136.25 Y35 Z-3.5 I0.25 J0
X135.75 Y35 Z-3.75 I-0.25 J0
X136.25 Y35 Z-4 I0.25 J0
X135.75 Y35 Z-4.25 I-0.25 J0
X136.25 Y35 Z-4.5 I0.25 J0
X135.75 Y35 Z-4.75 I-0.25 J0
X136.25 Y35 Z-5 I0.25 J0
X135.75 Y35 Z-5.25 I-0.25 J0
X136.25 Y35 Z-5.5 I0.25 J0
X135.75 Y35 Z-5.75 I-0.25 J0
X136.25 Y35 Z-6 I0.25 J0
X135.75 Y35 Z-6.25 I-0.25 J0
X136.25 Y35 Z-6.5 I0.25 J0
X135.75 Y35 Z-6.75 I-0.25 J0
X136.25 Y35 Z-7 I0.25 J0
X135.75 Y35 Z-7.25 I-0.25 J0
X136.25 Y35 Z-7.5 I0.25 J0
X135.75 Y35 Z-7.75 I-0.25 J0
X136.25 Y35 Z-8 I0.25 J0
X135.75 Y35 Z-8.25 I-0.25 J0
X136.25 Y35 Z-8.5 I0.25 J0
X135.75 Y35 Z-8.75 I-0.25 J0
X136.25 Y35 Z-9 I0.25 J0
X135.75 Y35 Z-9.25 I-0.25 J0
X136.25 Y35 Z-9.5 I0.25 J0
X135.75 Y35 Z-9.75 I-0.25 J0
X136.25 Y35 Z-10 I0.25 J0
X135.75 Y35 Z-10.25 I-0.25 J0
X136.25 Y35 Z-10.5 I0.25 J0
X135.75 Y35 Z-10.75 I-0.25 J0
X136.25 Y35 Z-11 I0.25 J0
X135.75 Y35 Z-11.25 I-0.25 J0
X136.25 Y35 Z-11.5 I0.25 J0
X135.75 Y35 Z-11.75 I-0.25 J0
X136.25 Y35 Z-12 I0.25 J0
X135.75 Y35 Z-12.25 I-0.25 J0
X136.25 Y35 Z-12.5 I0.25 J0
X135.75 Y35 Z-12.75 I-0.25 J0
X136.25 Y35 Z-13 I0.25 J0
X135.75 Y35 Z-13.25 I-0.25 J0
X135.798 Y34.853 Z-13.3 I0.25 J0
X136.202 Y35.147 I0.202 J0.147
X135.798 Y34.853 I-0.202 J-0.147
G1 X135.825 Y34.825
X135.86 Y34.808
X135.899 Y34.802
X135.938 Y34.808
X135.972 Y34.825
X136.09 Y34.911
Z5
X91.93 Y34.925
Z1.71
Z0
X92.075
X92.104 Y34.931
X92.128 Y34.947
X92.144 Y34.971
X92.15 Y35
G3 X91.85 Y35 Z-0.25 I-0.15 J0
X92.15 Y35 Z-0.5 I0.15 J0
X91.85 Y35 Z-0.75 I-0.15 J0
X92.15 Y35 Z-1 I0.15 J0
X91.85 Y35 Z-1.25 I-0.15 J0
X92.15 Y35 Z-1.5 I0.15 J0
X91.85 Y35 Z-1.75 I-0.15 J0
X92.15 Y35 Z-2 I0.15 J0
X91.85 Y35 Z-2.25 I-0.15 J0
X92.15 Y35 Z-2.5 I0.15 J0
X91.85 Y35 Z-2.75 I-0.15 J0
X92.15 Y35 Z-3 I0.15 J0
X91.85 Y35 Z-3.25 I-0.15 J0
X92.15 Y35 Z-3.5 I0.15 J0
X91.85 Y35 Z-3.75 I-0.15 J0
X92.15 Y35 Z-4 I0.15 J0
X91.85 Y35 Z-4.25 I-0.15 J0
X92.15 Y35 Z-4.5 I0.15 J0
X91.85 Y35 Z-4.75 I-0.15 J0
X92.15 Y35 Z-5 I0.15 J0
X91.85 Y35 Z-5.25 I-0.15 J0
X92.15 Y35 Z-5.5 I0.15 J0
X91.85 Y35 Z-5.75 I-0.15 J0
X92.15 Y35 Z-6 I0.15 J0
X91.85 Y35 Z-6.25 I-0.15 J0
X92.15 Y35 Z-6.5 I0.15 J0
X91.85 Y35 Z-6.75 I-0.15 J0
X92.15 Y35 Z-7 I0.15 J0
X91.85 Y35 Z-7.25 I-0.15 J0
X92.15 Y35 Z-7.5 I0.15 J0
X91.85 Y35 Z-7.75 I-0.15 J0
X92.15 Y35 Z-8 I0.15 J0
X91.85 Y35 Z-8.25 I-0.15 J0
X92.15 Y35 Z-8.5 I0.15 J0
X91.85 Y35 Z-8.75 I-0.15 J0
X92.15 Y35 Z-9 I0.15 J0
X91.85 Y35 Z-9.25 I-0.15 J0
X92.15 Y35 Z-9.5 I0.15 J0
X91.85 Y35 Z-9.75 I-0.15 J0
X92.15 Y35 Z-10 I0.15 J0
X91.85 Y35 Z-10.25 I-0.15 J0
X92.15 Y35 Z-10.5 I0.15 J0
X91.85 Y35 Z-10.75 I-0.15 J0
X92.15 Y35 Z-11 I0.15 J0
X91.85 Y35 Z-11.25 I-0.15 J0
X92.15 Y35 Z-11.5 I0.15 J0
X91.85 Y35 Z-11.75 I-0.15 J0
X92.15 Y35 Z-12 I0.15 J0
X91.85 Y35 Z-12.25 I-0.15 J0
X92.15 Y35 Z-12.5 I0.15 J0
X91.85 Y35 Z-12.75 I-0.15 J0
X92.15 Y35 Z-13 I0.15 J0
X91.85 Y35 Z-13.25 I-0.15 J0
X91.879 Y34.912 Z-13.3 I0.15 J0
X92.121 Y35.088 I0.121 J0.088
X91.879 Y34.912 I-0.121 J-0.088
G1 X91.9 Y34.892
X91.928 Y34.882
X91.957 Y34.883
X91.983 Y34.895
X92.101 Y34.98
Z5
X91.98 Y34.875
Z1.71
Z0
X92.125
X92.164 Y34.881
X92.198 Y34.899
X92.226 Y34.927
X92.244 Y34.961
X92.25 Y35
G3 X91.75 Y35 Z-0.25 I-0.25 J0
X92.25 Y35 Z-0.5 I0.25 J0
X91.75 Y35 Z-0.75 I-0.25 J0
X92.25 Y35 Z-1 I0.25 J0
X91.75 Y35 Z-1.25 I-0.25 J0
X92.25 Y35 Z-1.5 I0.25 J0
X91.75 Y35 Z-1.75 I-0.25 J0
X92.25 Y35 Z-2 I0.25 J0
X91.75 Y35 Z-2.25 I-0.25 J0
X92.25 Y35 Z-2.5 I0.25 J0
X91.75 Y35 Z-2.75 I-0.25 J0
X92.25 Y35 Z-3 I0.25 J0
X91.75 Y35 Z-3.25 I-0.25 J0
X92.25 Y35 Z-3.5 I0.25 J0
X91.75 Y35 Z-3.75 I-0.25 J0
X92.25 Y35 Z-4 I0.25 J0
X91.75 Y35 Z-4.25 I-0.25 J0
X92.25 Y35 Z-4.5 I0.25 J0
X91.75 Y35 Z-4.75 I-0.25 J0
X92.25 Y35 Z-5 I0.25 J0
X91.75 Y35 Z-5.25 I-0.25 J0
X92.25 Y35 Z-5.5 I0.25 J0
X91.75 Y35 Z-5.75 I-0.25 J0
X92.25 Y35 Z-6 I0.25 J0
X91.75 Y35 Z-6.25 I-0.25 J0
X92.25 Y35 Z-6.5 I0.25 J0
X91.75 Y35 Z-6.75 I-0.25 J0
X92.25 Y35 Z-7 I0.25 J0
X91.75 Y35 Z-7.25 I-0.25 J0
X92.25 Y35 Z-7.5 I0.25 J0
X91.75 Y35 Z-7.75 I-0.25 J0
X92.25 Y35 Z-8 I0.25 J0
X91.75 Y35 Z-8.25 I-0.25 J0
X92.25 Y35 Z-8.5 I0.25 J0
X91.75 Y35 Z-8.75 I-0.25 J0
X92.25 Y35 Z-9 I0.25 J0
X91.75 Y35 Z-9.25 I-0.25 J0
X92.25 Y35 Z-9.5 I0.25 J0
X91.75 Y35 Z-9.75 I-0.25 J0
X92.25 Y35 Z-10 I0.25 J0
X91.75 Y35 Z-10.25 I-0.25 J0
X92.25 Y35 Z-10.5 I0.25 J0
X91.75 Y35 Z-10.75 I-0.25 J0
X92.25 Y35 Z-11 I0.25 J0
X91.75 Y35 Z-11.25 I-0.25 J0
X92.25 Y35 Z-11.5 I0.25 J0
X91.75 Y35 Z-11.75 I-0.25 J0
X92.25 Y35 Z-12 I0.25 J0
X91.75 Y35 Z-12.25 I-0.25 J0
X92.25 Y35 Z-12.5 I0.25 J0
X91.75 Y35 Z-12.75 I-0.25 J0
X92.25 Y35 Z-13 I0.25 J0
X91.75 Y35 Z-13.25 I-0.25 J0
X91.798 Y34.853 Z-13.3 I0.25 J0
X92.202 Y35.147 I0.202 J0.147
X91.798 Y34.853 I-0.202 J-0.147
G1 X91.825 Y34.825
X91.86 Y34.808
X91.899 Y34.802
X91.937 Y34.808
X91.972 Y34.825
X92.09 Y34.911
Z5
X91.98 Y34.875
Z1.71
Z0
X92.125
X92.164 Y34.881
X92.198 Y34.899
X92.226 Y34.927
X92.244 Y34.961
X92.25 Y35
G3 X91.75 Y35 Z-0.25 I-0.25 J0
X92.25 Y35 Z-0.5 I0.25 J0
X91.75 Y35 Z-0.75 I-0.25 J0
X92.25 Y35 Z-1 I0.25 J0
X91.75 Y35 Z-1.25 I-0.25 J0
X92.25 Y35 Z-1.5 I0.25 J0
X91.75 Y35 Z-1.75 I-0.25 J0
X92.25 Y35 Z-2 I0.25 J0
X91.75 Y35 Z-2.25 I-0.25 J0
X92.25 Y35 Z-2.5 I0.25 J0
X91.75 Y35 Z-2.75 I-0.25 J0
X92.25 Y35 Z-3 I0.25 J0
X91.75 Y35 Z-3.25 I-0.25 J0
X92.25 Y35 Z-3.5 I0.25 J0
X91.75 Y35 Z-3.75 I-0.25 J0
X92.25 Y35 Z-4 I0.25 J0
X91.75 Y35 Z-4.25 I-0.25 J0
X92.25 Y35 Z-4.5 I0.25 J0
X91.75 Y35 Z-4.75 I-0.25 J0
X92.25 Y35 Z-5 I0.25 J0
X91.75 Y35 Z-5.25 I-0.25 J0
X92.25 Y35 Z-5.5 I0.25 J0
X91.75 Y35 Z-5.75 I-0.25 J0
X92.25 Y35 Z-6 I0.25 J0
X91.75 Y35 Z-6.25 I-0.25 J0
X92.25 Y35 Z-6.5 I0.25 J0
X91.75 Y35 Z-6.75 I-0.25 J0
X92.25 Y35 Z-7 I0.25 J0
X91.75 Y35 Z-7.25 I-0.25 J0
X92.25 Y35 Z-7.5 I0.25 J0
X91.75 Y35 Z-7.75 I-0.25 J0
X92.25 Y35 Z-8 I0.25 J0
X91.75 Y35 Z-8.25 I-0.25 J0
X92.25 Y35 Z-8.5 I0.25 J0
X91.75 Y35 Z-8.75 I-0.25 J0
X92.25 Y35 Z-9 I0.25 J0
X91.75 Y35 Z-9.25 I-0.25 J0
X92.25 Y35 Z-9.5 I0.25 J0
X91.75 Y35 Z-9.75 I-0.25 J0
X92.25 Y35 Z-10 I0.25 J0
X91.75 Y35 Z-10.25 I-0.25 J0
X92.25 Y35 Z-10.5 I0.25 J0
X91.75 Y35 Z-10.75 I-0.25 J0
X92.25 Y35 Z-11 I0.25 J0
X91.75 Y35 Z-11.25 I-0.25 J0
X92.25 Y35 Z-11.5 I0.25 J0
X91.75 Y35 Z-11.75 I-0.25 J0
X92.25 Y35 Z-12 I0.25 J0
X91.75 Y35 Z-12.25 I-0.25 J0
X92.25 Y35 Z-12.5 I0.25 J0
X91.75 Y35 Z-12.75 I-0.25 J0
X92.25 Y35 Z-13 I0.25 J0
X91.75 Y35 Z-13.25 I-0.25 J0
X91.798 Y34.853 Z-13.3 I0.25 J0
X92.202 Y35.147 I0.202 J0.147
X91.798 Y34.853 I-0.202 J-0.147
G1 X91.825 Y34.825
X91.86 Y34.808
X91.899 Y34.802
X91.937 Y34.808
X91.972 Y34.825
X92.09 Y34.911
Z5
X73.93 Y34.925
Z1.71
Z0
X74.075
X74.104 Y34.931
X74.128 Y34.947
X74.144 Y34.971
X74.15 Y35
G3 X73.85 Y35 Z-0.25 I-0.15 J0
X74.15 Y35 Z-0.5 I0.15 J0
X73.85 Y35 Z-0.75 I-0.15 J0
X74.15 Y35 Z-1 I0.15 J0
X73.85 Y35 Z-1.25 I-0.15 J0
X74.15 Y35 Z-1.5 I0.15 J0
X73.85 Y35 Z-1.75 I-0.15 J0
X74.15 Y35 Z-2 I0.15 J0
X73.85 Y35 Z-2.25 I-0.15 J0
X74.15 Y35 Z-2.5 I0.15 J0
X73.85 Y35 Z-2.75 I-0.15 J0
X74.15 Y35 Z-3 I0.15 J0
X73.85 Y35 Z-3.25 I-0.15 J0
X74.15 Y35 Z-3.5 I0.15 J0
X73.85 Y35 Z-3.75 I-0.15 J0
X74.15 Y35 Z-4 I0.15 J0
X73.85 Y35 Z-4.25 I-0.15 J0
X74.15 Y35 Z-4.5 I0.15 J0
X73.85 Y35 Z-4.75 I-0.15 J0
X74.15 Y35 Z-5 I0.15 J0
X73.85 Y35 Z-5.25 I-0.15 J0
X74.15 Y35 Z-5.5 I0.15 J0
X73.85 Y35 Z-5.75 I-0.15 J0
X74.15 Y35 Z-6 I0.15 J0
X73.85 Y35 Z-6.25 I-0.15 J0
X74.15 Y35 Z-6.5 I0.15 J0
X73.85 Y35 Z-6.75 I-0.15 J0
X74.15 Y35 Z-7 I0.15 J0
X73.85 Y35 Z-7.25 I-0.15 J0
X74.15 Y35 Z-7.5 I0.15 J0
X73.85 Y35 Z-7.75 I-0.15 J0
X74.15 Y35 Z-8 I0.15 J0
X73.85 Y35 Z-8.25 I-0.15 J0
X74.15 Y35 Z-8.5 I0.15 J0
X73.85 Y35 Z-8.75 I-0.15 J0
X74.15 Y35 Z-9 I0.15 J0
X73.85 Y35 Z-9.25 I-0.15 J0
X74.15 Y35 Z-9.5 I0.15 J0
X73.85 Y35 Z-9.75 I-0.15 J0
X74.15 Y35 Z-10 I0.15 J0
X73.85 Y35 Z-10.25 I-0.15 J0
X74.15 Y35 Z-10.5 I0.15 J0
X73.85 Y35 Z-10.75 I-0.15 J0
X74.15 Y35 Z-11 I0.15 J0
X73.85 Y35 Z-11.25 I-0.15 J0
X74.15 Y35 Z-11.5 I0.15 J0
X73.85 Y35 Z-11.75 I-0.15 J0
X74.15 Y35 Z-12 I0.15 J0
X73.85 Y35 Z-12.25 I-0.15 J0
X74.15 Y35 Z-12.5 I0.15 J0
X73.85 Y35 Z-12.75 I-0.15 J0
X74.15 Y35 Z-13 I0.15 J0
X73.85 Y35 Z-13.25 I-0.15 J0
X73.879 Y34.912 Z-13.3 I0.15 J0
X74.121 Y35.088 I0.121 J0.088
X73.879 Y34.912 I-0.121 J-0.088
G1 X73.9 Y34.892
X73.928 Y34.882
X73.957 Y34.883
X73.983 Y34.895
X74.101 Y34.98
Z5
X73.98 Y34.875
Z1.71
Z0
X74.125
X74.164 Y34.881
X74.198 Y34.899
X74.226 Y34.927
X74.244 Y34.961
X74.25 Y35
G3 X73.75 Y35 Z-0.25 I-0.25 J0
X74.25 Y35 Z-0.5 I0.25 J0
X73.75 Y35 Z-0.75 I-0.25 J0
X74.25 Y35 Z-1 I0.25 J0
X73.75 Y35 Z-1.25 I-0.25 J0
X74.25 Y35 Z-1.5 I0.25 J0
X73.75 Y35 Z-1.75 I-0.25 J0
X74.25 Y35 Z-2 I0.25 J0
X73.75 Y35 Z-2.25 I-0.25 J0
X74.25 Y35 Z-2.5 I0.25 J0
X73.75 Y35 Z-2.75 I-0.25 J0
X74.25 Y35 Z-3 I0.25 J0
X73.75 Y35 Z-3.25 I-0.25 J0
X74.25 Y35 Z-3.5 I0.25 J0
X73.75 Y35 Z-3.75 I-0.25 J0
X74.25 Y35 Z-4 I0.25 J0
X73.75 Y35 Z-4.25 I-0.25 J0
X74.25 Y35 Z-4.5 I0.25 J0
X73.75 Y35 Z-4.75 I-0.25 J0
X74.25 Y35 Z-5 I0.25 J0
X73.75 Y35 Z-5.25 I-0.25 J0
X74.25 Y35 Z-5.5 I0.25 J0
X73.75 Y35 Z-5.75 I-0.25 J0
X74.25 Y35 Z-6 I0.25 J0
X73.75 Y35 Z-6.25 I-0.25 J0
X74.25 Y35 Z-6.5 I0.25 J0
X73.75 Y35 Z-6.75 I-0.25 J0
X74.25 Y35 Z-7 I0.25 J0
X73.75 Y35 Z-7.25 I-0.25 J0
X74.25 Y35 Z-7.5 I0.25 J0
X73.75 Y35 Z-7.75 I-0.25 J0
X74.25 Y35 Z-8 I0.25 J0
X73.75 Y35 Z-8.25 I-0.25 J0
X74.25 Y35 Z-8.5 I0.25 J0
X73.75 Y35 Z-8.75 I-0.25 J0
X74.25 Y35 Z-9 I0.25 J0
X73.75 Y35 Z-9.25 I-0.25 J0
X74.25 Y35 Z-9.5 I0.25 J0
X73.75 Y35 Z-9.75 I-0.25 J0
X74.25 Y35 Z-10 I0.25 J0
X73.75 Y35 Z-10.25 I-0.25 J0
X74.25 Y35 Z-10.5 I0.25 J0
X73.75 Y35 Z-10.75 I-0.25 J0
X74.25 Y35 Z-11 I0.25 J0
X73.75 Y35 Z-11.25 I-0.25 J0
X74.25 Y35 Z-11.5 I0.25 J0
X73.75 Y35 Z-11.75 I-0.25 J0
X74.25 Y35 Z-12 I0.25 J0
X73.75 Y35 Z-12.25 I-0.25 J0
X74.25 Y35 Z-12.5 I0.25 J0
X73.75 Y35 Z-12.75 I-0.25 J0
X74.25 Y35 Z-13 I0.25 J0
X73.75 Y35 Z-13.25 I-0.25 J0
X73.798 Y34.853 Z-13.3 I0.25 J0
X74.202 Y35.147 I0.202 J0.147
X73.798 Y34.853 I-0.202 J-0.147
G1 X73.825 Y34.825
X73.86 Y34.808
X73.899 Y34.802
X73.937 Y34.808
X73.972 Y34.825
X74.09 Y34.911
Z5
X73.98 Y34.875
Z1.71
Z0
X74.125
X74.164 Y34.881
X74.198 Y34.899
X74.226 Y34.927
X74.244 Y34.961
X74.25 Y35
G3 X73.75 Y35 Z-0.25 I-0.25 J0
X74.25 Y35 Z-0.5 I0.25 J0
X73.75 Y35 Z-0.75 I-0.25 J0
X74.25 Y35 Z-1 I0.25 J0
X73.75 Y35 Z-1.25 I-0.25 J0
X74.25 Y35 Z-1.5 I0.25 J0
X73.75 Y35 Z-1.75 I-0.25 J0
X74.25 Y35 Z-2 I0.25 J0
X73.75 Y35 Z-2.25 I-0.25 J0
X74.25 Y35 Z-2.5 I0.25 J0
X73.75 Y35 Z-2.75 I-0.25 J0
X74.25 Y35 Z-3 I0.25 J0
X73.75 Y35 Z-3.25 I-0.25 J0
X74.25 Y35 Z-3.5 I0.25 J0
X73.75 Y35 Z-3.75 I-0.25 J0
X74.25 Y35 Z-4 I0.25 J0
X73.75 Y35 Z-4.25 I-0.25 J0
X74.25 Y35 Z-4.5 I0.25 J0
X73.75 Y35 Z-4.75 I-0.25 J0
X74.25 Y35 Z-5 I0.25 J0
X73.75 Y35 Z-5.25 I-0.25 J0
X74.25 Y35 Z-5.5 I0.25 J0
X73.75 Y35 Z-5.75 I-0.25 J0
X74.25 Y35 Z-6 I0.25 J0
X73.75 Y35 Z-6.25 I-0.25 J0
X74.25 Y35 Z-6.5 I0.25 J0
X73.75 Y35 Z-6.75 I-0.25 J0
X74.25 Y35 Z-7 I0.25 J0
X73.75 Y35 Z-7.25 I-0.25 J0
X74.25 Y35 Z-7.5 I0.25 J0
X73.75 Y35 Z-7.75 I-0.25 J0
X74.25 Y35 Z-8 I0.25 J0
X73.75 Y35 Z-8.25 I-0.25 J0
X74.25 Y35 Z-8.5 I0.25 J0
X73.75 Y35 Z-8.75 I-0.25 J0
X74.25 Y35 Z-9 I0.25 J0
X73.75 Y35 Z-9.25 I-0.25 J0
X74.25 Y35 Z-9.5 I0.25 J0
X73.75 Y35 Z-9.75 I-0.25 J0
X74.25 Y35 Z-10 I0.25 J0
X73.75 Y35 Z-10.25 I-0.25 J0
X74.25 Y35 Z-10.5 I0.25 J0
X73.75 Y35 Z-10.75 I-0.25 J0
X74.25 Y35 Z-11 I0.25 J0
X73.75 Y35 Z-11.25 I-0.25 J0
X74.25 Y35 Z-11.5 I0.25 J0
X73.75 Y35 Z-11.75 I-0.25 J0
X74.25 Y35 Z-12 I0.25 J0
X73.75 Y35 Z-12.25 I-0.25 J0
X74.25 Y35 Z-12.5 I0.25 J0
X73.75 Y35 Z-12.75 I-0.25 J0
X74.25 Y35 Z-13 I0.25 J0
X73.75 Y35 Z-13.25 I-0.25 J0
X73.798 Y34.853 Z-13.3 I0.25 J0
X74.202 Y35.147 I0.202 J0.147
X73.798 Y34.853 I-0.202 J-0.147
G1 X73.825 Y34.825
X73.86 Y34.808
X73.899 Y34.802
X73.937 Y34.808
X73.972 Y34.825
X74.09 Y34.911
Z5
X14.625 Y34.71
Z-3.95
Z-5.66
G18 G2 X14.915 Z-5.95 I0.29 K0
G1 X15.06
G17 G3 X15.35 Y35 I0 J0.29
X12.65 Y35 Z-6.2 I-1.35 J0
X15.35 Y35 Z-6.45 I1.35 J0
X12.65 Y35 Z-6.7 I-1.35 J0
X15.35 Y35 Z-6.95 I1.35 J0
X12.65 Y35 Z-7.2 I-1.35 J0
X15.35 Y35 Z-7.45 I1.35 J0
X12.65 Y35 Z-7.7 I-1.35 J0
X15.35 Y35 Z-7.95 I1.35 J0
X12.65 Y35 Z-8.2 I-1.35 J0
X15.35 Y35 Z-8.45 I1.35 J0
X12.65 Y35 Z-8.7 I-1.35 J0
X15.35 Y35 Z-8.95 I1.35 J0
X12.65 Y35 Z-9.2 I-1.35 J0
X15.35 Y35 Z-9.45 I1.35 J0
X12.65 Y35 Z-9.7 I-1.35 J0
X15.35 Y35 Z-9.95 I1.35 J0
X12.65 Y35 Z-10.2 I-1.35 J0
X15.35 Y35 Z-10.45 I1.35 J0
X12.65 Y35 Z-10.7 I-1.35 J0
X15.35 Y35 Z-10.95 I1.35 J0
X12.65 Y35 Z-11.2 I-1.35 J0
X15.35 Y35 Z-11.45 I1.35 J0
X12.65 Y35 Z-11.7 I-1.35 J0
X15.35 Y35 Z-11.95 I1.35 J0
X12.65 Y35 Z-12.2 I-1.35 J0
X15.35 Y35 Z-12.45 I1.35 J0
X12.65 Y35 Z-12.7 I-1.35 J0
X15.35 Y35 Z-12.95 I1.35 J0
X12.65 Y35 Z-13.2 I-1.35 J0
X13.583 Y33.716 Z-13.3 I1.35 J0
X14.417 Y36.284 I0.417 J1.284
X13.583 Y33.716 I-0.417 J-1.284
X13.948 Y33.902 I0.09 J0.276
G1 X13.993 Y34.04
X14.013 Y34.102 Z-13.293
X14.032 Y34.16 Z-13.271
X14.049 Y34.212 Z-13.237
X14.063 Y34.256 Z-13.191
X14.074 Y34.289 Z-13.136
X14.08 Y34.309 Z-13.075
X14.083 Y34.316 Z-13.01
Z5
X14.725 Y34.71
Z-3.95
Z-5.66
G18 G2 X15.015 Z-5.95 I0.29 K0
G1 X15.16
G17 G3 X15.45 Y35 I0 J0.29
X12.55 Y35 Z-6.2 I-1.45 J0
X15.45 Y35 Z-6.45 I1.45 J0
X12.55 Y35 Z-6.7 I-1.45 J0
X15.45 Y35 Z-6.95 I1.45 J0
X12.55 Y35 Z-7.2 I-1.45 J0
X15.45 Y35 Z-7.45 I1.45 J0
X12.55 Y35 Z-7.7 I-1.45 J0
X15.45 Y35 Z-7.95 I1.45 J0
X12.55 Y35 Z-8.2 I-1.45 J0
X15.45 Y35 Z-8.45 I1.45 J0
X12.55 Y35 Z-8.7 I-1.45 J0
X15.45 Y35 Z-8.95 I1.45 J0
X12.55 Y35 Z-9.2 I-1.45 J0
X15.45 Y35 Z-9.45 I1.45 J0
X12.55 Y35 Z-9.7 I-1.45 J0
X15.45 Y35 Z-9.95 I1.45 J0
X12.55 Y35 Z-10.2 I-1.45 J0
X15.45 Y35 Z-10.45 I1.45 J0
X12.55 Y35 Z-10.7 I-1.45 J0
X15.45 Y35 Z-10.95 I1.45 J0
X12.55 Y35 Z-11.2 I-1.45 J0
X15.45 Y35 Z-11.45 I1.45 J0
X12.55 Y35 Z-11.7 I-1.45 J0
X15.45 Y35 Z-11.95 I1.45 J0
X12.55 Y35 Z-12.2 I-1.45 J0
X15.45 Y35 Z-12.45 I1.45 J0
X12.55 Y35 Z-12.7 I-1.45 J0
X15.45 Y35 Z-12.95 I1.45 J0
X12.55 Y35 Z-13.2 I-1.45 J0
X13.552 Y33.621 Z-13.3 I1.45 J0
X14.448 Y36.379 I0.448 J1.379
X13.552 Y33.621 I-0.448 J-1.379
X13.917 Y33.807 I0.09 J0.276
G1 X13.962 Y33.945
X13.982 Y34.006 Z-13.293
X14.001 Y34.065 Z-13.271
X14.018 Y34.117 Z-13.237
X14.032 Y34.161 Z-13.191
X14.043 Y34.194 Z-13.136
X14.05 Y34.214 Z-13.075
X14.052 Y34.221 Z-13.01
Z5
X14.725 Y34.71
Z-3.95
Z-5.66
G18 G2 X15.015 Z-5.95 I0.29 K0
G1 X15.16
G17 G3 X15.45 Y35 I0 J0.29
X12.55 Y35 Z-6.2 I-1.45 J0
X15.45 Y35 Z-6.45 I1.45 J0
X12.55 Y35 Z-6.7 I-1.45 J0
X15.45 Y35 Z-6.95 I1.45 J0
X12.55 Y35 Z-7.2 I-1.45 J0
X15.45 Y35 Z-7.45 I1.45 J0
X12.55 Y35 Z-7.7 I-1.45 J0
X15.45 Y35 Z-7.95 I1.45 J0
X12.55 Y35 Z-8.2 I-1.45 J0
X15.45 Y35 Z-8.45 I1.45 J0
X12.55 Y35 Z-8.7 I-1.45 J0
X15.45 Y35 Z-8.95 I1.45 J0
X12.55 Y35 Z-9.2 I-1.45 J0
X15.45 Y35 Z-9.45 I1.45 J0
X12.55 Y35 Z-9.7 I-1.45 J0
X15.45 Y35 Z-9.95 I1.45 J0
X12.55 Y35 Z-10.2 I-1.45 J0
X15.45 Y35 Z-10.45 I1.45 J0
X12.55 Y35 Z-10.7 I-1.45 J0
X15.45 Y35 Z-10.95 I1.45 J0
X12.55 Y35 Z-11.2 I-1.45 J0
X15.45 Y35 Z-11.45 I1.45 J0
X12.55 Y35 Z-11.7 I-1.45 J0
X15.45 Y35 Z-11.95 I1.45 J0
X12.55 Y35 Z-12.2 I-1.45 J0
X15.45 Y35 Z-12.45 I1.45 J0
X12.55 Y35 Z-12.7 I-1.45 J0
X15.45 Y35 Z-12.95 I1.45 J0
X12.55 Y35 Z-13.2 I-1.45 J0
X13.552 Y33.621 Z-13.3 I1.45 J0
X14.448 Y36.379 I0.448 J1.379
X13.552 Y33.621 I-0.448 J-1.379
X13.917 Y33.807 I0.09 J0.276
G1 X13.962 Y33.945
X13.982 Y34.006 Z-13.293
X14.001 Y34.065 Z-13.271
X14.018 Y34.117 Z-13.237
X14.032 Y34.161 Z-13.191
X14.043 Y34.194 Z-13.136
X14.05 Y34.214 Z-13.075
X14.052 Y34.221 Z-13.01
Z10
(When using Fusion 360 for Personal Use, the feedrate of)
(rapid moves is reduced to match the feedrate of cutting)
(moves, which can increase machining time. Unrestricted rapid)
(moves are available with a Fusion 360 Subscription.)

(2D Contour both)
G0 X151.388 Y62.65
G1 Z10 F1000
Z5
Z2.02 F333.3
Z-0.946
X159.5 F500
G2 X161.15 Y61 I0 J-1.65
G1 Y60.45
X166.85
Y61
G2 X168.5 Y62.65 I1.65 J0
G1 X176.95
Y63
X151.05
Y62.65
X151.388
Z-1.892 F333.3
X159.5 F500
G2 X161.15 Y61 I0 J-1.65
G1 Y60.45
X166.85
Y61
G2 X168.5 Y62.65 I1.65 J0
G1 X176.95
Y63
X151.05
Y62.65
X151.388
Z-2.838 F333.3
X159.5 F500
G2 X161.15 Y61 I0 J-1.65
G1 Y60.45
X166.85
Y61
G2 X168.5 Y62.65 I1.65 J0
G1 X176.95
Y63
X151.05
Y62.65
X151.388
Z-3.785 F333.3
X159.5 F500
G2 X161.15 Y61 I0 J-1.65
G1 Y60.45
X166.85
Y61
G2 X168.5 Y62.65 I1.65 J0
G1 X176.95
Y63
X151.05
Y62.65
X151.388
Z-4.731 F333.3
X159.5 F500
G2 X161.15 Y61 I0 J-1.65
G1 Y60.45
X166.85
Y61
G2 X168.5 Y62.65 I1.65 J0
G1 X176.95
Y63
X151.05
Y62.65
X151.388
Z-5.677 F333.3
X159.5 F500
G2 X161.15 Y61 I0 J-1.65
G1 Y60.45
X166.85
Y61
G2 X168.5 Y62.65 I1.65 J0
G1 X176.95
Y63
X151.05
Y62.65
X151.388
Z-6.623 F333.3
X159.5 F500
G2 X161.15 Y61 I0 J-1.65
G1 Y60.45
X166.85
Y61
G2 X168.5 Y62.65 I1.65 J0
G1 X176.95
Y63
X151.05
Y62.65
X151.388
Z-7.569 F333.3
X159.5 F500
G2 X161.15 Y61 I0 J-1.65
G1 Y60.45
X166.85
Y61
G2 X168.5 Y62.65 I1.65 J0
G1 X176.95
Y63
X151.05
Y62.65
X151.388
Z-8.515 F333.3
X159.5 F500
G2 X161.15 Y61 I0 J-1.65
G1 Y60.45
X166.85
Y61
G2 X168.5 Y62.65 I1.65 J0
G1 X176.95
Y63
X151.05
Y62.65
X151.388
Z-9.462 F333.3
X159.5 F500
G2 X161.15 Y61 I0 J-1.65
G1 Y60.45
X166.85
Y61
G2 X168.5 Y62.65 I1.65 J0
G1 X176.95
Y63
X151.05
Y62.65
X151.388
Z-10.408 F333.3
X159.5 F500
G2 X161.15 Y61 I0 J-1.65
G1 Y60.45
X166.85
Y61
G2 X168.5 Y62.65 I1.65 J0
G1 X176.95
Y63
X151.05
Y62.65
X151.388
Z-11.354 F333.3
X159.5 F500
G2 X161.15 Y61 I0 J-1.65
G1 Y60.45
X166.85
Y61
G2 X168.5 Y62.65 I1.65 J0
G1 X176.95
Y63
X151.05
Y62.65
X151.388
Z-12.3 F333.3
X159.5 F1000
G2 X161.15 Y61 I0 J-1.65
G1 Y60.45
X166.85
Y61
G2 X168.5 Y62.65 I1.65 J0
G1 X176.95
Y63
X151.05
Y62.65
X151.388
X151.435 Y62.643
X151.478 Y62.623
X151.514 Y62.591
X151.538 Y62.55
X151.563 Y62.509
X151.598 Y62.477
X151.641 Y62.457
X151.688 Y62.45
X159.5 F500
G2 X160.95 Y61 I0 J-1.45
G1 Y60.25
X167.05
Y61
G2 X168.5 Y62.45 I1.45 J0
G1 X177.15
Y63.2
X150.85
Y62.45
X151.688
Z5 F1000
X151.388 Y7
Z2.02 F333.3
Z-0.946
X176.95 F500
Y7.35
X168.5
G2 X166.85 Y9 I0 J1.65
G1 Y9.55
X161.15
Y9
G2 X159.5 Y7.35 I-1.65 J0
G1 X151.05
Y7
X151.388
Z-1.892 F333.3
X176.95 F500
Y7.35
X168.5
G2 X166.85 Y9 I0 J1.65
G1 Y9.55
X161.15
Y9
G2 X159.5 Y7.35 I-1.65 J0
G1 X151.05
Y7
X151.388
Z-2.838 F333.3
X176.95 F500
Y7.35
X168.5
G2 X166.85 Y9 I0 J1.65
G1 Y9.55
X161.15
Y9
G2 X159.5 Y7.35 I-1.65 J0
G1 X151.05
Y7
X151.388
Z-3.785 F333.3
X176.95 F500
Y7.35
X168.5
G2 X166.85 Y9 I0 J1.65
G1 Y9.55
X161.15
Y9
G2 X159.5 Y7.35 I-1.65 J0
G1 X151.05
Y7
X151.388
Z-4.731 F333.3
X176.95 F500
Y7.35
X168.5
G2 X166.85 Y9 I0 J1.65
G1 Y9.55
X161.15
Y9
G2 X159.5 Y7.35 I-1.65 J0
G1 X151.05
Y7
X151.388
Z-5.677 F333.3
X176.95 F500
Y7.35
X168.5
G2 X166.85 Y9 I0 J1.65
G1 Y9.55
X161.15
Y9
G2 X159.5 Y7.35 I-1.65 J0
G1 X151.05
Y7
X151.388
Z-6.623 F333.3
X176.95 F500
Y7.35
X168.5
G2 X166.85 Y9 I0 J1.65
G1 Y9.55
X161.15
Y9
G2 X159.5 Y7.35 I-1.65 J0
G1 X151.05
Y7
X151.388
Z-7.569 F333.3
X176.95 F500
Y7.35
X168.5
G2 X166.85 Y9 I0 J1.65
G1 Y9.55
X161.15
Y9
G2 X159.5 Y7.35 I-1.65 J0
G1 X151.05
Y7
X151.388
Z-8.515 F333.3
X176.95 F500
Y7.35
X168.5
G2 X166.85 Y9 I0 J1.65
G1 Y9.55
X161.15
Y9
G2 X159.5 Y7.35 I-1.65 J0
G1 X151.05
Y7
X151.388
Z-9.462 F333.3
X176.95 F500
Y7.35
X168.5
G2 X166.85 Y9 I0 J1.65
G1 Y9.55
X161.15
Y9
G2 X159.5 Y7.35 I-1.65 J0
G1 X151.05
Y7
X151.388
Z-10.408 F333.3
X176.95 F500
Y7.35
X168.5
G2 X166.85 Y9 I0 J1.65
G1 Y9.55
X161.15
Y9
G2 X159.5 Y7.35 I-1.65 J0
G1 X151.05
Y7
X151.388
Z-11.354 F333.3
X176.95 F500
Y7.35
X168.5
G2 X166.85 Y9 I0 J1.65
G1 Y9.55
X161.15
Y9
G2 X159.5 Y7.35 I-1.65 J0
G1 X151.05
Y7
X151.388
Z-12.3 F333.3
X176.95 F1000
Y7.35
X168.5
G2 X166.85 Y9 I0 J1.65
G1 Y9.55
X161.15
Y9
G2 X159.5 Y7.35 I-1.65 J0
G1 X151.05
Y7
X151.388
X151.435 Y6.993
X151.478 Y6.973
X151.514 Y6.941
X151.538 Y6.9
X151.563 Y6.859
X151.598 Y6.827
X151.641 Y6.807
X151.688 Y6.8
X177.15 F500
Y7.55
X168.5
G2 X167.05 Y9 I0 J1.45
G1 Y9.75
X160.95
Y9
G2 X159.5 Y7.55 I-1.45 J0
G1 X150.85
Y6.8
X151.688
Z5 F1000
X51.388 Y7
Z2.02 F333.3
Z-0.946
X76.95 F500
Y7.35
X68.5
G2 X66.85 Y9 I0 J1.65
G1 Y9.55
X61.15
Y9
G2 X59.5 Y7.35 I-1.65 J0
G1 X51.05
Y7
X51.388
Z-1.892 F333.3
X76.95 F500
Y7.35
X68.5
G2 X66.85 Y9 I0 J1.65
G1 Y9.55
X61.15
Y9
G2 X59.5 Y7.35 I-1.65 J0
G1 X51.05
Y7
X51.388
Z-2.838 F333.3
X76.95 F500
Y7.35
X68.5
G2 X66.85 Y9 I0 J1.65
G1 Y9.55
X61.15
Y9
G2 X59.5 Y7.35 I-1.65 J0
G1 X51.05
Y7
X51.388
Z-3.785 F333.3
X76.95 F500
Y7.35
X68.5
G2 X66.85 Y9 I0 J1.65
G1 Y9.55
X61.15
Y9
G2 X59.5 Y7.35 I-1.65 J0
G1 X51.05
Y7
X51.388
Z-4.731 F333.3
X76.95 F500
Y7.35
X68.5
G2 X66.85 Y9 I0 J1.65
G1 Y9.55
X61.15
Y9
G2 X59.5 Y7.35 I-1.65 J0
G1 X51.05
Y7
X51.388
Z-5.677 F333.3
X76.95 F500
Y7.35
X68.5
G2 X66.85 Y9 I0 J1.65
G1 Y9.55
X61.15
Y9
G2 X59.5 Y7.35 I-1.65 J0
G1 X51.05
Y7
X51.388
Z-6.623 F333.3
X76.95 F500
Y7.35
X68.5
G2 X66.85 Y9 I0 J1.65
G1 Y9.55
X61.15
Y9
G2 X59.5 Y7.35 I-1.65 J0
G1 X51.05
Y7
X51.388
Z-7.569 F333.3
X76.95 F500
Y7.35
X68.5
G2 X66.85 Y9 I0 J1.65
G1 Y9.55
X61.15
Y9
G2 X59.5 Y7.35 I-1.65 J0
G1 X51.05
Y7
X51.388
Z-8.515 F333.3
X76.95 F500
Y7.35
X68.5
G2 X66.85 Y9 I0 J1.65
G1 Y9.55
X61.15
Y9
G2 X59.5 Y7.35 I-1.65 J0
G1 X51.05
Y7
X51.388
Z-9.462 F333.3
X76.95 F500
Y7.35
X68.5
G2 X66.85 Y9 I0 J1.65
G1 Y9.55
X61.15
Y9
G2 X59.5 Y7.35 I-1.65 J0
G1 X51.05
Y7
X51.388
Z-10.408 F333.3
X76.95 F500
Y7.35
X68.5
G2 X66.85 Y9 I0 J1.65
G1 Y9.55
X61.15
Y9
G2 X59.5 Y7.35 I-1.65 J0
G1 X51.05
Y7
X51.388
Z-11.354 F333.3
X76.95 F500
Y7.35
X68.5
G2 X66.85 Y9 I0 J1.65
G1 Y9.55
X61.15
Y9
G2 X59.5 Y7.35 I-1.65 J0
G1 X51.05
Y7
X51.388
Z-12.3 F333.3
X76.95 F1000
Y7.35
X68.5
G2 X66.85 Y9 I0 J1.65
G1 Y9.55
X61.15
Y9
G2 X59.5 Y7.35 I-1.65 J0
G1 X51.05
Y7
X51.388
X51.435 Y6.993
X51.478 Y6.973
X51.514 Y6.941
X51.538 Y6.9
X51.563 Y6.859
X51.598 Y6.827
X51.641 Y6.807
X51.688 Y6.8
X77.15 F500
Y7.55
X68.5
G2 X67.05 Y9 I0 J1.45
G1 Y9.75
X60.95
Y9
G2 X59.5 Y7.55 I-1.45 J0
G1 X50.85
Y6.8
X51.688
Z5 F1000
X51.388 Y62.65
Z2.02 F333.3
Z-0.946
X59.5 F500
G2 X61.15 Y61 I0 J-1.65
G1 Y60.45
X66.85
Y61
G2 X68.5 Y62.65 I1.65 J0
G1 X76.95
Y63
X51.05
Y62.65
X51.388
Z-1.892 F333.3
X59.5 F500
G2 X61.15 Y61 I0 J-1.65
G1 Y60.45
X66.85
Y61
G2 X68.5 Y62.65 I1.65 J0
G1 X76.95
Y63
X51.05
Y62.65
X51.388
Z-2.838 F333.3
X59.5 F500
G2 X61.15 Y61 I0 J-1.65
G1 Y60.45
X66.85
Y61
G2 X68.5 Y62.65 I1.65 J0
G1 X76.95
Y63
X51.05
Y62.65
X51.388
Z-3.785 F333.3
X59.5 F500
G2 X61.15 Y61 I0 J-1.65
G1 Y60.45
X66.85
Y61
G2 X68.5 Y62.65 I1.65 J0
G1 X76.95
Y63
X51.05
Y62.65
X51.388
Z-4.731 F333.3
X59.5 F500
G2 X61.15 Y61 I0 J-1.65
G1 Y60.45
X66.85
Y61
G2 X68.5 Y62.65 I1.65 J0
G1 X76.95
Y63
X51.05
Y62.65
X51.388
Z-5.677 F333.3
X59.5 F500
G2 X61.15 Y61 I0 J-1.65
G1 Y60.45
X66.85
Y61
G2 X68.5 Y62.65 I1.65 J0
G1 X76.95
Y63
X51.05
Y62.65
X51.388
Z-6.623 F333.3
X59.5 F500
G2 X61.15 Y61 I0 J-1.65
G1 Y60.45
X66.85
Y61
G2 X68.5 Y62.65 I1.65 J0
G1 X76.95
Y63
X51.05
Y62.65
X51.388
Z-7.569 F333.3
X59.5 F500
G2 X61.15 Y61 I0 J-1.65
G1 Y60.45
X66.85
Y61
G2 X68.5 Y62.65 I1.65 J0
G1 X76.95
Y63
X51.05
Y62.65
X51.388
Z-8.515 F333.3
X59.5 F500
G2 X61.15 Y61 I0 J-1.65
G1 Y60.45
X66.85
Y61
G2 X68.5 Y62.65 I1.65 J0
G1 X76.95
Y63
X51.05
Y62.65
X51.388
Z-9.462 F333.3
X59.5 F500
G2 X61.15 Y61 I0 J-1.65
G1 Y60.45
X66.85
Y61
G2 X68.5 Y62.65 I1.65 J0
G1 X76.95
Y63
X51.05
Y62.65
X51.388
Z-10.408 F333.3
X59.5 F500
G2 X61.15 Y61 I0 J-1.65
G1 Y60.45
X66.85
Y61
G2 X68.5 Y62.65 I1.65 J0
G1 X76.95
Y63
X51.05
Y62.65
X51.388
Z-11.354 F333.3
X59.5 F500
G2 X61.15 Y61 I0 J-1.65
G1 Y60.45
X66.85
Y61
G2 X68.5 Y62.65 I1.65 J0
G1 X76.95
Y63
X51.05
Y62.65
X51.388
Z-12.3 F333.3
X59.5 F1000
G2 X61.15 Y61 I0 J-1.65
G1 Y60.45
X66.85
Y61
G2 X68.5 Y62.65 I1.65 J0
G1 X76.95
Y63
X51.05
Y62.65
X51.388
X51.435 Y62.643
X51.478 Y62.623
X51.514 Y62.591
X51.538 Y62.55
X51.563 Y62.509
X51.598 Y62.477
X51.641 Y62.457
X51.688 Y62.45
X59.5 F500
G2 X60.95 Y61 I0 J-1.45
G1 Y60.25
X67.05
Y61
G2 X68.5 Y62.45 I1.45 J0
G1 X77.15
Y63.2
X50.85
Y62.45
X51.688
Z5 F1000
X29.297 Y-1.65
Z2.02 F333.3
Z-0.946
X14 F500
G2 X12.35 Y0 I0 J1.65
G1 Y17.144
G3 X11.88 Y17.473 I-0.35 J0
G1 X3.248 Y14.331
G2 X-1.65 Y17.761 I-1.248 J3.43
G1 Y52.239
G2 X3.248 Y55.669 I3.65 J0
G1 X11.88 Y52.527
G3 X12.35 Y52.856 I0.12 J0.329
G1 Y70
G2 X14 Y71.65 I1.65 J0
G1 X107.8
G2 X109.45 Y70 I0 J-1.65
G1 Y38.05
G2 X108.366 Y36.5 I-1.65 J0
G1 X119.634
G2 X118.55 Y38.05 I0.566 J1.55
G1 Y70
G2 X120.2 Y71.65 I1.65 J0
G1 X214
G2 X215.65 Y70 I0 J-1.65
G1 Y52.856
G3 X216.12 Y52.527 I0.35 J0
G1 X224.752 Y55.669
G2 X229.65 Y52.239 I1.248 J-3.43
G1 Y17.761
G2 X224.752 Y14.331 I-3.65 J0
G1 X216.12 Y17.473
G3 X215.65 Y17.144 I-0.12 J-0.329
G1 Y0
G2 X214 Y-1.65 I-1.65 J0
G1 X29.297
Z-1.892 F333.3
X14 F500
G2 X12.35 Y0 I0 J1.65
G1 Y17.144
G3 X11.88 Y17.473 I-0.35 J0
G1 X3.248 Y14.331
G2 X-1.65 Y17.761 I-1.248 J3.43
G1 Y52.239
G2 X3.248 Y55.669 I3.65 J0
G1 X11.88 Y52.527
G3 X12.35 Y52.856 I0.12 J0.329
G1 Y70
G2 X14 Y71.65 I1.65 J0
G1 X107.8
G2 X109.45 Y70 I0 J-1.65
G1 Y38.05
G2 X108.366 Y36.5 I-1.65 J0
G1 X119.634
G2 X118.55 Y38.05 I0.566 J1.55
G1 Y70
G2 X120.2 Y71.65 I1.65 J0
G1 X214
G2 X215.65 Y70 I0 J-1.65
G1 Y52.856
G3 X216.12 Y52.527 I0.35 J0
G1 X224.752 Y55.669
G2 X229.65 Y52.239 I1.248 J-3.43
G1 Y17.761
G2 X224.752 Y14.331 I-3.65 J0
G1 X216.12 Y17.473
G3 X215.65 Y17.144 I-0.12 J-0.329
G1 Y0
G2 X214 Y-1.65 I-1.65 J0
G1 X29.297
Z-2.838 F333.3
X14 F500
G2 X12.35 Y0 I0 J1.65
G1 Y17.144
G3 X11.88 Y17.473 I-0.35 J0
G1 X3.248 Y14.331
G2 X-1.65 Y17.761 I-1.248 J3.43
G1 Y52.239
G2 X3.248 Y55.669 I3.65 J0
G1 X11.88 Y52.527
G3 X12.35 Y52.856 I0.12 J0.329
G1 Y70
G2 X14 Y71.65 I1.65 J0
G1 X107.8
G2 X109.45 Y70 I0 J-1.65
G1 Y38.05
G2 X108.366 Y36.5 I-1.65 J0
G1 X119.634
G2 X118.55 Y38.05 I0.566 J1.55
G1 Y70
G2 X120.2 Y71.65 I1.65 J0
G1 X214
G2 X215.65 Y70 I0 J-1.65
G1 Y52.856
G3 X216.12 Y52.527 I0.35 J0
G1 X224.752 Y55.669
G2 X229.65 Y52.239 I1.248 J-3.43
G1 Y17.761
G2 X224.752 Y14.331 I-3.65 J0
G1 X216.12 Y17.473
G3 X215.65 Y17.144 I-0.12 J-0.329
G1 Y0
G2 X214 Y-1.65 I-1.65 J0
G1 X29.297
Z-3.785 F333.3
X14 F500
G2 X12.35 Y0 I0 J1.65
G1 Y17.144
G3 X11.88 Y17.473 I-0.35 J0
G1 X3.248 Y14.331
G2 X-1.65 Y17.761 I-1.248 J3.43
G1 Y52.239
G2 X3.248 Y55.669 I3.65 J0
G1 X11.88 Y52.527
G3 X12.35 Y52.856 I0.12 J0.329
G1 Y70
G2 X14 Y71.65 I1.65 J0
G1 X107.8
G2 X109.45 Y70 I0 J-1.65
G1 Y38.05
G2 X108.366 Y36.5 I-1.65 J0
G1 X119.634
G2 X118.55 Y38.05 I0.566 J1.55
G1 Y70
G2 X120.2 Y71.65 I1.65 J0
G1 X214
G2 X215.65 Y70 I0 J-1.65
G1 Y52.856
G3 X216.12 Y52.527 I0.35 J0
G1 X224.752 Y55.669
G2 X229.65 Y52.239 I1.248 J-3.43
G1 Y17.761
G2 X224.752 Y14.331 I-3.65 J0
G1 X216.12 Y17.473
G3 X215.65 Y17.144 I-0.12 J-0.329
G1 Y0
G2 X214 Y-1.65 I-1.65 J0
G1 X29.297
Z-4.731 F333.3
X14 F500
G2 X12.35 Y0 I0 J1.65
G1 Y17.144
G3 X11.88 Y17.473 I-0.35 J0
G1 X3.248 Y14.331
G2 X-1.65 Y17.761 I-1.248 J3.43
G1 Y52.239
G2 X3.248 Y55.669 I3.65 J0
G1 X11.88 Y52.527
G3 X12.35 Y52.856 I0.12 J0.329
G1 Y70
G2 X14 Y71.65 I1.65 J0
G1 X107.8
G2 X109.45 Y70 I0 J-1.65
G1 Y38.05
G2 X108.366 Y36.5 I-1.65 J0
G1 X119.634
G2 X118.55 Y38.05 I0.566 J1.55
G1 Y70
G2 X120.2 Y71.65 I1.65 J0
G1 X214
G2 X215.65 Y70 I0 J-1.65
G1 Y52.856
G3 X216.12 Y52.527 I0.35 J0
G1 X224.752 Y55.669
G2 X229.65 Y52.239 I1.248 J-3.43
G1 Y17.761
G2 X224.752 Y14.331 I-3.65 J0
G1 X216.12 Y17.473
G3 X215.65 Y17.144 I-0.12 J-0.329
G1 Y0
G2 X214 Y-1.65 I-1.65 J0
G1 X29.297
Z-5.677 F333.3
X14 F500
G2 X12.35 Y0 I0 J1.65
G1 Y17.144
G3 X11.88 Y17.473 I-0.35 J0
G1 X3.248 Y14.331
G2 X-1.65 Y17.761 I-1.248 J3.43
G1 Y52.239
G2 X3.248 Y55.669 I3.65 J0
G1 X11.88 Y52.527
G3 X12.35 Y52.856 I0.12 J0.329
G1 Y70
G2 X14 Y71.65 I1.65 J0
G1 X107.8
G2 X109.45 Y70 I0 J-1.65
G1 Y38.05
G2 X108.366 Y36.5 I-1.65 J0
G1 X119.634
G2 X118.55 Y38.05 I0.566 J1.55
G1 Y70
G2 X120.2 Y71.65 I1.65 J0
G1 X214
G2 X215.65 Y70 I0 J-1.65
G1 Y52.856
G3 X216.12 Y52.527 I0.35 J0
G1 X224.752 Y55.669
G2 X229.65 Y52.239 I1.248 J-3.43
G1 Y17.761
G2 X224.752 Y14.331 I-3.65 J0
G1 X216.12 Y17.473
G3 X215.65 Y17.144 I-0.12 J-0.329
G1 Y0
G2 X214 Y-1.65 I-1.65 J0
G1 X29.297
Z-6.623 F333.3
X14 F500
G2 X12.35 Y0 I0 J1.65
G1 Y17.144
G3 X11.88 Y17.473 I-0.35 J0
G1 X3.248 Y14.331
G2 X-1.65 Y17.761 I-1.248 J3.43
G1 Y52.239
G2 X3.248 Y55.669 I3.65 J0
G1 X11.88 Y52.527
G3 X12.35 Y52.856 I0.12 J0.329
G1 Y70
G2 X14 Y71.65 I1.65 J0
G1 X107.8
G2 X109.45 Y70 I0 J-1.65
G1 Y38.05
G2 X108.366 Y36.5 I-1.65 J0
G1 X119.634
G2 X118.55 Y38.05 I0.566 J1.55
G1 Y70
G2 X120.2 Y71.65 I1.65 J0
G1 X214
G2 X215.65 Y70 I0 J-1.65
G1 Y52.856
G3 X216.12 Y52.527 I0.35 J0
G1 X224.752 Y55.669
G2 X229.65 Y52.239 I1.248 J-3.43
G1 Y17.761
G2 X224.752 Y14.331 I-3.65 J0
G1 X216.12 Y17.473
G3 X215.65 Y17.144 I-0.12 J-0.329
G1 Y0
G2 X214 Y-1.65 I-1.65 J0
G1 X29.297
Z-7.569 F333.3
X14 F500
G2 X12.35 Y0 I0 J1.65
G1 Y17.144
G3 X11.88 Y17.473 I-0.35 J0
G1 X3.248 Y14.331
G2 X-1.65 Y17.761 I-1.248 J3.43
G1 Y52.239
G2 X3.248 Y55.669 I3.65 J0
G1 X11.88 Y52.527
G3 X12.35 Y52.856 I0.12 J0.329
G1 Y70
G2 X14 Y71.65 I1.65 J0
G1 X107.8
G2 X109.45 Y70 I0 J-1.65
G1 Y38.05
G2 X108.366 Y36.5 I-1.65 J0
G1 X119.634
G2 X118.55 Y38.05 I0.566 J1.55
G1 Y70
G2 X120.2 Y71.65 I1.65 J0
G1 X214
G2 X215.65 Y70 I0 J-1.65
G1 Y52.856
G3 X216.12 Y52.527 I0.35 J0
G1 X224.752 Y55.669
G2 X229.65 Y52.239 I1.248 J-3.43
G1 Y17.761
G2 X224.752 Y14.331 I-3.65 J0
G1 X216.12 Y17.473
G3 X215.65 Y17.144 I-0.12 J-0.329
G1 Y0
G2 X214 Y-1.65 I-1.65 J0
G1 X29.297
Z-8.515 F333.3
X14 F500
G2 X12.35 Y0 I0 J1.65
G1 Y17.144
G3 X11.88 Y17.473 I-0.35 J0
G1 X3.248 Y14.331
G2 X-1.65 Y17.761 I-1.248 J3.43
G1 Y52.239
G2 X3.248 Y55.669 I3.65 J0
G1 X11.88 Y52.527
G3 X12.35 Y52.856 I0.12 J0.329
G1 Y70
G2 X14 Y71.65 I1.65 J0
G1 X107.8
G2 X109.45 Y70 I0 J-1.65
G1 Y38.05
G2 X108.366 Y36.5 I-1.65 J0
G1 X119.634
G2 X118.55 Y38.05 I0.566 J1.55
G1 Y70
G2 X120.2 Y71.65 I1.65 J0
G1 X214
G2 X215.65 Y70 I0 J-1.65
G1 Y52.856
G3 X216.12 Y52.527 I0.35 J0
G1 X224.752 Y55.669
G2 X229.65 Y52.239 I1.248 J-3.43
G1 Y17.761
G2 X224.752 Y14.331 I-3.65 J0
G1 X216.12 Y17.473
G3 X215.65 Y17.144 I-0.12 J-0.329
G1 Y0
G2 X214 Y-1.65 I-1.65 J0
G1 X29.297
Z-9.462 F333.3
X14 F500
G2 X12.35 Y0 I0 J1.65
G1 Y17.144
G3 X11.88 Y17.473 I-0.35 J0
G1 X3.248 Y14.331
G2 X-1.65 Y17.761 I-1.248 J3.43
G1 Y52.239
G2 X3.248 Y55.669 I3.65 J0
G1 X11.88 Y52.527
G3 X12.35 Y52.856 I0.12 J0.329
G1 Y70
G2 X14 Y71.65 I1.65 J0
G1 X107.8
G2 X109.45 Y70 I0 J-1.65
G1 Y38.05
G2 X108.366 Y36.5 I-1.65 J0
G1 X119.634
G2 X118.55 Y38.05 I0.566 J1.55
G1 Y70
G2 X120.2 Y71.65 I1.65 J0
G1 X214
G2 X215.65 Y70 I0 J-1.65
G1 Y52.856
G3 X216.12 Y52.527 I0.35 J0
G1 X224.752 Y55.669
G2 X229.65 Y52.239 I1.248 J-3.43
G1 Y17.761
G2 X224.752 Y14.331 I-3.65 J0
G1 X216.12 Y17.473
G3 X215.65 Y17.144 I-0.12 J-0.329
G1 Y0
G2 X214 Y-1.65 I-1.65 J0
G1 X29.297
Z-10.408 F333.3
X14 F500
G2 X12.35 Y0 I0 J1.65
G1 Y6.46
Z-9.6
Y12.36
Z-10.408 F333.3
Y17.144 F500
G3 X11.88 Y17.473 I-0.35 J0
G1 X3.248 Y14.331
G2 X-1.65 Y17.761 I-1.248 J3.43
G1 Y52.239
G2 X3.248 Y55.669 I3.65 J0
G1 X11.88 Y52.527
G3 X12.35 Y52.856 I0.12 J0.329
G1 Y59.554
Z-9.6
Y65.453
Z-10.408 F333.3
Y70 F500
G2 X14 Y71.65 I1.65 J0
G1 X107.8
G2 X109.45 Y70 I0 J-1.65
G1 Y51.132
Z-9.6
Y45.232
Z-10.408 F333.3
Y38.05 F500
G2 X108.366 Y36.5 I-1.65 J0
G1 X119.634
G2 X118.55 Y38.05 I0.566 J1.55
G1 Y70
G2 X120.2 Y71.65 I1.65 J0
G1 X214
G2 X215.65 Y70 I0 J-1.65
G1 Y64.134
Z-9.6
Y58.234
Z-10.408 F333.3
Y52.856 F500
G3 X216.12 Y52.527 I0.35 J0
G1 X224.752 Y55.669
G2 X229.65 Y52.239 I1.248 J-3.43
G1 Y17.761
G2 X224.752 Y14.331 I-3.65 J0
G1 X216.12 Y17.473
G3 X215.65 Y17.144 I-0.12 J-0.329
G1 Y11.928
Z-9.6
Y6.028
Z-10.408 F333.3
Y0 F500
G2 X214 Y-1.65 I-1.65 J0
G1 X29.297
Z-11.354 F333.3
X14 F500
G2 X12.35 Y0 I0 J1.65
G1 Y6.46
Z-9.6
Y12.36
Z-11.354 F333.3
Y17.144 F500
G3 X11.88 Y17.473 I-0.35 J0
G1 X3.248 Y14.331
G2 X-1.65 Y17.761 I-1.248 J3.43
G1 Y52.239
G2 X3.248 Y55.669 I3.65 J0
G1 X11.88 Y52.527
G3 X12.35 Y52.856 I0.12 J0.329
G1 Y59.554
Z-9.6
Y65.453
Z-11.354 F333.3
Y70 F500
G2 X14 Y71.65 I1.65 J0
G1 X107.8
G2 X109.45 Y70 I0 J-1.65
G1 Y51.132
Z-9.6
Y45.232
Z-11.354 F333.3
Y38.05 F500
G2 X108.366 Y36.5 I-1.65 J0
G1 X119.634
G2 X118.55 Y38.05 I0.566 J1.55
G1 Y70
G2 X120.2 Y71.65 I1.65 J0
G1 X214
G2 X215.65 Y70 I0 J-1.65
G1 Y64.134
Z-9.6
Y58.234
Z-11.354 F333.3
Y52.856 F500
G3 X216.12 Y52.527 I0.35 J0
G1 X224.752 Y55.669
G2 X229.65 Y52.239 I1.248 J-3.43
G1 Y17.761
G2 X224.752 Y14.331 I-3.65 J0
G1 X216.12 Y17.473
G3 X215.65 Y17.144 I-0.12 J-0.329
G1 Y11.928
Z-9.6
Y6.028
Z-11.354 F333.3
Y0 F500
G2 X214 Y-1.65 I-1.65 J0
G1 X29.297
Z-12.3 F333.3
X14 F1000
G2 X12.35 Y0 I0 J1.65
G1 Y6.46
Z-9.6
Y12.36
Z-12.3 F333.3
Y17.144 F1000
G3 X11.88 Y17.473 I-0.35 J0
G1 X3.248 Y14.331
G2 X-1.65 Y17.761 I-1.248 J3.43
G1 Y52.239
G2 X3.248 Y55.669 I3.65 J0
G1 X11.88 Y52.527
G3 X12.35 Y52.856 I0.12 J0.329
G1 Y59.554
Z-9.6
Y65.453
Z-12.3 F333.3
Y70 F1000
G2 X14 Y71.65 I1.65 J0
G1 X107.8
G2 X109.45 Y70 I0 J-1.65
G1 Y51.132
Z-9.6
Y45.232
Z-12.3 F333.3
Y38.05 F1000
G2 X108.366 Y36.5 I-1.65 J0
G1 X119.634
G2 X118.55 Y38.05 I0.566 J1.55
G1 Y70
G2 X120.2 Y71.65 I1.65 J0
G1 X214
G2 X215.65 Y70 I0 J-1.65
G1 Y64.134
Z-9.6
Y58.234
Z-12.3 F333.3
Y52.856 F1000
G3 X216.12 Y52.527 I0.35 J0
G1 X224.752 Y55.669
G2 X229.65 Y52.239 I1.248 J-3.43
G1 Y17.761
G2 X224.752 Y14.331 I-3.65 J0
G1 X216.12 Y17.473
G3 X215.65 Y17.144 I-0.12 J-0.329
G1 Y11.928
Z-9.6
Y6.028
Z-12.3 F333.3
Y0 F1000
G2 X214 Y-1.65 I-1.65 J0
G1 X29.297
X29.25 Y-1.643
X29.207 Y-1.623
X29.172 Y-1.591
X29.147 Y-1.55
X29.123 Y-1.509
X29.087 Y-1.477
X29.044 Y-1.457
X28.997 Y-1.45
X14 F500
G2 X12.55 Y0 I0 J1.45
G1 Y6.46
Z-9.6
Y12.36
Z-12.3 F333.3
Y17.144 F500
G3 X11.812 Y17.661 I-0.55 J0
G1 X3.18 Y14.519
G2 X-1.45 Y17.761 I-1.18 J3.242
G1 Y52.239
G2 X3.18 Y55.481 I3.45 J0
G1 X11.812 Y52.339
G3 X12.55 Y52.856 I0.188 J0.517
G1 Y59.554
Z-9.6
Y65.453
Z-12.3 F333.3
Y70 F500
G2 X14 Y71.45 I1.45 J0
G1 X107.8
G2 X109.25 Y70 I0 J-1.45
G1 Y51.132
Z-9.6
Y45.232
Z-12.3 F333.3
Y38.05 F500
G2 X107.8 Y36.6 I-1.45 J0
G1 X107.65
Y36.3
X120.35
Y36.6
X120.2
G2 X118.75 Y38.05 I0 J1.45
G1 Y70
G2 X120.2 Y71.45 I1.45 J0
G1 X214
G2 X215.45 Y70 I0 J-1.45
G1 Y64.134
Z-9.6
Y58.234
Z-12.3 F333.3
Y52.856 F500
G3 X216.188 Y52.339 I0.55 J0
G1 X224.82 Y55.481
G2 X229.45 Y52.239 I1.18 J-3.242
G1 Y17.761
G2 X224.82 Y14.519 I-3.45 J0
G1 X216.188 Y17.661
G3 X215.45 Y17.144 I-0.188 J-0.517
G1 Y11.928
Z-9.6
Y6.028
Z-12.3 F333.3
Y0 F500
G2 X214 Y-1.45 I-1.45 J0
G1 X28.997
Z10 F1000
M5
M30
