(1116_wall_285bit)
(T1  D=2.85 CR=0 - ZMIN=-13.3 - flat end mill)
G90 G94
G17
G21
(When using Fusion 360 for Personal Use, the feedrate of)
(rapid moves is reduced to match the feedrate of cutting)
(moves, which can increase machining time. Unrestricted rapid)
(moves are available with a Fusion 360 Subscription.)

(2D Pocket tabs)
T1
S5000 M3
G54
G0 X-1.422 Y32.559
Z10
G1 Z5 F1000
Z2.02 F333.3
Z-0.992 F1000
X-1.415 Y32.567
G2 X0.898 Y34.821 I17.287 J-15.424
G3 X0.898 Y35.179 I-0.153 J0.179
G2 X-1.415 Y37.45 I15.186 J17.775
G1 X-1.42 Y37.463
X-1.45 Y39.988
X-1.444 Y40.003
X-1.428 Y40.009
X-1.414 Y40.001
G3 X3.568 Y35.143 I17.475 J12.943
G2 X3.568 Y34.857 I-0.101 J-0.143
G3 X-1.414 Y30.031 I12.326 J-17.713
G1 X-1.418 Y30.019
X-1.452 Y27.118
X-1.445 Y27.103
X-1.429 Y27.098
X-1.415 Y27.108
G2 X6.627 Y34.845 I17.33 J-9.964
G3 X6.627 Y35.155 I-0.082 J0.155
G2 X-1.414 Y42.933 I9.413 J17.776
G1 X-1.417 Y42.943
X-1.454 Y46.768
X-1.449 Y46.781
X-1.437 Y46.788
X-1.424 Y46.785
X-1.415 Y46.775
G3 X11.009 Y35.125 I17.432 J6.141
G2 X11.009 Y34.875 I-0.035 J-0.125
G3 X-1.415 Y23.272 I4.929 J-17.731
G1 X-1.416 Y23.264
X-0.893 Y15.889
X-0.887 Y15.875
X-0.873 Y15.87
X-0.859 Y15.876
X-0.854 Y15.89
X-0.855 Y17.144
G2 X12.847 Y33.655 I16.8 J0
G3 X13.106 Y33.817 I-0.079 J0.415
G1 X13.113 Y33.823
X13.122 Y33.825
X14.781 Y33.774
X14.794 Y33.768
X14.8 Y33.754
Y32.585
G2 X14.515 Y32.271 I-0.315 J0
G3 X0.755 Y17.144 I1.435 J-15.127
G1 X0.758 Y14.583
Y14.572
Z5
X13.112 Y36.174
Z2.02 F333.3
Z-0.992 F1000
X13.106 Y36.183
G3 X12.847 Y36.345 I-0.338 J-0.253
G2 X-0.855 Y52.856 I3.163 J16.566
G1 X-0.854 Y54.111
X-0.846 Y54.126
X0.725 Y55.432
X0.739 Y55.437
X0.753 Y55.431
X0.758 Y55.417
X0.755 Y52.856
G3 X14.515 Y37.729 I15.25 J0.05
G2 X14.8 Y37.415 I-0.031 J-0.314
G1 Y36.246
Y36.235
Z5
X2.368 Y55.643
Z2.02 F333.3
Z-0.992 F1000
Y55.632
X2.365 Y52.856
G3 X16.092 Y39.267 I13.635 J0.045
G2 X16.41 Y38.951 I0.002 J-0.315
G1 Y31.049
G2 X16.092 Y30.733 I-0.315 J0
G3 X2.365 Y17.144 I-0.137 J-13.59
G1 X2.368 Y14.368
X2.372 Y14.357
X2.382 Y14.35
X2.394 Y14.349
X3.963 Y14.827
X3.974 Y14.835
X3.977 Y14.847
X3.975 Y17.144
G2 X17.75 Y28.995 I11.986 J0
G3 X18.02 Y29.228 I0.034 J0.233
G1 Y40.772
G3 X17.75 Y41.005 I-0.235 J0
G2 X3.975 Y52.856 I-1.756 J11.89
G1 X3.977 Y55.154
X3.981 Y55.166
X3.992 Y55.173
X4.004 Y55.172
X5.574 Y54.587
X5.583 Y54.579
X5.587 Y54.568
X5.585 Y52.856
G3 X19.397 Y43.059 I10.404 J0.032
G2 X19.63 Y42.893 I0.057 J-0.166
G1 Y27.107
G2 X19.397 Y26.941 I-0.175 J0
G3 X5.585 Y17.144 I-3.431 J-9.798
G1 X5.587 Y15.433
X5.591 Y15.421
X5.601 Y15.413
X5.614 Y15.414
X7.183 Y16
X7.193 Y16.007
X7.196 Y16.019
X7.195 Y17.144
G2 X19.011 Y25.418 I8.805 J0
X19.98 Y25.041 I-8.2 J-22.53
G3 X20.948 Y24.665 I9.168 J22.154
X21.24 Y24.87 I0.074 J0.205
G1 Y45.13
G3 X20.948 Y45.335 I-0.218 J0
X19.98 Y44.959 I8.201 J-22.533
G2 X19.011 Y44.582 I-9.161 J22.134
X7.195 Y52.856 I-3.011 J8.274
G1 X7.196 Y53.982
X7.2 Y53.994
X7.21 Y54.001
X7.223
X8.793 Y53.415
X8.802 Y53.408
X8.806 Y53.396
X8.805 Y52.856
G3 X18.461 Y46.095 I7.195 J0
X20.509 Y46.865 I-36.315 J99.78
G2 X22.558 Y47.634 I38.444 J-99.227
X22.85 Y47.43 I0.074 J-0.205
G1 Y22.57
G2 X22.558 Y22.366 I-0.218 J0
X20.509 Y23.135 I36.394 J99.991
G3 X18.461 Y23.905 I-38.442 J-99.222
X8.805 Y17.144 I-2.461 J-6.761
G1 X8.806 Y16.605
X8.81 Y16.593
X8.82 Y16.586
X8.832
X10.402 Y17.171
X10.412 Y17.178
X10.415 Y17.19
G2 X17.91 Y22.392 I5.585 J-0.046
G1 X24.168 Y20.066
G3 X24.46 Y20.271 I0.074 J0.205
G1 Y49.729
G3 X24.168 Y49.934 I-0.218 J0
G1 X17.91 Y47.608
G2 X10.415 Y52.81 I-1.91 J5.248
G1 X10.419 Y52.822
X10.429 Y52.829
X10.441 Y52.83
X12.103 Y52.302
X12.112 Y52.296
X12.117 Y52.286
G3 X17.342 Y49.168 I3.883 J0.57
G1 X25.974 Y52.31
X26.003 Y52.314
X26.031 Y52.308
X26.054 Y52.291
X26.07 Y52.267
X26.075 Y52.239
Y17.761
X26.07 Y17.733
X26.054 Y17.709
X26.031 Y17.692
X26.003 Y17.686
X25.974 Y17.69
X17.342 Y20.832
G3 X12.117 Y17.714 I-1.342 J-3.688
G1 X12.109 Y17.702
X12.095 Y17.697
X12.082 Y17.704
X-1.422 Y32.532
X-1.427 Y32.546
X-1.422 Y32.559
Z-1.983
X-1.415 Y32.567
G2 X0.898 Y34.821 I17.287 J-15.424
G3 X0.898 Y35.179 I-0.153 J0.179
G2 X-1.415 Y37.45 I15.186 J17.775
G1 X-1.42 Y37.463
X-1.45 Y39.988
X-1.444 Y40.003
X-1.428 Y40.009
X-1.414 Y40.001
G3 X3.568 Y35.143 I17.475 J12.943
G2 X3.568 Y34.857 I-0.101 J-0.143
G3 X-1.414 Y30.031 I12.326 J-17.713
G1 X-1.418 Y30.019
X-1.452 Y27.118
X-1.445 Y27.103
X-1.429 Y27.098
X-1.415 Y27.108
G2 X6.627 Y34.845 I17.33 J-9.964
G3 X6.627 Y35.155 I-0.082 J0.155
G2 X-1.414 Y42.933 I9.413 J17.776
G1 X-1.417 Y42.943
X-1.454 Y46.768
X-1.449 Y46.781
X-1.437 Y46.788
X-1.424 Y46.785
X-1.415 Y46.775
G3 X11.009 Y35.125 I17.432 J6.141
G2 X11.009 Y34.875 I-0.035 J-0.125
G3 X-1.415 Y23.272 I4.929 J-17.731
G1 X-1.416 Y23.264
X-0.893 Y15.889
X-0.887 Y15.875
X-0.873 Y15.87
X-0.859 Y15.876
X-0.854 Y15.89
X-0.855 Y17.144
G2 X12.847 Y33.655 I16.8 J0
G3 X13.106 Y33.817 I-0.079 J0.415
G1 X13.113 Y33.823
X13.122 Y33.825
X14.781 Y33.774
X14.794 Y33.768
X14.8 Y33.754
Y32.585
G2 X14.515 Y32.271 I-0.315 J0
G3 X0.755 Y17.144 I1.435 J-15.127
G1 X0.758 Y14.583
Y14.572
Z1.028
X13.112 Y36.174
Z-1.983
X13.106 Y36.183
G3 X12.847 Y36.345 I-0.338 J-0.253
G2 X-0.855 Y52.856 I3.163 J16.566
G1 X-0.854 Y54.111
X-0.846 Y54.126
X0.725 Y55.432
X0.739 Y55.437
X0.753 Y55.431
X0.758 Y55.417
X0.755 Y52.856
G3 X14.515 Y37.729 I15.25 J0.05
G2 X14.8 Y37.415 I-0.031 J-0.314
G1 Y36.246
Y36.235
Z1.028
X2.368 Y55.643
Z-1.983
Y55.632
X2.365 Y52.856
G3 X16.092 Y39.267 I13.635 J0.045
G2 X16.41 Y38.951 I0.002 J-0.315
G1 Y31.049
G2 X16.092 Y30.733 I-0.315 J0
G3 X2.365 Y17.144 I-0.137 J-13.59
G1 X2.368 Y14.368
X2.372 Y14.357
X2.382 Y14.35
X2.394 Y14.349
X3.963 Y14.827
X3.974 Y14.835
X3.977 Y14.847
X3.975 Y17.144
G2 X17.75 Y28.995 I11.986 J0
G3 X18.02 Y29.228 I0.034 J0.233
G1 Y40.772
G3 X17.75 Y41.005 I-0.235 J0
G2 X3.975 Y52.856 I-1.756 J11.89
G1 X3.977 Y55.154
X3.981 Y55.166
X3.992 Y55.173
X4.004 Y55.172
X5.574 Y54.587
X5.583 Y54.579
X5.587 Y54.568
X5.585 Y52.856
G3 X19.397 Y43.059 I10.404 J0.032
G2 X19.63 Y42.893 I0.057 J-0.166
G1 Y27.107
G2 X19.397 Y26.941 I-0.175 J0
G3 X5.585 Y17.144 I-3.431 J-9.798
G1 X5.587 Y15.433
X5.591 Y15.421
X5.601 Y15.413
X5.614 Y15.414
X7.183 Y16
X7.193 Y16.007
X7.196 Y16.019
X7.195 Y17.144
G2 X19.011 Y25.418 I8.805 J0
X19.98 Y25.041 I-8.2 J-22.53
G3 X20.948 Y24.665 I9.168 J22.154
X21.24 Y24.87 I0.074 J0.205
G1 Y45.13
G3 X20.948 Y45.335 I-0.218 J0
X19.98 Y44.959 I8.201 J-22.533
G2 X19.011 Y44.582 I-9.161 J22.134
X7.195 Y52.856 I-3.011 J8.274
G1 X7.196 Y53.982
X7.2 Y53.994
X7.21 Y54.001
X7.223
X8.793 Y53.415
X8.802 Y53.408
X8.806 Y53.396
X8.805 Y52.856
G3 X18.461 Y46.095 I7.195 J0
X20.509 Y46.865 I-36.315 J99.78
G2 X22.558 Y47.634 I38.444 J-99.227
X22.85 Y47.43 I0.074 J-0.205
G1 Y22.57
G2 X22.558 Y22.366 I-0.218 J0
X20.509 Y23.135 I36.394 J99.991
G3 X18.461 Y23.905 I-38.442 J-99.222
X8.805 Y17.144 I-2.461 J-6.761
G1 X8.806 Y16.605
X8.81 Y16.593
X8.82 Y16.586
X8.832
X10.402 Y17.171
X10.412 Y17.178
X10.415 Y17.19
G2 X17.91 Y22.392 I5.585 J-0.046
G1 X24.168 Y20.066
G3 X24.46 Y20.271 I0.074 J0.205
G1 Y49.729
G3 X24.168 Y49.934 I-0.218 J0
G1 X17.91 Y47.608
G2 X10.415 Y52.81 I-1.91 J5.248
G1 X10.419 Y52.822
X10.429 Y52.829
X10.441 Y52.83
X12.103 Y52.302
X12.112 Y52.296
X12.117 Y52.286
G3 X17.342 Y49.168 I3.883 J0.57
G1 X25.974 Y52.31
X26.003 Y52.314
X26.031 Y52.308
X26.054 Y52.291
X26.07 Y52.267
X26.075 Y52.239
Y17.761
X26.07 Y17.733
X26.054 Y17.709
X26.031 Y17.692
X26.003 Y17.686
X25.974 Y17.69
X17.342 Y20.832
G3 X12.117 Y17.714 I-1.342 J-3.688
G1 X12.109 Y17.702
X12.095 Y17.697
X12.082 Y17.704
X-1.422 Y32.532
X-1.427 Y32.546
X-1.422 Y32.559
Z-2.975
X-1.415 Y32.567
G2 X0.898 Y34.821 I17.287 J-15.424
G3 X0.898 Y35.179 I-0.153 J0.179
G2 X-1.415 Y37.45 I15.186 J17.775
G1 X-1.42 Y37.463
X-1.45 Y39.988
X-1.444 Y40.003
X-1.428 Y40.009
X-1.414 Y40.001
G3 X3.568 Y35.143 I17.475 J12.943
G2 X3.568 Y34.857 I-0.101 J-0.143
G3 X-1.414 Y30.031 I12.326 J-17.713
G1 X-1.418 Y30.019
X-1.452 Y27.118
X-1.445 Y27.103
X-1.429 Y27.098
X-1.415 Y27.108
G2 X6.627 Y34.845 I17.33 J-9.964
G3 X6.627 Y35.155 I-0.082 J0.155
G2 X-1.414 Y42.933 I9.413 J17.776
G1 X-1.417 Y42.943
X-1.454 Y46.768
X-1.449 Y46.781
X-1.437 Y46.788
X-1.424 Y46.785
X-1.415 Y46.775
G3 X11.009 Y35.125 I17.432 J6.141
G2 X11.009 Y34.875 I-0.035 J-0.125
G3 X-1.415 Y23.272 I4.929 J-17.731
G1 X-1.416 Y23.264
X-0.893 Y15.889
X-0.887 Y15.875
X-0.873 Y15.87
X-0.859 Y15.876
X-0.854 Y15.89
X-0.855 Y17.144
G2 X12.847 Y33.655 I16.8 J0
G3 X13.106 Y33.817 I-0.079 J0.415
G1 X13.113 Y33.823
X13.122 Y33.825
X14.781 Y33.774
X14.794 Y33.768
X14.8 Y33.754
Y32.585
G2 X14.515 Y32.271 I-0.315 J0
G3 X0.755 Y17.144 I1.435 J-15.127
G1 X0.758 Y14.583
Y14.572
Z0.037
X13.112 Y36.174
Z-2.975
X13.106 Y36.183
G3 X12.847 Y36.345 I-0.338 J-0.253
G2 X-0.855 Y52.856 I3.163 J16.566
G1 X-0.854 Y54.111
X-0.846 Y54.126
X0.725 Y55.432
X0.739 Y55.437
X0.753 Y55.431
X0.758 Y55.417
X0.755 Y52.856
G3 X14.515 Y37.729 I15.25 J0.05
G2 X14.8 Y37.415 I-0.031 J-0.314
G1 Y36.246
Y36.235
Z0.037
X2.368 Y55.643
Z-2.975
Y55.632
X2.365 Y52.856
G3 X16.092 Y39.267 I13.635 J0.045
G2 X16.41 Y38.951 I0.002 J-0.315
G1 Y31.049
G2 X16.092 Y30.733 I-0.315 J0
G3 X2.365 Y17.144 I-0.137 J-13.59
G1 X2.368 Y14.368
X2.372 Y14.357
X2.382 Y14.35
X2.394 Y14.349
X3.963 Y14.827
X3.974 Y14.835
X3.977 Y14.847
X3.975 Y17.144
G2 X17.75 Y28.995 I11.986 J0
G3 X18.02 Y29.228 I0.034 J0.233
G1 Y40.772
G3 X17.75 Y41.005 I-0.235 J0
G2 X3.975 Y52.856 I-1.756 J11.89
G1 X3.977 Y55.154
X3.981 Y55.166
X3.992 Y55.173
X4.004 Y55.172
X5.574 Y54.587
X5.583 Y54.579
X5.587 Y54.568
X5.585 Y52.856
G3 X19.397 Y43.059 I10.404 J0.032
G2 X19.63 Y42.893 I0.057 J-0.166
G1 Y27.107
G2 X19.397 Y26.941 I-0.175 J0
G3 X5.585 Y17.144 I-3.431 J-9.798
G1 X5.587 Y15.433
X5.591 Y15.421
X5.601 Y15.413
X5.614 Y15.414
X7.183 Y16
X7.193 Y16.007
X7.196 Y16.019
X7.195 Y17.144
G2 X19.011 Y25.418 I8.805 J0
X19.98 Y25.041 I-8.2 J-22.53
G3 X20.948 Y24.665 I9.168 J22.154
X21.24 Y24.87 I0.074 J0.205
G1 Y45.13
G3 X20.948 Y45.335 I-0.218 J0
X19.98 Y44.959 I8.201 J-22.533
G2 X19.011 Y44.582 I-9.161 J22.134
X7.195 Y52.856 I-3.011 J8.274
G1 X7.196 Y53.982
X7.2 Y53.994
X7.21 Y54.001
X7.223
X8.793 Y53.415
X8.802 Y53.408
X8.806 Y53.396
X8.805 Y52.856
G3 X18.461 Y46.095 I7.195 J0
X20.509 Y46.865 I-36.315 J99.78
G2 X22.558 Y47.634 I38.444 J-99.227
X22.85 Y47.43 I0.074 J-0.205
G1 Y22.57
G2 X22.558 Y22.366 I-0.218 J0
X20.509 Y23.135 I36.394 J99.991
G3 X18.461 Y23.905 I-38.442 J-99.222
X8.805 Y17.144 I-2.461 J-6.761
G1 X8.806 Y16.605
X8.81 Y16.593
X8.82 Y16.586
X8.832
X10.402 Y17.171
X10.412 Y17.178
X10.415 Y17.19
G2 X17.91 Y22.392 I5.585 J-0.046
G1 X24.168 Y20.066
G3 X24.46 Y20.271 I0.074 J0.205
G1 Y49.729
G3 X24.168 Y49.934 I-0.218 J0
G1 X17.91 Y47.608
G2 X10.415 Y52.81 I-1.91 J5.248
G1 X10.419 Y52.822
X10.429 Y52.829
X10.441 Y52.83
X12.103 Y52.302
X12.112 Y52.296
X12.117 Y52.286
G3 X17.342 Y49.168 I3.883 J0.57
G1 X25.974 Y52.31
X26.003 Y52.314
X26.031 Y52.308
X26.054 Y52.291
X26.07 Y52.267
X26.075 Y52.239
Y17.761
X26.07 Y17.733
X26.054 Y17.709
X26.031 Y17.692
X26.003 Y17.686
X25.974 Y17.69
X17.342 Y20.832
G3 X12.117 Y17.714 I-1.342 J-3.688
G1 X12.109 Y17.702
X12.095 Y17.697
X12.082 Y17.704
X-1.422 Y32.532
X-1.427 Y32.546
X-1.422 Y32.559
Z-3.967
X-1.415 Y32.567
G2 X0.898 Y34.821 I17.287 J-15.424
G3 X0.898 Y35.179 I-0.153 J0.179
G2 X-1.415 Y37.45 I15.186 J17.775
G1 X-1.42 Y37.463
X-1.45 Y39.988
X-1.444 Y40.003
X-1.428 Y40.009
X-1.414 Y40.001
G3 X3.568 Y35.143 I17.475 J12.943
G2 X3.568 Y34.857 I-0.101 J-0.143
G3 X-1.414 Y30.031 I12.326 J-17.713
G1 X-1.418 Y30.019
X-1.452 Y27.118
X-1.445 Y27.103
X-1.429 Y27.098
X-1.415 Y27.108
G2 X6.627 Y34.845 I17.33 J-9.964
G3 X6.627 Y35.155 I-0.082 J0.155
G2 X-1.414 Y42.933 I9.413 J17.776
G1 X-1.417 Y42.943
X-1.454 Y46.768
X-1.449 Y46.781
X-1.437 Y46.788
X-1.424 Y46.785
X-1.415 Y46.775
G3 X11.009 Y35.125 I17.432 J6.141
G2 X11.009 Y34.875 I-0.035 J-0.125
G3 X-1.415 Y23.272 I4.929 J-17.731
G1 X-1.416 Y23.264
X-0.893 Y15.889
X-0.887 Y15.875
X-0.873 Y15.87
X-0.859 Y15.876
X-0.854 Y15.89
X-0.855 Y17.144
G2 X12.847 Y33.655 I16.8 J0
G3 X13.106 Y33.817 I-0.079 J0.415
G1 X13.113 Y33.823
X13.122 Y33.825
X14.781 Y33.774
X14.794 Y33.768
X14.8 Y33.754
Y32.585
G2 X14.515 Y32.271 I-0.315 J0
G3 X0.755 Y17.144 I1.435 J-15.127
G1 X0.758 Y14.583
Y14.572
Z-0.955
X13.112 Y36.174
Z-3.967
X13.106 Y36.183
G3 X12.847 Y36.345 I-0.338 J-0.253
G2 X-0.855 Y52.856 I3.163 J16.566
G1 X-0.854 Y54.111
X-0.846 Y54.126
X0.725 Y55.432
X0.739 Y55.437
X0.753 Y55.431
X0.758 Y55.417
X0.755 Y52.856
G3 X14.515 Y37.729 I15.25 J0.05
G2 X14.8 Y37.415 I-0.031 J-0.314
G1 Y36.246
Y36.235
Z-0.955
X2.368 Y55.643
Z-3.967
Y55.632
X2.365 Y52.856
G3 X16.092 Y39.267 I13.635 J0.045
G2 X16.41 Y38.951 I0.002 J-0.315
G1 Y31.049
G2 X16.092 Y30.733 I-0.315 J0
G3 X2.365 Y17.144 I-0.137 J-13.59
G1 X2.368 Y14.368
X2.372 Y14.357
X2.382 Y14.35
X2.394 Y14.349
X3.963 Y14.827
X3.974 Y14.835
X3.977 Y14.847
X3.975 Y17.144
G2 X17.75 Y28.995 I11.986 J0
G3 X18.02 Y29.228 I0.034 J0.233
G1 Y40.772
G3 X17.75 Y41.005 I-0.235 J0
G2 X3.975 Y52.856 I-1.756 J11.89
G1 X3.977 Y55.154
X3.981 Y55.166
X3.992 Y55.173
X4.004 Y55.172
X5.574 Y54.587
X5.583 Y54.579
X5.587 Y54.568
X5.585 Y52.856
G3 X19.397 Y43.059 I10.404 J0.032
G2 X19.63 Y42.893 I0.057 J-0.166
G1 Y27.107
G2 X19.397 Y26.941 I-0.175 J0
G3 X5.585 Y17.144 I-3.431 J-9.798
G1 X5.587 Y15.433
X5.591 Y15.421
X5.601 Y15.413
X5.614 Y15.414
X7.183 Y16
X7.193 Y16.007
X7.196 Y16.019
X7.195 Y17.144
G2 X19.011 Y25.418 I8.805 J0
X19.98 Y25.041 I-8.2 J-22.53
G3 X20.948 Y24.665 I9.168 J22.154
X21.24 Y24.87 I0.074 J0.205
G1 Y45.13
G3 X20.948 Y45.335 I-0.218 J0
X19.98 Y44.959 I8.201 J-22.533
G2 X19.011 Y44.582 I-9.161 J22.134
X7.195 Y52.856 I-3.011 J8.274
G1 X7.196 Y53.982
X7.2 Y53.994
X7.21 Y54.001
X7.223
X8.793 Y53.415
X8.802 Y53.408
X8.806 Y53.396
X8.805 Y52.856
G3 X18.461 Y46.095 I7.195 J0
X20.509 Y46.865 I-36.315 J99.78
G2 X22.558 Y47.634 I38.444 J-99.227
X22.85 Y47.43 I0.074 J-0.205
G1 Y22.57
G2 X22.558 Y22.366 I-0.218 J0
X20.509 Y23.135 I36.394 J99.991
G3 X18.461 Y23.905 I-38.442 J-99.222
X8.805 Y17.144 I-2.461 J-6.761
G1 X8.806 Y16.605
X8.81 Y16.593
X8.82 Y16.586
X8.832
X10.402 Y17.171
X10.412 Y17.178
X10.415 Y17.19
G2 X17.91 Y22.392 I5.585 J-0.046
G1 X24.168 Y20.066
G3 X24.46 Y20.271 I0.074 J0.205
G1 Y49.729
G3 X24.168 Y49.934 I-0.218 J0
G1 X17.91 Y47.608
G2 X10.415 Y52.81 I-1.91 J5.248
G1 X10.419 Y52.822
X10.429 Y52.829
X10.441 Y52.83
X12.103 Y52.302
X12.112 Y52.296
X12.117 Y52.286
G3 X17.342 Y49.168 I3.883 J0.57
G1 X25.974 Y52.31
X26.003 Y52.314
X26.031 Y52.308
X26.054 Y52.291
X26.07 Y52.267
X26.075 Y52.239
Y17.761
X26.07 Y17.733
X26.054 Y17.709
X26.031 Y17.692
X26.003 Y17.686
X25.974 Y17.69
X17.342 Y20.832
G3 X12.117 Y17.714 I-1.342 J-3.688
G1 X12.109 Y17.702
X12.095 Y17.697
X12.082 Y17.704
X-1.422 Y32.532
X-1.427 Y32.546
X-1.422 Y32.559
Z-4.958
X-1.415 Y32.567
G2 X0.898 Y34.821 I17.287 J-15.424
G3 X0.898 Y35.179 I-0.153 J0.179
G2 X-1.415 Y37.45 I15.186 J17.775
G1 X-1.42 Y37.463
X-1.45 Y39.988
X-1.444 Y40.003
X-1.428 Y40.009
X-1.414 Y40.001
G3 X3.568 Y35.143 I17.475 J12.943
G2 X3.568 Y34.857 I-0.101 J-0.143
G3 X-1.414 Y30.031 I12.326 J-17.713
G1 X-1.418 Y30.019
X-1.452 Y27.118
X-1.445 Y27.103
X-1.429 Y27.098
X-1.415 Y27.108
G2 X6.627 Y34.845 I17.33 J-9.964
G3 X6.627 Y35.155 I-0.082 J0.155
G2 X-1.414 Y42.933 I9.413 J17.776
G1 X-1.417 Y42.943
X-1.454 Y46.768
X-1.449 Y46.781
X-1.437 Y46.788
X-1.424 Y46.785
X-1.415 Y46.775
G3 X11.009 Y35.125 I17.432 J6.141
G2 X11.009 Y34.875 I-0.035 J-0.125
G3 X-1.415 Y23.272 I4.929 J-17.731
G1 X-1.416 Y23.264
X-0.893 Y15.889
X-0.887 Y15.875
X-0.873 Y15.87
X-0.859 Y15.876
X-0.854 Y15.89
X-0.855 Y17.144
G2 X12.847 Y33.655 I16.8 J0
G3 X13.106 Y33.817 I-0.079 J0.415
G1 X13.113 Y33.823
X13.122 Y33.825
X14.781 Y33.774
X14.794 Y33.768
X14.8 Y33.754
Y32.585
G2 X14.515 Y32.271 I-0.315 J0
G3 X0.755 Y17.144 I1.435 J-15.127
G1 X0.758 Y14.583
Y14.572
Z-1.947
X13.112 Y36.174
Z-4.958
X13.106 Y36.183
G3 X12.847 Y36.345 I-0.338 J-0.253
G2 X-0.855 Y52.856 I3.163 J16.566
G1 X-0.854 Y54.111
X-0.846 Y54.126
X0.725 Y55.432
X0.739 Y55.437
X0.753 Y55.431
X0.758 Y55.417
X0.755 Y52.856
G3 X14.515 Y37.729 I15.25 J0.05
G2 X14.8 Y37.415 I-0.031 J-0.314
G1 Y36.246
Y36.235
Z-1.947
X2.368 Y55.643
Z-4.958
Y55.632
X2.365 Y52.856
G3 X16.092 Y39.267 I13.635 J0.045
G2 X16.41 Y38.951 I0.002 J-0.315
G1 Y31.049
G2 X16.092 Y30.733 I-0.315 J0
G3 X2.365 Y17.144 I-0.137 J-13.59
G1 X2.368 Y14.368
X2.372 Y14.357
X2.382 Y14.35
X2.394 Y14.349
X3.963 Y14.827
X3.974 Y14.835
X3.977 Y14.847
X3.975 Y17.144
G2 X17.75 Y28.995 I11.986 J0
G3 X18.02 Y29.228 I0.034 J0.233
G1 Y40.772
G3 X17.75 Y41.005 I-0.235 J0
G2 X3.975 Y52.856 I-1.756 J11.89
G1 X3.977 Y55.154
X3.981 Y55.166
X3.992 Y55.173
X4.004 Y55.172
X5.574 Y54.587
X5.583 Y54.579
X5.587 Y54.568
X5.585 Y52.856
G3 X19.397 Y43.059 I10.404 J0.032
G2 X19.63 Y42.893 I0.057 J-0.166
G1 Y27.107
G2 X19.397 Y26.941 I-0.175 J0
G3 X5.585 Y17.144 I-3.431 J-9.798
G1 X5.587 Y15.433
X5.591 Y15.421
X5.601 Y15.413
X5.614 Y15.414
X7.183 Y16
X7.193 Y16.007
X7.196 Y16.019
X7.195 Y17.144
G2 X19.011 Y25.418 I8.805 J0
X19.98 Y25.041 I-8.2 J-22.53
G3 X20.948 Y24.665 I9.168 J22.154
X21.24 Y24.87 I0.074 J0.205
G1 Y45.13
G3 X20.948 Y45.335 I-0.218 J0
X19.98 Y44.959 I8.201 J-22.533
G2 X19.011 Y44.582 I-9.161 J22.134
X7.195 Y52.856 I-3.011 J8.274
G1 X7.196 Y53.982
X7.2 Y53.994
X7.21 Y54.001
X7.223
X8.793 Y53.415
X8.802 Y53.408
X8.806 Y53.396
X8.805 Y52.856
G3 X18.461 Y46.095 I7.195 J0
X20.509 Y46.865 I-36.315 J99.78
G2 X22.558 Y47.634 I38.444 J-99.227
X22.85 Y47.43 I0.074 J-0.205
G1 Y22.57
G2 X22.558 Y22.366 I-0.218 J0
X20.509 Y23.135 I36.394 J99.991
G3 X18.461 Y23.905 I-38.442 J-99.222
X8.805 Y17.144 I-2.461 J-6.761
G1 X8.806 Y16.605
X8.81 Y16.593
X8.82 Y16.586
X8.832
X10.402 Y17.171
X10.412 Y17.178
X10.415 Y17.19
G2 X17.91 Y22.392 I5.585 J-0.046
G1 X24.168 Y20.066
G3 X24.46 Y20.271 I0.074 J0.205
G1 Y49.729
G3 X24.168 Y49.934 I-0.218 J0
G1 X17.91 Y47.608
G2 X10.415 Y52.81 I-1.91 J5.248
G1 X10.419 Y52.822
X10.429 Y52.829
X10.441 Y52.83
X12.103 Y52.302
X12.112 Y52.296
X12.117 Y52.286
G3 X17.342 Y49.168 I3.883 J0.57
G1 X25.974 Y52.31
X26.003 Y52.314
X26.031 Y52.308
X26.054 Y52.291
X26.07 Y52.267
X26.075 Y52.239
Y17.761
X26.07 Y17.733
X26.054 Y17.709
X26.031 Y17.692
X26.003 Y17.686
X25.974 Y17.69
X17.342 Y20.832
G3 X12.117 Y17.714 I-1.342 J-3.688
G1 X12.109 Y17.702
X12.095 Y17.697
X12.082 Y17.704
X-1.422 Y32.532
X-1.427 Y32.546
X-1.422 Y32.559
Z-5.95
X-1.415 Y32.567
G2 X0.898 Y34.821 I17.287 J-15.424
G3 X0.898 Y35.179 I-0.153 J0.179
G2 X-1.415 Y37.45 I15.186 J17.775
G1 X-1.42 Y37.463
X-1.45 Y39.988
X-1.444 Y40.003
X-1.428 Y40.009
X-1.414 Y40.001
G3 X3.568 Y35.143 I17.475 J12.943
G2 X3.568 Y34.857 I-0.101 J-0.143
G3 X-1.414 Y30.031 I12.326 J-17.713
G1 X-1.418 Y30.019
X-1.452 Y27.118
X-1.445 Y27.103
X-1.429 Y27.098
X-1.415 Y27.108
G2 X6.627 Y34.845 I17.33 J-9.964
G3 X6.627 Y35.155 I-0.082 J0.155
G2 X-1.414 Y42.933 I9.413 J17.776
G1 X-1.417 Y42.943
X-1.454 Y46.768
X-1.449 Y46.781
X-1.437 Y46.788
X-1.424 Y46.785
X-1.415 Y46.775
G3 X11.009 Y35.125 I17.432 J6.141
G2 X11.009 Y34.875 I-0.035 J-0.125
G3 X-1.415 Y23.272 I4.929 J-17.731
G1 X-1.416 Y23.264
X-0.893 Y15.889
X-0.887 Y15.875
X-0.873 Y15.87
X-0.859 Y15.876
X-0.854 Y15.89
X-0.855 Y17.144
G2 X12.847 Y33.655 I16.8 J0
G3 X13.106 Y33.817 I-0.079 J0.415
G1 X13.113 Y33.823
X13.122 Y33.825
X14.781 Y33.774
X14.794 Y33.768
X14.8 Y33.754
Y32.585
G2 X14.515 Y32.271 I-0.315 J0
G3 X0.755 Y17.144 I1.435 J-15.127
G1 X0.758 Y14.583
Y14.572
Z-2.938
X13.112 Y36.174
Z-5.95
X13.106 Y36.183
G3 X12.847 Y36.345 I-0.338 J-0.253
G2 X-0.855 Y52.856 I3.163 J16.566
G1 X-0.854 Y54.111
X-0.846 Y54.126
X0.725 Y55.432
X0.739 Y55.437
X0.753 Y55.431
X0.758 Y55.417
X0.755 Y52.856
G3 X14.515 Y37.729 I15.25 J0.05
G2 X14.8 Y37.415 I-0.031 J-0.314
G1 Y36.246
Y36.235
Z-2.938
X2.368 Y55.643
Z-5.95
Y55.632
X2.365 Y52.856
G3 X16.092 Y39.267 I13.635 J0.045
G2 X16.41 Y38.951 I0.002 J-0.315
G1 Y31.049
G2 X16.092 Y30.733 I-0.315 J0
G3 X2.365 Y17.144 I-0.137 J-13.59
G1 X2.368 Y14.368
X2.372 Y14.357
X2.382 Y14.35
X2.394 Y14.349
X3.963 Y14.827
X3.974 Y14.835
X3.977 Y14.847
X3.975 Y17.144
G2 X17.75 Y28.995 I11.986 J0
G3 X18.02 Y29.228 I0.034 J0.233
G1 Y40.772
G3 X17.75 Y41.005 I-0.235 J0
G2 X3.975 Y52.856 I-1.756 J11.89
G1 X3.977 Y55.154
X3.981 Y55.166
X3.992 Y55.173
X4.004 Y55.172
X5.574 Y54.587
X5.583 Y54.579
X5.587 Y54.568
X5.585 Y52.856
G3 X19.397 Y43.059 I10.404 J0.032
G2 X19.63 Y42.893 I0.057 J-0.166
G1 Y27.107
G2 X19.397 Y26.941 I-0.175 J0
G3 X5.585 Y17.144 I-3.431 J-9.798
G1 X5.587 Y15.433
X5.591 Y15.421
X5.601 Y15.413
X5.614 Y15.414
X7.183 Y16
X7.193 Y16.007
X7.196 Y16.019
X7.195 Y17.144
G2 X19.011 Y25.418 I8.805 J0
X19.98 Y25.041 I-8.2 J-22.53
G3 X20.948 Y24.665 I9.168 J22.154
X21.24 Y24.87 I0.074 J0.205
G1 Y45.13
G3 X20.948 Y45.335 I-0.218 J0
X19.98 Y44.959 I8.201 J-22.533
G2 X19.011 Y44.582 I-9.161 J22.134
X7.195 Y52.856 I-3.011 J8.274
G1 X7.196 Y53.982
X7.2 Y53.994
X7.21 Y54.001
X7.223
X8.793 Y53.415
X8.802 Y53.408
X8.806 Y53.396
X8.805 Y52.856
G3 X18.461 Y46.095 I7.195 J0
X20.509 Y46.865 I-36.315 J99.78
G2 X22.558 Y47.634 I38.444 J-99.227
X22.85 Y47.43 I0.074 J-0.205
G1 Y22.57
G2 X22.558 Y22.366 I-0.218 J0
X20.509 Y23.135 I36.394 J99.991
G3 X18.461 Y23.905 I-38.442 J-99.222
X8.805 Y17.144 I-2.461 J-6.761
G1 X8.806 Y16.605
X8.81 Y16.593
X8.82 Y16.586
X8.832
X10.402 Y17.171
X10.412 Y17.178
X10.415 Y17.19
G2 X17.91 Y22.392 I5.585 J-0.046
G1 X24.168 Y20.066
G3 X24.46 Y20.271 I0.074 J0.205
G1 Y49.729
G3 X24.168 Y49.934 I-0.218 J0
G1 X17.91 Y47.608
G2 X10.415 Y52.81 I-1.91 J5.248
G1 X10.419 Y52.822
X10.429 Y52.829
X10.441 Y52.83
X12.103 Y52.302
X12.112 Y52.296
X12.117 Y52.286
G3 X17.342 Y49.168 I3.883 J0.57
G1 X25.974 Y52.31
X26.003 Y52.314
X26.031 Y52.308
X26.054 Y52.291
X26.07 Y52.267
X26.075 Y52.239
Y17.761
X26.07 Y17.733
X26.054 Y17.709
X26.031 Y17.692
X26.003 Y17.686
X25.974 Y17.69
X17.342 Y20.832
G3 X12.117 Y17.714 I-1.342 J-3.688
G1 X11.91 Y16.305
Z10
X229.422 Y37.441
Z5
Z2.02 F333.3
Z-0.992 F1000
X229.415 Y37.433
G2 X227.102 Y35.179 I-17.287 J15.424
G3 X227.102 Y34.821 I0.153 J-0.179
G2 X229.415 Y32.55 I-15.186 J-17.775
G1 X229.42 Y32.537
X229.45 Y30.012
X229.444 Y29.997
X229.428 Y29.991
X229.414 Y29.999
G3 X224.432 Y34.857 I-17.475 J-12.943
G2 X224.432 Y35.143 I0.101 J0.143
G3 X229.414 Y39.969 I-12.326 J17.713
G1 X229.418 Y39.981
X229.452 Y42.882
X229.445 Y42.897
X229.429 Y42.902
X229.415 Y42.892
G2 X221.373 Y35.155 I-17.33 J9.964
G3 X221.373 Y34.845 I0.082 J-0.155
G2 X229.414 Y27.067 I-9.413 J-17.776
G1 X229.417 Y27.057
X229.454 Y23.232
X229.449 Y23.219
X229.437 Y23.212
X229.424 Y23.215
X229.415 Y23.225
G3 X216.991 Y34.875 I-17.432 J-6.141
G2 X216.991 Y35.125 I0.035 J0.125
G3 X229.415 Y46.728 I-4.929 J17.731
G1 X229.416 Y46.736
X228.893 Y54.112
X228.887 Y54.125
X228.873 Y54.13
X228.859 Y54.124
X228.854 Y54.11
X228.855 Y52.856
G2 X215.153 Y36.345 I-16.8 J0
G3 X214.894 Y36.183 I0.079 J-0.415
G1 X214.887 Y36.177
X214.878 Y36.175
X213.219 Y36.226
X213.206 Y36.232
X213.2 Y36.246
Y37.415
G2 X213.485 Y37.729 I0.315 J0
G3 X227.245 Y52.856 I-1.435 J15.127
G1 X227.242 Y55.416
Y55.427
Z5
X214.888 Y33.826
Z2.02 F333.3
Z-0.992 F1000
X214.894 Y33.817
G3 X215.153 Y33.655 I0.338 J0.253
G2 X228.855 Y17.144 I-3.163 J-16.566
G1 X228.854 Y15.889
X228.846 Y15.874
X227.275 Y14.568
X227.261 Y14.563
X227.247 Y14.569
X227.242 Y14.583
X227.245 Y17.144
G3 X213.485 Y32.271 I-15.25 J-0.05
G2 X213.2 Y32.585 I0.031 J0.314
G1 Y33.754
Y33.765
Z5
X225.632 Y14.357
Z2.02 F333.3
Z-0.992 F1000
Y14.368
X225.635 Y17.144
G3 X211.908 Y30.733 I-13.635 J-0.045
G2 X211.59 Y31.049 I-0.002 J0.315
G1 Y38.951
G2 X211.908 Y39.267 I0.315 J0
G3 X225.635 Y52.856 I0.137 J13.59
G1 X225.632 Y55.631
X225.628 Y55.642
X225.618 Y55.65
X225.606
X224.037 Y55.172
X224.026 Y55.164
X224.023 Y55.153
X224.025 Y52.856
G2 X210.25 Y41.005 I-11.986 J0
G3 X209.98 Y40.772 I-0.034 J-0.233
G1 Y29.228
G3 X210.25 Y28.995 I0.235 J0
G2 X224.025 Y17.144 I1.756 J-11.89
G1 X224.023 Y14.848
X224.019 Y14.836
X224.008 Y14.828
X223.996 Y14.829
X222.426 Y15.413
X222.417 Y15.421
X222.413 Y15.432
X222.415 Y17.144
G3 X208.603 Y26.941 I-10.404 J-0.032
G2 X208.37 Y27.107 I-0.057 J0.166
G1 Y42.893
G2 X208.603 Y43.059 I0.175 J0
G3 X222.415 Y52.856 I3.431 J9.798
G1 X222.413 Y54.568
X222.409 Y54.58
X222.399 Y54.587
X222.386 Y54.586
X220.817 Y54
X220.807 Y53.993
X220.804 Y53.982
X220.805 Y52.856
G2 X208.989 Y44.582 I-8.805 J0
X208.02 Y44.959 I8.2 J22.53
G3 X207.052 Y45.335 I-9.168 J-22.154
X206.76 Y45.13 I-0.074 J-0.205
G1 Y24.87
G3 X207.052 Y24.665 I0.218 J0
X208.02 Y25.041 I-8.201 J22.533
G2 X208.989 Y25.418 I9.161 J-22.134
X220.805 Y17.144 I3.011 J-8.274
G1 X220.804 Y16.018
X220.8 Y16.006
X220.79 Y15.999
X220.777
X219.207 Y16.585
X219.198 Y16.592
X219.194 Y16.604
X219.195 Y17.144
G3 X209.539 Y23.905 I-7.195 J0
X207.491 Y23.135 I36.315 J-99.78
G2 X205.442 Y22.366 I-38.444 J99.227
X205.15 Y22.57 I-0.074 J0.205
G1 Y47.43
G2 X205.442 Y47.634 I0.218 J0
X207.491 Y46.865 I-36.394 J-99.991
G3 X209.539 Y46.095 I38.442 J99.222
X219.195 Y52.856 I2.461 J6.761
G1 X219.194 Y53.396
X219.19 Y53.408
X219.18 Y53.415
X219.167 Y53.414
X217.598 Y52.829
X217.588 Y52.822
X217.585 Y52.81
G2 X210.09 Y47.608 I-5.585 J0.046
G1 X203.832 Y49.934
G3 X203.54 Y49.729 I-0.074 J-0.205
G1 Y20.271
G3 X203.832 Y20.066 I0.218 J0
G1 X210.09 Y22.392
G2 X217.585 Y17.19 I1.91 J-5.248
G1 X217.581 Y17.178
X217.571 Y17.171
X217.559 Y17.17
X215.897 Y17.698
X215.888 Y17.704
X215.883 Y17.714
G3 X210.658 Y20.832 I-3.883 J-0.57
G1 X202.026 Y17.69
X201.997 Y17.686
X201.969 Y17.692
X201.946 Y17.709
X201.93 Y17.733
X201.925 Y17.761
Y52.239
X201.93 Y52.267
X201.946 Y52.291
X201.969 Y52.308
X201.997 Y52.314
X202.026 Y52.31
X210.658 Y49.168
G3 X215.883 Y52.286 I1.342 J3.688
G1 X215.891 Y52.298
X215.905 Y52.303
X215.918 Y52.296
X229.422 Y37.468
X229.427 Y37.454
X229.422 Y37.441
Z-1.983
X229.415 Y37.433
G2 X227.102 Y35.179 I-17.287 J15.424
G3 X227.102 Y34.821 I0.153 J-0.179
G2 X229.415 Y32.55 I-15.186 J-17.775
G1 X229.42 Y32.537
X229.45 Y30.012
X229.444 Y29.997
X229.428 Y29.991
X229.414 Y29.999
G3 X224.432 Y34.857 I-17.475 J-12.943
G2 X224.432 Y35.143 I0.101 J0.143
G3 X229.414 Y39.969 I-12.326 J17.713
G1 X229.418 Y39.981
X229.452 Y42.882
X229.445 Y42.897
X229.429 Y42.902
X229.415 Y42.892
G2 X221.373 Y35.155 I-17.33 J9.964
G3 X221.373 Y34.845 I0.082 J-0.155
G2 X229.414 Y27.067 I-9.413 J-17.776
G1 X229.417 Y27.057
X229.454 Y23.232
X229.449 Y23.219
X229.437 Y23.212
X229.424 Y23.215
X229.415 Y23.225
G3 X216.991 Y34.875 I-17.432 J-6.141
G2 X216.991 Y35.125 I0.035 J0.125
G3 X229.415 Y46.728 I-4.929 J17.731
G1 X229.416 Y46.736
X228.893 Y54.112
X228.887 Y54.125
X228.873 Y54.13
X228.859 Y54.124
X228.854 Y54.11
X228.855 Y52.856
G2 X215.153 Y36.345 I-16.8 J0
G3 X214.894 Y36.183 I0.079 J-0.415
G1 X214.887 Y36.177
X214.878 Y36.175
X213.219 Y36.226
X213.206 Y36.232
X213.2 Y36.246
Y37.415
G2 X213.485 Y37.729 I0.315 J0
G3 X227.245 Y52.856 I-1.435 J15.127
G1 X227.242 Y55.416
Y55.427
Z1.028
X214.888 Y33.826
Z-1.983
X214.894 Y33.817
G3 X215.153 Y33.655 I0.338 J0.253
G2 X228.855 Y17.144 I-3.163 J-16.566
G1 X228.854 Y15.889
X228.846 Y15.874
X227.275 Y14.568
X227.261 Y14.563
X227.247 Y14.569
X227.242 Y14.583
X227.245 Y17.144
G3 X213.485 Y32.271 I-15.25 J-0.05
G2 X213.2 Y32.585 I0.031 J0.314
G1 Y33.754
Y33.765
Z1.028
X225.632 Y14.357
Z-1.983
Y14.368
X225.635 Y17.144
G3 X211.908 Y30.733 I-13.635 J-0.045
G2 X211.59 Y31.049 I-0.002 J0.315
G1 Y38.951
G2 X211.908 Y39.267 I0.315 J0
G3 X225.635 Y52.856 I0.137 J13.59
G1 X225.632 Y55.631
X225.628 Y55.642
X225.618 Y55.65
X225.606
X224.037 Y55.172
X224.026 Y55.164
X224.023 Y55.153
X224.025 Y52.856
G2 X210.25 Y41.005 I-11.986 J0
G3 X209.98 Y40.772 I-0.034 J-0.233
G1 Y29.228
G3 X210.25 Y28.995 I0.235 J0
G2 X224.025 Y17.144 I1.756 J-11.89
G1 X224.023 Y14.848
X224.019 Y14.836
X224.008 Y14.828
X223.996 Y14.829
X222.426 Y15.413
X222.417 Y15.421
X222.413 Y15.432
X222.415 Y17.144
G3 X208.603 Y26.941 I-10.404 J-0.032
G2 X208.37 Y27.107 I-0.057 J0.166
G1 Y42.893
G2 X208.603 Y43.059 I0.175 J0
G3 X222.415 Y52.856 I3.431 J9.798
G1 X222.413 Y54.568
X222.409 Y54.58
X222.399 Y54.587
X222.386 Y54.586
X220.817 Y54
X220.807 Y53.993
X220.804 Y53.982
X220.805 Y52.856
G2 X208.989 Y44.582 I-8.805 J0
X208.02 Y44.959 I8.2 J22.53
G3 X207.052 Y45.335 I-9.168 J-22.154
X206.76 Y45.13 I-0.074 J-0.205
G1 Y24.87
G3 X207.052 Y24.665 I0.218 J0
X208.02 Y25.041 I-8.201 J22.533
G2 X208.989 Y25.418 I9.161 J-22.134
X220.805 Y17.144 I3.011 J-8.274
G1 X220.804 Y16.018
X220.8 Y16.006
X220.79 Y15.999
X220.777
X219.207 Y16.585
X219.198 Y16.592
X219.194 Y16.604
X219.195 Y17.144
G3 X209.539 Y23.905 I-7.195 J0
X207.491 Y23.135 I36.315 J-99.78
G2 X205.442 Y22.366 I-38.444 J99.227
X205.15 Y22.57 I-0.074 J0.205
G1 Y47.43
G2 X205.442 Y47.634 I0.218 J0
X207.491 Y46.865 I-36.394 J-99.991
G3 X209.539 Y46.095 I38.442 J99.222
X219.195 Y52.856 I2.461 J6.761
G1 X219.194 Y53.396
X219.19 Y53.408
X219.18 Y53.415
X219.167 Y53.414
X217.598 Y52.829
X217.588 Y52.822
X217.585 Y52.81
G2 X210.09 Y47.608 I-5.585 J0.046
G1 X203.832 Y49.934
G3 X203.54 Y49.729 I-0.074 J-0.205
G1 Y20.271
G3 X203.832 Y20.066 I0.218 J0
G1 X210.09 Y22.392
G2 X217.585 Y17.19 I1.91 J-5.248
G1 X217.581 Y17.178
X217.571 Y17.171
X217.559 Y17.17
X215.897 Y17.698
X215.888 Y17.704
X215.883 Y17.714
G3 X210.658 Y20.832 I-3.883 J-0.57
G1 X202.026 Y17.69
X201.997 Y17.686
X201.969 Y17.692
X201.946 Y17.709
X201.93 Y17.733
X201.925 Y17.761
Y52.239
X201.93 Y52.267
X201.946 Y52.291
X201.969 Y52.308
X201.997 Y52.314
X202.026 Y52.31
X210.658 Y49.168
G3 X215.883 Y52.286 I1.342 J3.688
G1 X215.891 Y52.298
X215.905 Y52.303
X215.918 Y52.296
X229.422 Y37.468
X229.427 Y37.454
X229.422 Y37.441
Z-2.975
X229.415 Y37.433
G2 X227.102 Y35.179 I-17.287 J15.424
G3 X227.102 Y34.821 I0.153 J-0.179
G2 X229.415 Y32.55 I-15.186 J-17.775
G1 X229.42 Y32.537
X229.45 Y30.012
X229.444 Y29.997
X229.428 Y29.991
X229.414 Y29.999
G3 X224.432 Y34.857 I-17.475 J-12.943
G2 X224.432 Y35.143 I0.101 J0.143
G3 X229.414 Y39.969 I-12.326 J17.713
G1 X229.418 Y39.981
X229.452 Y42.882
X229.445 Y42.897
X229.429 Y42.902
X229.415 Y42.892
G2 X221.373 Y35.155 I-17.33 J9.964
G3 X221.373 Y34.845 I0.082 J-0.155
G2 X229.414 Y27.067 I-9.413 J-17.776
G1 X229.417 Y27.057
X229.454 Y23.232
X229.449 Y23.219
X229.437 Y23.212
X229.424 Y23.215
X229.415 Y23.225
G3 X216.991 Y34.875 I-17.432 J-6.141
G2 X216.991 Y35.125 I0.035 J0.125
G3 X229.415 Y46.728 I-4.929 J17.731
G1 X229.416 Y46.736
X228.893 Y54.112
X228.887 Y54.125
X228.873 Y54.13
X228.859 Y54.124
X228.854 Y54.11
X228.855 Y52.856
G2 X215.153 Y36.345 I-16.8 J0
G3 X214.894 Y36.183 I0.079 J-0.415
G1 X214.887 Y36.177
X214.878 Y36.175
X213.219 Y36.226
X213.206 Y36.232
X213.2 Y36.246
Y37.415
G2 X213.485 Y37.729 I0.315 J0
G3 X227.245 Y52.856 I-1.435 J15.127
G1 X227.242 Y55.416
Y55.427
Z0.037
X214.888 Y33.826
Z-2.975
X214.894 Y33.817
G3 X215.153 Y33.655 I0.338 J0.253
G2 X228.855 Y17.144 I-3.163 J-16.566
G1 X228.854 Y15.889
X228.846 Y15.874
X227.275 Y14.568
X227.261 Y14.563
X227.247 Y14.569
X227.242 Y14.583
X227.245 Y17.144
G3 X213.485 Y32.271 I-15.25 J-0.05
G2 X213.2 Y32.585 I0.031 J0.314
G1 Y33.754
Y33.765
Z0.037
X225.632 Y14.357
Z-2.975
Y14.368
X225.635 Y17.144
G3 X211.908 Y30.733 I-13.635 J-0.045
G2 X211.59 Y31.049 I-0.002 J0.315
G1 Y38.951
G2 X211.908 Y39.267 I0.315 J0
G3 X225.635 Y52.856 I0.137 J13.59
G1 X225.632 Y55.631
X225.628 Y55.642
X225.618 Y55.65
X225.606
X224.037 Y55.172
X224.026 Y55.164
X224.023 Y55.153
X224.025 Y52.856
G2 X210.25 Y41.005 I-11.986 J0
G3 X209.98 Y40.772 I-0.034 J-0.233
G1 Y29.228
G3 X210.25 Y28.995 I0.235 J0
G2 X224.025 Y17.144 I1.756 J-11.89
G1 X224.023 Y14.848
X224.019 Y14.836
X224.008 Y14.828
X223.996 Y14.829
X222.426 Y15.413
X222.417 Y15.421
X222.413 Y15.432
X222.415 Y17.144
G3 X208.603 Y26.941 I-10.404 J-0.032
G2 X208.37 Y27.107 I-0.057 J0.166
G1 Y42.893
G2 X208.603 Y43.059 I0.175 J0
G3 X222.415 Y52.856 I3.431 J9.798
G1 X222.413 Y54.568
X222.409 Y54.58
X222.399 Y54.587
X222.386 Y54.586
X220.817 Y54
X220.807 Y53.993
X220.804 Y53.982
X220.805 Y52.856
G2 X208.989 Y44.582 I-8.805 J0
X208.02 Y44.959 I8.2 J22.53
G3 X207.052 Y45.335 I-9.168 J-22.154
X206.76 Y45.13 I-0.074 J-0.205
G1 Y24.87
G3 X207.052 Y24.665 I0.218 J0
X208.02 Y25.041 I-8.201 J22.533
G2 X208.989 Y25.418 I9.161 J-22.134
X220.805 Y17.144 I3.011 J-8.274
G1 X220.804 Y16.018
X220.8 Y16.006
X220.79 Y15.999
X220.777
X219.207 Y16.585
X219.198 Y16.592
X219.194 Y16.604
X219.195 Y17.144
G3 X209.539 Y23.905 I-7.195 J0
X207.491 Y23.135 I36.315 J-99.78
G2 X205.442 Y22.366 I-38.444 J99.227
X205.15 Y22.57 I-0.074 J0.205
G1 Y47.43
G2 X205.442 Y47.634 I0.218 J0
X207.491 Y46.865 I-36.394 J-99.991
G3 X209.539 Y46.095 I38.442 J99.222
X219.195 Y52.856 I2.461 J6.761
G1 X219.194 Y53.396
X219.19 Y53.408
X219.18 Y53.415
X219.167 Y53.414
X217.598 Y52.829
X217.588 Y52.822
X217.585 Y52.81
G2 X210.09 Y47.608 I-5.585 J0.046
G1 X203.832 Y49.934
G3 X203.54 Y49.729 I-0.074 J-0.205
G1 Y20.271
G3 X203.832 Y20.066 I0.218 J0
G1 X210.09 Y22.392
G2 X217.585 Y17.19 I1.91 J-5.248
G1 X217.581 Y17.178
X217.571 Y17.171
X217.559 Y17.17
X215.897 Y17.698
X215.888 Y17.704
X215.883 Y17.714
G3 X210.658 Y20.832 I-3.883 J-0.57
G1 X202.026 Y17.69
X201.997 Y17.686
X201.969 Y17.692
X201.946 Y17.709
X201.93 Y17.733
X201.925 Y17.761
Y52.239
X201.93 Y52.267
X201.946 Y52.291
X201.969 Y52.308
X201.997 Y52.314
X202.026 Y52.31
X210.658 Y49.168
G3 X215.883 Y52.286 I1.342 J3.688
G1 X215.891 Y52.298
X215.905 Y52.303
X215.918 Y52.296
X229.422 Y37.468
X229.427 Y37.454
X229.422 Y37.441
Z-3.967
X229.415 Y37.433
G2 X227.102 Y35.179 I-17.287 J15.424
G3 X227.102 Y34.821 I0.153 J-0.179
G2 X229.415 Y32.55 I-15.186 J-17.775
G1 X229.42 Y32.537
X229.45 Y30.012
X229.444 Y29.997
X229.428 Y29.991
X229.414 Y29.999
G3 X224.432 Y34.857 I-17.475 J-12.943
G2 X224.432 Y35.143 I0.101 J0.143
G3 X229.414 Y39.969 I-12.326 J17.713
G1 X229.418 Y39.981
X229.452 Y42.882
X229.445 Y42.897
X229.429 Y42.902
X229.415 Y42.892
G2 X221.373 Y35.155 I-17.33 J9.964
G3 X221.373 Y34.845 I0.082 J-0.155
G2 X229.414 Y27.067 I-9.413 J-17.776
G1 X229.417 Y27.057
X229.454 Y23.232
X229.449 Y23.219
X229.437 Y23.212
X229.424 Y23.215
X229.415 Y23.225
G3 X216.991 Y34.875 I-17.432 J-6.141
G2 X216.991 Y35.125 I0.035 J0.125
G3 X229.415 Y46.728 I-4.929 J17.731
G1 X229.416 Y46.736
X228.893 Y54.112
X228.887 Y54.125
X228.873 Y54.13
X228.859 Y54.124
X228.854 Y54.11
X228.855 Y52.856
G2 X215.153 Y36.345 I-16.8 J0
G3 X214.894 Y36.183 I0.079 J-0.415
G1 X214.887 Y36.177
X214.878 Y36.175
X213.219 Y36.226
X213.206 Y36.232
X213.2 Y36.246
Y37.415
G2 X213.485 Y37.729 I0.315 J0
G3 X227.245 Y52.856 I-1.435 J15.127
G1 X227.242 Y55.416
Y55.427
Z-0.955
X214.888 Y33.826
Z-3.967
X214.894 Y33.817
G3 X215.153 Y33.655 I0.338 J0.253
G2 X228.855 Y17.144 I-3.163 J-16.566
G1 X228.854 Y15.889
X228.846 Y15.874
X227.275 Y14.568
X227.261 Y14.563
X227.247 Y14.569
X227.242 Y14.583
X227.245 Y17.144
G3 X213.485 Y32.271 I-15.25 J-0.05
G2 X213.2 Y32.585 I0.031 J0.314
G1 Y33.754
Y33.765
Z-0.955
X225.632 Y14.357
Z-3.967
Y14.368
X225.635 Y17.144
G3 X211.908 Y30.733 I-13.635 J-0.045
G2 X211.59 Y31.049 I-0.002 J0.315
G1 Y38.951
G2 X211.908 Y39.267 I0.315 J0
G3 X225.635 Y52.856 I0.137 J13.59
G1 X225.632 Y55.631
X225.628 Y55.642
X225.618 Y55.65
X225.606
X224.037 Y55.172
X224.026 Y55.164
X224.023 Y55.153
X224.025 Y52.856
G2 X210.25 Y41.005 I-11.986 J0
G3 X209.98 Y40.772 I-0.034 J-0.233
G1 Y29.228
G3 X210.25 Y28.995 I0.235 J0
G2 X224.025 Y17.144 I1.756 J-11.89
G1 X224.023 Y14.848
X224.019 Y14.836
X224.008 Y14.828
X223.996 Y14.829
X222.426 Y15.413
X222.417 Y15.421
X222.413 Y15.432
X222.415 Y17.144
G3 X208.603 Y26.941 I-10.404 J-0.032
G2 X208.37 Y27.107 I-0.057 J0.166
G1 Y42.893
G2 X208.603 Y43.059 I0.175 J0
G3 X222.415 Y52.856 I3.431 J9.798
G1 X222.413 Y54.568
X222.409 Y54.58
X222.399 Y54.587
X222.386 Y54.586
X220.817 Y54
X220.807 Y53.993
X220.804 Y53.982
X220.805 Y52.856
G2 X208.989 Y44.582 I-8.805 J0
X208.02 Y44.959 I8.2 J22.53
G3 X207.052 Y45.335 I-9.168 J-22.154
X206.76 Y45.13 I-0.074 J-0.205
G1 Y24.87
G3 X207.052 Y24.665 I0.218 J0
X208.02 Y25.041 I-8.201 J22.533
G2 X208.989 Y25.418 I9.161 J-22.134
X220.805 Y17.144 I3.011 J-8.274
G1 X220.804 Y16.018
X220.8 Y16.006
X220.79 Y15.999
X220.777
X219.207 Y16.585
X219.198 Y16.592
X219.194 Y16.604
X219.195 Y17.144
G3 X209.539 Y23.905 I-7.195 J0
X207.491 Y23.135 I36.315 J-99.78
G2 X205.442 Y22.366 I-38.444 J99.227
X205.15 Y22.57 I-0.074 J0.205
G1 Y47.43
G2 X205.442 Y47.634 I0.218 J0
X207.491 Y46.865 I-36.394 J-99.991
G3 X209.539 Y46.095 I38.442 J99.222
X219.195 Y52.856 I2.461 J6.761
G1 X219.194 Y53.396
X219.19 Y53.408
X219.18 Y53.415
X219.167 Y53.414
X217.598 Y52.829
X217.588 Y52.822
X217.585 Y52.81
G2 X210.09 Y47.608 I-5.585 J0.046
G1 X203.832 Y49.934
G3 X203.54 Y49.729 I-0.074 J-0.205
G1 Y20.271
G3 X203.832 Y20.066 I0.218 J0
G1 X210.09 Y22.392
G2 X217.585 Y17.19 I1.91 J-5.248
G1 X217.581 Y17.178
X217.571 Y17.171
X217.559 Y17.17
X215.897 Y17.698
X215.888 Y17.704
X215.883 Y17.714
G3 X210.658 Y20.832 I-3.883 J-0.57
G1 X202.026 Y17.69
X201.997 Y17.686
X201.969 Y17.692
X201.946 Y17.709
X201.93 Y17.733
X201.925 Y17.761
Y52.239
X201.93 Y52.267
X201.946 Y52.291
X201.969 Y52.308
X201.997 Y52.314
X202.026 Y52.31
X210.658 Y49.168
G3 X215.883 Y52.286 I1.342 J3.688
G1 X215.891 Y52.298
X215.905 Y52.303
X215.918 Y52.296
X229.422 Y37.468
X229.427 Y37.454
X229.422 Y37.441
Z-4.958
X229.415 Y37.433
G2 X227.102 Y35.179 I-17.287 J15.424
G3 X227.102 Y34.821 I0.153 J-0.179
G2 X229.415 Y32.55 I-15.186 J-17.775
G1 X229.42 Y32.537
X229.45 Y30.012
X229.444 Y29.997
X229.428 Y29.991
X229.414 Y29.999
G3 X224.432 Y34.857 I-17.475 J-12.943
G2 X224.432 Y35.143 I0.101 J0.143
G3 X229.414 Y39.969 I-12.326 J17.713
G1 X229.418 Y39.981
X229.452 Y42.882
X229.445 Y42.897
X229.429 Y42.902
X229.415 Y42.892
G2 X221.373 Y35.155 I-17.33 J9.964
G3 X221.373 Y34.845 I0.082 J-0.155
G2 X229.414 Y27.067 I-9.413 J-17.776
G1 X229.417 Y27.057
X229.454 Y23.232
X229.449 Y23.219
X229.437 Y23.212
X229.424 Y23.215
X229.415 Y23.225
G3 X216.991 Y34.875 I-17.432 J-6.141
G2 X216.991 Y35.125 I0.035 J0.125
G3 X229.415 Y46.728 I-4.929 J17.731
G1 X229.416 Y46.736
X228.893 Y54.112
X228.887 Y54.125
X228.873 Y54.13
X228.859 Y54.124
X228.854 Y54.11
X228.855 Y52.856
G2 X215.153 Y36.345 I-16.8 J0
G3 X214.894 Y36.183 I0.079 J-0.415
G1 X214.887 Y36.177
X214.878 Y36.175
X213.219 Y36.226
X213.206 Y36.232
X213.2 Y36.246
Y37.415
G2 X213.485 Y37.729 I0.315 J0
G3 X227.245 Y52.856 I-1.435 J15.127
G1 X227.242 Y55.416
Y55.427
Z-1.947
X214.888 Y33.826
Z-4.958
X214.894 Y33.817
G3 X215.153 Y33.655 I0.338 J0.253
G2 X228.855 Y17.144 I-3.163 J-16.566
G1 X228.854 Y15.889
X228.846 Y15.874
X227.275 Y14.568
X227.261 Y14.563
X227.247 Y14.569
X227.242 Y14.583
X227.245 Y17.144
G3 X213.485 Y32.271 I-15.25 J-0.05
G2 X213.2 Y32.585 I0.031 J0.314
G1 Y33.754
Y33.765
Z-1.947
X225.632 Y14.357
Z-4.958
Y14.368
X225.635 Y17.144
G3 X211.908 Y30.733 I-13.635 J-0.045
G2 X211.59 Y31.049 I-0.002 J0.315
G1 Y38.951
G2 X211.908 Y39.267 I0.315 J0
G3 X225.635 Y52.856 I0.137 J13.59
G1 X225.632 Y55.631
X225.628 Y55.642
X225.618 Y55.65
X225.606
X224.037 Y55.172
X224.026 Y55.164
X224.023 Y55.153
X224.025 Y52.856
G2 X210.25 Y41.005 I-11.986 J0
G3 X209.98 Y40.772 I-0.034 J-0.233
G1 Y29.228
G3 X210.25 Y28.995 I0.235 J0
G2 X224.025 Y17.144 I1.756 J-11.89
G1 X224.023 Y14.848
X224.019 Y14.836
X224.008 Y14.828
X223.996 Y14.829
X222.426 Y15.413
X222.417 Y15.421
X222.413 Y15.432
X222.415 Y17.144
G3 X208.603 Y26.941 I-10.404 J-0.032
G2 X208.37 Y27.107 I-0.057 J0.166
G1 Y42.893
G2 X208.603 Y43.059 I0.175 J0
G3 X222.415 Y52.856 I3.431 J9.798
G1 X222.413 Y54.568
X222.409 Y54.58
X222.399 Y54.587
X222.386 Y54.586
X220.817 Y54
X220.807 Y53.993
X220.804 Y53.982
X220.805 Y52.856
G2 X208.989 Y44.582 I-8.805 J0
X208.02 Y44.959 I8.2 J22.53
G3 X207.052 Y45.335 I-9.168 J-22.154
X206.76 Y45.13 I-0.074 J-0.205
G1 Y24.87
G3 X207.052 Y24.665 I0.218 J0
X208.02 Y25.041 I-8.201 J22.533
G2 X208.989 Y25.418 I9.161 J-22.134
X220.805 Y17.144 I3.011 J-8.274
G1 X220.804 Y16.018
X220.8 Y16.006
X220.79 Y15.999
X220.777
X219.207 Y16.585
X219.198 Y16.592
X219.194 Y16.604
X219.195 Y17.144
G3 X209.539 Y23.905 I-7.195 J0
X207.491 Y23.135 I36.315 J-99.78
G2 X205.442 Y22.366 I-38.444 J99.227
X205.15 Y22.57 I-0.074 J0.205
G1 Y47.43
G2 X205.442 Y47.634 I0.218 J0
X207.491 Y46.865 I-36.394 J-99.991
G3 X209.539 Y46.095 I38.442 J99.222
X219.195 Y52.856 I2.461 J6.761
G1 X219.194 Y53.396
X219.19 Y53.408
X219.18 Y53.415
X219.167 Y53.414
X217.598 Y52.829
X217.588 Y52.822
X217.585 Y52.81
G2 X210.09 Y47.608 I-5.585 J0.046
G1 X203.832 Y49.934
G3 X203.54 Y49.729 I-0.074 J-0.205
G1 Y20.271
G3 X203.832 Y20.066 I0.218 J0
G1 X210.09 Y22.392
G2 X217.585 Y17.19 I1.91 J-5.248
G1 X217.581 Y17.178
X217.571 Y17.171
X217.559 Y17.17
X215.897 Y17.698
X215.888 Y17.704
X215.883 Y17.714
G3 X210.658 Y20.832 I-3.883 J-0.57
G1 X202.026 Y17.69
X201.997 Y17.686
X201.969 Y17.692
X201.946 Y17.709
X201.93 Y17.733
X201.925 Y17.761
Y52.239
X201.93 Y52.267
X201.946 Y52.291
X201.969 Y52.308
X201.997 Y52.314
X202.026 Y52.31
X210.658 Y49.168
G3 X215.883 Y52.286 I1.342 J3.688
G1 X215.891 Y52.298
X215.905 Y52.303
X215.918 Y52.296
X229.422 Y37.468
X229.427 Y37.454
X229.422 Y37.441
Z-5.95
X229.415 Y37.433
G2 X227.102 Y35.179 I-17.287 J15.424
G3 X227.102 Y34.821 I0.153 J-0.179
G2 X229.415 Y32.55 I-15.186 J-17.775
G1 X229.42 Y32.537
X229.45 Y30.012
X229.444 Y29.997
X229.428 Y29.991
X229.414 Y29.999
G3 X224.432 Y34.857 I-17.475 J-12.943
G2 X224.432 Y35.143 I0.101 J0.143
G3 X229.414 Y39.969 I-12.326 J17.713
G1 X229.418 Y39.981
X229.452 Y42.882
X229.445 Y42.897
X229.429 Y42.902
X229.415 Y42.892
G2 X221.373 Y35.155 I-17.33 J9.964
G3 X221.373 Y34.845 I0.082 J-0.155
G2 X229.414 Y27.067 I-9.413 J-17.776
G1 X229.417 Y27.057
X229.454 Y23.232
X229.449 Y23.219
X229.437 Y23.212
X229.424 Y23.215
X229.415 Y23.225
G3 X216.991 Y34.875 I-17.432 J-6.141
G2 X216.991 Y35.125 I0.035 J0.125
G3 X229.415 Y46.728 I-4.929 J17.731
G1 X229.416 Y46.736
X228.893 Y54.112
X228.887 Y54.125
X228.873 Y54.13
X228.859 Y54.124
X228.854 Y54.11
X228.855 Y52.856
G2 X215.153 Y36.345 I-16.8 J0
G3 X214.894 Y36.183 I0.079 J-0.415
G1 X214.887 Y36.177
X214.878 Y36.175
X213.219 Y36.226
X213.206 Y36.232
X213.2 Y36.246
Y37.415
G2 X213.485 Y37.729 I0.315 J0
G3 X227.245 Y52.856 I-1.435 J15.127
G1 X227.242 Y55.416
Y55.427
Z-2.938
X214.888 Y33.826
Z-5.95
X214.894 Y33.817
G3 X215.153 Y33.655 I0.338 J0.253
G2 X228.855 Y17.144 I-3.163 J-16.566
G1 X228.854 Y15.889
X228.846 Y15.874
X227.275 Y14.568
X227.261 Y14.563
X227.247 Y14.569
X227.242 Y14.583
X227.245 Y17.144
G3 X213.485 Y32.271 I-15.25 J-0.05
G2 X213.2 Y32.585 I0.031 J0.314
G1 Y33.754
Y33.765
Z-2.938
X225.632 Y14.357
Z-5.95
Y14.368
X225.635 Y17.144
G3 X211.908 Y30.733 I-13.635 J-0.045
G2 X211.59 Y31.049 I-0.002 J0.315
G1 Y38.951
G2 X211.908 Y39.267 I0.315 J0
G3 X225.635 Y52.856 I0.137 J13.59
G1 X225.632 Y55.631
X225.628 Y55.642
X225.618 Y55.65
X225.606
X224.037 Y55.172
X224.026 Y55.164
X224.023 Y55.153
X224.025 Y52.856
G2 X210.25 Y41.005 I-11.986 J0
G3 X209.98 Y40.772 I-0.034 J-0.233
G1 Y29.228
G3 X210.25 Y28.995 I0.235 J0
G2 X224.025 Y17.144 I1.756 J-11.89
G1 X224.023 Y14.848
X224.019 Y14.836
X224.008 Y14.828
X223.996 Y14.829
X222.426 Y15.413
X222.417 Y15.421
X222.413 Y15.432
X222.415 Y17.144
G3 X208.603 Y26.941 I-10.404 J-0.032
G2 X208.37 Y27.107 I-0.057 J0.166
G1 Y42.893
G2 X208.603 Y43.059 I0.175 J0
G3 X222.415 Y52.856 I3.431 J9.798
G1 X222.413 Y54.568
X222.409 Y54.58
X222.399 Y54.587
X222.386 Y54.586
X220.817 Y54
X220.807 Y53.993
X220.804 Y53.982
X220.805 Y52.856
G2 X208.989 Y44.582 I-8.805 J0
X208.02 Y44.959 I8.2 J22.53
G3 X207.052 Y45.335 I-9.168 J-22.154
X206.76 Y45.13 I-0.074 J-0.205
G1 Y24.87
G3 X207.052 Y24.665 I0.218 J0
X208.02 Y25.041 I-8.201 J22.533
G2 X208.989 Y25.418 I9.161 J-22.134
X220.805 Y17.144 I3.011 J-8.274
G1 X220.804 Y16.018
X220.8 Y16.006
X220.79 Y15.999
X220.777
X219.207 Y16.585
X219.198 Y16.592
X219.194 Y16.604
X219.195 Y17.144
G3 X209.539 Y23.905 I-7.195 J0
X207.491 Y23.135 I36.315 J-99.78
G2 X205.442 Y22.366 I-38.444 J99.227
X205.15 Y22.57 I-0.074 J0.205
G1 Y47.43
G2 X205.442 Y47.634 I0.218 J0
X207.491 Y46.865 I-36.394 J-99.991
G3 X209.539 Y46.095 I38.442 J99.222
X219.195 Y52.856 I2.461 J6.761
G1 X219.194 Y53.396
X219.19 Y53.408
X219.18 Y53.415
X219.167 Y53.414
X217.598 Y52.829
X217.588 Y52.822
X217.585 Y52.81
G2 X210.09 Y47.608 I-5.585 J0.046
G1 X203.832 Y49.934
G3 X203.54 Y49.729 I-0.074 J-0.205
G1 Y20.271
G3 X203.832 Y20.066 I0.218 J0
G1 X210.09 Y22.392
G2 X217.585 Y17.19 I1.91 J-5.248
G1 X217.581 Y17.178
X217.571 Y17.171
X217.559 Y17.17
X215.897 Y17.698
X215.888 Y17.704
X215.883 Y17.714
G3 X210.658 Y20.832 I-3.883 J-0.57
G1 X202.026 Y17.69
X201.997 Y17.686
X201.969 Y17.692
X201.946 Y17.709
X201.93 Y17.733
X201.925 Y17.761
Y52.239
X201.93 Y52.267
X201.946 Y52.291
X201.969 Y52.308
X201.997 Y52.314
X202.026 Y52.31
X210.658 Y49.168
G3 X215.883 Y52.286 I1.342 J3.688
G1 X216.09 Y53.695
Z10
(When using Fusion 360 for Personal Use, the feedrate of)
(rapid moves is reduced to match the feedrate of cutting)
(moves, which can increase machining time. Unrestricted rapid)
(moves are available with a Fusion 360 Subscription.)

(2D Contour tabs)
G0 X215.625 Y52.856
G1 Z10 F1000
Z5
Z2.02 F333.3
Z-0.992
G2 X210.76 Y49.45 I-3.625 J0 F1000
G1 X202.128 Y52.592
G3 X201.625 Y52.239 I-0.128 J-0.352
G1 Y17.761
G3 X202.128 Y17.408 I0.375 J0
G1 X210.76 Y20.55
G2 X215.625 Y17.144 I1.24 J-3.406
G1 Z5
Y52.856
Z1.028 F333.3
Z-1.983
G2 X210.76 Y49.45 I-3.625 J0 F1000
G1 X202.128 Y52.592
G3 X201.625 Y52.239 I-0.128 J-0.352
G1 Y17.761
G3 X202.128 Y17.408 I0.375 J0
G1 X210.76 Y20.55
G2 X215.625 Y17.144 I1.24 J-3.406
G1 Z5
Y52.856
Z0.037 F333.3
Z-2.975
G2 X210.76 Y49.45 I-3.625 J0 F1000
G1 X202.128 Y52.592
G3 X201.625 Y52.239 I-0.128 J-0.352
G1 Y17.761
G3 X202.128 Y17.408 I0.375 J0
G1 X210.76 Y20.55
G2 X215.625 Y17.144 I1.24 J-3.406
G1 Z5
Y52.856
Z-0.955 F333.3
Z-3.967
G2 X210.76 Y49.45 I-3.625 J0 F1000
G1 X202.128 Y52.592
G3 X201.625 Y52.239 I-0.128 J-0.352
G1 Y17.761
G3 X202.128 Y17.408 I0.375 J0
G1 X210.76 Y20.55
G2 X215.625 Y17.144 I1.24 J-3.406
G1 Z5
Y52.856
Z-1.947 F333.3
Z-4.958
G2 X210.76 Y49.45 I-3.625 J0 F1000
G1 X202.128 Y52.592
G3 X201.625 Y52.239 I-0.128 J-0.352
G1 Y17.761
G3 X202.128 Y17.408 I0.375 J0
G1 X210.76 Y20.55
G2 X215.625 Y17.144 I1.24 J-3.406
G1 Z5
Y52.856
Z-2.938 F333.3
Z-5.95
G2 X210.76 Y49.45 I-3.625 J0 F1000
G1 X202.128 Y52.592
G3 X201.625 Y52.239 I-0.128 J-0.352
G1 Y17.761
G3 X202.128 Y17.408 I0.375 J0
G1 X210.76 Y20.55
G2 X215.625 Y17.144 I1.24 J-3.406
G1 Z5
X215.425 Y52.856
Z-2.938 F333.3
Z-5.95
G2 X210.829 Y49.638 I-3.425 J0 F1000
G1 X202.197 Y52.78
G3 X201.425 Y52.239 I-0.197 J-0.54
G1 Y17.761
G3 X202.197 Y17.22 I0.575 J0
G1 X210.829 Y20.362
G2 X215.425 Y17.144 I1.171 J-3.218
G1 Z5
X12.375
Z2.02 F333.3
Z-0.992
G2 X17.24 Y20.55 I3.625 J0 F1000
G1 X25.872 Y17.408
G3 X26.375 Y17.761 I0.128 J0.352
G1 Y52.239
G3 X25.872 Y52.592 I-0.375 J0
G1 X17.24 Y49.45
G2 X12.375 Y52.856 I-1.24 J3.406
G1 Z5
Y17.144
Z1.028 F333.3
Z-1.983
G2 X17.24 Y20.55 I3.625 J0 F1000
G1 X25.872 Y17.408
G3 X26.375 Y17.761 I0.128 J0.352
G1 Y52.239
G3 X25.872 Y52.592 I-0.375 J0
G1 X17.24 Y49.45
G2 X12.375 Y52.856 I-1.24 J3.406
G1 Z5
Y17.144
Z0.037 F333.3
Z-2.975
G2 X17.24 Y20.55 I3.625 J0 F1000
G1 X25.872 Y17.408
G3 X26.375 Y17.761 I0.128 J0.352
G1 Y52.239
G3 X25.872 Y52.592 I-0.375 J0
G1 X17.24 Y49.45
G2 X12.375 Y52.856 I-1.24 J3.406
G1 Z5
Y17.144
Z-0.955 F333.3
Z-3.967
G2 X17.24 Y20.55 I3.625 J0 F1000
G1 X25.872 Y17.408
G3 X26.375 Y17.761 I0.128 J0.352
G1 Y52.239
G3 X25.872 Y52.592 I-0.375 J0
G1 X17.24 Y49.45
G2 X12.375 Y52.856 I-1.24 J3.406
G1 Z5
Y17.144
Z-1.947 F333.3
Z-4.958
G2 X17.24 Y20.55 I3.625 J0 F1000
G1 X25.872 Y17.408
G3 X26.375 Y17.761 I0.128 J0.352
G1 Y52.239
G3 X25.872 Y52.592 I-0.375 J0
G1 X17.24 Y49.45
G2 X12.375 Y52.856 I-1.24 J3.406
G1 Z5
Y17.144
Z-2.938 F333.3
Z-5.95
G2 X17.24 Y20.55 I3.625 J0 F1000
G1 X25.872 Y17.408
G3 X26.375 Y17.761 I0.128 J0.352
G1 Y52.239
G3 X25.872 Y52.592 I-0.375 J0
G1 X17.24 Y49.45
G2 X12.375 Y52.856 I-1.24 J3.406
G1 Z5
X12.575 Y17.144
Z-2.938 F333.3
Z-5.95
G2 X17.171 Y20.362 I3.425 J0 F1000
G1 X25.803 Y17.22
G3 X26.575 Y17.761 I0.197 J0.54
G1 Y52.239
G3 X25.803 Y52.78 I-0.575 J0
G1 X17.171 Y49.638
G2 X12.575 Y52.856 I-1.171 J3.218
G1 Z10
(When using Fusion 360 for Personal Use, the feedrate of)
(rapid moves is reduced to match the feedrate of cutting)
(moves, which can increase machining time. Unrestricted rapid)
(moves are available with a Fusion 360 Subscription.)

(Bore1)
G0 X214.663 Y34.715
G1 Z10 F1000
Z-3.95
Z-5.665
G18 G2 X214.947 Z-5.95 I0.285 K0
G1 X215.09
G17 G3 X215.375 Y35 I0 J0.285
X212.625 Y35 Z-6.2 I-1.375 J0
X215.375 Y35 Z-6.45 I1.375 J0
X212.625 Y35 Z-6.7 I-1.375 J0
X215.375 Y35 Z-6.95 I1.375 J0
X212.625 Y35 Z-7.2 I-1.375 J0
X215.375 Y35 Z-7.45 I1.375 J0
X212.625 Y35 Z-7.7 I-1.375 J0
X215.375 Y35 Z-7.95 I1.375 J0
X212.625 Y35 Z-8.2 I-1.375 J0
X215.375 Y35 Z-8.45 I1.375 J0
X212.625 Y35 Z-8.7 I-1.375 J0
X215.375 Y35 Z-8.95 I1.375 J0
X212.625 Y35 Z-9.2 I-1.375 J0
X215.375 Y35 Z-9.45 I1.375 J0
X212.625 Y35 Z-9.7 I-1.375 J0
X215.375 Y35 Z-9.95 I1.375 J0
X212.625 Y35 Z-10.2 I-1.375 J0
X215.375 Y35 Z-10.45 I1.375 J0
X212.625 Y35 Z-10.7 I-1.375 J0
X215.375 Y35 Z-10.95 I1.375 J0
X212.625 Y35 Z-11.2 I-1.375 J0
X215.375 Y35 Z-11.45 I1.375 J0
X212.625 Y35 Z-11.7 I-1.375 J0
X215.375 Y35 Z-11.95 I1.375 J0
X212.625 Y35 Z-12.2 I-1.375 J0
X215.375 Y35 Z-12.45 I1.375 J0
X212.625 Y35 Z-12.7 I-1.375 J0
X215.375 Y35 Z-12.95 I1.375 J0
X212.625 Y35 Z-13.2 I-1.375 J0
X213.575 Y33.692 Z-13.3 I1.375 J0
X214.425 Y36.308 I0.425 J1.308
X213.575 Y33.692 I-0.425 J-1.308
X213.934 Y33.875 I0.088 J0.271
G1 X213.978 Y34.011
X213.998 Y34.071 Z-13.293
X214.016 Y34.128 Z-13.272
X214.033 Y34.18 Z-13.238
X214.047 Y34.223 Z-13.193
X214.058 Y34.255 Z-13.139
X214.064 Y34.275 Z-13.078
X214.066 Y34.282 Z-13.015
Z5
Z10
X214.762 Y34.715
Z-3.95
Z-5.665
G18 G2 X215.048 Z-5.95 I0.285 K0
G1 X215.19
G17 G3 X215.475 Y35 I0 J0.285
X212.525 Y35 Z-6.2 I-1.475 J0
X215.475 Y35 Z-6.45 I1.475 J0
X212.525 Y35 Z-6.7 I-1.475 J0
X215.475 Y35 Z-6.95 I1.475 J0
X212.525 Y35 Z-7.2 I-1.475 J0
X215.475 Y35 Z-7.45 I1.475 J0
X212.525 Y35 Z-7.7 I-1.475 J0
X215.475 Y35 Z-7.95 I1.475 J0
X212.525 Y35 Z-8.2 I-1.475 J0
X215.475 Y35 Z-8.45 I1.475 J0
X212.525 Y35 Z-8.7 I-1.475 J0
X215.475 Y35 Z-8.95 I1.475 J0
X212.525 Y35 Z-9.2 I-1.475 J0
X215.475 Y35 Z-9.45 I1.475 J0
X212.525 Y35 Z-9.7 I-1.475 J0
X215.475 Y35 Z-9.95 I1.475 J0
X212.525 Y35 Z-10.2 I-1.475 J0
X215.475 Y35 Z-10.45 I1.475 J0
X212.525 Y35 Z-10.7 I-1.475 J0
X215.475 Y35 Z-10.95 I1.475 J0
X212.525 Y35 Z-11.2 I-1.475 J0
X215.475 Y35 Z-11.45 I1.475 J0
X212.525 Y35 Z-11.7 I-1.475 J0
X215.475 Y35 Z-11.95 I1.475 J0
X212.525 Y35 Z-12.2 I-1.475 J0
X215.475 Y35 Z-12.45 I1.475 J0
X212.525 Y35 Z-12.7 I-1.475 J0
X215.475 Y35 Z-12.95 I1.475 J0
X212.525 Y35 Z-13.2 I-1.475 J0
X213.544 Y33.597 Z-13.3 I1.475 J0
X214.456 Y36.403 I0.456 J1.403
X213.544 Y33.597 I-0.456 J-1.403
X213.903 Y33.78 I0.088 J0.271
G1 X213.947 Y33.916
X213.967 Y33.976 Z-13.293
X213.986 Y34.033 Z-13.272
X214.002 Y34.085 Z-13.238
X214.016 Y34.128 Z-13.193
X214.027 Y34.16 Z-13.139
X214.033 Y34.18 Z-13.078
X214.035 Y34.187 Z-13.015
Z5
X214.762 Y34.715
Z-3.95
Z-5.665
G18 G2 X215.048 Z-5.95 I0.285 K0
G1 X215.19
G17 G3 X215.475 Y35 I0 J0.285
X212.525 Y35 Z-6.2 I-1.475 J0
X215.475 Y35 Z-6.45 I1.475 J0
X212.525 Y35 Z-6.7 I-1.475 J0
X215.475 Y35 Z-6.95 I1.475 J0
X212.525 Y35 Z-7.2 I-1.475 J0
X215.475 Y35 Z-7.45 I1.475 J0
X212.525 Y35 Z-7.7 I-1.475 J0
X215.475 Y35 Z-7.95 I1.475 J0
X212.525 Y35 Z-8.2 I-1.475 J0
X215.475 Y35 Z-8.45 I1.475 J0
X212.525 Y35 Z-8.7 I-1.475 J0
X215.475 Y35 Z-8.95 I1.475 J0
X212.525 Y35 Z-9.2 I-1.475 J0
X215.475 Y35 Z-9.45 I1.475 J0
X212.525 Y35 Z-9.7 I-1.475 J0
X215.475 Y35 Z-9.95 I1.475 J0
X212.525 Y35 Z-10.2 I-1.475 J0
X215.475 Y35 Z-10.45 I1.475 J0
X212.525 Y35 Z-10.7 I-1.475 J0
X215.475 Y35 Z-10.95 I1.475 J0
X212.525 Y35 Z-11.2 I-1.475 J0
X215.475 Y35 Z-11.45 I1.475 J0
X212.525 Y35 Z-11.7 I-1.475 J0
X215.475 Y35 Z-11.95 I1.475 J0
X212.525 Y35 Z-12.2 I-1.475 J0
X215.475 Y35 Z-12.45 I1.475 J0
X212.525 Y35 Z-12.7 I-1.475 J0
X215.475 Y35 Z-12.95 I1.475 J0
X212.525 Y35 Z-13.2 I-1.475 J0
X213.544 Y33.597 Z-13.3 I1.475 J0
X214.456 Y36.403 I0.456 J1.403
X213.544 Y33.597 I-0.456 J-1.403
X213.903 Y33.78 I0.088 J0.271
G1 X213.947 Y33.916
X213.967 Y33.976 Z-13.293
X213.986 Y34.033 Z-13.272
X214.002 Y34.085 Z-13.238
X214.016 Y34.128 Z-13.193
X214.027 Y34.16 Z-13.139
X214.033 Y34.18 Z-13.078
X214.035 Y34.187 Z-13.015
Z5
X153.945 Y34.912
Z1.715
Z0
X154.087
X154.121 Y34.919
X154.149 Y34.938
X154.168 Y34.967
X154.175 Y35
G3 X153.825 Y35 Z-0.25 I-0.175 J0
X154.175 Y35 Z-0.5 I0.175 J0
X153.825 Y35 Z-0.75 I-0.175 J0
X154.175 Y35 Z-1 I0.175 J0
X153.825 Y35 Z-1.25 I-0.175 J0
X154.175 Y35 Z-1.5 I0.175 J0
X153.825 Y35 Z-1.75 I-0.175 J0
X154.175 Y35 Z-2 I0.175 J0
X153.825 Y35 Z-2.25 I-0.175 J0
X154.175 Y35 Z-2.5 I0.175 J0
X153.825 Y35 Z-2.75 I-0.175 J0
X154.175 Y35 Z-3 I0.175 J0
X153.825 Y35 Z-3.25 I-0.175 J0
X154.175 Y35 Z-3.5 I0.175 J0
X153.825 Y35 Z-3.75 I-0.175 J0
X154.175 Y35 Z-4 I0.175 J0
X153.825 Y35 Z-4.25 I-0.175 J0
X154.175 Y35 Z-4.5 I0.175 J0
X153.825 Y35 Z-4.75 I-0.175 J0
X154.175 Y35 Z-5 I0.175 J0
X153.825 Y35 Z-5.25 I-0.175 J0
X154.175 Y35 Z-5.5 I0.175 J0
X153.825 Y35 Z-5.75 I-0.175 J0
X154.175 Y35 Z-6 I0.175 J0
X153.825 Y35 Z-6.25 I-0.175 J0
X154.175 Y35 Z-6.5 I0.175 J0
X153.825 Y35 Z-6.75 I-0.175 J0
X154.175 Y35 Z-7 I0.175 J0
X153.825 Y35 Z-7.25 I-0.175 J0
X154.175 Y35 Z-7.5 I0.175 J0
X153.825 Y35 Z-7.75 I-0.175 J0
X154.175 Y35 Z-8 I0.175 J0
X153.825 Y35 Z-8.25 I-0.175 J0
X154.175 Y35 Z-8.5 I0.175 J0
X153.825 Y35 Z-8.75 I-0.175 J0
X154.175 Y35 Z-9 I0.175 J0
X153.825 Y35 Z-9.25 I-0.175 J0
X154.175 Y35 Z-9.5 I0.175 J0
X153.825 Y35 Z-9.75 I-0.175 J0
X154.175 Y35 Z-10 I0.175 J0
X153.825 Y35 Z-10.25 I-0.175 J0
X154.175 Y35 Z-10.5 I0.175 J0
X153.825 Y35 Z-10.75 I-0.175 J0
X154.175 Y35 Z-11 I0.175 J0
X153.825 Y35 Z-11.25 I-0.175 J0
X154.175 Y35 Z-11.5 I0.175 J0
X153.825 Y35 Z-11.75 I-0.175 J0
X154.175 Y35 Z-12 I0.175 J0
X153.825 Y35 Z-12.25 I-0.175 J0
X154.175 Y35 Z-12.5 I0.175 J0
X153.825 Y35 Z-12.75 I-0.175 J0
X154.175 Y35 Z-13 I0.175 J0
X153.825 Y35 Z-13.25 I-0.175 J0
X153.858 Y34.897 Z-13.3 I0.175 J0
X154.142 Y35.103 I0.142 J0.103
X153.858 Y34.897 I-0.142 J-0.103
G1 X153.883 Y34.874
X153.916 Y34.862
X153.95 Y34.863
X153.981 Y34.878
X154.096 Y34.962
Z5
X153.995 Y34.862
Z1.715
Z0
X154.137
X154.18 Y34.869
X154.218 Y34.889
X154.249 Y34.919
X154.268 Y34.958
X154.275 Y35
G3 X153.725 Y35 Z-0.25 I-0.275 J0
X154.275 Y35 Z-0.5 I0.275 J0
X153.725 Y35 Z-0.75 I-0.275 J0
X154.275 Y35 Z-1 I0.275 J0
X153.725 Y35 Z-1.25 I-0.275 J0
X154.275 Y35 Z-1.5 I0.275 J0
X153.725 Y35 Z-1.75 I-0.275 J0
X154.275 Y35 Z-2 I0.275 J0
X153.725 Y35 Z-2.25 I-0.275 J0
X154.275 Y35 Z-2.5 I0.275 J0
X153.725 Y35 Z-2.75 I-0.275 J0
X154.275 Y35 Z-3 I0.275 J0
X153.725 Y35 Z-3.25 I-0.275 J0
X154.275 Y35 Z-3.5 I0.275 J0
X153.725 Y35 Z-3.75 I-0.275 J0
X154.275 Y35 Z-4 I0.275 J0
X153.725 Y35 Z-4.25 I-0.275 J0
X154.275 Y35 Z-4.5 I0.275 J0
X153.725 Y35 Z-4.75 I-0.275 J0
X154.275 Y35 Z-5 I0.275 J0
X153.725 Y35 Z-5.25 I-0.275 J0
X154.275 Y35 Z-5.5 I0.275 J0
X153.725 Y35 Z-5.75 I-0.275 J0
X154.275 Y35 Z-6 I0.275 J0
X153.725 Y35 Z-6.25 I-0.275 J0
X154.275 Y35 Z-6.5 I0.275 J0
X153.725 Y35 Z-6.75 I-0.275 J0
X154.275 Y35 Z-7 I0.275 J0
X153.725 Y35 Z-7.25 I-0.275 J0
X154.275 Y35 Z-7.5 I0.275 J0
X153.725 Y35 Z-7.75 I-0.275 J0
X154.275 Y35 Z-8 I0.275 J0
X153.725 Y35 Z-8.25 I-0.275 J0
X154.275 Y35 Z-8.5 I0.275 J0
X153.725 Y35 Z-8.75 I-0.275 J0
X154.275 Y35 Z-9 I0.275 J0
X153.725 Y35 Z-9.25 I-0.275 J0
X154.275 Y35 Z-9.5 I0.275 J0
X153.725 Y35 Z-9.75 I-0.275 J0
X154.275 Y35 Z-10 I0.275 J0
X153.725 Y35 Z-10.25 I-0.275 J0
X154.275 Y35 Z-10.5 I0.275 J0
X153.725 Y35 Z-10.75 I-0.275 J0
X154.275 Y35 Z-11 I0.275 J0
X153.725 Y35 Z-11.25 I-0.275 J0
X154.275 Y35 Z-11.5 I0.275 J0
X153.725 Y35 Z-11.75 I-0.275 J0
X154.275 Y35 Z-12 I0.275 J0
X153.725 Y35 Z-12.25 I-0.275 J0
X154.275 Y35 Z-12.5 I0.275 J0
X153.725 Y35 Z-12.75 I-0.275 J0
X154.275 Y35 Z-13 I0.275 J0
X153.725 Y35 Z-13.25 I-0.275 J0
X153.778 Y34.838 Z-13.3 I0.275 J0
X154.222 Y35.162 I0.222 J0.162
X153.778 Y34.838 I-0.222 J-0.162
G1 X153.808 Y34.808
X153.846 Y34.788
X153.889 Y34.782
X153.931 Y34.788
X153.97 Y34.808
X154.085 Y34.892
Z5
X153.995 Y34.862
Z1.715
Z0
X154.137
X154.18 Y34.869
X154.218 Y34.889
X154.249 Y34.919
X154.268 Y34.958
X154.275 Y35
G3 X153.725 Y35 Z-0.25 I-0.275 J0
X154.275 Y35 Z-0.5 I0.275 J0
X153.725 Y35 Z-0.75 I-0.275 J0
X154.275 Y35 Z-1 I0.275 J0
X153.725 Y35 Z-1.25 I-0.275 J0
X154.275 Y35 Z-1.5 I0.275 J0
X153.725 Y35 Z-1.75 I-0.275 J0
X154.275 Y35 Z-2 I0.275 J0
X153.725 Y35 Z-2.25 I-0.275 J0
X154.275 Y35 Z-2.5 I0.275 J0
X153.725 Y35 Z-2.75 I-0.275 J0
X154.275 Y35 Z-3 I0.275 J0
X153.725 Y35 Z-3.25 I-0.275 J0
X154.275 Y35 Z-3.5 I0.275 J0
X153.725 Y35 Z-3.75 I-0.275 J0
X154.275 Y35 Z-4 I0.275 J0
X153.725 Y35 Z-4.25 I-0.275 J0
X154.275 Y35 Z-4.5 I0.275 J0
X153.725 Y35 Z-4.75 I-0.275 J0
X154.275 Y35 Z-5 I0.275 J0
X153.725 Y35 Z-5.25 I-0.275 J0
X154.275 Y35 Z-5.5 I0.275 J0
X153.725 Y35 Z-5.75 I-0.275 J0
X154.275 Y35 Z-6 I0.275 J0
X153.725 Y35 Z-6.25 I-0.275 J0
X154.275 Y35 Z-6.5 I0.275 J0
X153.725 Y35 Z-6.75 I-0.275 J0
X154.275 Y35 Z-7 I0.275 J0
X153.725 Y35 Z-7.25 I-0.275 J0
X154.275 Y35 Z-7.5 I0.275 J0
X153.725 Y35 Z-7.75 I-0.275 J0
X154.275 Y35 Z-8 I0.275 J0
X153.725 Y35 Z-8.25 I-0.275 J0
X154.275 Y35 Z-8.5 I0.275 J0
X153.725 Y35 Z-8.75 I-0.275 J0
X154.275 Y35 Z-9 I0.275 J0
X153.725 Y35 Z-9.25 I-0.275 J0
X154.275 Y35 Z-9.5 I0.275 J0
X153.725 Y35 Z-9.75 I-0.275 J0
X154.275 Y35 Z-10 I0.275 J0
X153.725 Y35 Z-10.25 I-0.275 J0
X154.275 Y35 Z-10.5 I0.275 J0
X153.725 Y35 Z-10.75 I-0.275 J0
X154.275 Y35 Z-11 I0.275 J0
X153.725 Y35 Z-11.25 I-0.275 J0
X154.275 Y35 Z-11.5 I0.275 J0
X153.725 Y35 Z-11.75 I-0.275 J0
X154.275 Y35 Z-12 I0.275 J0
X153.725 Y35 Z-12.25 I-0.275 J0
X154.275 Y35 Z-12.5 I0.275 J0
X153.725 Y35 Z-12.75 I-0.275 J0
X154.275 Y35 Z-13 I0.275 J0
X153.725 Y35 Z-13.25 I-0.275 J0
X153.778 Y34.838 Z-13.3 I0.275 J0
X154.222 Y35.162 I0.222 J0.162
X153.778 Y34.838 I-0.222 J-0.162
G1 X153.808 Y34.808
X153.846 Y34.788
X153.889 Y34.782
X153.931 Y34.788
X153.97 Y34.808
X154.085 Y34.892
Z5
X135.945 Y34.912
Z1.715
Z0
X136.087
X136.121 Y34.919
X136.149 Y34.938
X136.168 Y34.967
X136.175 Y35
G3 X135.825 Y35 Z-0.25 I-0.175 J0
X136.175 Y35 Z-0.5 I0.175 J0
X135.825 Y35 Z-0.75 I-0.175 J0
X136.175 Y35 Z-1 I0.175 J0
X135.825 Y35 Z-1.25 I-0.175 J0
X136.175 Y35 Z-1.5 I0.175 J0
X135.825 Y35 Z-1.75 I-0.175 J0
X136.175 Y35 Z-2 I0.175 J0
X135.825 Y35 Z-2.25 I-0.175 J0
X136.175 Y35 Z-2.5 I0.175 J0
X135.825 Y35 Z-2.75 I-0.175 J0
X136.175 Y35 Z-3 I0.175 J0
X135.825 Y35 Z-3.25 I-0.175 J0
X136.175 Y35 Z-3.5 I0.175 J0
X135.825 Y35 Z-3.75 I-0.175 J0
X136.175 Y35 Z-4 I0.175 J0
X135.825 Y35 Z-4.25 I-0.175 J0
X136.175 Y35 Z-4.5 I0.175 J0
X135.825 Y35 Z-4.75 I-0.175 J0
X136.175 Y35 Z-5 I0.175 J0
X135.825 Y35 Z-5.25 I-0.175 J0
X136.175 Y35 Z-5.5 I0.175 J0
X135.825 Y35 Z-5.75 I-0.175 J0
X136.175 Y35 Z-6 I0.175 J0
X135.825 Y35 Z-6.25 I-0.175 J0
X136.175 Y35 Z-6.5 I0.175 J0
X135.825 Y35 Z-6.75 I-0.175 J0
X136.175 Y35 Z-7 I0.175 J0
X135.825 Y35 Z-7.25 I-0.175 J0
X136.175 Y35 Z-7.5 I0.175 J0
X135.825 Y35 Z-7.75 I-0.175 J0
X136.175 Y35 Z-8 I0.175 J0
X135.825 Y35 Z-8.25 I-0.175 J0
X136.175 Y35 Z-8.5 I0.175 J0
X135.825 Y35 Z-8.75 I-0.175 J0
X136.175 Y35 Z-9 I0.175 J0
X135.825 Y35 Z-9.25 I-0.175 J0
X136.175 Y35 Z-9.5 I0.175 J0
X135.825 Y35 Z-9.75 I-0.175 J0
X136.175 Y35 Z-10 I0.175 J0
X135.825 Y35 Z-10.25 I-0.175 J0
X136.175 Y35 Z-10.5 I0.175 J0
X135.825 Y35 Z-10.75 I-0.175 J0
X136.175 Y35 Z-11 I0.175 J0
X135.825 Y35 Z-11.25 I-0.175 J0
X136.175 Y35 Z-11.5 I0.175 J0
X135.825 Y35 Z-11.75 I-0.175 J0
X136.175 Y35 Z-12 I0.175 J0
X135.825 Y35 Z-12.25 I-0.175 J0
X136.175 Y35 Z-12.5 I0.175 J0
X135.825 Y35 Z-12.75 I-0.175 J0
X136.175 Y35 Z-13 I0.175 J0
X135.825 Y35 Z-13.25 I-0.175 J0
X135.858 Y34.897 Z-13.3 I0.175 J0
X136.142 Y35.103 I0.142 J0.103
X135.858 Y34.897 I-0.142 J-0.103
G1 X135.883 Y34.874
X135.916 Y34.862
X135.95 Y34.863
X135.981 Y34.878
X136.096 Y34.962
Z5
X135.995 Y34.862
Z1.715
Z0
X136.137
X136.18 Y34.869
X136.218 Y34.889
X136.249 Y34.919
X136.268 Y34.958
X136.275 Y35
G3 X135.725 Y35 Z-0.25 I-0.275 J0
X136.275 Y35 Z-0.5 I0.275 J0
X135.725 Y35 Z-0.75 I-0.275 J0
X136.275 Y35 Z-1 I0.275 J0
X135.725 Y35 Z-1.25 I-0.275 J0
X136.275 Y35 Z-1.5 I0.275 J0
X135.725 Y35 Z-1.75 I-0.275 J0
X136.275 Y35 Z-2 I0.275 J0
X135.725 Y35 Z-2.25 I-0.275 J0
X136.275 Y35 Z-2.5 I0.275 J0
X135.725 Y35 Z-2.75 I-0.275 J0
X136.275 Y35 Z-3 I0.275 J0
X135.725 Y35 Z-3.25 I-0.275 J0
X136.275 Y35 Z-3.5 I0.275 J0
X135.725 Y35 Z-3.75 I-0.275 J0
X136.275 Y35 Z-4 I0.275 J0
X135.725 Y35 Z-4.25 I-0.275 J0
X136.275 Y35 Z-4.5 I0.275 J0
X135.725 Y35 Z-4.75 I-0.275 J0
X136.275 Y35 Z-5 I0.275 J0
X135.725 Y35 Z-5.25 I-0.275 J0
X136.275 Y35 Z-5.5 I0.275 J0
X135.725 Y35 Z-5.75 I-0.275 J0
X136.275 Y35 Z-6 I0.275 J0
X135.725 Y35 Z-6.25 I-0.275 J0
X136.275 Y35 Z-6.5 I0.275 J0
X135.725 Y35 Z-6.75 I-0.275 J0
X136.275 Y35 Z-7 I0.275 J0
X135.725 Y35 Z-7.25 I-0.275 J0
X136.275 Y35 Z-7.5 I0.275 J0
X135.725 Y35 Z-7.75 I-0.275 J0
X136.275 Y35 Z-8 I0.275 J0
X135.725 Y35 Z-8.25 I-0.275 J0
X136.275 Y35 Z-8.5 I0.275 J0
X135.725 Y35 Z-8.75 I-0.275 J0
X136.275 Y35 Z-9 I0.275 J0
X135.725 Y35 Z-9.25 I-0.275 J0
X136.275 Y35 Z-9.5 I0.275 J0
X135.725 Y35 Z-9.75 I-0.275 J0
X136.275 Y35 Z-10 I0.275 J0
X135.725 Y35 Z-10.25 I-0.275 J0
X136.275 Y35 Z-10.5 I0.275 J0
X135.725 Y35 Z-10.75 I-0.275 J0
X136.275 Y35 Z-11 I0.275 J0
X135.725 Y35 Z-11.25 I-0.275 J0
X136.275 Y35 Z-11.5 I0.275 J0
X135.725 Y35 Z-11.75 I-0.275 J0
X136.275 Y35 Z-12 I0.275 J0
X135.725 Y35 Z-12.25 I-0.275 J0
X136.275 Y35 Z-12.5 I0.275 J0
X135.725 Y35 Z-12.75 I-0.275 J0
X136.275 Y35 Z-13 I0.275 J0
X135.725 Y35 Z-13.25 I-0.275 J0
X135.778 Y34.838 Z-13.3 I0.275 J0
X136.222 Y35.162 I0.222 J0.162
X135.778 Y34.838 I-0.222 J-0.162
G1 X135.808 Y34.808
X135.846 Y34.788
X135.889 Y34.782
X135.931 Y34.788
X135.97 Y34.808
X136.085 Y34.892
Z5
X135.995 Y34.862
Z1.715
Z0
X136.137
X136.18 Y34.869
X136.218 Y34.889
X136.249 Y34.919
X136.268 Y34.958
X136.275 Y35
G3 X135.725 Y35 Z-0.25 I-0.275 J0
X136.275 Y35 Z-0.5 I0.275 J0
X135.725 Y35 Z-0.75 I-0.275 J0
X136.275 Y35 Z-1 I0.275 J0
X135.725 Y35 Z-1.25 I-0.275 J0
X136.275 Y35 Z-1.5 I0.275 J0
X135.725 Y35 Z-1.75 I-0.275 J0
X136.275 Y35 Z-2 I0.275 J0
X135.725 Y35 Z-2.25 I-0.275 J0
X136.275 Y35 Z-2.5 I0.275 J0
X135.725 Y35 Z-2.75 I-0.275 J0
X136.275 Y35 Z-3 I0.275 J0
X135.725 Y35 Z-3.25 I-0.275 J0
X136.275 Y35 Z-3.5 I0.275 J0
X135.725 Y35 Z-3.75 I-0.275 J0
X136.275 Y35 Z-4 I0.275 J0
X135.725 Y35 Z-4.25 I-0.275 J0
X136.275 Y35 Z-4.5 I0.275 J0
X135.725 Y35 Z-4.75 I-0.275 J0
X136.275 Y35 Z-5 I0.275 J0
X135.725 Y35 Z-5.25 I-0.275 J0
X136.275 Y35 Z-5.5 I0.275 J0
X135.725 Y35 Z-5.75 I-0.275 J0
X136.275 Y35 Z-6 I0.275 J0
X135.725 Y35 Z-6.25 I-0.275 J0
X136.275 Y35 Z-6.5 I0.275 J0
X135.725 Y35 Z-6.75 I-0.275 J0
X136.275 Y35 Z-7 I0.275 J0
X135.725 Y35 Z-7.25 I-0.275 J0
X136.275 Y35 Z-7.5 I0.275 J0
X135.725 Y35 Z-7.75 I-0.275 J0
X136.275 Y35 Z-8 I0.275 J0
X135.725 Y35 Z-8.25 I-0.275 J0
X136.275 Y35 Z-8.5 I0.275 J0
X135.725 Y35 Z-8.75 I-0.275 J0
X136.275 Y35 Z-9 I0.275 J0
X135.725 Y35 Z-9.25 I-0.275 J0
X136.275 Y35 Z-9.5 I0.275 J0
X135.725 Y35 Z-9.75 I-0.275 J0
X136.275 Y35 Z-10 I0.275 J0
X135.725 Y35 Z-10.25 I-0.275 J0
X136.275 Y35 Z-10.5 I0.275 J0
X135.725 Y35 Z-10.75 I-0.275 J0
X136.275 Y35 Z-11 I0.275 J0
X135.725 Y35 Z-11.25 I-0.275 J0
X136.275 Y35 Z-11.5 I0.275 J0
X135.725 Y35 Z-11.75 I-0.275 J0
X136.275 Y35 Z-12 I0.275 J0
X135.725 Y35 Z-12.25 I-0.275 J0
X136.275 Y35 Z-12.5 I0.275 J0
X135.725 Y35 Z-12.75 I-0.275 J0
X136.275 Y35 Z-13 I0.275 J0
X135.725 Y35 Z-13.25 I-0.275 J0
X135.778 Y34.838 Z-13.3 I0.275 J0
X136.222 Y35.162 I0.222 J0.162
X135.778 Y34.838 I-0.222 J-0.162
G1 X135.808 Y34.808
X135.846 Y34.788
X135.889 Y34.782
X135.931 Y34.788
X135.97 Y34.808
X136.085 Y34.892
Z5
X91.945 Y34.912
Z1.715
Z0
X92.088
X92.121 Y34.919
X92.149 Y34.938
X92.168 Y34.967
X92.175 Y35
G3 X91.825 Y35 Z-0.25 I-0.175 J0
X92.175 Y35 Z-0.5 I0.175 J0
X91.825 Y35 Z-0.75 I-0.175 J0
X92.175 Y35 Z-1 I0.175 J0
X91.825 Y35 Z-1.25 I-0.175 J0
X92.175 Y35 Z-1.5 I0.175 J0
X91.825 Y35 Z-1.75 I-0.175 J0
X92.175 Y35 Z-2 I0.175 J0
X91.825 Y35 Z-2.25 I-0.175 J0
X92.175 Y35 Z-2.5 I0.175 J0
X91.825 Y35 Z-2.75 I-0.175 J0
X92.175 Y35 Z-3 I0.175 J0
X91.825 Y35 Z-3.25 I-0.175 J0
X92.175 Y35 Z-3.5 I0.175 J0
X91.825 Y35 Z-3.75 I-0.175 J0
X92.175 Y35 Z-4 I0.175 J0
X91.825 Y35 Z-4.25 I-0.175 J0
X92.175 Y35 Z-4.5 I0.175 J0
X91.825 Y35 Z-4.75 I-0.175 J0
X92.175 Y35 Z-5 I0.175 J0
X91.825 Y35 Z-5.25 I-0.175 J0
X92.175 Y35 Z-5.5 I0.175 J0
X91.825 Y35 Z-5.75 I-0.175 J0
X92.175 Y35 Z-6 I0.175 J0
X91.825 Y35 Z-6.25 I-0.175 J0
X92.175 Y35 Z-6.5 I0.175 J0
X91.825 Y35 Z-6.75 I-0.175 J0
X92.175 Y35 Z-7 I0.175 J0
X91.825 Y35 Z-7.25 I-0.175 J0
X92.175 Y35 Z-7.5 I0.175 J0
X91.825 Y35 Z-7.75 I-0.175 J0
X92.175 Y35 Z-8 I0.175 J0
X91.825 Y35 Z-8.25 I-0.175 J0
X92.175 Y35 Z-8.5 I0.175 J0
X91.825 Y35 Z-8.75 I-0.175 J0
X92.175 Y35 Z-9 I0.175 J0
X91.825 Y35 Z-9.25 I-0.175 J0
X92.175 Y35 Z-9.5 I0.175 J0
X91.825 Y35 Z-9.75 I-0.175 J0
X92.175 Y35 Z-10 I0.175 J0
X91.825 Y35 Z-10.25 I-0.175 J0
X92.175 Y35 Z-10.5 I0.175 J0
X91.825 Y35 Z-10.75 I-0.175 J0
X92.175 Y35 Z-11 I0.175 J0
X91.825 Y35 Z-11.25 I-0.175 J0
X92.175 Y35 Z-11.5 I0.175 J0
X91.825 Y35 Z-11.75 I-0.175 J0
X92.175 Y35 Z-12 I0.175 J0
X91.825 Y35 Z-12.25 I-0.175 J0
X92.175 Y35 Z-12.5 I0.175 J0
X91.825 Y35 Z-12.75 I-0.175 J0
X92.175 Y35 Z-13 I0.175 J0
X91.825 Y35 Z-13.25 I-0.175 J0
X91.858 Y34.897 Z-13.3 I0.175 J0
X92.142 Y35.103 I0.142 J0.103
X91.858 Y34.897 I-0.142 J-0.103
G1 X91.883 Y34.874
X91.916 Y34.862
X91.95 Y34.863
X91.981 Y34.878
X92.096 Y34.962
Z5
X91.995 Y34.862
Z1.715
Z0
X92.137
X92.18 Y34.869
X92.218 Y34.889
X92.249 Y34.919
X92.268 Y34.958
X92.275 Y35
G3 X91.725 Y35 Z-0.25 I-0.275 J0
X92.275 Y35 Z-0.5 I0.275 J0
X91.725 Y35 Z-0.75 I-0.275 J0
X92.275 Y35 Z-1 I0.275 J0
X91.725 Y35 Z-1.25 I-0.275 J0
X92.275 Y35 Z-1.5 I0.275 J0
X91.725 Y35 Z-1.75 I-0.275 J0
X92.275 Y35 Z-2 I0.275 J0
X91.725 Y35 Z-2.25 I-0.275 J0
X92.275 Y35 Z-2.5 I0.275 J0
X91.725 Y35 Z-2.75 I-0.275 J0
X92.275 Y35 Z-3 I0.275 J0
X91.725 Y35 Z-3.25 I-0.275 J0
X92.275 Y35 Z-3.5 I0.275 J0
X91.725 Y35 Z-3.75 I-0.275 J0
X92.275 Y35 Z-4 I0.275 J0
X91.725 Y35 Z-4.25 I-0.275 J0
X92.275 Y35 Z-4.5 I0.275 J0
X91.725 Y35 Z-4.75 I-0.275 J0
X92.275 Y35 Z-5 I0.275 J0
X91.725 Y35 Z-5.25 I-0.275 J0
X92.275 Y35 Z-5.5 I0.275 J0
X91.725 Y35 Z-5.75 I-0.275 J0
X92.275 Y35 Z-6 I0.275 J0
X91.725 Y35 Z-6.25 I-0.275 J0
X92.275 Y35 Z-6.5 I0.275 J0
X91.725 Y35 Z-6.75 I-0.275 J0
X92.275 Y35 Z-7 I0.275 J0
X91.725 Y35 Z-7.25 I-0.275 J0
X92.275 Y35 Z-7.5 I0.275 J0
X91.725 Y35 Z-7.75 I-0.275 J0
X92.275 Y35 Z-8 I0.275 J0
X91.725 Y35 Z-8.25 I-0.275 J0
X92.275 Y35 Z-8.5 I0.275 J0
X91.725 Y35 Z-8.75 I-0.275 J0
X92.275 Y35 Z-9 I0.275 J0
X91.725 Y35 Z-9.25 I-0.275 J0
X92.275 Y35 Z-9.5 I0.275 J0
X91.725 Y35 Z-9.75 I-0.275 J0
X92.275 Y35 Z-10 I0.275 J0
X91.725 Y35 Z-10.25 I-0.275 J0
X92.275 Y35 Z-10.5 I0.275 J0
X91.725 Y35 Z-10.75 I-0.275 J0
X92.275 Y35 Z-11 I0.275 J0
X91.725 Y35 Z-11.25 I-0.275 J0
X92.275 Y35 Z-11.5 I0.275 J0
X91.725 Y35 Z-11.75 I-0.275 J0
X92.275 Y35 Z-12 I0.275 J0
X91.725 Y35 Z-12.25 I-0.275 J0
X92.275 Y35 Z-12.5 I0.275 J0
X91.725 Y35 Z-12.75 I-0.275 J0
X92.275 Y35 Z-13 I0.275 J0
X91.725 Y35 Z-13.25 I-0.275 J0
X91.778 Y34.838 Z-13.3 I0.275 J0
X92.222 Y35.162 I0.222 J0.162
X91.778 Y34.838 I-0.222 J-0.162
G1 X91.808 Y34.808
X91.846 Y34.788
X91.889 Y34.782
X91.931 Y34.788
X91.97 Y34.808
X92.085 Y34.892
Z5
X91.995 Y34.862
Z1.715
Z0
X92.137
X92.18 Y34.869
X92.218 Y34.889
X92.249 Y34.919
X92.268 Y34.958
X92.275 Y35
G3 X91.725 Y35 Z-0.25 I-0.275 J0
X92.275 Y35 Z-0.5 I0.275 J0
X91.725 Y35 Z-0.75 I-0.275 J0
X92.275 Y35 Z-1 I0.275 J0
X91.725 Y35 Z-1.25 I-0.275 J0
X92.275 Y35 Z-1.5 I0.275 J0
X91.725 Y35 Z-1.75 I-0.275 J0
X92.275 Y35 Z-2 I0.275 J0
X91.725 Y35 Z-2.25 I-0.275 J0
X92.275 Y35 Z-2.5 I0.275 J0
X91.725 Y35 Z-2.75 I-0.275 J0
X92.275 Y35 Z-3 I0.275 J0
X91.725 Y35 Z-3.25 I-0.275 J0
X92.275 Y35 Z-3.5 I0.275 J0
X91.725 Y35 Z-3.75 I-0.275 J0
X92.275 Y35 Z-4 I0.275 J0
X91.725 Y35 Z-4.25 I-0.275 J0
X92.275 Y35 Z-4.5 I0.275 J0
X91.725 Y35 Z-4.75 I-0.275 J0
X92.275 Y35 Z-5 I0.275 J0
X91.725 Y35 Z-5.25 I-0.275 J0
X92.275 Y35 Z-5.5 I0.275 J0
X91.725 Y35 Z-5.75 I-0.275 J0
X92.275 Y35 Z-6 I0.275 J0
X91.725 Y35 Z-6.25 I-0.275 J0
X92.275 Y35 Z-6.5 I0.275 J0
X91.725 Y35 Z-6.75 I-0.275 J0
X92.275 Y35 Z-7 I0.275 J0
X91.725 Y35 Z-7.25 I-0.275 J0
X92.275 Y35 Z-7.5 I0.275 J0
X91.725 Y35 Z-7.75 I-0.275 J0
X92.275 Y35 Z-8 I0.275 J0
X91.725 Y35 Z-8.25 I-0.275 J0
X92.275 Y35 Z-8.5 I0.275 J0
X91.725 Y35 Z-8.75 I-0.275 J0
X92.275 Y35 Z-9 I0.275 J0
X91.725 Y35 Z-9.25 I-0.275 J0
X92.275 Y35 Z-9.5 I0.275 J0
X91.725 Y35 Z-9.75 I-0.275 J0
X92.275 Y35 Z-10 I0.275 J0
X91.725 Y35 Z-10.25 I-0.275 J0
X92.275 Y35 Z-10.5 I0.275 J0
X91.725 Y35 Z-10.75 I-0.275 J0
X92.275 Y35 Z-11 I0.275 J0
X91.725 Y35 Z-11.25 I-0.275 J0
X92.275 Y35 Z-11.5 I0.275 J0
X91.725 Y35 Z-11.75 I-0.275 J0
X92.275 Y35 Z-12 I0.275 J0
X91.725 Y35 Z-12.25 I-0.275 J0
X92.275 Y35 Z-12.5 I0.275 J0
X91.725 Y35 Z-12.75 I-0.275 J0
X92.275 Y35 Z-13 I0.275 J0
X91.725 Y35 Z-13.25 I-0.275 J0
X91.778 Y34.838 Z-13.3 I0.275 J0
X92.222 Y35.162 I0.222 J0.162
X91.778 Y34.838 I-0.222 J-0.162
G1 X91.808 Y34.808
X91.846 Y34.788
X91.889 Y34.782
X91.931 Y34.788
X91.97 Y34.808
X92.085 Y34.892
Z5
X73.945 Y34.912
Z1.715
Z0
X74.088
X74.121 Y34.919
X74.149 Y34.938
X74.168 Y34.967
X74.175 Y35
G3 X73.825 Y35 Z-0.25 I-0.175 J0
X74.175 Y35 Z-0.5 I0.175 J0
X73.825 Y35 Z-0.75 I-0.175 J0
X74.175 Y35 Z-1 I0.175 J0
X73.825 Y35 Z-1.25 I-0.175 J0
X74.175 Y35 Z-1.5 I0.175 J0
X73.825 Y35 Z-1.75 I-0.175 J0
X74.175 Y35 Z-2 I0.175 J0
X73.825 Y35 Z-2.25 I-0.175 J0
X74.175 Y35 Z-2.5 I0.175 J0
X73.825 Y35 Z-2.75 I-0.175 J0
X74.175 Y35 Z-3 I0.175 J0
X73.825 Y35 Z-3.25 I-0.175 J0
X74.175 Y35 Z-3.5 I0.175 J0
X73.825 Y35 Z-3.75 I-0.175 J0
X74.175 Y35 Z-4 I0.175 J0
X73.825 Y35 Z-4.25 I-0.175 J0
X74.175 Y35 Z-4.5 I0.175 J0
X73.825 Y35 Z-4.75 I-0.175 J0
X74.175 Y35 Z-5 I0.175 J0
X73.825 Y35 Z-5.25 I-0.175 J0
X74.175 Y35 Z-5.5 I0.175 J0
X73.825 Y35 Z-5.75 I-0.175 J0
X74.175 Y35 Z-6 I0.175 J0
X73.825 Y35 Z-6.25 I-0.175 J0
X74.175 Y35 Z-6.5 I0.175 J0
X73.825 Y35 Z-6.75 I-0.175 J0
X74.175 Y35 Z-7 I0.175 J0
X73.825 Y35 Z-7.25 I-0.175 J0
X74.175 Y35 Z-7.5 I0.175 J0
X73.825 Y35 Z-7.75 I-0.175 J0
X74.175 Y35 Z-8 I0.175 J0
X73.825 Y35 Z-8.25 I-0.175 J0
X74.175 Y35 Z-8.5 I0.175 J0
X73.825 Y35 Z-8.75 I-0.175 J0
X74.175 Y35 Z-9 I0.175 J0
X73.825 Y35 Z-9.25 I-0.175 J0
X74.175 Y35 Z-9.5 I0.175 J0
X73.825 Y35 Z-9.75 I-0.175 J0
X74.175 Y35 Z-10 I0.175 J0
X73.825 Y35 Z-10.25 I-0.175 J0
X74.175 Y35 Z-10.5 I0.175 J0
X73.825 Y35 Z-10.75 I-0.175 J0
X74.175 Y35 Z-11 I0.175 J0
X73.825 Y35 Z-11.25 I-0.175 J0
X74.175 Y35 Z-11.5 I0.175 J0
X73.825 Y35 Z-11.75 I-0.175 J0
X74.175 Y35 Z-12 I0.175 J0
X73.825 Y35 Z-12.25 I-0.175 J0
X74.175 Y35 Z-12.5 I0.175 J0
X73.825 Y35 Z-12.75 I-0.175 J0
X74.175 Y35 Z-13 I0.175 J0
X73.825 Y35 Z-13.25 I-0.175 J0
X73.858 Y34.897 Z-13.3 I0.175 J0
X74.142 Y35.103 I0.142 J0.103
X73.858 Y34.897 I-0.142 J-0.103
G1 X73.883 Y34.874
X73.916 Y34.862
X73.95 Y34.863
X73.981 Y34.878
X74.096 Y34.962
Z5
X73.995 Y34.862
Z1.715
Z0
X74.137
X74.18 Y34.869
X74.218 Y34.889
X74.249 Y34.919
X74.268 Y34.958
X74.275 Y35
G3 X73.725 Y35 Z-0.25 I-0.275 J0
X74.275 Y35 Z-0.5 I0.275 J0
X73.725 Y35 Z-0.75 I-0.275 J0
X74.275 Y35 Z-1 I0.275 J0
X73.725 Y35 Z-1.25 I-0.275 J0
X74.275 Y35 Z-1.5 I0.275 J0
X73.725 Y35 Z-1.75 I-0.275 J0
X74.275 Y35 Z-2 I0.275 J0
X73.725 Y35 Z-2.25 I-0.275 J0
X74.275 Y35 Z-2.5 I0.275 J0
X73.725 Y35 Z-2.75 I-0.275 J0
X74.275 Y35 Z-3 I0.275 J0
X73.725 Y35 Z-3.25 I-0.275 J0
X74.275 Y35 Z-3.5 I0.275 J0
X73.725 Y35 Z-3.75 I-0.275 J0
X74.275 Y35 Z-4 I0.275 J0
X73.725 Y35 Z-4.25 I-0.275 J0
X74.275 Y35 Z-4.5 I0.275 J0
X73.725 Y35 Z-4.75 I-0.275 J0
X74.275 Y35 Z-5 I0.275 J0
X73.725 Y35 Z-5.25 I-0.275 J0
X74.275 Y35 Z-5.5 I0.275 J0
X73.725 Y35 Z-5.75 I-0.275 J0
X74.275 Y35 Z-6 I0.275 J0
X73.725 Y35 Z-6.25 I-0.275 J0
X74.275 Y35 Z-6.5 I0.275 J0
X73.725 Y35 Z-6.75 I-0.275 J0
X74.275 Y35 Z-7 I0.275 J0
X73.725 Y35 Z-7.25 I-0.275 J0
X74.275 Y35 Z-7.5 I0.275 J0
X73.725 Y35 Z-7.75 I-0.275 J0
X74.275 Y35 Z-8 I0.275 J0
X73.725 Y35 Z-8.25 I-0.275 J0
X74.275 Y35 Z-8.5 I0.275 J0
X73.725 Y35 Z-8.75 I-0.275 J0
X74.275 Y35 Z-9 I0.275 J0
X73.725 Y35 Z-9.25 I-0.275 J0
X74.275 Y35 Z-9.5 I0.275 J0
X73.725 Y35 Z-9.75 I-0.275 J0
X74.275 Y35 Z-10 I0.275 J0
X73.725 Y35 Z-10.25 I-0.275 J0
X74.275 Y35 Z-10.5 I0.275 J0
X73.725 Y35 Z-10.75 I-0.275 J0
X74.275 Y35 Z-11 I0.275 J0
X73.725 Y35 Z-11.25 I-0.275 J0
X74.275 Y35 Z-11.5 I0.275 J0
X73.725 Y35 Z-11.75 I-0.275 J0
X74.275 Y35 Z-12 I0.275 J0
X73.725 Y35 Z-12.25 I-0.275 J0
X74.275 Y35 Z-12.5 I0.275 J0
X73.725 Y35 Z-12.75 I-0.275 J0
X74.275 Y35 Z-13 I0.275 J0
X73.725 Y35 Z-13.25 I-0.275 J0
X73.778 Y34.838 Z-13.3 I0.275 J0
X74.222 Y35.162 I0.222 J0.162
X73.778 Y34.838 I-0.222 J-0.162
G1 X73.808 Y34.808
X73.846 Y34.788
X73.889 Y34.782
X73.931 Y34.788
X73.97 Y34.808
X74.085 Y34.892
Z5
X73.995 Y34.862
Z1.715
Z0
X74.137
X74.18 Y34.869
X74.218 Y34.889
X74.249 Y34.919
X74.268 Y34.958
X74.275 Y35
G3 X73.725 Y35 Z-0.25 I-0.275 J0
X74.275 Y35 Z-0.5 I0.275 J0
X73.725 Y35 Z-0.75 I-0.275 J0
X74.275 Y35 Z-1 I0.275 J0
X73.725 Y35 Z-1.25 I-0.275 J0
X74.275 Y35 Z-1.5 I0.275 J0
X73.725 Y35 Z-1.75 I-0.275 J0
X74.275 Y35 Z-2 I0.275 J0
X73.725 Y35 Z-2.25 I-0.275 J0
X74.275 Y35 Z-2.5 I0.275 J0
X73.725 Y35 Z-2.75 I-0.275 J0
X74.275 Y35 Z-3 I0.275 J0
X73.725 Y35 Z-3.25 I-0.275 J0
X74.275 Y35 Z-3.5 I0.275 J0
X73.725 Y35 Z-3.75 I-0.275 J0
X74.275 Y35 Z-4 I0.275 J0
X73.725 Y35 Z-4.25 I-0.275 J0
X74.275 Y35 Z-4.5 I0.275 J0
X73.725 Y35 Z-4.75 I-0.275 J0
X74.275 Y35 Z-5 I0.275 J0
X73.725 Y35 Z-5.25 I-0.275 J0
X74.275 Y35 Z-5.5 I0.275 J0
X73.725 Y35 Z-5.75 I-0.275 J0
X74.275 Y35 Z-6 I0.275 J0
X73.725 Y35 Z-6.25 I-0.275 J0
X74.275 Y35 Z-6.5 I0.275 J0
X73.725 Y35 Z-6.75 I-0.275 J0
X74.275 Y35 Z-7 I0.275 J0
X73.725 Y35 Z-7.25 I-0.275 J0
X74.275 Y35 Z-7.5 I0.275 J0
X73.725 Y35 Z-7.75 I-0.275 J0
X74.275 Y35 Z-8 I0.275 J0
X73.725 Y35 Z-8.25 I-0.275 J0
X74.275 Y35 Z-8.5 I0.275 J0
X73.725 Y35 Z-8.75 I-0.275 J0
X74.275 Y35 Z-9 I0.275 J0
X73.725 Y35 Z-9.25 I-0.275 J0
X74.275 Y35 Z-9.5 I0.275 J0
X73.725 Y35 Z-9.75 I-0.275 J0
X74.275 Y35 Z-10 I0.275 J0
X73.725 Y35 Z-10.25 I-0.275 J0
X74.275 Y35 Z-10.5 I0.275 J0
X73.725 Y35 Z-10.75 I-0.275 J0
X74.275 Y35 Z-11 I0.275 J0
X73.725 Y35 Z-11.25 I-0.275 J0
X74.275 Y35 Z-11.5 I0.275 J0
X73.725 Y35 Z-11.75 I-0.275 J0
X74.275 Y35 Z-12 I0.275 J0
X73.725 Y35 Z-12.25 I-0.275 J0
X74.275 Y35 Z-12.5 I0.275 J0
X73.725 Y35 Z-12.75 I-0.275 J0
X74.275 Y35 Z-13 I0.275 J0
X73.725 Y35 Z-13.25 I-0.275 J0
X73.778 Y34.838 Z-13.3 I0.275 J0
X74.222 Y35.162 I0.222 J0.162
X73.778 Y34.838 I-0.222 J-0.162
G1 X73.808 Y34.808
X73.846 Y34.788
X73.889 Y34.782
X73.931 Y34.788
X73.97 Y34.808
X74.085 Y34.892
Z5
X14.663 Y34.715
Z-3.95
Z-5.665
G18 G2 X14.948 Z-5.95 I0.285 K0
G1 X15.09
G17 G3 X15.375 Y35 I0 J0.285
X12.625 Y35 Z-6.2 I-1.375 J0
X15.375 Y35 Z-6.45 I1.375 J0
X12.625 Y35 Z-6.7 I-1.375 J0
X15.375 Y35 Z-6.95 I1.375 J0
X12.625 Y35 Z-7.2 I-1.375 J0
X15.375 Y35 Z-7.45 I1.375 J0
X12.625 Y35 Z-7.7 I-1.375 J0
X15.375 Y35 Z-7.95 I1.375 J0
X12.625 Y35 Z-8.2 I-1.375 J0
X15.375 Y35 Z-8.45 I1.375 J0
X12.625 Y35 Z-8.7 I-1.375 J0
X15.375 Y35 Z-8.95 I1.375 J0
X12.625 Y35 Z-9.2 I-1.375 J0
X15.375 Y35 Z-9.45 I1.375 J0
X12.625 Y35 Z-9.7 I-1.375 J0
X15.375 Y35 Z-9.95 I1.375 J0
X12.625 Y35 Z-10.2 I-1.375 J0
X15.375 Y35 Z-10.45 I1.375 J0
X12.625 Y35 Z-10.7 I-1.375 J0
X15.375 Y35 Z-10.95 I1.375 J0
X12.625 Y35 Z-11.2 I-1.375 J0
X15.375 Y35 Z-11.45 I1.375 J0
X12.625 Y35 Z-11.7 I-1.375 J0
X15.375 Y35 Z-11.95 I1.375 J0
X12.625 Y35 Z-12.2 I-1.375 J0
X15.375 Y35 Z-12.45 I1.375 J0
X12.625 Y35 Z-12.7 I-1.375 J0
X15.375 Y35 Z-12.95 I1.375 J0
X12.625 Y35 Z-13.2 I-1.375 J0
X13.575 Y33.692 Z-13.3 I1.375 J0
X14.425 Y36.308 I0.425 J1.308
X13.575 Y33.692 I-0.425 J-1.308
X13.934 Y33.875 I0.088 J0.271
G1 X13.978 Y34.011
X13.998 Y34.071 Z-13.293
X14.016 Y34.128 Z-13.272
X14.033 Y34.18 Z-13.238
X14.047 Y34.223 Z-13.193
X14.058 Y34.255 Z-13.139
X14.064 Y34.275 Z-13.078
X14.066 Y34.282 Z-13.015
Z5
X14.762 Y34.715
Z-3.95
Z-5.665
G18 G2 X15.047 Z-5.95 I0.285 K0
G1 X15.19
G17 G3 X15.475 Y35 I0 J0.285
X12.525 Y35 Z-6.2 I-1.475 J0
X15.475 Y35 Z-6.45 I1.475 J0
X12.525 Y35 Z-6.7 I-1.475 J0
X15.475 Y35 Z-6.95 I1.475 J0
X12.525 Y35 Z-7.2 I-1.475 J0
X15.475 Y35 Z-7.45 I1.475 J0
X12.525 Y35 Z-7.7 I-1.475 J0
X15.475 Y35 Z-7.95 I1.475 J0
X12.525 Y35 Z-8.2 I-1.475 J0
X15.475 Y35 Z-8.45 I1.475 J0
X12.525 Y35 Z-8.7 I-1.475 J0
X15.475 Y35 Z-8.95 I1.475 J0
X12.525 Y35 Z-9.2 I-1.475 J0
X15.475 Y35 Z-9.45 I1.475 J0
X12.525 Y35 Z-9.7 I-1.475 J0
X15.475 Y35 Z-9.95 I1.475 J0
X12.525 Y35 Z-10.2 I-1.475 J0
X15.475 Y35 Z-10.45 I1.475 J0
X12.525 Y35 Z-10.7 I-1.475 J0
X15.475 Y35 Z-10.95 I1.475 J0
X12.525 Y35 Z-11.2 I-1.475 J0
X15.475 Y35 Z-11.45 I1.475 J0
X12.525 Y35 Z-11.7 I-1.475 J0
X15.475 Y35 Z-11.95 I1.475 J0
X12.525 Y35 Z-12.2 I-1.475 J0
X15.475 Y35 Z-12.45 I1.475 J0
X12.525 Y35 Z-12.7 I-1.475 J0
X15.475 Y35 Z-12.95 I1.475 J0
X12.525 Y35 Z-13.2 I-1.475 J0
X13.544 Y33.597 Z-13.3 I1.475 J0
X14.456 Y36.403 I0.456 J1.403
X13.544 Y33.597 I-0.456 J-1.403
X13.903 Y33.78 I0.088 J0.271
G1 X13.947 Y33.916
X13.967 Y33.976 Z-13.293
X13.986 Y34.033 Z-13.272
X14.002 Y34.085 Z-13.238
X14.016 Y34.128 Z-13.193
X14.027 Y34.16 Z-13.139
X14.033 Y34.18 Z-13.078
X14.035 Y34.187 Z-13.015
Z5
X14.762 Y34.715
Z-3.95
Z-5.665
G18 G2 X15.047 Z-5.95 I0.285 K0
G1 X15.19
G17 G3 X15.475 Y35 I0 J0.285
X12.525 Y35 Z-6.2 I-1.475 J0
X15.475 Y35 Z-6.45 I1.475 J0
X12.525 Y35 Z-6.7 I-1.475 J0
X15.475 Y35 Z-6.95 I1.475 J0
X12.525 Y35 Z-7.2 I-1.475 J0
X15.475 Y35 Z-7.45 I1.475 J0
X12.525 Y35 Z-7.7 I-1.475 J0
X15.475 Y35 Z-7.95 I1.475 J0
X12.525 Y35 Z-8.2 I-1.475 J0
X15.475 Y35 Z-8.45 I1.475 J0
X12.525 Y35 Z-8.7 I-1.475 J0
X15.475 Y35 Z-8.95 I1.475 J0
X12.525 Y35 Z-9.2 I-1.475 J0
X15.475 Y35 Z-9.45 I1.475 J0
X12.525 Y35 Z-9.7 I-1.475 J0
X15.475 Y35 Z-9.95 I1.475 J0
X12.525 Y35 Z-10.2 I-1.475 J0
X15.475 Y35 Z-10.45 I1.475 J0
X12.525 Y35 Z-10.7 I-1.475 J0
X15.475 Y35 Z-10.95 I1.475 J0
X12.525 Y35 Z-11.2 I-1.475 J0
X15.475 Y35 Z-11.45 I1.475 J0
X12.525 Y35 Z-11.7 I-1.475 J0
X15.475 Y35 Z-11.95 I1.475 J0
X12.525 Y35 Z-12.2 I-1.475 J0
X15.475 Y35 Z-12.45 I1.475 J0
X12.525 Y35 Z-12.7 I-1.475 J0
X15.475 Y35 Z-12.95 I1.475 J0
X12.525 Y35 Z-13.2 I-1.475 J0
X13.544 Y33.597 Z-13.3 I1.475 J0
X14.456 Y36.403 I0.456 J1.403
X13.544 Y33.597 I-0.456 J-1.403
X13.903 Y33.78 I0.088 J0.271
G1 X13.947 Y33.916
X13.967 Y33.976 Z-13.293
X13.986 Y34.033 Z-13.272
X14.002 Y34.085 Z-13.238
X14.016 Y34.128 Z-13.193
X14.027 Y34.16 Z-13.139
X14.033 Y34.18 Z-13.078
X14.035 Y34.187 Z-13.015
Z10
(When using Fusion 360 for Personal Use, the feedrate of)
(rapid moves is reduced to match the feedrate of cutting)
(moves, which can increase machining time. Unrestricted rapid)
(moves are available with a Fusion 360 Subscription.)

(2D Contour both)
G0 X151.361 Y62.625
G1 Z10 F1000
Z5
Z2.02 F333.3
Z-0.946
X161.5 F500
G2 X163.125 Y61 I0 J-1.625
G1 Y60.425
X164.875
Y61
G2 X166.5 Y62.625 I1.625 J0
G1 X176.975
Y63.025
X151.025
Y62.625
X151.361
Z-1.892 F333.3
X161.5 F500
G2 X163.125 Y61 I0 J-1.625
G1 Y60.425
X164.875
Y61
G2 X166.5 Y62.625 I1.625 J0
G1 X176.975
Y63.025
X151.025
Y62.625
X151.361
Z-2.838 F333.3
X161.5 F500
G2 X163.125 Y61 I0 J-1.625
G1 Y60.425
X164.875
Y61
G2 X166.5 Y62.625 I1.625 J0
G1 X176.975
Y63.025
X151.025
Y62.625
X151.361
Z-3.785 F333.3
X161.5 F500
G2 X163.125 Y61 I0 J-1.625
G1 Y60.425
X164.875
Y61
G2 X166.5 Y62.625 I1.625 J0
G1 X176.975
Y63.025
X151.025
Y62.625
X151.361
Z-4.731 F333.3
X161.5 F500
G2 X163.125 Y61 I0 J-1.625
G1 Y60.425
X164.875
Y61
G2 X166.5 Y62.625 I1.625 J0
G1 X176.975
Y63.025
X151.025
Y62.625
X151.361
Z-5.677 F333.3
X161.5 F500
G2 X163.125 Y61 I0 J-1.625
G1 Y60.425
X164.875
Y61
G2 X166.5 Y62.625 I1.625 J0
G1 X176.975
Y63.025
X151.025
Y62.625
X151.361
Z-6.623 F333.3
X161.5 F500
G2 X163.125 Y61 I0 J-1.625
G1 Y60.425
X164.875
Y61
G2 X166.5 Y62.625 I1.625 J0
G1 X176.975
Y63.025
X151.025
Y62.625
X151.361
Z-7.569 F333.3
X161.5 F500
G2 X163.125 Y61 I0 J-1.625
G1 Y60.425
X164.875
Y61
G2 X166.5 Y62.625 I1.625 J0
G1 X176.975
Y63.025
X151.025
Y62.625
X151.361
Z-8.515 F333.3
X161.5 F500
G2 X163.125 Y61 I0 J-1.625
G1 Y60.425
X164.875
Y61
G2 X166.5 Y62.625 I1.625 J0
G1 X176.975
Y63.025
X151.025
Y62.625
X151.361
Z-9.462 F333.3
X161.5 F500
G2 X163.125 Y61 I0 J-1.625
G1 Y60.425
X164.875
Y61
G2 X166.5 Y62.625 I1.625 J0
G1 X176.975
Y63.025
X151.025
Y62.625
X151.361
Z-10.408 F333.3
X161.5 F500
G2 X163.125 Y61 I0 J-1.625
G1 Y60.425
X164.875
Y61
G2 X166.5 Y62.625 I1.625 J0
G1 X176.975
Y63.025
X151.025
Y62.625
X151.361
Z-11.354 F333.3
X161.5 F500
G2 X163.125 Y61 I0 J-1.625
G1 Y60.425
X164.875
Y61
G2 X166.5 Y62.625 I1.625 J0
G1 X176.975
Y63.025
X151.025
Y62.625
X151.361
Z-12.3 F333.3
X161.5 F1000
G2 X163.125 Y61 I0 J-1.625
G1 Y60.425
X164.875
Y61
G2 X166.5 Y62.625 I1.625 J0
G1 X176.975
Y63.025
X151.025
Y62.625
X151.361
X151.408 Y62.618
X151.451 Y62.598
X151.486 Y62.566
X151.511 Y62.525
X151.535 Y62.484
X151.57 Y62.452
X151.613 Y62.432
X151.661 Y62.425
X161.5 F500
G2 X162.925 Y61 I0 J-1.425
G1 Y60.225
X165.075
Y61
G2 X166.5 Y62.425 I1.425 J0
G1 X177.175
Y63.225
X150.825
Y62.425
X151.661
Z5 F1000
X151.361 Y6.975
Z2.02 F333.3
Z-0.946
X176.975 F500
Y7.375
X166.5
G2 X164.875 Y9 I0 J1.625
G1 Y9.575
X163.125
Y9
G2 X161.5 Y7.375 I-1.625 J0
G1 X151.025
Y6.975
X151.361
Z-1.892 F333.3
X176.975 F500
Y7.375
X166.5
G2 X164.875 Y9 I0 J1.625
G1 Y9.575
X163.125
Y9
G2 X161.5 Y7.375 I-1.625 J0
G1 X151.025
Y6.975
X151.361
Z-2.838 F333.3
X176.975 F500
Y7.375
X166.5
G2 X164.875 Y9 I0 J1.625
G1 Y9.575
X163.125
Y9
G2 X161.5 Y7.375 I-1.625 J0
G1 X151.025
Y6.975
X151.361
Z-3.785 F333.3
X176.975 F500
Y7.375
X166.5
G2 X164.875 Y9 I0 J1.625
G1 Y9.575
X163.125
Y9
G2 X161.5 Y7.375 I-1.625 J0
G1 X151.025
Y6.975
X151.361
Z-4.731 F333.3
X176.975 F500
Y7.375
X166.5
G2 X164.875 Y9 I0 J1.625
G1 Y9.575
X163.125
Y9
G2 X161.5 Y7.375 I-1.625 J0
G1 X151.025
Y6.975
X151.361
Z-5.677 F333.3
X176.975 F500
Y7.375
X166.5
G2 X164.875 Y9 I0 J1.625
G1 Y9.575
X163.125
Y9
G2 X161.5 Y7.375 I-1.625 J0
G1 X151.025
Y6.975
X151.361
Z-6.623 F333.3
X176.975 F500
Y7.375
X166.5
G2 X164.875 Y9 I0 J1.625
G1 Y9.575
X163.125
Y9
G2 X161.5 Y7.375 I-1.625 J0
G1 X151.025
Y6.975
X151.361
Z-7.569 F333.3
X176.975 F500
Y7.375
X166.5
G2 X164.875 Y9 I0 J1.625
G1 Y9.575
X163.125
Y9
G2 X161.5 Y7.375 I-1.625 J0
G1 X151.025
Y6.975
X151.361
Z-8.515 F333.3
X176.975 F500
Y7.375
X166.5
G2 X164.875 Y9 I0 J1.625
G1 Y9.575
X163.125
Y9
G2 X161.5 Y7.375 I-1.625 J0
G1 X151.025
Y6.975
X151.361
Z-9.462 F333.3
X176.975 F500
Y7.375
X166.5
G2 X164.875 Y9 I0 J1.625
G1 Y9.575
X163.125
Y9
G2 X161.5 Y7.375 I-1.625 J0
G1 X151.025
Y6.975
X151.361
Z-10.408 F333.3
X176.975 F500
Y7.375
X166.5
G2 X164.875 Y9 I0 J1.625
G1 Y9.575
X163.125
Y9
G2 X161.5 Y7.375 I-1.625 J0
G1 X151.025
Y6.975
X151.361
Z-11.354 F333.3
X176.975 F500
Y7.375
X166.5
G2 X164.875 Y9 I0 J1.625
G1 Y9.575
X163.125
Y9
G2 X161.5 Y7.375 I-1.625 J0
G1 X151.025
Y6.975
X151.361
Z-12.3 F333.3
X176.975 F1000
Y7.375
X166.5
G2 X164.875 Y9 I0 J1.625
G1 Y9.575
X163.125
Y9
G2 X161.5 Y7.375 I-1.625 J0
G1 X151.025
Y6.975
X151.361
X151.408 Y6.968
X151.451 Y6.948
X151.486 Y6.916
X151.511 Y6.875
X151.535 Y6.834
X151.57 Y6.802
X151.613 Y6.782
X151.661 Y6.775
X177.175 F500
Y7.575
X166.5
G2 X165.075 Y9 I0 J1.425
G1 Y9.775
X162.925
Y9
G2 X161.5 Y7.575 I-1.425 J0
G1 X150.825
Y6.775
X151.661
Z5 F1000
X51.361 Y6.975
Z2.02 F333.3
Z-0.946
X76.975 F500
Y7.375
X66.5
G2 X64.875 Y9 I0 J1.625
G1 Y9.575
X63.125
Y9
G2 X61.5 Y7.375 I-1.625 J0
G1 X51.025
Y6.975
X51.361
Z-1.892 F333.3
X76.975 F500
Y7.375
X66.5
G2 X64.875 Y9 I0 J1.625
G1 Y9.575
X63.125
Y9
G2 X61.5 Y7.375 I-1.625 J0
G1 X51.025
Y6.975
X51.361
Z-2.838 F333.3
X76.975 F500
Y7.375
X66.5
G2 X64.875 Y9 I0 J1.625
G1 Y9.575
X63.125
Y9
G2 X61.5 Y7.375 I-1.625 J0
G1 X51.025
Y6.975
X51.361
Z-3.785 F333.3
X76.975 F500
Y7.375
X66.5
G2 X64.875 Y9 I0 J1.625
G1 Y9.575
X63.125
Y9
G2 X61.5 Y7.375 I-1.625 J0
G1 X51.025
Y6.975
X51.361
Z-4.731 F333.3
X76.975 F500
Y7.375
X66.5
G2 X64.875 Y9 I0 J1.625
G1 Y9.575
X63.125
Y9
G2 X61.5 Y7.375 I-1.625 J0
G1 X51.025
Y6.975
X51.361
Z-5.677 F333.3
X76.975 F500
Y7.375
X66.5
G2 X64.875 Y9 I0 J1.625
G1 Y9.575
X63.125
Y9
G2 X61.5 Y7.375 I-1.625 J0
G1 X51.025
Y6.975
X51.361
Z-6.623 F333.3
X76.975 F500
Y7.375
X66.5
G2 X64.875 Y9 I0 J1.625
G1 Y9.575
X63.125
Y9
G2 X61.5 Y7.375 I-1.625 J0
G1 X51.025
Y6.975
X51.361
Z-7.569 F333.3
X76.975 F500
Y7.375
X66.5
G2 X64.875 Y9 I0 J1.625
G1 Y9.575
X63.125
Y9
G2 X61.5 Y7.375 I-1.625 J0
G1 X51.025
Y6.975
X51.361
Z-8.515 F333.3
X76.975 F500
Y7.375
X66.5
G2 X64.875 Y9 I0 J1.625
G1 Y9.575
X63.125
Y9
G2 X61.5 Y7.375 I-1.625 J0
G1 X51.025
Y6.975
X51.361
Z-9.462 F333.3
X76.975 F500
Y7.375
X66.5
G2 X64.875 Y9 I0 J1.625
G1 Y9.575
X63.125
Y9
G2 X61.5 Y7.375 I-1.625 J0
G1 X51.025
Y6.975
X51.361
Z-10.408 F333.3
X76.975 F500
Y7.375
X66.5
G2 X64.875 Y9 I0 J1.625
G1 Y9.575
X63.125
Y9
G2 X61.5 Y7.375 I-1.625 J0
G1 X51.025
Y6.975
X51.361
Z-11.354 F333.3
X76.975 F500
Y7.375
X66.5
G2 X64.875 Y9 I0 J1.625
G1 Y9.575
X63.125
Y9
G2 X61.5 Y7.375 I-1.625 J0
G1 X51.025
Y6.975
X51.361
Z-12.3 F333.3
X76.975 F1000
Y7.375
X66.5
G2 X64.875 Y9 I0 J1.625
G1 Y9.575
X63.125
Y9
G2 X61.5 Y7.375 I-1.625 J0
G1 X51.025
Y6.975
X51.361
X51.408 Y6.968
X51.451 Y6.948
X51.486 Y6.916
X51.511 Y6.875
X51.535 Y6.834
X51.57 Y6.802
X51.613 Y6.782
X51.661 Y6.775
X77.175 F500
Y7.575
X66.5
G2 X65.075 Y9 I0 J1.425
G1 Y9.775
X62.925
Y9
G2 X61.5 Y7.575 I-1.425 J0
G1 X50.825
Y6.775
X51.661
Z5 F1000
X51.361 Y62.625
Z2.02 F333.3
Z-0.946
X61.5 F500
G2 X63.125 Y61 I0 J-1.625
G1 Y60.425
X64.875
Y61
G2 X66.5 Y62.625 I1.625 J0
G1 X76.975
Y63.025
X51.025
Y62.625
X51.361
Z-1.892 F333.3
X61.5 F500
G2 X63.125 Y61 I0 J-1.625
G1 Y60.425
X64.875
Y61
G2 X66.5 Y62.625 I1.625 J0
G1 X76.975
Y63.025
X51.025
Y62.625
X51.361
Z-2.838 F333.3
X61.5 F500
G2 X63.125 Y61 I0 J-1.625
G1 Y60.425
X64.875
Y61
G2 X66.5 Y62.625 I1.625 J0
G1 X76.975
Y63.025
X51.025
Y62.625
X51.361
Z-3.785 F333.3
X61.5 F500
G2 X63.125 Y61 I0 J-1.625
G1 Y60.425
X64.875
Y61
G2 X66.5 Y62.625 I1.625 J0
G1 X76.975
Y63.025
X51.025
Y62.625
X51.361
Z-4.731 F333.3
X61.5 F500
G2 X63.125 Y61 I0 J-1.625
G1 Y60.425
X64.875
Y61
G2 X66.5 Y62.625 I1.625 J0
G1 X76.975
Y63.025
X51.025
Y62.625
X51.361
Z-5.677 F333.3
X61.5 F500
G2 X63.125 Y61 I0 J-1.625
G1 Y60.425
X64.875
Y61
G2 X66.5 Y62.625 I1.625 J0
G1 X76.975
Y63.025
X51.025
Y62.625
X51.361
Z-6.623 F333.3
X61.5 F500
G2 X63.125 Y61 I0 J-1.625
G1 Y60.425
X64.875
Y61
G2 X66.5 Y62.625 I1.625 J0
G1 X76.975
Y63.025
X51.025
Y62.625
X51.361
Z-7.569 F333.3
X61.5 F500
G2 X63.125 Y61 I0 J-1.625
G1 Y60.425
X64.875
Y61
G2 X66.5 Y62.625 I1.625 J0
G1 X76.975
Y63.025
X51.025
Y62.625
X51.361
Z-8.515 F333.3
X61.5 F500
G2 X63.125 Y61 I0 J-1.625
G1 Y60.425
X64.875
Y61
G2 X66.5 Y62.625 I1.625 J0
G1 X76.975
Y63.025
X51.025
Y62.625
X51.361
Z-9.462 F333.3
X61.5 F500
G2 X63.125 Y61 I0 J-1.625
G1 Y60.425
X64.875
Y61
G2 X66.5 Y62.625 I1.625 J0
G1 X76.975
Y63.025
X51.025
Y62.625
X51.361
Z-10.408 F333.3
X61.5 F500
G2 X63.125 Y61 I0 J-1.625
G1 Y60.425
X64.875
Y61
G2 X66.5 Y62.625 I1.625 J0
G1 X76.975
Y63.025
X51.025
Y62.625
X51.361
Z-11.354 F333.3
X61.5 F500
G2 X63.125 Y61 I0 J-1.625
G1 Y60.425
X64.875
Y61
G2 X66.5 Y62.625 I1.625 J0
G1 X76.975
Y63.025
X51.025
Y62.625
X51.361
Z-12.3 F333.3
X61.5 F1000
G2 X63.125 Y61 I0 J-1.625
G1 Y60.425
X64.875
Y61
G2 X66.5 Y62.625 I1.625 J0
G1 X76.975
Y63.025
X51.025
Y62.625
X51.361
X51.408 Y62.618
X51.451 Y62.598
X51.486 Y62.566
X51.511 Y62.525
X51.535 Y62.484
X51.57 Y62.452
X51.613 Y62.432
X51.661 Y62.425
X61.5 F500
G2 X62.925 Y61 I0 J-1.425
G1 Y60.225
X65.075
Y61
G2 X66.5 Y62.425 I1.425 J0
G1 X77.175
Y63.225
X50.825
Y62.425
X51.661
Z5 F1000
X29.297 Y-1.625
Z2.02 F333.3
Z-0.946
X14 F500
G2 X12.375 Y0 I0 J1.625
G1 Y17.144
G3 X11.872 Y17.496 I-0.375 J0
G1 X3.24 Y14.354
G2 X-1.625 Y17.761 I-1.24 J3.406
G1 Y52.239
G2 X3.24 Y55.646 I3.625 J0
G1 X11.872 Y52.504
G3 X12.375 Y52.856 I0.128 J0.352
G1 Y70
G2 X14 Y71.625 I1.625 J0
G1 X107.8
G2 X109.425 Y70 I0 J-1.625
G1 Y38.05
G2 X108.2 Y36.475 I-1.625 J0
G1 X119.8
G2 X118.575 Y38.05 I0.4 J1.575
G1 Y70
G2 X120.2 Y71.625 I1.625 J0
G1 X214
G2 X215.625 Y70 I0 J-1.625
G1 Y52.856
G3 X216.128 Y52.504 I0.375 J0
G1 X224.76 Y55.646
G2 X229.625 Y52.239 I1.24 J-3.406
G1 Y17.761
G2 X224.76 Y14.354 I-3.625 J0
G1 X216.128 Y17.496
G3 X215.625 Y17.144 I-0.128 J-0.352
G1 Y0
G2 X214 Y-1.625 I-1.625 J0
G1 X29.297
Z-1.892 F333.3
X14 F500
G2 X12.375 Y0 I0 J1.625
G1 Y17.144
G3 X11.872 Y17.496 I-0.375 J0
G1 X3.24 Y14.354
G2 X-1.625 Y17.761 I-1.24 J3.406
G1 Y52.239
G2 X3.24 Y55.646 I3.625 J0
G1 X11.872 Y52.504
G3 X12.375 Y52.856 I0.128 J0.352
G1 Y70
G2 X14 Y71.625 I1.625 J0
G1 X107.8
G2 X109.425 Y70 I0 J-1.625
G1 Y38.05
G2 X108.2 Y36.475 I-1.625 J0
G1 X119.8
G2 X118.575 Y38.05 I0.4 J1.575
G1 Y70
G2 X120.2 Y71.625 I1.625 J0
G1 X214
G2 X215.625 Y70 I0 J-1.625
G1 Y52.856
G3 X216.128 Y52.504 I0.375 J0
G1 X224.76 Y55.646
G2 X229.625 Y52.239 I1.24 J-3.406
G1 Y17.761
G2 X224.76 Y14.354 I-3.625 J0
G1 X216.128 Y17.496
G3 X215.625 Y17.144 I-0.128 J-0.352
G1 Y0
G2 X214 Y-1.625 I-1.625 J0
G1 X29.297
Z-2.838 F333.3
X14 F500
G2 X12.375 Y0 I0 J1.625
G1 Y17.144
G3 X11.872 Y17.496 I-0.375 J0
G1 X3.24 Y14.354
G2 X-1.625 Y17.761 I-1.24 J3.406
G1 Y52.239
G2 X3.24 Y55.646 I3.625 J0
G1 X11.872 Y52.504
G3 X12.375 Y52.856 I0.128 J0.352
G1 Y70
G2 X14 Y71.625 I1.625 J0
G1 X107.8
G2 X109.425 Y70 I0 J-1.625
G1 Y38.05
G2 X108.2 Y36.475 I-1.625 J0
G1 X119.8
G2 X118.575 Y38.05 I0.4 J1.575
G1 Y70
G2 X120.2 Y71.625 I1.625 J0
G1 X214
G2 X215.625 Y70 I0 J-1.625
G1 Y52.856
G3 X216.128 Y52.504 I0.375 J0
G1 X224.76 Y55.646
G2 X229.625 Y52.239 I1.24 J-3.406
G1 Y17.761
G2 X224.76 Y14.354 I-3.625 J0
G1 X216.128 Y17.496
G3 X215.625 Y17.144 I-0.128 J-0.352
G1 Y0
G2 X214 Y-1.625 I-1.625 J0
G1 X29.297
Z-3.785 F333.3
X14 F500
G2 X12.375 Y0 I0 J1.625
G1 Y17.144
G3 X11.872 Y17.496 I-0.375 J0
G1 X3.24 Y14.354
G2 X-1.625 Y17.761 I-1.24 J3.406
G1 Y52.239
G2 X3.24 Y55.646 I3.625 J0
G1 X11.872 Y52.504
G3 X12.375 Y52.856 I0.128 J0.352
G1 Y70
G2 X14 Y71.625 I1.625 J0
G1 X107.8
G2 X109.425 Y70 I0 J-1.625
G1 Y38.05
G2 X108.2 Y36.475 I-1.625 J0
G1 X119.8
G2 X118.575 Y38.05 I0.4 J1.575
G1 Y70
G2 X120.2 Y71.625 I1.625 J0
G1 X214
G2 X215.625 Y70 I0 J-1.625
G1 Y52.856
G3 X216.128 Y52.504 I0.375 J0
G1 X224.76 Y55.646
G2 X229.625 Y52.239 I1.24 J-3.406
G1 Y17.761
G2 X224.76 Y14.354 I-3.625 J0
G1 X216.128 Y17.496
G3 X215.625 Y17.144 I-0.128 J-0.352
G1 Y0
G2 X214 Y-1.625 I-1.625 J0
G1 X29.297
Z-4.731 F333.3
X14 F500
G2 X12.375 Y0 I0 J1.625
G1 Y17.144
G3 X11.872 Y17.496 I-0.375 J0
G1 X3.24 Y14.354
G2 X-1.625 Y17.761 I-1.24 J3.406
G1 Y52.239
G2 X3.24 Y55.646 I3.625 J0
G1 X11.872 Y52.504
G3 X12.375 Y52.856 I0.128 J0.352
G1 Y70
G2 X14 Y71.625 I1.625 J0
G1 X107.8
G2 X109.425 Y70 I0 J-1.625
G1 Y38.05
G2 X108.2 Y36.475 I-1.625 J0
G1 X119.8
G2 X118.575 Y38.05 I0.4 J1.575
G1 Y70
G2 X120.2 Y71.625 I1.625 J0
G1 X214
G2 X215.625 Y70 I0 J-1.625
G1 Y52.856
G3 X216.128 Y52.504 I0.375 J0
G1 X224.76 Y55.646
G2 X229.625 Y52.239 I1.24 J-3.406
G1 Y17.761
G2 X224.76 Y14.354 I-3.625 J0
G1 X216.128 Y17.496
G3 X215.625 Y17.144 I-0.128 J-0.352
G1 Y0
G2 X214 Y-1.625 I-1.625 J0
G1 X29.297
Z-5.677 F333.3
X14 F500
G2 X12.375 Y0 I0 J1.625
G1 Y17.144
G3 X11.872 Y17.496 I-0.375 J0
G1 X3.24 Y14.354
G2 X-1.625 Y17.761 I-1.24 J3.406
G1 Y52.239
G2 X3.24 Y55.646 I3.625 J0
G1 X11.872 Y52.504
G3 X12.375 Y52.856 I0.128 J0.352
G1 Y70
G2 X14 Y71.625 I1.625 J0
G1 X107.8
G2 X109.425 Y70 I0 J-1.625
G1 Y38.05
G2 X108.2 Y36.475 I-1.625 J0
G1 X119.8
G2 X118.575 Y38.05 I0.4 J1.575
G1 Y70
G2 X120.2 Y71.625 I1.625 J0
G1 X214
G2 X215.625 Y70 I0 J-1.625
G1 Y52.856
G3 X216.128 Y52.504 I0.375 J0
G1 X224.76 Y55.646
G2 X229.625 Y52.239 I1.24 J-3.406
G1 Y17.761
G2 X224.76 Y14.354 I-3.625 J0
G1 X216.128 Y17.496
G3 X215.625 Y17.144 I-0.128 J-0.352
G1 Y0
G2 X214 Y-1.625 I-1.625 J0
G1 X29.297
Z-6.623 F333.3
X14 F500
G2 X12.375 Y0 I0 J1.625
G1 Y17.144
G3 X11.872 Y17.496 I-0.375 J0
G1 X3.24 Y14.354
G2 X-1.625 Y17.761 I-1.24 J3.406
G1 Y52.239
G2 X3.24 Y55.646 I3.625 J0
G1 X11.872 Y52.504
G3 X12.375 Y52.856 I0.128 J0.352
G1 Y70
G2 X14 Y71.625 I1.625 J0
G1 X107.8
G2 X109.425 Y70 I0 J-1.625
G1 Y38.05
G2 X108.2 Y36.475 I-1.625 J0
G1 X119.8
G2 X118.575 Y38.05 I0.4 J1.575
G1 Y70
G2 X120.2 Y71.625 I1.625 J0
G1 X214
G2 X215.625 Y70 I0 J-1.625
G1 Y52.856
G3 X216.128 Y52.504 I0.375 J0
G1 X224.76 Y55.646
G2 X229.625 Y52.239 I1.24 J-3.406
G1 Y17.761
G2 X224.76 Y14.354 I-3.625 J0
G1 X216.128 Y17.496
G3 X215.625 Y17.144 I-0.128 J-0.352
G1 Y0
G2 X214 Y-1.625 I-1.625 J0
G1 X29.297
Z-7.569 F333.3
X14 F500
G2 X12.375 Y0 I0 J1.625
G1 Y17.144
G3 X11.872 Y17.496 I-0.375 J0
G1 X3.24 Y14.354
G2 X-1.625 Y17.761 I-1.24 J3.406
G1 Y52.239
G2 X3.24 Y55.646 I3.625 J0
G1 X11.872 Y52.504
G3 X12.375 Y52.856 I0.128 J0.352
G1 Y70
G2 X14 Y71.625 I1.625 J0
G1 X107.8
G2 X109.425 Y70 I0 J-1.625
G1 Y38.05
G2 X108.2 Y36.475 I-1.625 J0
G1 X119.8
G2 X118.575 Y38.05 I0.4 J1.575
G1 Y70
G2 X120.2 Y71.625 I1.625 J0
G1 X214
G2 X215.625 Y70 I0 J-1.625
G1 Y52.856
G3 X216.128 Y52.504 I0.375 J0
G1 X224.76 Y55.646
G2 X229.625 Y52.239 I1.24 J-3.406
G1 Y17.761
G2 X224.76 Y14.354 I-3.625 J0
G1 X216.128 Y17.496
G3 X215.625 Y17.144 I-0.128 J-0.352
G1 Y0
G2 X214 Y-1.625 I-1.625 J0
G1 X29.297
Z-8.515 F333.3
X14 F500
G2 X12.375 Y0 I0 J1.625
G1 Y17.144
G3 X11.872 Y17.496 I-0.375 J0
G1 X3.24 Y14.354
G2 X-1.625 Y17.761 I-1.24 J3.406
G1 Y52.239
G2 X3.24 Y55.646 I3.625 J0
G1 X11.872 Y52.504
G3 X12.375 Y52.856 I0.128 J0.352
G1 Y70
G2 X14 Y71.625 I1.625 J0
G1 X107.8
G2 X109.425 Y70 I0 J-1.625
G1 Y38.05
G2 X108.2 Y36.475 I-1.625 J0
G1 X119.8
G2 X118.575 Y38.05 I0.4 J1.575
G1 Y70
G2 X120.2 Y71.625 I1.625 J0
G1 X214
G2 X215.625 Y70 I0 J-1.625
G1 Y52.856
G3 X216.128 Y52.504 I0.375 J0
G1 X224.76 Y55.646
G2 X229.625 Y52.239 I1.24 J-3.406
G1 Y17.761
G2 X224.76 Y14.354 I-3.625 J0
G1 X216.128 Y17.496
G3 X215.625 Y17.144 I-0.128 J-0.352
G1 Y0
G2 X214 Y-1.625 I-1.625 J0
G1 X29.297
Z-9.462 F333.3
X14 F500
G2 X12.375 Y0 I0 J1.625
G1 Y17.144
G3 X11.872 Y17.496 I-0.375 J0
G1 X3.24 Y14.354
G2 X-1.625 Y17.761 I-1.24 J3.406
G1 Y52.239
G2 X3.24 Y55.646 I3.625 J0
G1 X11.872 Y52.504
G3 X12.375 Y52.856 I0.128 J0.352
G1 Y70
G2 X14 Y71.625 I1.625 J0
G1 X107.8
G2 X109.425 Y70 I0 J-1.625
G1 Y38.05
G2 X108.2 Y36.475 I-1.625 J0
G1 X119.8
G2 X118.575 Y38.05 I0.4 J1.575
G1 Y70
G2 X120.2 Y71.625 I1.625 J0
G1 X214
G2 X215.625 Y70 I0 J-1.625
G1 Y52.856
G3 X216.128 Y52.504 I0.375 J0
G1 X224.76 Y55.646
G2 X229.625 Y52.239 I1.24 J-3.406
G1 Y17.761
G2 X224.76 Y14.354 I-3.625 J0
G1 X216.128 Y17.496
G3 X215.625 Y17.144 I-0.128 J-0.352
G1 Y0
G2 X214 Y-1.625 I-1.625 J0
G1 X29.297
Z-10.408 F333.3
X14 F500
G2 X12.375 Y0 I0 J1.625
G1 Y6.485
Z-9.6
Y12.335
Z-10.408 F333.3
Y17.144 F500
G3 X11.872 Y17.496 I-0.375 J0
G1 X3.24 Y14.354
G2 X-1.625 Y17.761 I-1.24 J3.406
G1 Y52.239
G2 X3.24 Y55.646 I3.625 J0
G1 X11.872 Y52.504
G3 X12.375 Y52.856 I0.128 J0.352
G1 Y59.578
Z-9.6
Y65.428
Z-10.408 F333.3
Y70 F500
G2 X14 Y71.625 I1.625 J0
G1 X107.8
G2 X109.425 Y70 I0 J-1.625
G1 Y51.107
Z-9.6
Y45.257
Z-10.408 F333.3
Y38.05 F500
G2 X108.2 Y36.475 I-1.625 J0
G1 X119.8
G2 X118.575 Y38.05 I0.4 J1.575
G1 Y70
G2 X120.2 Y71.625 I1.625 J0
G1 X214
G2 X215.625 Y70 I0 J-1.625
G1 Y64.109
Z-9.6
Y58.259
Z-10.408 F333.3
Y52.856 F500
G3 X216.128 Y52.504 I0.375 J0
G1 X224.76 Y55.646
G2 X229.625 Y52.239 I1.24 J-3.406
G1 Y17.761
G2 X224.76 Y14.354 I-3.625 J0
G1 X216.128 Y17.496
G3 X215.625 Y17.144 I-0.128 J-0.352
G1 Y11.903
Z-9.6
Y6.053
Z-10.408 F333.3
Y0 F500
G2 X214 Y-1.625 I-1.625 J0
G1 X29.297
Z-11.354 F333.3
X14 F500
G2 X12.375 Y0 I0 J1.625
G1 Y6.485
Z-9.6
Y12.335
Z-11.354 F333.3
Y17.144 F500
G3 X11.872 Y17.496 I-0.375 J0
G1 X3.24 Y14.354
G2 X-1.625 Y17.761 I-1.24 J3.406
G1 Y52.239
G2 X3.24 Y55.646 I3.625 J0
G1 X11.872 Y52.504
G3 X12.375 Y52.856 I0.128 J0.352
G1 Y59.578
Z-9.6
Y65.428
Z-11.354 F333.3
Y70 F500
G2 X14 Y71.625 I1.625 J0
G1 X107.8
G2 X109.425 Y70 I0 J-1.625
G1 Y51.107
Z-9.6
Y45.257
Z-11.354 F333.3
Y38.05 F500
G2 X108.2 Y36.475 I-1.625 J0
G1 X119.8
G2 X118.575 Y38.05 I0.4 J1.575
G1 Y70
G2 X120.2 Y71.625 I1.625 J0
G1 X214
G2 X215.625 Y70 I0 J-1.625
G1 Y64.109
Z-9.6
Y58.259
Z-11.354 F333.3
Y52.856 F500
G3 X216.128 Y52.504 I0.375 J0
G1 X224.76 Y55.646
G2 X229.625 Y52.239 I1.24 J-3.406
G1 Y17.761
G2 X224.76 Y14.354 I-3.625 J0
G1 X216.128 Y17.496
G3 X215.625 Y17.144 I-0.128 J-0.352
G1 Y11.903
Z-9.6
Y6.053
Z-11.354 F333.3
Y0 F500
G2 X214 Y-1.625 I-1.625 J0
G1 X29.297
Z-12.3 F333.3
X14 F1000
G2 X12.375 Y0 I0 J1.625
G1 Y6.485
Z-9.6
Y12.335
Z-12.3 F333.3
Y17.144 F1000
G3 X11.872 Y17.496 I-0.375 J0
G1 X3.24 Y14.354
G2 X-1.625 Y17.761 I-1.24 J3.406
G1 Y52.239
G2 X3.24 Y55.646 I3.625 J0
G1 X11.872 Y52.504
G3 X12.375 Y52.856 I0.128 J0.352
G1 Y59.578
Z-9.6
Y65.428
Z-12.3 F333.3
Y70 F1000
G2 X14 Y71.625 I1.625 J0
G1 X107.8
G2 X109.425 Y70 I0 J-1.625
G1 Y51.107
Z-9.6
Y45.257
Z-12.3 F333.3
Y38.05 F1000
G2 X108.2 Y36.475 I-1.625 J0
G1 X119.8
G2 X118.575 Y38.05 I0.4 J1.575
G1 Y70
G2 X120.2 Y71.625 I1.625 J0
G1 X214
G2 X215.625 Y70 I0 J-1.625
G1 Y64.109
Z-9.6
Y58.259
Z-12.3 F333.3
Y52.856 F1000
G3 X216.128 Y52.504 I0.375 J0
G1 X224.76 Y55.646
G2 X229.625 Y52.239 I1.24 J-3.406
G1 Y17.761
G2 X224.76 Y14.354 I-3.625 J0
G1 X216.128 Y17.496
G3 X215.625 Y17.144 I-0.128 J-0.352
G1 Y11.903
Z-9.6
Y6.053
Z-12.3 F333.3
Y0 F1000
G2 X214 Y-1.625 I-1.625 J0
G1 X29.297
X29.25 Y-1.618
X29.207 Y-1.598
X29.172 Y-1.566
X29.147 Y-1.525
X29.123 Y-1.484
X29.087 Y-1.452
X29.044 Y-1.432
X28.997 Y-1.425
X14 F500
G2 X12.575 Y0 I0 J1.425
G1 Y6.485
Z-9.6
Y12.335
Z-12.3 F333.3
Y17.144 F500
G3 X11.803 Y17.684 I-0.575 J0
G1 X3.171 Y14.542
G2 X-1.425 Y17.761 I-1.171 J3.218
G1 Y52.239
G2 X3.171 Y55.458 I3.425 J0
G1 X11.803 Y52.316
G3 X12.575 Y52.856 I0.197 J0.54
G1 Y59.578
Z-9.6
Y65.428
Z-12.3 F333.3
Y70 F500
G2 X14 Y71.425 I1.425 J0
G1 X107.8
G2 X109.225 Y70 I0 J-1.425
G1 Y51.107
Z-9.6
Y45.257
Z-12.3 F333.3
Y38.05 F500
G2 X107.8 Y36.625 I-1.425 J0
G1 X107.625
Y36.275
X120.375
Y36.625
X120.2
G2 X118.775 Y38.05 I0 J1.425
G1 Y70
G2 X120.2 Y71.425 I1.425 J0
G1 X214
G2 X215.425 Y70 I0 J-1.425
G1 Y64.109
Z-9.6
Y58.259
Z-12.3 F333.3
Y52.856 F500
G3 X216.197 Y52.316 I0.575 J0
G1 X224.829 Y55.458
G2 X229.425 Y52.239 I1.171 J-3.218
G1 Y17.761
G2 X224.829 Y14.542 I-3.425 J0
G1 X216.197 Y17.684
G3 X215.425 Y17.144 I-0.197 J-0.54
G1 Y11.903
Z-9.6
Y6.053
Z-12.3 F333.3
Y0 F500
G2 X214 Y-1.425 I-1.425 J0
G1 X28.997
Z10 F1000
M5
M30
