(1117_wall_28bit)
(T1  D=2.8 CR=0 - ZMIN=-13.3 - flat end mill)
G90 G94
G17
G21
(When using Fusion 360 for Personal Use, the feedrate of)
(rapid moves is reduced to match the feedrate of cutting)
(moves, which can increase machining time. Unrestricted rapid)
(moves are available with a Fusion 360 Subscription.)

(2D Pocket tabs)
T1
S5000 M3
G54
G0 X-1.398 Y35.684
Z10
G1 Z5 F1000
Z2.02 F333.3
Z-0.992 F1000
X-1.39 Y35.676
G3 X-0.935 Y35.227 I17.492 J17.286
G2 X-0.935 Y34.773 I-0.218 J-0.227
G3 X-1.389 Y34.328 I16.789 J-17.629
G1 X-1.395 Y34.314
X-1.425 Y32.027
X-1.419 Y32.013
X-1.404 Y32.007
X-1.389 Y32.014
G2 X1.494 Y34.818 I17.267 J-14.87
G3 X1.494 Y35.182 I-0.149 J0.182
G2 X-1.39 Y38.007 I14.584 J17.77
G1 X-1.395 Y38.02
X-1.426 Y40.559
X-1.419 Y40.574
X-1.404 Y40.579
X-1.39 Y40.571
G3 X4.194 Y35.146 I17.446 J12.37
G2 X4.194 Y34.854 I-0.097 J-0.146
G3 X-1.39 Y29.463 I11.706 J-17.711
G1 X-1.393 Y29.452
X-1.427 Y26.496
X-1.42 Y26.48
X-1.404 Y26.476
X-1.39 Y26.486
G2 X7.42 Y34.883 I17.31 J-9.342
G1 X7.454 Y34.907
X7.479 Y34.94
X7.492 Y34.979
Y35.021
X7.479 Y35.06
X7.454 Y35.093
X7.42 Y35.117
G2 X-1.39 Y43.557 I8.614 J17.811
G1 X-1.392 Y43.566
X-1.429 Y47.639
X-1.424 Y47.652
X-1.412 Y47.659
X-1.398 Y47.656
X-1.39 Y47.645
G3 X11.696 Y35.25 I17.404 J5.269
G2 X11.875 Y35.021 I-0.056 J-0.229
G1 Y34.979
G2 X11.696 Y34.75 I-0.235 J0
G3 X-1.39 Y22.403 I4.246 J-17.606
G1 Y22.395
X-0.628 Y15.572
X-0.621 Y15.559
X-0.607 Y15.554
X-0.594 Y15.561
X-0.588 Y15.574
X-0.59 Y17.144
G2 X13.193 Y33.449 I16.536 J0
G3 X13.417 Y33.61 I-0.054 J0.311
G1 X13.431 Y33.62
X15.011 Y33.923
X15.028 Y33.919
X15.035 Y33.904
Y32.37
G2 X14.746 Y32.056 I-0.315 J0
G3 X0.99 Y17.144 I1.205 J-14.912
G1 X0.993 Y14.527
Y14.516
Z5
X13.423 Y36.38
Z2.02 F333.3
Z-0.992 F1000
X13.417 Y36.39
G3 X13.193 Y36.551 I-0.278 J-0.149
G2 X-0.59 Y52.856 I2.816 J16.359
G1 X-0.588 Y54.426
X-0.586 Y54.435
X-0.579 Y54.443
X0.962 Y55.489
X0.975 Y55.493
X0.988 Y55.486
X0.993 Y55.473
X0.99 Y52.856
G3 X14.746 Y37.944 I15.014 J0.049
G2 X15.035 Y37.63 I-0.026 J-0.314
G1 Y36.097
G2 X13.9 Y35.573 I-0.689 J0
G1 X11.591 Y37.542
X11.54 Y37.589
X0.024 Y49.616
G2 X-0.354 Y50.614 I0.986 J0.944
G1 X-0.156 Y55.631
G2 X2.573 Y55.576 I1.364 J-0.054
G1 X2.57 Y52.856
G3 X16.293 Y39.475 I13.429 J0.044
G2 X16.615 Y39.159 I0.007 J-0.315
G1 Y30.841
G2 X16.293 Y30.525 I-0.315 J0
G3 X2.57 Y17.144 I-0.337 J-13.382
G1 X2.573 Y14.424
X2.577 Y14.412
X2.587 Y14.405
X2.599
X4.139 Y14.918
X4.149 Y14.925
X4.152 Y14.937
X4.15 Y17.144
G2 X17.921 Y28.791 I11.811 J0
G3 X18.195 Y29.023 I0.038 J0.232
G1 Y40.977
G3 X17.921 Y41.209 I-0.235 J0
G2 X4.15 Y52.856 I-1.928 J11.686
G1 X4.152 Y55.063
X4.156 Y55.075
X4.167 Y55.082
X4.179
X5.719 Y54.506
X5.728 Y54.499
X5.732 Y54.487
X5.73 Y52.856
G3 X19.497 Y43.247 I10.259 J0.031
G1 X19.519 Y43.255
X19.54 Y43.263
G2 X19.775 Y43.099 I0.06 J-0.165
G1 Y26.901
G2 X19.54 Y26.737 I-0.175 J0
G1 X19.519 Y26.745
X19.498 Y26.753
G3 X5.73 Y17.144 I-3.53 J-9.61
G1 X5.732 Y15.512
X5.736 Y15.5
X5.746 Y15.492
X5.759 Y15.493
X7.298 Y16.069
X7.307 Y16.076
X7.311 Y16.087
X7.31 Y17.144
G2 X18.972 Y25.31 I8.69 J0
X20.017 Y24.905 I-9.548 J-26.232
G3 X21.063 Y24.501 I10.593 J25.828
X21.355 Y24.705 I0.074 J0.205
G1 Y45.295
G3 X21.063 Y45.499 I-0.218 J0
X20.017 Y45.095 I9.549 J-26.236
G2 X18.972 Y44.69 I-10.583 J25.802
X7.31 Y52.856 I-2.972 J8.166
G1 X7.311 Y53.913
X7.315 Y53.925
X7.325 Y53.932
X7.338
X8.877 Y53.357
X8.887 Y53.349
X8.89 Y53.338
Y52.856
G3 X18.432 Y46.175 I7.11 J0
X20.537 Y46.965 I-38.355 J105.385
G2 X22.643 Y47.756 I40.548 J-104.83
X22.935 Y47.551 I0.074 J-0.205
G1 Y22.449
G2 X22.643 Y22.244 I-0.218 J0
X20.537 Y23.035 I38.441 J105.615
G3 X18.432 Y23.825 I-40.546 J-104.825
X8.89 Y17.144 I-2.432 J-6.681
G1 Y16.662
X8.894 Y16.65
X8.905 Y16.643
X8.917
X10.458 Y17.218
X10.467 Y17.225
X10.471 Y17.236
G2 X17.891 Y22.34 I5.529 J-0.093
G1 X24.223 Y19.988
G3 X24.515 Y20.193 I0.074 J0.205
G1 Y49.807
G3 X24.223 Y50.012 I-0.218 J0
G1 X17.891 Y47.66
G2 X10.471 Y52.764 I-1.891 J5.196
G1 X10.474 Y52.775
X10.484 Y52.783
X10.497
X12.131 Y52.284
X12.14 Y52.278
X12.145 Y52.268
G3 X17.334 Y49.191 I3.855 J0.589
G1 X25.966 Y52.333
X26.003 Y52.339
X26.041 Y52.331
X26.072 Y52.309
X26.093 Y52.277
X26.1 Y52.239
Y17.761
X26.093 Y17.723
X26.072 Y17.691
X26.041 Y17.669
X26.003 Y17.661
X25.966 Y17.667
X17.334 Y20.809
G3 X12.145 Y17.733 I-1.334 J-3.665
G1 X12.137 Y17.72
X12.123 Y17.716
X12.109 Y17.723
X-1.398 Y34.294
X-1.403 Y34.307
X-1.397 Y34.32
Z-1.983
X-1.389 Y34.328
G2 X-0.935 Y34.773 I17.243 J-17.185
G3 X-0.935 Y35.227 I-0.218 J0.227
G2 X-1.39 Y35.676 I17.037 J17.735
G1 X-1.396 Y35.69
X-1.425 Y37.994
X-1.419 Y38.009
X-1.404 Y38.014
X-1.39 Y38.007
G3 X1.494 Y35.182 I17.468 J14.944
G2 X1.494 Y34.818 I-0.149 J-0.182
G3 X-1.389 Y32.014 I14.383 J-17.674
G1 X-1.394 Y32.001
X-1.426 Y29.475
X-1.419 Y29.46
X-1.404 Y29.455
X-1.39 Y29.463
G2 X4.194 Y34.854 I17.289 J-12.32
G3 X4.194 Y35.146 I-0.097 J0.146
G2 X-1.39 Y40.571 I11.863 J17.795
G1 X-1.393 Y40.582
X-1.427 Y43.547
X-1.42 Y43.563
X-1.404 Y43.567
X-1.39 Y43.557
G3 X7.42 Y35.117 I17.425 J9.372
G1 X7.454 Y35.093
X7.479 Y35.06
X7.492 Y35.021
Y34.979
X7.479 Y34.94
X7.454 Y34.907
X7.42 Y34.883
G3 X-1.39 Y26.486 I8.5 J-17.739
G1 X-1.392 Y26.477
X-1.429 Y22.409
X-1.424 Y22.396
X-1.412 Y22.389
X-1.398 Y22.392
X-1.39 Y22.403
G2 X11.696 Y34.75 I17.331 J-5.259
G3 X11.875 Y34.979 I-0.056 J0.229
G1 Y35.021
G3 X11.696 Y35.25 I-0.235 J0
G2 X-1.39 Y47.645 I4.318 J17.664
G1 X-1.391 Y47.653
X-0.628 Y54.428
X-0.621 Y54.441
X-0.607 Y54.446
X-0.594 Y54.44
X-0.588 Y54.426
X-0.59 Y52.856
G3 X13.193 Y36.551 I16.599 J0.054
G2 X13.417 Y36.39 I-0.054 J-0.311
G1 X13.431 Y36.38
X15.011 Y36.078
X15.028 Y36.082
X15.035 Y36.097
Y37.63
G3 X14.746 Y37.944 I-0.315 J0
G2 X0.99 Y52.856 I1.258 J14.961
G1 X0.993 Y55.473
Y55.484
Z1.028
X13.423 Y33.62
Z-1.983
X13.417 Y33.61
G2 X13.193 Y33.449 I-0.278 J0.149
G3 X-0.59 Y17.144 I2.753 J-16.305
G1 X-0.588 Y15.574
X-0.586 Y15.565
X-0.579 Y15.558
X0.962 Y14.51
X0.975 Y14.507
X0.988 Y14.514
X0.993 Y14.527
X0.99 Y17.144
G2 X14.746 Y32.056 I14.961 J0
G3 X15.035 Y32.37 I-0.026 J0.314
G1 Y33.904
G3 X13.899 Y34.428 I-0.689 J0
G1 X11.589 Y32.459
X11.538 Y32.411
X0.024 Y20.386
G3 X-0.355 Y19.388 I0.986 J-0.944
G1 X-0.156 Y14.369
G3 X2.573 Y14.424 I1.364 J0.054
G1 X2.57 Y17.144
G2 X16.293 Y30.525 I13.386 J0
G3 X16.615 Y30.841 I0.007 J0.315
G1 Y39.159
G3 X16.293 Y39.475 I-0.315 J0
G2 X2.57 Y52.856 I-0.294 J13.426
G1 X2.573 Y55.576
X2.577 Y55.588
X2.587 Y55.595
X2.599
X4.139 Y55.082
X4.149 Y55.075
X4.152 Y55.063
X4.15 Y52.856
G3 X17.921 Y41.209 I11.844 J0.038
G2 X18.195 Y40.977 I0.038 J-0.232
G1 Y29.023
G2 X17.921 Y28.791 I-0.235 J0
G3 X4.15 Y17.144 I-1.96 J-11.648
G1 X4.152 Y14.937
X4.156 Y14.925
X4.167 Y14.918
X4.179
X5.719 Y15.493
X5.728 Y15.5
X5.732 Y15.512
X5.73 Y17.144
G2 X19.498 Y26.753 I10.238 J0
G1 X19.519 Y26.745
X19.54 Y26.737
G3 X19.775 Y26.901 I0.06 J0.165
G1 Y43.099
G3 X19.54 Y43.263 I-0.175 J0
G1 X19.519 Y43.255
X19.497 Y43.247
G2 X5.73 Y52.856 I-3.509 J9.64
G1 X5.732 Y54.487
X5.736 Y54.499
X5.746 Y54.507
X5.759 Y54.506
X7.298 Y53.932
X7.307 Y53.925
X7.311 Y53.913
X7.31 Y52.856
G3 X18.972 Y44.69 I8.69 J0
X20.017 Y45.095 I-9.538 J26.207
G2 X21.063 Y45.499 I10.594 J-25.831
X21.355 Y45.295 I0.074 J-0.205
G1 Y24.705
G2 X21.063 Y24.501 I-0.218 J0
X20.017 Y24.905 I9.548 J26.232
G3 X18.972 Y25.31 I-10.593 J-25.828
X7.31 Y17.144 I-2.972 J-8.166
G1 X7.311 Y16.087
X7.315 Y16.075
X7.325 Y16.068
X7.338 Y16.069
X8.877 Y16.643
X8.887 Y16.65
X8.89 Y16.662
Y17.144
G2 X18.432 Y23.825 I7.11 J0
X20.537 Y23.035 I-38.441 J-105.615
G3 X22.643 Y22.244 I40.546 J104.825
X22.935 Y22.449 I0.074 J0.205
G1 Y47.551
G3 X22.643 Y47.756 I-0.218 J0
X20.537 Y46.965 I38.443 J-105.62
G2 X18.432 Y46.175 I-40.46 J104.595
X8.89 Y52.856 I-2.432 J6.681
G1 Y53.338
X8.894 Y53.35
X8.905 Y53.357
X8.917
X10.458 Y52.782
X10.467 Y52.775
X10.471 Y52.764
G3 X17.891 Y47.66 I5.529 J0.093
G1 X24.223 Y50.012
G2 X24.515 Y49.807 I0.074 J-0.205
G1 Y20.193
G2 X24.223 Y19.988 I-0.218 J0
G1 X17.891 Y22.34
G3 X10.471 Y17.236 I-1.891 J-5.197
G1 X10.474 Y17.225
X10.484 Y17.217
X10.497
X12.131 Y17.716
X12.14 Y17.723
X12.145 Y17.733
G2 X17.334 Y20.809 I3.855 J-0.589
G1 X25.966 Y17.667
X26.003 Y17.661
X26.041 Y17.669
X26.072 Y17.691
X26.093 Y17.723
X26.1 Y17.761
Y52.239
X26.093 Y52.277
X26.072 Y52.309
X26.041 Y52.331
X26.003 Y52.339
X25.966 Y52.333
X17.334 Y49.191
G2 X12.145 Y52.268 I-1.334 J3.665
G1 X12.137 Y52.281
X12.123 Y52.285
X12.109 Y52.277
X-1.399 Y35.711
X-1.403 Y35.697
X-1.398 Y35.684
Z-2.975
X-1.39 Y35.676
G3 X-0.935 Y35.227 I17.492 J17.286
G2 X-0.935 Y34.773 I-0.218 J-0.227
G3 X-1.389 Y34.328 I16.789 J-17.629
G1 X-1.395 Y34.314
X-1.425 Y32.027
X-1.419 Y32.013
X-1.404 Y32.007
X-1.389 Y32.014
G2 X1.494 Y34.818 I17.267 J-14.87
G3 X1.494 Y35.182 I-0.149 J0.182
G2 X-1.39 Y38.007 I14.584 J17.77
G1 X-1.395 Y38.02
X-1.426 Y40.559
X-1.419 Y40.574
X-1.404 Y40.579
X-1.39 Y40.571
G3 X4.194 Y35.146 I17.446 J12.37
G2 X4.194 Y34.854 I-0.097 J-0.146
G3 X-1.39 Y29.463 I11.706 J-17.711
G1 X-1.393 Y29.452
X-1.427 Y26.496
X-1.42 Y26.48
X-1.404 Y26.476
X-1.39 Y26.486
G2 X7.42 Y34.883 I17.31 J-9.342
G1 X7.454 Y34.907
X7.479 Y34.94
X7.492 Y34.979
Y35.021
X7.479 Y35.06
X7.454 Y35.093
X7.42 Y35.117
G2 X-1.39 Y43.557 I8.614 J17.811
G1 X-1.392 Y43.566
X-1.429 Y47.639
X-1.424 Y47.652
X-1.412 Y47.659
X-1.398 Y47.656
X-1.39 Y47.645
G3 X11.696 Y35.25 I17.404 J5.269
G2 X11.875 Y35.021 I-0.056 J-0.229
G1 Y34.979
G2 X11.696 Y34.75 I-0.235 J0
G3 X-1.39 Y22.403 I4.246 J-17.606
G1 Y22.395
X-0.628 Y15.572
X-0.621 Y15.559
X-0.607 Y15.554
X-0.594 Y15.561
X-0.588 Y15.574
X-0.59 Y17.144
G2 X13.193 Y33.449 I16.536 J0
G3 X13.417 Y33.61 I-0.054 J0.311
G1 X13.431 Y33.62
X15.011 Y33.923
X15.028 Y33.919
X15.035 Y33.904
Y32.37
G2 X14.746 Y32.056 I-0.315 J0
G3 X0.99 Y17.144 I1.205 J-14.912
G1 X0.993 Y14.527
Y14.516
Z0.037
X13.423 Y36.38
Z-2.975
X13.417 Y36.39
G3 X13.193 Y36.551 I-0.278 J-0.149
G2 X-0.59 Y52.856 I2.816 J16.359
G1 X-0.588 Y54.426
X-0.586 Y54.435
X-0.579 Y54.443
X0.962 Y55.489
X0.975 Y55.493
X0.988 Y55.486
X0.993 Y55.473
X0.99 Y52.856
G3 X14.746 Y37.944 I15.014 J0.049
G2 X15.035 Y37.63 I-0.026 J-0.314
G1 Y36.097
G2 X13.9 Y35.573 I-0.689 J0
G1 X11.591 Y37.542
X11.54 Y37.589
X0.024 Y49.616
G2 X-0.354 Y50.614 I0.986 J0.944
G1 X-0.156 Y55.631
G2 X2.573 Y55.576 I1.364 J-0.054
G1 X2.57 Y52.856
G3 X16.293 Y39.475 I13.429 J0.044
G2 X16.615 Y39.159 I0.007 J-0.315
G1 Y30.841
G2 X16.293 Y30.525 I-0.315 J0
G3 X2.57 Y17.144 I-0.337 J-13.382
G1 X2.573 Y14.424
X2.577 Y14.412
X2.587 Y14.405
X2.599
X4.139 Y14.918
X4.149 Y14.925
X4.152 Y14.937
X4.15 Y17.144
G2 X17.921 Y28.791 I11.811 J0
G3 X18.195 Y29.023 I0.038 J0.232
G1 Y40.977
G3 X17.921 Y41.209 I-0.235 J0
G2 X4.15 Y52.856 I-1.928 J11.686
G1 X4.152 Y55.063
X4.156 Y55.075
X4.167 Y55.082
X4.179
X5.719 Y54.506
X5.728 Y54.499
X5.732 Y54.487
X5.73 Y52.856
G3 X19.497 Y43.247 I10.259 J0.031
G1 X19.519 Y43.255
X19.54 Y43.263
G2 X19.775 Y43.099 I0.06 J-0.165
G1 Y26.901
G2 X19.54 Y26.737 I-0.175 J0
G1 X19.519 Y26.745
X19.498 Y26.753
G3 X5.73 Y17.144 I-3.53 J-9.61
G1 X5.732 Y15.512
X5.736 Y15.5
X5.746 Y15.492
X5.759 Y15.493
X7.298 Y16.069
X7.307 Y16.076
X7.311 Y16.087
X7.31 Y17.144
G2 X18.972 Y25.31 I8.69 J0
X20.017 Y24.905 I-9.548 J-26.232
G3 X21.063 Y24.501 I10.593 J25.828
X21.355 Y24.705 I0.074 J0.205
G1 Y45.295
G3 X21.063 Y45.499 I-0.218 J0
X20.017 Y45.095 I9.549 J-26.236
G2 X18.972 Y44.69 I-10.583 J25.802
X7.31 Y52.856 I-2.972 J8.166
G1 X7.311 Y53.913
X7.315 Y53.925
X7.325 Y53.932
X7.338
X8.877 Y53.357
X8.887 Y53.349
X8.89 Y53.338
Y52.856
G3 X18.432 Y46.175 I7.11 J0
X20.537 Y46.965 I-38.355 J105.385
G2 X22.643 Y47.756 I40.548 J-104.83
X22.935 Y47.551 I0.074 J-0.205
G1 Y22.449
G2 X22.643 Y22.244 I-0.218 J0
X20.537 Y23.035 I38.441 J105.615
G3 X18.432 Y23.825 I-40.546 J-104.825
X8.89 Y17.144 I-2.432 J-6.681
G1 Y16.662
X8.894 Y16.65
X8.905 Y16.643
X8.917
X10.458 Y17.218
X10.467 Y17.225
X10.471 Y17.236
G2 X17.891 Y22.34 I5.529 J-0.093
G1 X24.223 Y19.988
G3 X24.515 Y20.193 I0.074 J0.205
G1 Y49.807
G3 X24.223 Y50.012 I-0.218 J0
G1 X17.891 Y47.66
G2 X10.471 Y52.764 I-1.891 J5.196
G1 X10.474 Y52.775
X10.484 Y52.783
X10.497
X12.131 Y52.284
X12.14 Y52.278
X12.145 Y52.268
G3 X17.334 Y49.191 I3.855 J0.589
G1 X25.966 Y52.333
X26.003 Y52.339
X26.041 Y52.331
X26.072 Y52.309
X26.093 Y52.277
X26.1 Y52.239
Y17.761
X26.093 Y17.723
X26.072 Y17.691
X26.041 Y17.669
X26.003 Y17.661
X25.966 Y17.667
X17.334 Y20.809
G3 X12.145 Y17.733 I-1.334 J-3.665
G1 X12.137 Y17.72
X12.123 Y17.716
X12.109 Y17.723
X-1.398 Y34.294
X-1.403 Y34.307
X-1.397 Y34.32
Z-3.967
X-1.389 Y34.328
G2 X-0.935 Y34.773 I17.243 J-17.185
G3 X-0.935 Y35.227 I-0.218 J0.227
G2 X-1.39 Y35.676 I17.037 J17.735
G1 X-1.396 Y35.69
X-1.425 Y37.994
X-1.419 Y38.009
X-1.404 Y38.014
X-1.39 Y38.007
G3 X1.494 Y35.182 I17.468 J14.944
G2 X1.494 Y34.818 I-0.149 J-0.182
G3 X-1.389 Y32.014 I14.383 J-17.674
G1 X-1.394 Y32.001
X-1.426 Y29.475
X-1.419 Y29.46
X-1.404 Y29.455
X-1.39 Y29.463
G2 X4.194 Y34.854 I17.289 J-12.32
G3 X4.194 Y35.146 I-0.097 J0.146
G2 X-1.39 Y40.571 I11.863 J17.795
G1 X-1.393 Y40.582
X-1.427 Y43.547
X-1.42 Y43.563
X-1.404 Y43.567
X-1.39 Y43.557
G3 X7.42 Y35.117 I17.425 J9.372
G1 X7.454 Y35.093
X7.479 Y35.06
X7.492 Y35.021
Y34.979
X7.479 Y34.94
X7.454 Y34.907
X7.42 Y34.883
G3 X-1.39 Y26.486 I8.5 J-17.739
G1 X-1.392 Y26.477
X-1.429 Y22.409
X-1.424 Y22.396
X-1.412 Y22.389
X-1.398 Y22.392
X-1.39 Y22.403
G2 X11.696 Y34.75 I17.331 J-5.259
G3 X11.875 Y34.979 I-0.056 J0.229
G1 Y35.021
G3 X11.696 Y35.25 I-0.235 J0
G2 X-1.39 Y47.645 I4.318 J17.664
G1 X-1.391 Y47.653
X-0.628 Y54.428
X-0.621 Y54.441
X-0.607 Y54.446
X-0.594 Y54.44
X-0.588 Y54.426
X-0.59 Y52.856
G3 X13.193 Y36.551 I16.599 J0.054
G2 X13.417 Y36.39 I-0.054 J-0.311
G1 X13.431 Y36.38
X15.011 Y36.078
X15.028 Y36.082
X15.035 Y36.097
Y37.63
G3 X14.746 Y37.944 I-0.315 J0
G2 X0.99 Y52.856 I1.258 J14.961
G1 X0.993 Y55.473
Y55.484
Z-0.955
X13.423 Y33.62
Z-3.967
X13.417 Y33.61
G2 X13.193 Y33.449 I-0.278 J0.149
G3 X-0.59 Y17.144 I2.753 J-16.305
G1 X-0.588 Y15.574
X-0.586 Y15.565
X-0.579 Y15.558
X0.962 Y14.51
X0.975 Y14.507
X0.988 Y14.514
X0.993 Y14.527
X0.99 Y17.144
G2 X14.746 Y32.056 I14.961 J0
G3 X15.035 Y32.37 I-0.026 J0.314
G1 Y33.904
G3 X13.899 Y34.428 I-0.689 J0
G1 X11.589 Y32.459
X11.538 Y32.411
X0.024 Y20.386
G3 X-0.355 Y19.388 I0.986 J-0.944
G1 X-0.156 Y14.369
G3 X2.573 Y14.424 I1.364 J0.054
G1 X2.57 Y17.144
G2 X16.293 Y30.525 I13.386 J0
G3 X16.615 Y30.841 I0.007 J0.315
G1 Y39.159
G3 X16.293 Y39.475 I-0.315 J0
G2 X2.57 Y52.856 I-0.294 J13.426
G1 X2.573 Y55.576
X2.577 Y55.588
X2.587 Y55.595
X2.599
X4.139 Y55.082
X4.149 Y55.075
X4.152 Y55.063
X4.15 Y52.856
G3 X17.921 Y41.209 I11.844 J0.038
G2 X18.195 Y40.977 I0.038 J-0.232
G1 Y29.023
G2 X17.921 Y28.791 I-0.235 J0
G3 X4.15 Y17.144 I-1.96 J-11.648
G1 X4.152 Y14.937
X4.156 Y14.925
X4.167 Y14.918
X4.179
X5.719 Y15.493
X5.728 Y15.5
X5.732 Y15.512
X5.73 Y17.144
G2 X19.498 Y26.753 I10.238 J0
G1 X19.519 Y26.745
X19.54 Y26.737
G3 X19.775 Y26.901 I0.06 J0.165
G1 Y43.099
G3 X19.54 Y43.263 I-0.175 J0
G1 X19.519 Y43.255
X19.497 Y43.247
G2 X5.73 Y52.856 I-3.509 J9.64
G1 X5.732 Y54.487
X5.736 Y54.499
X5.746 Y54.507
X5.759 Y54.506
X7.298 Y53.932
X7.307 Y53.925
X7.311 Y53.913
X7.31 Y52.856
G3 X18.972 Y44.69 I8.69 J0
X20.017 Y45.095 I-9.538 J26.207
G2 X21.063 Y45.499 I10.594 J-25.831
X21.355 Y45.295 I0.074 J-0.205
G1 Y24.705
G2 X21.063 Y24.501 I-0.218 J0
X20.017 Y24.905 I9.548 J26.232
G3 X18.972 Y25.31 I-10.593 J-25.828
X7.31 Y17.144 I-2.972 J-8.166
G1 X7.311 Y16.087
X7.315 Y16.075
X7.325 Y16.068
X7.338 Y16.069
X8.877 Y16.643
X8.887 Y16.65
X8.89 Y16.662
Y17.144
G2 X18.432 Y23.825 I7.11 J0
X20.537 Y23.035 I-38.441 J-105.615
G3 X22.643 Y22.244 I40.546 J104.825
X22.935 Y22.449 I0.074 J0.205
G1 Y47.551
G3 X22.643 Y47.756 I-0.218 J0
X20.537 Y46.965 I38.443 J-105.62
G2 X18.432 Y46.175 I-40.46 J104.595
X8.89 Y52.856 I-2.432 J6.681
G1 Y53.338
X8.894 Y53.35
X8.905 Y53.357
X8.917
X10.458 Y52.782
X10.467 Y52.775
X10.471 Y52.764
G3 X17.891 Y47.66 I5.529 J0.093
G1 X24.223 Y50.012
G2 X24.515 Y49.807 I0.074 J-0.205
G1 Y20.193
G2 X24.223 Y19.988 I-0.218 J0
G1 X17.891 Y22.34
G3 X10.471 Y17.236 I-1.891 J-5.197
G1 X10.474 Y17.225
X10.484 Y17.217
X10.497
X12.131 Y17.716
X12.14 Y17.723
X12.145 Y17.733
G2 X17.334 Y20.809 I3.855 J-0.589
G1 X25.966 Y17.667
X26.003 Y17.661
X26.041 Y17.669
X26.072 Y17.691
X26.093 Y17.723
X26.1 Y17.761
Y52.239
X26.093 Y52.277
X26.072 Y52.309
X26.041 Y52.331
X26.003 Y52.339
X25.966 Y52.333
X17.334 Y49.191
G2 X12.145 Y52.268 I-1.334 J3.665
G1 X12.137 Y52.281
X12.123 Y52.285
X12.109 Y52.277
X-1.399 Y35.711
X-1.403 Y35.697
X-1.398 Y35.684
Z-4.958
X-1.39 Y35.676
G3 X-0.935 Y35.227 I17.492 J17.286
G2 X-0.935 Y34.773 I-0.218 J-0.227
G3 X-1.389 Y34.328 I16.789 J-17.629
G1 X-1.395 Y34.314
X-1.425 Y32.027
X-1.419 Y32.013
X-1.404 Y32.007
X-1.389 Y32.014
G2 X1.494 Y34.818 I17.267 J-14.87
G3 X1.494 Y35.182 I-0.149 J0.182
G2 X-1.39 Y38.007 I14.584 J17.77
G1 X-1.395 Y38.02
X-1.426 Y40.559
X-1.419 Y40.574
X-1.404 Y40.579
X-1.39 Y40.571
G3 X4.194 Y35.146 I17.446 J12.37
G2 X4.194 Y34.854 I-0.097 J-0.146
G3 X-1.39 Y29.463 I11.706 J-17.711
G1 X-1.393 Y29.452
X-1.427 Y26.496
X-1.42 Y26.48
X-1.404 Y26.476
X-1.39 Y26.486
G2 X7.42 Y34.883 I17.31 J-9.342
G1 X7.454 Y34.907
X7.479 Y34.94
X7.492 Y34.979
Y35.021
X7.479 Y35.06
X7.454 Y35.093
X7.42 Y35.117
G2 X-1.39 Y43.557 I8.614 J17.811
G1 X-1.392 Y43.566
X-1.429 Y47.639
X-1.424 Y47.652
X-1.412 Y47.659
X-1.398 Y47.656
X-1.39 Y47.645
G3 X11.696 Y35.25 I17.404 J5.269
G2 X11.875 Y35.021 I-0.056 J-0.229
G1 Y34.979
G2 X11.696 Y34.75 I-0.235 J0
G3 X-1.39 Y22.403 I4.246 J-17.606
G1 Y22.395
X-0.628 Y15.572
X-0.621 Y15.559
X-0.607 Y15.554
X-0.594 Y15.561
X-0.588 Y15.574
X-0.59 Y17.144
G2 X13.193 Y33.449 I16.536 J0
G3 X13.417 Y33.61 I-0.054 J0.311
G1 X13.431 Y33.62
X15.011 Y33.923
X15.028 Y33.919
X15.035 Y33.904
Y32.37
G2 X14.746 Y32.056 I-0.315 J0
G3 X0.99 Y17.144 I1.205 J-14.912
G1 X0.993 Y14.527
Y14.516
Z-1.947
X13.423 Y36.38
Z-4.958
X13.417 Y36.39
G3 X13.193 Y36.551 I-0.278 J-0.149
G2 X-0.59 Y52.856 I2.816 J16.359
G1 X-0.588 Y54.426
X-0.586 Y54.435
X-0.579 Y54.443
X0.962 Y55.489
X0.975 Y55.493
X0.988 Y55.486
X0.993 Y55.473
X0.99 Y52.856
G3 X14.746 Y37.944 I15.014 J0.049
G2 X15.035 Y37.63 I-0.026 J-0.314
G1 Y36.097
G2 X13.9 Y35.573 I-0.689 J0
G1 X11.591 Y37.542
X11.54 Y37.589
X0.024 Y49.616
G2 X-0.354 Y50.614 I0.986 J0.944
G1 X-0.156 Y55.631
G2 X2.573 Y55.576 I1.364 J-0.054
G1 X2.57 Y52.856
G3 X16.293 Y39.475 I13.429 J0.044
G2 X16.615 Y39.159 I0.007 J-0.315
G1 Y30.841
G2 X16.293 Y30.525 I-0.315 J0
G3 X2.57 Y17.144 I-0.337 J-13.382
G1 X2.573 Y14.424
X2.577 Y14.412
X2.587 Y14.405
X2.599
X4.139 Y14.918
X4.149 Y14.925
X4.152 Y14.937
X4.15 Y17.144
G2 X17.921 Y28.791 I11.811 J0
G3 X18.195 Y29.023 I0.038 J0.232
G1 Y40.977
G3 X17.921 Y41.209 I-0.235 J0
G2 X4.15 Y52.856 I-1.928 J11.686
G1 X4.152 Y55.063
X4.156 Y55.075
X4.167 Y55.082
X4.179
X5.719 Y54.506
X5.728 Y54.499
X5.732 Y54.487
X5.73 Y52.856
G3 X19.497 Y43.247 I10.259 J0.031
G1 X19.519 Y43.255
X19.54 Y43.263
G2 X19.775 Y43.099 I0.06 J-0.165
G1 Y26.901
G2 X19.54 Y26.737 I-0.175 J0
G1 X19.519 Y26.745
X19.498 Y26.753
G3 X5.73 Y17.144 I-3.53 J-9.61
G1 X5.732 Y15.512
X5.736 Y15.5
X5.746 Y15.492
X5.759 Y15.493
X7.298 Y16.069
X7.307 Y16.076
X7.311 Y16.087
X7.31 Y17.144
G2 X18.972 Y25.31 I8.69 J0
X20.017 Y24.905 I-9.548 J-26.232
G3 X21.063 Y24.501 I10.593 J25.828
X21.355 Y24.705 I0.074 J0.205
G1 Y45.295
G3 X21.063 Y45.499 I-0.218 J0
X20.017 Y45.095 I9.549 J-26.236
G2 X18.972 Y44.69 I-10.583 J25.802
X7.31 Y52.856 I-2.972 J8.166
G1 X7.311 Y53.913
X7.315 Y53.925
X7.325 Y53.932
X7.338
X8.877 Y53.357
X8.887 Y53.349
X8.89 Y53.338
Y52.856
G3 X18.432 Y46.175 I7.11 J0
X20.537 Y46.965 I-38.355 J105.385
G2 X22.643 Y47.756 I40.548 J-104.83
X22.935 Y47.551 I0.074 J-0.205
G1 Y22.449
G2 X22.643 Y22.244 I-0.218 J0
X20.537 Y23.035 I38.441 J105.615
G3 X18.432 Y23.825 I-40.546 J-104.825
X8.89 Y17.144 I-2.432 J-6.681
G1 Y16.662
X8.894 Y16.65
X8.905 Y16.643
X8.917
X10.458 Y17.218
X10.467 Y17.225
X10.471 Y17.236
G2 X17.891 Y22.34 I5.529 J-0.093
G1 X24.223 Y19.988
G3 X24.515 Y20.193 I0.074 J0.205
G1 Y49.807
G3 X24.223 Y50.012 I-0.218 J0
G1 X17.891 Y47.66
G2 X10.471 Y52.764 I-1.891 J5.196
G1 X10.474 Y52.775
X10.484 Y52.783
X10.497
X12.131 Y52.284
X12.14 Y52.278
X12.145 Y52.268
G3 X17.334 Y49.191 I3.855 J0.589
G1 X25.966 Y52.333
X26.003 Y52.339
X26.041 Y52.331
X26.072 Y52.309
X26.093 Y52.277
X26.1 Y52.239
Y17.761
X26.093 Y17.723
X26.072 Y17.691
X26.041 Y17.669
X26.003 Y17.661
X25.966 Y17.667
X17.334 Y20.809
G3 X12.145 Y17.733 I-1.334 J-3.665
G1 X12.137 Y17.72
X12.123 Y17.716
X12.109 Y17.723
X-1.398 Y34.294
X-1.403 Y34.307
X-1.397 Y34.32
Z-5.95
X-1.389 Y34.328
G2 X-0.935 Y34.773 I17.243 J-17.185
G3 X-0.935 Y35.227 I-0.218 J0.227
G2 X-1.39 Y35.676 I17.037 J17.735
G1 X-1.396 Y35.69
X-1.425 Y37.994
X-1.419 Y38.009
X-1.404 Y38.014
X-1.39 Y38.007
G3 X1.494 Y35.182 I17.468 J14.944
G2 X1.494 Y34.818 I-0.149 J-0.182
G3 X-1.389 Y32.014 I14.383 J-17.674
G1 X-1.394 Y32.001
X-1.426 Y29.475
X-1.419 Y29.46
X-1.404 Y29.455
X-1.39 Y29.463
G2 X4.194 Y34.854 I17.289 J-12.32
G3 X4.194 Y35.146 I-0.097 J0.146
G2 X-1.39 Y40.571 I11.863 J17.795
G1 X-1.393 Y40.582
X-1.427 Y43.547
X-1.42 Y43.563
X-1.404 Y43.567
X-1.39 Y43.557
G3 X7.42 Y35.117 I17.425 J9.372
G1 X7.454 Y35.093
X7.479 Y35.06
X7.492 Y35.021
Y34.979
X7.479 Y34.94
X7.454 Y34.907
X7.42 Y34.883
G3 X-1.39 Y26.486 I8.5 J-17.739
G1 X-1.392 Y26.477
X-1.429 Y22.409
X-1.424 Y22.396
X-1.412 Y22.389
X-1.398 Y22.392
X-1.39 Y22.403
G2 X11.696 Y34.75 I17.331 J-5.259
G3 X11.875 Y34.979 I-0.056 J0.229
G1 Y35.021
G3 X11.696 Y35.25 I-0.235 J0
G2 X-1.39 Y47.645 I4.318 J17.664
G1 X-1.391 Y47.653
X-0.628 Y54.428
X-0.621 Y54.441
X-0.607 Y54.446
X-0.594 Y54.44
X-0.588 Y54.426
X-0.59 Y52.856
G3 X13.193 Y36.551 I16.599 J0.054
G2 X13.417 Y36.39 I-0.054 J-0.311
G1 X13.431 Y36.38
X15.011 Y36.078
X15.028 Y36.082
X15.035 Y36.097
Y37.63
G3 X14.746 Y37.944 I-0.315 J0
G2 X0.99 Y52.856 I1.258 J14.961
G1 X0.993 Y55.473
Y55.484
Z-2.938
X13.423 Y33.62
Z-5.95
X13.417 Y33.61
G2 X13.193 Y33.449 I-0.278 J0.149
G3 X-0.59 Y17.144 I2.753 J-16.305
G1 X-0.588 Y15.574
X-0.586 Y15.565
X-0.579 Y15.558
X0.962 Y14.51
X0.975 Y14.507
X0.988 Y14.514
X0.993 Y14.527
X0.99 Y17.144
G2 X14.746 Y32.056 I14.961 J0
G3 X15.035 Y32.37 I-0.026 J0.314
G1 Y33.904
G3 X13.899 Y34.428 I-0.689 J0
G1 X11.589 Y32.459
X11.538 Y32.411
X0.024 Y20.386
G3 X-0.355 Y19.388 I0.986 J-0.944
G1 X-0.156 Y14.369
G3 X2.573 Y14.424 I1.364 J0.054
G1 X2.57 Y17.144
G2 X16.293 Y30.525 I13.386 J0
G3 X16.615 Y30.841 I0.007 J0.315
G1 Y39.159
G3 X16.293 Y39.475 I-0.315 J0
G2 X2.57 Y52.856 I-0.294 J13.426
G1 X2.573 Y55.576
X2.577 Y55.588
X2.587 Y55.595
X2.599
X4.139 Y55.082
X4.149 Y55.075
X4.152 Y55.063
X4.15 Y52.856
G3 X17.921 Y41.209 I11.844 J0.038
G2 X18.195 Y40.977 I0.038 J-0.232
G1 Y29.023
G2 X17.921 Y28.791 I-0.235 J0
G3 X4.15 Y17.144 I-1.96 J-11.648
G1 X4.152 Y14.937
X4.156 Y14.925
X4.167 Y14.918
X4.179
X5.719 Y15.493
X5.728 Y15.5
X5.732 Y15.512
X5.73 Y17.144
G2 X19.498 Y26.753 I10.238 J0
G1 X19.519 Y26.745
X19.54 Y26.737
G3 X19.775 Y26.901 I0.06 J0.165
G1 Y43.099
G3 X19.54 Y43.263 I-0.175 J0
G1 X19.519 Y43.255
X19.497 Y43.247
G2 X5.73 Y52.856 I-3.509 J9.64
G1 X5.732 Y54.487
X5.736 Y54.499
X5.746 Y54.507
X5.759 Y54.506
X7.298 Y53.932
X7.307 Y53.925
X7.311 Y53.913
X7.31 Y52.856
G3 X18.972 Y44.69 I8.69 J0
X20.017 Y45.095 I-9.538 J26.207
G2 X21.063 Y45.499 I10.594 J-25.831
X21.355 Y45.295 I0.074 J-0.205
G1 Y24.705
G2 X21.063 Y24.501 I-0.218 J0
X20.017 Y24.905 I9.548 J26.232
G3 X18.972 Y25.31 I-10.593 J-25.828
X7.31 Y17.144 I-2.972 J-8.166
G1 X7.311 Y16.087
X7.315 Y16.075
X7.325 Y16.068
X7.338 Y16.069
X8.877 Y16.643
X8.887 Y16.65
X8.89 Y16.662
Y17.144
G2 X18.432 Y23.825 I7.11 J0
X20.537 Y23.035 I-38.441 J-105.615
G3 X22.643 Y22.244 I40.546 J104.825
X22.935 Y22.449 I0.074 J0.205
G1 Y47.551
G3 X22.643 Y47.756 I-0.218 J0
X20.537 Y46.965 I38.443 J-105.62
G2 X18.432 Y46.175 I-40.46 J104.595
X8.89 Y52.856 I-2.432 J6.681
G1 Y53.338
X8.894 Y53.35
X8.905 Y53.357
X8.917
X10.458 Y52.782
X10.467 Y52.775
X10.471 Y52.764
G3 X17.891 Y47.66 I5.529 J0.093
G1 X24.223 Y50.012
G2 X24.515 Y49.807 I0.074 J-0.205
G1 Y20.193
G2 X24.223 Y19.988 I-0.218 J0
G1 X17.891 Y22.34
G3 X10.471 Y17.236 I-1.891 J-5.197
G1 X10.474 Y17.225
X10.484 Y17.217
X10.497
X12.131 Y17.716
X12.14 Y17.723
X12.145 Y17.733
G2 X17.334 Y20.809 I3.855 J-0.589
G1 X25.966 Y17.667
X26.003 Y17.661
X26.041 Y17.669
X26.072 Y17.691
X26.093 Y17.723
X26.1 Y17.761
Y52.239
X26.093 Y52.277
X26.072 Y52.309
X26.041 Y52.331
X26.003 Y52.339
X25.966 Y52.333
X17.334 Y49.191
G2 X12.145 Y52.268 I-1.334 J3.665
G1 X11.933 Y53.652
Z10
X229.398 Y34.316
Z5
Z2.02 F333.3
Z-0.992 F1000
X229.39 Y34.324
G3 X228.935 Y34.773 I-17.492 J-17.286
G2 X228.935 Y35.227 I0.218 J0.227
G3 X229.389 Y35.672 I-16.789 J17.629
G1 X229.395 Y35.686
X229.425 Y37.973
X229.419 Y37.987
X229.404 Y37.993
X229.389 Y37.986
G2 X226.506 Y35.182 I-17.267 J14.87
G3 X226.506 Y34.818 I0.149 J-0.182
G2 X229.39 Y31.992 I-14.584 J-17.77
G1 X229.395 Y31.98
X229.426 Y29.441
X229.419 Y29.426
X229.404 Y29.421
X229.39 Y29.429
G3 X223.806 Y34.854 I-17.446 J-12.37
G2 X223.806 Y35.146 I0.097 J0.146
G3 X229.39 Y40.537 I-11.706 J17.711
G1 X229.393 Y40.548
X229.427 Y43.504
X229.42 Y43.52
X229.404 Y43.524
X229.39 Y43.514
G2 X220.58 Y35.117 I-17.31 J9.342
G1 X220.546 Y35.093
X220.521 Y35.06
X220.508 Y35.021
Y34.979
X220.521 Y34.94
X220.546 Y34.907
X220.58 Y34.883
G2 X229.39 Y26.443 I-8.614 J-17.811
G1 X229.392 Y26.434
X229.429 Y22.361
X229.424 Y22.348
X229.412 Y22.341
X229.398 Y22.344
X229.39 Y22.355
G3 X216.304 Y34.75 I-17.404 J-5.269
G2 X216.125 Y34.979 I0.056 J0.229
G1 Y35.021
G2 X216.304 Y35.25 I0.235 J0
G3 X229.39 Y47.597 I-4.245 J17.606
G1 Y47.605
X228.628 Y54.428
X228.621 Y54.441
X228.607 Y54.446
X228.594 Y54.44
X228.588 Y54.426
X228.59 Y52.856
G2 X214.807 Y36.551 I-16.536 J0
G3 X214.583 Y36.39 I0.054 J-0.311
G1 X214.569 Y36.38
X212.989 Y36.077
X212.972 Y36.081
X212.965 Y36.096
Y37.63
G2 X213.254 Y37.944 I0.315 J0
G3 X227.01 Y52.856 I-1.205 J14.912
G1 X227.007 Y55.472
Y55.483
Z5
X214.578 Y33.619
Z2.02 F333.3
Z-0.992 F1000
X214.583 Y33.609
G3 X214.807 Y33.449 I0.277 J0.15
G2 X228.59 Y17.144 I-2.816 J-16.359
G1 X228.588 Y15.574
X228.586 Y15.565
X228.579 Y15.557
X227.038 Y14.511
X227.025 Y14.507
X227.012 Y14.514
X227.007 Y14.527
X227.01 Y17.144
G3 X213.254 Y32.056 I-15.014 J-0.049
G2 X212.965 Y32.37 I0.026 J0.314
G1 Y33.903
G2 X214.1 Y34.427 I0.689 J0
G1 X216.409 Y32.458
X216.46 Y32.411
X227.976 Y20.384
G2 X228.354 Y19.386 I-0.986 J-0.944
G1 X228.156 Y14.369
G2 X225.427 Y14.424 I-1.364 J0.054
G1 X225.43 Y17.144
G3 X211.707 Y30.525 I-13.429 J-0.044
G2 X211.385 Y30.841 I-0.007 J0.315
G1 Y39.159
G2 X211.707 Y39.475 I0.315 J0
G3 X225.43 Y52.856 I0.337 J13.382
G1 X225.427 Y55.576
X225.423 Y55.588
X225.413 Y55.595
X225.401
X223.861 Y55.082
X223.851 Y55.075
X223.848 Y55.063
X223.85 Y52.856
G2 X210.079 Y41.209 I-11.811 J0
G3 X209.805 Y40.977 I-0.038 J-0.232
G1 Y29.023
G3 X210.079 Y28.791 I0.235 J0
G2 X223.85 Y17.144 I1.928 J-11.686
G1 X223.848 Y14.937
X223.844 Y14.925
X223.833 Y14.918
X223.821
X222.281 Y15.494
X222.272 Y15.501
X222.268 Y15.513
X222.27 Y17.144
G3 X208.503 Y26.753 I-10.259 J-0.03
G1 X208.481 Y26.745
X208.46 Y26.737
G2 X208.225 Y26.901 I-0.06 J0.165
G1 Y43.099
G2 X208.46 Y43.263 I0.175 J0
G1 X208.481 Y43.255
X208.502 Y43.247
G3 X222.27 Y52.856 I3.53 J9.61
G1 X222.268 Y54.487
X222.264 Y54.499
X222.254 Y54.507
X222.241 Y54.506
X220.702 Y53.932
X220.693 Y53.924
X220.689 Y53.913
X220.69 Y52.856
G2 X209.028 Y44.69 I-8.69 J0
X207.983 Y45.095 I9.548 J26.232
G3 X206.937 Y45.499 I-10.593 J-25.828
X206.645 Y45.295 I-0.074 J-0.205
G1 Y24.705
G3 X206.937 Y24.501 I0.218 J0
X207.983 Y24.905 I-9.549 J26.236
G2 X209.028 Y25.31 I10.584 J-25.803
X220.69 Y17.144 I2.972 J-8.166
G1 X220.689 Y16.087
X220.685 Y16.075
X220.675 Y16.068
X220.662
X219.123 Y16.643
X219.113 Y16.651
X219.11 Y16.662
Y17.144
G3 X209.568 Y23.825 I-7.11 J0
X207.463 Y23.035 I38.354 J-105.384
G2 X205.357 Y22.244 I-40.548 J104.83
X205.065 Y22.449 I-0.074 J0.205
G1 Y47.551
G2 X205.357 Y47.756 I0.218 J0
X207.463 Y46.965 I-38.441 J-105.615
G3 X209.568 Y46.175 I40.546 J104.825
X219.11 Y52.856 I2.432 J6.681
G1 Y53.339
X219.106 Y53.35
X219.095 Y53.358
X219.083 Y53.357
X217.542 Y52.782
X217.533 Y52.775
X217.529 Y52.764
G2 X210.109 Y47.66 I-5.529 J0.093
G1 X203.777 Y50.012
G3 X203.485 Y49.807 I-0.074 J-0.205
G1 Y20.193
G3 X203.777 Y19.988 I0.218 J0
G1 X210.109 Y22.34
G2 X217.529 Y17.236 I1.891 J-5.196
G1 X217.526 Y17.225
X217.516 Y17.217
X217.503
X215.869 Y17.716
X215.86 Y17.722
X215.855 Y17.732
G3 X210.666 Y20.809 I-3.855 J-0.589
G1 X202.034 Y17.667
X201.997 Y17.661
X201.959 Y17.669
X201.928 Y17.691
X201.907 Y17.723
X201.9 Y17.761
Y52.239
X201.907 Y52.277
X201.928 Y52.309
X201.959 Y52.331
X201.997 Y52.339
X202.034 Y52.333
X210.666 Y49.191
G3 X215.855 Y52.267 I1.334 J3.665
G1 X215.863 Y52.28
X215.877 Y52.284
X215.891 Y52.277
X229.398 Y35.706
X229.403 Y35.693
X229.397 Y35.68
Z-1.983
X229.389 Y35.672
G2 X228.935 Y35.227 I-17.243 J17.185
G3 X228.935 Y34.773 I0.218 J-0.227
G2 X229.39 Y34.324 I-17.037 J-17.735
G1 X229.396 Y34.31
X229.425 Y32.006
X229.419 Y31.991
X229.404 Y31.986
X229.39 Y31.992
G3 X226.506 Y34.818 I-17.468 J-14.944
G2 X226.506 Y35.182 I0.149 J0.182
G3 X229.389 Y37.986 I-14.383 J17.674
G1 X229.394 Y37.999
X229.426 Y40.525
X229.419 Y40.54
X229.404 Y40.545
X229.39 Y40.537
G2 X223.806 Y35.146 I-17.289 J12.32
G3 X223.806 Y34.854 I0.097 J-0.146
G2 X229.39 Y29.429 I-11.863 J-17.795
G1 X229.393 Y29.418
X229.427 Y26.453
X229.42 Y26.437
X229.404 Y26.433
X229.39 Y26.443
G3 X220.58 Y34.883 I-17.425 J-9.372
G1 X220.546 Y34.907
X220.521 Y34.94
X220.508 Y34.979
Y35.021
X220.521 Y35.06
X220.546 Y35.093
X220.58 Y35.117
G3 X229.39 Y43.514 I-8.5 J17.739
G1 X229.392 Y43.523
X229.429 Y47.591
X229.424 Y47.604
X229.412 Y47.611
X229.398 Y47.608
X229.39 Y47.597
G2 X216.304 Y35.25 I-17.331 J5.259
G3 X216.125 Y35.021 I0.056 J-0.229
G1 Y34.979
G3 X216.304 Y34.75 I0.235 J0
G2 X229.39 Y22.355 I-4.318 J-17.664
G1 X229.391 Y22.347
X228.628 Y15.572
X228.621 Y15.559
X228.607 Y15.554
X228.594 Y15.56
X228.588 Y15.574
X228.59 Y17.144
G3 X214.807 Y33.449 I-16.599 J-0.054
G2 X214.583 Y33.609 I0.054 J0.311
G1 X214.569 Y33.62
X212.989 Y33.922
X212.972 Y33.918
X212.965 Y33.903
Y32.37
G3 X213.254 Y32.056 I0.315 J0
G2 X227.01 Y17.144 I-1.258 J-14.961
G1 X227.007 Y14.527
Y14.516
Z1.028
X214.577 Y36.38
Z-1.983
X214.583 Y36.39
G2 X214.807 Y36.551 I0.278 J-0.149
G3 X228.59 Y52.856 I-2.753 J16.305
G1 X228.588 Y54.426
X228.586 Y54.435
X228.579 Y54.442
X227.038 Y55.489
X227.025 Y55.492
X227.012 Y55.485
X227.007 Y55.472
X227.01 Y52.856
G2 X213.254 Y37.944 I-14.961 J0
G3 X212.965 Y37.63 I0.026 J-0.314
G1 Y36.096
G3 X214.101 Y35.572 I0.689 J0
G1 X216.411 Y37.541
X216.462 Y37.589
X227.977 Y49.614
G3 X228.355 Y50.612 I-0.986 J0.944
G1 X228.156 Y55.632
G3 X225.427 Y55.576 I-1.364 J-0.054
G1 X225.43 Y52.856
G2 X211.707 Y39.475 I-13.386 J0
G3 X211.385 Y39.159 I-0.007 J-0.315
G1 Y30.841
G3 X211.707 Y30.525 I0.315 J0
G2 X225.43 Y17.144 I0.294 J-13.426
G1 X225.427 Y14.424
X225.423 Y14.412
X225.413 Y14.405
X225.401
X223.861 Y14.918
X223.851 Y14.925
X223.848 Y14.937
X223.85 Y17.144
G3 X210.079 Y28.791 I-11.844 J-0.038
G2 X209.805 Y29.023 I-0.038 J0.232
G1 Y40.977
G2 X210.079 Y41.209 I0.235 J0
G3 X223.85 Y52.856 I1.96 J11.648
G1 X223.848 Y55.063
X223.844 Y55.075
X223.833 Y55.082
X223.821
X222.281 Y54.506
X222.272 Y54.499
X222.268 Y54.487
X222.27 Y52.856
G2 X208.502 Y43.247 I-10.238 J0
G1 X208.481 Y43.255
X208.46 Y43.263
G3 X208.225 Y43.099 I-0.06 J-0.165
G1 Y26.901
G3 X208.46 Y26.737 I0.175 J0
G1 X208.481 Y26.745
X208.503 Y26.753
G2 X222.27 Y17.144 I3.509 J-9.64
G1 X222.268 Y15.513
X222.264 Y15.501
X222.254 Y15.493
X222.241 Y15.494
X220.702 Y16.068
X220.693 Y16.075
X220.689 Y16.087
X220.69 Y17.144
G3 X209.028 Y25.31 I-8.69 J0
X207.983 Y24.905 I9.538 J-26.208
G2 X206.937 Y24.501 I-10.594 J25.831
X206.645 Y24.705 I-0.074 J0.205
G1 Y45.295
G2 X206.937 Y45.499 I0.218 J0
X207.983 Y45.095 I-9.548 J-26.232
G3 X209.028 Y44.69 I10.593 J25.828
X220.69 Y52.856 I2.972 J8.166
G1 X220.689 Y53.913
X220.685 Y53.925
X220.675 Y53.932
X220.662
X219.123 Y53.357
X219.113 Y53.35
X219.11 Y53.339
Y52.856
G2 X209.568 Y46.175 I-7.11 J0
X207.463 Y46.965 I38.441 J105.615
G3 X205.357 Y47.756 I-40.546 J-104.825
X205.065 Y47.551 I-0.074 J-0.205
G1 Y22.449
G3 X205.357 Y22.244 I0.218 J0
X207.463 Y23.035 I-38.443 J105.62
G2 X209.568 Y23.825 I40.46 J-104.594
X219.11 Y17.144 I2.432 J-6.681
G1 Y16.662
X219.106 Y16.65
X219.095 Y16.643
X219.083
X217.542 Y17.218
X217.533 Y17.225
X217.529 Y17.236
G3 X210.109 Y22.34 I-5.529 J-0.093
G1 X203.777 Y19.988
G2 X203.485 Y20.193 I-0.074 J0.205
G1 Y49.807
G2 X203.777 Y50.012 I0.218 J0
G1 X210.109 Y47.66
G3 X217.529 Y52.764 I1.891 J5.197
G1 X217.526 Y52.775
X217.516 Y52.783
X217.503
X215.869 Y52.284
X215.86 Y52.277
X215.855 Y52.267
G2 X210.666 Y49.191 I-3.855 J0.589
G1 X202.034 Y52.333
X201.997 Y52.339
X201.959 Y52.331
X201.928 Y52.309
X201.907 Y52.277
X201.9 Y52.239
Y17.761
X201.907 Y17.723
X201.928 Y17.691
X201.959 Y17.669
X201.997 Y17.661
X202.034 Y17.667
X210.666 Y20.809
G2 X215.855 Y17.732 I1.334 J-3.665
G1 X215.863 Y17.719
X215.877 Y17.715
X215.891 Y17.723
X229.399 Y34.289
X229.403 Y34.303
X229.398 Y34.316
Z-2.975
X229.39 Y34.324
G3 X228.935 Y34.773 I-17.492 J-17.286
G2 X228.935 Y35.227 I0.218 J0.227
G3 X229.389 Y35.672 I-16.789 J17.629
G1 X229.395 Y35.686
X229.425 Y37.973
X229.419 Y37.987
X229.404 Y37.993
X229.389 Y37.986
G2 X226.506 Y35.182 I-17.267 J14.87
G3 X226.506 Y34.818 I0.149 J-0.182
G2 X229.39 Y31.992 I-14.584 J-17.77
G1 X229.395 Y31.98
X229.426 Y29.441
X229.419 Y29.426
X229.404 Y29.421
X229.39 Y29.429
G3 X223.806 Y34.854 I-17.446 J-12.37
G2 X223.806 Y35.146 I0.097 J0.146
G3 X229.39 Y40.537 I-11.706 J17.711
G1 X229.393 Y40.548
X229.427 Y43.504
X229.42 Y43.52
X229.404 Y43.524
X229.39 Y43.514
G2 X220.58 Y35.117 I-17.31 J9.342
G1 X220.546 Y35.093
X220.521 Y35.06
X220.508 Y35.021
Y34.979
X220.521 Y34.94
X220.546 Y34.907
X220.58 Y34.883
G2 X229.39 Y26.443 I-8.614 J-17.811
G1 X229.392 Y26.434
X229.429 Y22.361
X229.424 Y22.348
X229.412 Y22.341
X229.398 Y22.344
X229.39 Y22.355
G3 X216.304 Y34.75 I-17.404 J-5.269
G2 X216.125 Y34.979 I0.056 J0.229
G1 Y35.021
G2 X216.304 Y35.25 I0.235 J0
G3 X229.39 Y47.597 I-4.245 J17.606
G1 Y47.605
X228.628 Y54.428
X228.621 Y54.441
X228.607 Y54.446
X228.594 Y54.44
X228.588 Y54.426
X228.59 Y52.856
G2 X214.807 Y36.551 I-16.536 J0
G3 X214.583 Y36.39 I0.054 J-0.311
G1 X214.569 Y36.38
X212.989 Y36.077
X212.972 Y36.081
X212.965 Y36.096
Y37.63
G2 X213.254 Y37.944 I0.315 J0
G3 X227.01 Y52.856 I-1.205 J14.912
G1 X227.007 Y55.472
Y55.483
Z0.037
X214.578 Y33.619
Z-2.975
X214.583 Y33.609
G3 X214.807 Y33.449 I0.277 J0.15
G2 X228.59 Y17.144 I-2.816 J-16.359
G1 X228.588 Y15.574
X228.586 Y15.565
X228.579 Y15.557
X227.038 Y14.511
X227.025 Y14.507
X227.012 Y14.514
X227.007 Y14.527
X227.01 Y17.144
G3 X213.254 Y32.056 I-15.014 J-0.049
G2 X212.965 Y32.37 I0.026 J0.314
G1 Y33.903
G2 X214.1 Y34.427 I0.689 J0
G1 X216.409 Y32.458
X216.46 Y32.411
X227.976 Y20.384
G2 X228.354 Y19.386 I-0.986 J-0.944
G1 X228.156 Y14.369
G2 X225.427 Y14.424 I-1.364 J0.054
G1 X225.43 Y17.144
G3 X211.707 Y30.525 I-13.429 J-0.044
G2 X211.385 Y30.841 I-0.007 J0.315
G1 Y39.159
G2 X211.707 Y39.475 I0.315 J0
G3 X225.43 Y52.856 I0.337 J13.382
G1 X225.427 Y55.576
X225.423 Y55.588
X225.413 Y55.595
X225.401
X223.861 Y55.082
X223.851 Y55.075
X223.848 Y55.063
X223.85 Y52.856
G2 X210.079 Y41.209 I-11.811 J0
G3 X209.805 Y40.977 I-0.038 J-0.232
G1 Y29.023
G3 X210.079 Y28.791 I0.235 J0
G2 X223.85 Y17.144 I1.928 J-11.686
G1 X223.848 Y14.937
X223.844 Y14.925
X223.833 Y14.918
X223.821
X222.281 Y15.494
X222.272 Y15.501
X222.268 Y15.513
X222.27 Y17.144
G3 X208.503 Y26.753 I-10.259 J-0.03
G1 X208.481 Y26.745
X208.46 Y26.737
G2 X208.225 Y26.901 I-0.06 J0.165
G1 Y43.099
G2 X208.46 Y43.263 I0.175 J0
G1 X208.481 Y43.255
X208.502 Y43.247
G3 X222.27 Y52.856 I3.53 J9.61
G1 X222.268 Y54.487
X222.264 Y54.499
X222.254 Y54.507
X222.241 Y54.506
X220.702 Y53.932
X220.693 Y53.924
X220.689 Y53.913
X220.69 Y52.856
G2 X209.028 Y44.69 I-8.69 J0
X207.983 Y45.095 I9.548 J26.232
G3 X206.937 Y45.499 I-10.593 J-25.828
X206.645 Y45.295 I-0.074 J-0.205
G1 Y24.705
G3 X206.937 Y24.501 I0.218 J0
X207.983 Y24.905 I-9.549 J26.236
G2 X209.028 Y25.31 I10.584 J-25.803
X220.69 Y17.144 I2.972 J-8.166
G1 X220.689 Y16.087
X220.685 Y16.075
X220.675 Y16.068
X220.662
X219.123 Y16.643
X219.113 Y16.651
X219.11 Y16.662
Y17.144
G3 X209.568 Y23.825 I-7.11 J0
X207.463 Y23.035 I38.354 J-105.384
G2 X205.357 Y22.244 I-40.548 J104.83
X205.065 Y22.449 I-0.074 J0.205
G1 Y47.551
G2 X205.357 Y47.756 I0.218 J0
X207.463 Y46.965 I-38.441 J-105.615
G3 X209.568 Y46.175 I40.546 J104.825
X219.11 Y52.856 I2.432 J6.681
G1 Y53.339
X219.106 Y53.35
X219.095 Y53.358
X219.083 Y53.357
X217.542 Y52.782
X217.533 Y52.775
X217.529 Y52.764
G2 X210.109 Y47.66 I-5.529 J0.093
G1 X203.777 Y50.012
G3 X203.485 Y49.807 I-0.074 J-0.205
G1 Y20.193
G3 X203.777 Y19.988 I0.218 J0
G1 X210.109 Y22.34
G2 X217.529 Y17.236 I1.891 J-5.196
G1 X217.526 Y17.225
X217.516 Y17.217
X217.503
X215.869 Y17.716
X215.86 Y17.722
X215.855 Y17.732
G3 X210.666 Y20.809 I-3.855 J-0.589
G1 X202.034 Y17.667
X201.997 Y17.661
X201.959 Y17.669
X201.928 Y17.691
X201.907 Y17.723
X201.9 Y17.761
Y52.239
X201.907 Y52.277
X201.928 Y52.309
X201.959 Y52.331
X201.997 Y52.339
X202.034 Y52.333
X210.666 Y49.191
G3 X215.855 Y52.267 I1.334 J3.665
G1 X215.863 Y52.28
X215.877 Y52.284
X215.891 Y52.277
X229.398 Y35.706
X229.403 Y35.693
X229.397 Y35.68
Z-3.967
X229.389 Y35.672
G2 X228.935 Y35.227 I-17.243 J17.185
G3 X228.935 Y34.773 I0.218 J-0.227
G2 X229.39 Y34.324 I-17.037 J-17.735
G1 X229.396 Y34.31
X229.425 Y32.006
X229.419 Y31.991
X229.404 Y31.986
X229.39 Y31.992
G3 X226.506 Y34.818 I-17.468 J-14.944
G2 X226.506 Y35.182 I0.149 J0.182
G3 X229.389 Y37.986 I-14.383 J17.674
G1 X229.394 Y37.999
X229.426 Y40.525
X229.419 Y40.54
X229.404 Y40.545
X229.39 Y40.537
G2 X223.806 Y35.146 I-17.289 J12.32
G3 X223.806 Y34.854 I0.097 J-0.146
G2 X229.39 Y29.429 I-11.863 J-17.795
G1 X229.393 Y29.418
X229.427 Y26.453
X229.42 Y26.437
X229.404 Y26.433
X229.39 Y26.443
G3 X220.58 Y34.883 I-17.425 J-9.372
G1 X220.546 Y34.907
X220.521 Y34.94
X220.508 Y34.979
Y35.021
X220.521 Y35.06
X220.546 Y35.093
X220.58 Y35.117
G3 X229.39 Y43.514 I-8.5 J17.739
G1 X229.392 Y43.523
X229.429 Y47.591
X229.424 Y47.604
X229.412 Y47.611
X229.398 Y47.608
X229.39 Y47.597
G2 X216.304 Y35.25 I-17.331 J5.259
G3 X216.125 Y35.021 I0.056 J-0.229
G1 Y34.979
G3 X216.304 Y34.75 I0.235 J0
G2 X229.39 Y22.355 I-4.318 J-17.664
G1 X229.391 Y22.347
X228.628 Y15.572
X228.621 Y15.559
X228.607 Y15.554
X228.594 Y15.56
X228.588 Y15.574
X228.59 Y17.144
G3 X214.807 Y33.449 I-16.599 J-0.054
G2 X214.583 Y33.609 I0.054 J0.311
G1 X214.569 Y33.62
X212.989 Y33.922
X212.972 Y33.918
X212.965 Y33.903
Y32.37
G3 X213.254 Y32.056 I0.315 J0
G2 X227.01 Y17.144 I-1.258 J-14.961
G1 X227.007 Y14.527
Y14.516
Z-0.955
X214.577 Y36.38
Z-3.967
X214.583 Y36.39
G2 X214.807 Y36.551 I0.278 J-0.149
G3 X228.59 Y52.856 I-2.753 J16.305
G1 X228.588 Y54.426
X228.586 Y54.435
X228.579 Y54.442
X227.038 Y55.489
X227.025 Y55.492
X227.012 Y55.485
X227.007 Y55.472
X227.01 Y52.856
G2 X213.254 Y37.944 I-14.961 J0
G3 X212.965 Y37.63 I0.026 J-0.314
G1 Y36.096
G3 X214.101 Y35.572 I0.689 J0
G1 X216.411 Y37.541
X216.462 Y37.589
X227.977 Y49.614
G3 X228.355 Y50.612 I-0.986 J0.944
G1 X228.156 Y55.632
G3 X225.427 Y55.576 I-1.364 J-0.054
G1 X225.43 Y52.856
G2 X211.707 Y39.475 I-13.386 J0
G3 X211.385 Y39.159 I-0.007 J-0.315
G1 Y30.841
G3 X211.707 Y30.525 I0.315 J0
G2 X225.43 Y17.144 I0.294 J-13.426
G1 X225.427 Y14.424
X225.423 Y14.412
X225.413 Y14.405
X225.401
X223.861 Y14.918
X223.851 Y14.925
X223.848 Y14.937
X223.85 Y17.144
G3 X210.079 Y28.791 I-11.844 J-0.038
G2 X209.805 Y29.023 I-0.038 J0.232
G1 Y40.977
G2 X210.079 Y41.209 I0.235 J0
G3 X223.85 Y52.856 I1.96 J11.648
G1 X223.848 Y55.063
X223.844 Y55.075
X223.833 Y55.082
X223.821
X222.281 Y54.506
X222.272 Y54.499
X222.268 Y54.487
X222.27 Y52.856
G2 X208.502 Y43.247 I-10.238 J0
G1 X208.481 Y43.255
X208.46 Y43.263
G3 X208.225 Y43.099 I-0.06 J-0.165
G1 Y26.901
G3 X208.46 Y26.737 I0.175 J0
G1 X208.481 Y26.745
X208.503 Y26.753
G2 X222.27 Y17.144 I3.509 J-9.64
G1 X222.268 Y15.513
X222.264 Y15.501
X222.254 Y15.493
X222.241 Y15.494
X220.702 Y16.068
X220.693 Y16.075
X220.689 Y16.087
X220.69 Y17.144
G3 X209.028 Y25.31 I-8.69 J0
X207.983 Y24.905 I9.538 J-26.208
G2 X206.937 Y24.501 I-10.594 J25.831
X206.645 Y24.705 I-0.074 J0.205
G1 Y45.295
G2 X206.937 Y45.499 I0.218 J0
X207.983 Y45.095 I-9.548 J-26.232
G3 X209.028 Y44.69 I10.593 J25.828
X220.69 Y52.856 I2.972 J8.166
G1 X220.689 Y53.913
X220.685 Y53.925
X220.675 Y53.932
X220.662
X219.123 Y53.357
X219.113 Y53.35
X219.11 Y53.339
Y52.856
G2 X209.568 Y46.175 I-7.11 J0
X207.463 Y46.965 I38.441 J105.615
G3 X205.357 Y47.756 I-40.546 J-104.825
X205.065 Y47.551 I-0.074 J-0.205
G1 Y22.449
G3 X205.357 Y22.244 I0.218 J0
X207.463 Y23.035 I-38.443 J105.62
G2 X209.568 Y23.825 I40.46 J-104.594
X219.11 Y17.144 I2.432 J-6.681
G1 Y16.662
X219.106 Y16.65
X219.095 Y16.643
X219.083
X217.542 Y17.218
X217.533 Y17.225
X217.529 Y17.236
G3 X210.109 Y22.34 I-5.529 J-0.093
G1 X203.777 Y19.988
G2 X203.485 Y20.193 I-0.074 J0.205
G1 Y49.807
G2 X203.777 Y50.012 I0.218 J0
G1 X210.109 Y47.66
G3 X217.529 Y52.764 I1.891 J5.197
G1 X217.526 Y52.775
X217.516 Y52.783
X217.503
X215.869 Y52.284
X215.86 Y52.277
X215.855 Y52.267
G2 X210.666 Y49.191 I-3.855 J0.589
G1 X202.034 Y52.333
X201.997 Y52.339
X201.959 Y52.331
X201.928 Y52.309
X201.907 Y52.277
X201.9 Y52.239
Y17.761
X201.907 Y17.723
X201.928 Y17.691
X201.959 Y17.669
X201.997 Y17.661
X202.034 Y17.667
X210.666 Y20.809
G2 X215.855 Y17.732 I1.334 J-3.665
G1 X215.863 Y17.719
X215.877 Y17.715
X215.891 Y17.723
X229.399 Y34.289
X229.403 Y34.303
X229.398 Y34.316
Z-4.958
X229.39 Y34.324
G3 X228.935 Y34.773 I-17.492 J-17.286
G2 X228.935 Y35.227 I0.218 J0.227
G3 X229.389 Y35.672 I-16.789 J17.629
G1 X229.395 Y35.686
X229.425 Y37.973
X229.419 Y37.987
X229.404 Y37.993
X229.389 Y37.986
G2 X226.506 Y35.182 I-17.267 J14.87
G3 X226.506 Y34.818 I0.149 J-0.182
G2 X229.39 Y31.992 I-14.584 J-17.77
G1 X229.395 Y31.98
X229.426 Y29.441
X229.419 Y29.426
X229.404 Y29.421
X229.39 Y29.429
G3 X223.806 Y34.854 I-17.446 J-12.37
G2 X223.806 Y35.146 I0.097 J0.146
G3 X229.39 Y40.537 I-11.706 J17.711
G1 X229.393 Y40.548
X229.427 Y43.504
X229.42 Y43.52
X229.404 Y43.524
X229.39 Y43.514
G2 X220.58 Y35.117 I-17.31 J9.342
G1 X220.546 Y35.093
X220.521 Y35.06
X220.508 Y35.021
Y34.979
X220.521 Y34.94
X220.546 Y34.907
X220.58 Y34.883
G2 X229.39 Y26.443 I-8.614 J-17.811
G1 X229.392 Y26.434
X229.429 Y22.361
X229.424 Y22.348
X229.412 Y22.341
X229.398 Y22.344
X229.39 Y22.355
G3 X216.304 Y34.75 I-17.404 J-5.269
G2 X216.125 Y34.979 I0.056 J0.229
G1 Y35.021
G2 X216.304 Y35.25 I0.235 J0
G3 X229.39 Y47.597 I-4.245 J17.606
G1 Y47.605
X228.628 Y54.428
X228.621 Y54.441
X228.607 Y54.446
X228.594 Y54.44
X228.588 Y54.426
X228.59 Y52.856
G2 X214.807 Y36.551 I-16.536 J0
G3 X214.583 Y36.39 I0.054 J-0.311
G1 X214.569 Y36.38
X212.989 Y36.077
X212.972 Y36.081
X212.965 Y36.096
Y37.63
G2 X213.254 Y37.944 I0.315 J0
G3 X227.01 Y52.856 I-1.205 J14.912
G1 X227.007 Y55.472
Y55.483
Z-1.947
X214.578 Y33.619
Z-4.958
X214.583 Y33.609
G3 X214.807 Y33.449 I0.277 J0.15
G2 X228.59 Y17.144 I-2.816 J-16.359
G1 X228.588 Y15.574
X228.586 Y15.565
X228.579 Y15.557
X227.038 Y14.511
X227.025 Y14.507
X227.012 Y14.514
X227.007 Y14.527
X227.01 Y17.144
G3 X213.254 Y32.056 I-15.014 J-0.049
G2 X212.965 Y32.37 I0.026 J0.314
G1 Y33.903
G2 X214.1 Y34.427 I0.689 J0
G1 X216.409 Y32.458
X216.46 Y32.411
X227.976 Y20.384
G2 X228.354 Y19.386 I-0.986 J-0.944
G1 X228.156 Y14.369
G2 X225.427 Y14.424 I-1.364 J0.054
G1 X225.43 Y17.144
G3 X211.707 Y30.525 I-13.429 J-0.044
G2 X211.385 Y30.841 I-0.007 J0.315
G1 Y39.159
G2 X211.707 Y39.475 I0.315 J0
G3 X225.43 Y52.856 I0.337 J13.382
G1 X225.427 Y55.576
X225.423 Y55.588
X225.413 Y55.595
X225.401
X223.861 Y55.082
X223.851 Y55.075
X223.848 Y55.063
X223.85 Y52.856
G2 X210.079 Y41.209 I-11.811 J0
G3 X209.805 Y40.977 I-0.038 J-0.232
G1 Y29.023
G3 X210.079 Y28.791 I0.235 J0
G2 X223.85 Y17.144 I1.928 J-11.686
G1 X223.848 Y14.937
X223.844 Y14.925
X223.833 Y14.918
X223.821
X222.281 Y15.494
X222.272 Y15.501
X222.268 Y15.513
X222.27 Y17.144
G3 X208.503 Y26.753 I-10.259 J-0.03
G1 X208.481 Y26.745
X208.46 Y26.737
G2 X208.225 Y26.901 I-0.06 J0.165
G1 Y43.099
G2 X208.46 Y43.263 I0.175 J0
G1 X208.481 Y43.255
X208.502 Y43.247
G3 X222.27 Y52.856 I3.53 J9.61
G1 X222.268 Y54.487
X222.264 Y54.499
X222.254 Y54.507
X222.241 Y54.506
X220.702 Y53.932
X220.693 Y53.924
X220.689 Y53.913
X220.69 Y52.856
G2 X209.028 Y44.69 I-8.69 J0
X207.983 Y45.095 I9.548 J26.232
G3 X206.937 Y45.499 I-10.593 J-25.828
X206.645 Y45.295 I-0.074 J-0.205
G1 Y24.705
G3 X206.937 Y24.501 I0.218 J0
X207.983 Y24.905 I-9.549 J26.236
G2 X209.028 Y25.31 I10.584 J-25.803
X220.69 Y17.144 I2.972 J-8.166
G1 X220.689 Y16.087
X220.685 Y16.075
X220.675 Y16.068
X220.662
X219.123 Y16.643
X219.113 Y16.651
X219.11 Y16.662
Y17.144
G3 X209.568 Y23.825 I-7.11 J0
X207.463 Y23.035 I38.354 J-105.384
G2 X205.357 Y22.244 I-40.548 J104.83
X205.065 Y22.449 I-0.074 J0.205
G1 Y47.551
G2 X205.357 Y47.756 I0.218 J0
X207.463 Y46.965 I-38.441 J-105.615
G3 X209.568 Y46.175 I40.546 J104.825
X219.11 Y52.856 I2.432 J6.681
G1 Y53.339
X219.106 Y53.35
X219.095 Y53.358
X219.083 Y53.357
X217.542 Y52.782
X217.533 Y52.775
X217.529 Y52.764
G2 X210.109 Y47.66 I-5.529 J0.093
G1 X203.777 Y50.012
G3 X203.485 Y49.807 I-0.074 J-0.205
G1 Y20.193
G3 X203.777 Y19.988 I0.218 J0
G1 X210.109 Y22.34
G2 X217.529 Y17.236 I1.891 J-5.196
G1 X217.526 Y17.225
X217.516 Y17.217
X217.503
X215.869 Y17.716
X215.86 Y17.722
X215.855 Y17.732
G3 X210.666 Y20.809 I-3.855 J-0.589
G1 X202.034 Y17.667
X201.997 Y17.661
X201.959 Y17.669
X201.928 Y17.691
X201.907 Y17.723
X201.9 Y17.761
Y52.239
X201.907 Y52.277
X201.928 Y52.309
X201.959 Y52.331
X201.997 Y52.339
X202.034 Y52.333
X210.666 Y49.191
G3 X215.855 Y52.267 I1.334 J3.665
G1 X215.863 Y52.28
X215.877 Y52.284
X215.891 Y52.277
X229.398 Y35.706
X229.403 Y35.693
X229.397 Y35.68
Z-5.95
X229.389 Y35.672
G2 X228.935 Y35.227 I-17.243 J17.185
G3 X228.935 Y34.773 I0.218 J-0.227
G2 X229.39 Y34.324 I-17.037 J-17.735
G1 X229.396 Y34.31
X229.425 Y32.006
X229.419 Y31.991
X229.404 Y31.986
X229.39 Y31.992
G3 X226.506 Y34.818 I-17.468 J-14.944
G2 X226.506 Y35.182 I0.149 J0.182
G3 X229.389 Y37.986 I-14.383 J17.674
G1 X229.394 Y37.999
X229.426 Y40.525
X229.419 Y40.54
X229.404 Y40.545
X229.39 Y40.537
G2 X223.806 Y35.146 I-17.289 J12.32
G3 X223.806 Y34.854 I0.097 J-0.146
G2 X229.39 Y29.429 I-11.863 J-17.795
G1 X229.393 Y29.418
X229.427 Y26.453
X229.42 Y26.437
X229.404 Y26.433
X229.39 Y26.443
G3 X220.58 Y34.883 I-17.425 J-9.372
G1 X220.546 Y34.907
X220.521 Y34.94
X220.508 Y34.979
Y35.021
X220.521 Y35.06
X220.546 Y35.093
X220.58 Y35.117
G3 X229.39 Y43.514 I-8.5 J17.739
G1 X229.392 Y43.523
X229.429 Y47.591
X229.424 Y47.604
X229.412 Y47.611
X229.398 Y47.608
X229.39 Y47.597
G2 X216.304 Y35.25 I-17.331 J5.259
G3 X216.125 Y35.021 I0.056 J-0.229
G1 Y34.979
G3 X216.304 Y34.75 I0.235 J0
G2 X229.39 Y22.355 I-4.318 J-17.664
G1 X229.391 Y22.347
X228.628 Y15.572
X228.621 Y15.559
X228.607 Y15.554
X228.594 Y15.56
X228.588 Y15.574
X228.59 Y17.144
G3 X214.807 Y33.449 I-16.599 J-0.054
G2 X214.583 Y33.609 I0.054 J0.311
G1 X214.569 Y33.62
X212.989 Y33.922
X212.972 Y33.918
X212.965 Y33.903
Y32.37
G3 X213.254 Y32.056 I0.315 J0
G2 X227.01 Y17.144 I-1.258 J-14.961
G1 X227.007 Y14.527
Y14.516
Z-2.938
X214.577 Y36.38
Z-5.95
X214.583 Y36.39
G2 X214.807 Y36.551 I0.278 J-0.149
G3 X228.59 Y52.856 I-2.753 J16.305
G1 X228.588 Y54.426
X228.586 Y54.435
X228.579 Y54.442
X227.038 Y55.489
X227.025 Y55.492
X227.012 Y55.485
X227.007 Y55.472
X227.01 Y52.856
G2 X213.254 Y37.944 I-14.961 J0
G3 X212.965 Y37.63 I0.026 J-0.314
G1 Y36.096
G3 X214.101 Y35.572 I0.689 J0
G1 X216.411 Y37.541
X216.462 Y37.589
X227.977 Y49.614
G3 X228.355 Y50.612 I-0.986 J0.944
G1 X228.156 Y55.632
G3 X225.427 Y55.576 I-1.364 J-0.054
G1 X225.43 Y52.856
G2 X211.707 Y39.475 I-13.386 J0
G3 X211.385 Y39.159 I-0.007 J-0.315
G1 Y30.841
G3 X211.707 Y30.525 I0.315 J0
G2 X225.43 Y17.144 I0.294 J-13.426
G1 X225.427 Y14.424
X225.423 Y14.412
X225.413 Y14.405
X225.401
X223.861 Y14.918
X223.851 Y14.925
X223.848 Y14.937
X223.85 Y17.144
G3 X210.079 Y28.791 I-11.844 J-0.038
G2 X209.805 Y29.023 I-0.038 J0.232
G1 Y40.977
G2 X210.079 Y41.209 I0.235 J0
G3 X223.85 Y52.856 I1.96 J11.648
G1 X223.848 Y55.063
X223.844 Y55.075
X223.833 Y55.082
X223.821
X222.281 Y54.506
X222.272 Y54.499
X222.268 Y54.487
X222.27 Y52.856
G2 X208.502 Y43.247 I-10.238 J0
G1 X208.481 Y43.255
X208.46 Y43.263
G3 X208.225 Y43.099 I-0.06 J-0.165
G1 Y26.901
G3 X208.46 Y26.737 I0.175 J0
G1 X208.481 Y26.745
X208.503 Y26.753
G2 X222.27 Y17.144 I3.509 J-9.64
G1 X222.268 Y15.513
X222.264 Y15.501
X222.254 Y15.493
X222.241 Y15.494
X220.702 Y16.068
X220.693 Y16.075
X220.689 Y16.087
X220.69 Y17.144
G3 X209.028 Y25.31 I-8.69 J0
X207.983 Y24.905 I9.538 J-26.208
G2 X206.937 Y24.501 I-10.594 J25.831
X206.645 Y24.705 I-0.074 J0.205
G1 Y45.295
G2 X206.937 Y45.499 I0.218 J0
X207.983 Y45.095 I-9.548 J-26.232
G3 X209.028 Y44.69 I10.593 J25.828
X220.69 Y52.856 I2.972 J8.166
G1 X220.689 Y53.913
X220.685 Y53.925
X220.675 Y53.932
X220.662
X219.123 Y53.357
X219.113 Y53.35
X219.11 Y53.339
Y52.856
G2 X209.568 Y46.175 I-7.11 J0
X207.463 Y46.965 I38.441 J105.615
G3 X205.357 Y47.756 I-40.546 J-104.825
X205.065 Y47.551 I-0.074 J-0.205
G1 Y22.449
G3 X205.357 Y22.244 I0.218 J0
X207.463 Y23.035 I-38.443 J105.62
G2 X209.568 Y23.825 I40.46 J-104.594
X219.11 Y17.144 I2.432 J-6.681
G1 Y16.662
X219.106 Y16.65
X219.095 Y16.643
X219.083
X217.542 Y17.218
X217.533 Y17.225
X217.529 Y17.236
G3 X210.109 Y22.34 I-5.529 J-0.093
G1 X203.777 Y19.988
G2 X203.485 Y20.193 I-0.074 J0.205
G1 Y49.807
G2 X203.777 Y50.012 I0.218 J0
G1 X210.109 Y47.66
G3 X217.529 Y52.764 I1.891 J5.197
G1 X217.526 Y52.775
X217.516 Y52.783
X217.503
X215.869 Y52.284
X215.86 Y52.277
X215.855 Y52.267
G2 X210.666 Y49.191 I-3.855 J0.589
G1 X202.034 Y52.333
X201.997 Y52.339
X201.959 Y52.331
X201.928 Y52.309
X201.907 Y52.277
X201.9 Y52.239
Y17.761
X201.907 Y17.723
X201.928 Y17.691
X201.959 Y17.669
X201.997 Y17.661
X202.034 Y17.667
X210.666 Y20.809
G2 X215.855 Y17.732 I1.334 J-3.665
G1 X216.067 Y16.348
Z10
(When using Fusion 360 for Personal Use, the feedrate of)
(rapid moves is reduced to match the feedrate of cutting)
(moves, which can increase machining time. Unrestricted rapid)
(moves are available with a Fusion 360 Subscription.)

(2D Contour tabs)
G0 X215.6 Y52.856
G1 Z10 F1000
Z5
Z2.02 F333.3
Z-0.992
G2 X210.769 Y49.473 I-3.6 J0 F1000
G1 X202.137 Y52.615
G3 X201.6 Y52.239 I-0.137 J-0.376
G1 Y17.761
G3 X202.137 Y17.385 I0.4 J0
G1 X210.769 Y20.527
G2 X215.6 Y17.144 I1.231 J-3.383
G1 Z5
Y52.856
Z1.028 F333.3
Z-1.983
G2 X210.769 Y49.473 I-3.6 J0 F1000
G1 X202.137 Y52.615
G3 X201.6 Y52.239 I-0.137 J-0.376
G1 Y17.761
G3 X202.137 Y17.385 I0.4 J0
G1 X210.769 Y20.527
G2 X215.6 Y17.144 I1.231 J-3.383
G1 Z5
Y52.856
Z0.037 F333.3
Z-2.975
G2 X210.769 Y49.473 I-3.6 J0 F1000
G1 X202.137 Y52.615
G3 X201.6 Y52.239 I-0.137 J-0.376
G1 Y17.761
G3 X202.137 Y17.385 I0.4 J0
G1 X210.769 Y20.527
G2 X215.6 Y17.144 I1.231 J-3.383
G1 Z5
Y52.856
Z-0.955 F333.3
Z-3.967
G2 X210.769 Y49.473 I-3.6 J0 F1000
G1 X202.137 Y52.615
G3 X201.6 Y52.239 I-0.137 J-0.376
G1 Y17.761
G3 X202.137 Y17.385 I0.4 J0
G1 X210.769 Y20.527
G2 X215.6 Y17.144 I1.231 J-3.383
G1 Z5
Y52.856
Z-1.947 F333.3
Z-4.958
G2 X210.769 Y49.473 I-3.6 J0 F1000
G1 X202.137 Y52.615
G3 X201.6 Y52.239 I-0.137 J-0.376
G1 Y17.761
G3 X202.137 Y17.385 I0.4 J0
G1 X210.769 Y20.527
G2 X215.6 Y17.144 I1.231 J-3.383
G1 Z5
Y52.856
Z-2.938 F333.3
Z-5.95
G2 X210.769 Y49.473 I-3.6 J0 F1000
G1 X202.137 Y52.615
G3 X201.6 Y52.239 I-0.137 J-0.376
G1 Y17.761
G3 X202.137 Y17.385 I0.4 J0
G1 X210.769 Y20.527
G2 X215.6 Y17.144 I1.231 J-3.383
G1 Z5
X215.4 Y52.856
Z-2.938 F333.3
Z-5.95
G2 X210.837 Y49.661 I-3.4 J0 F1000
G1 X202.205 Y52.803
G3 X201.4 Y52.239 I-0.205 J-0.564
G1 Y17.761
G3 X202.205 Y17.197 I0.6 J0
G1 X210.837 Y20.339
G2 X215.4 Y17.144 I1.163 J-3.195
G1 Z5
X12.4
Z2.02 F333.3
Z-0.992
G2 X17.231 Y20.527 I3.6 J0 F1000
G1 X25.863 Y17.385
G3 X26.4 Y17.761 I0.137 J0.376
G1 Y52.239
G3 X25.863 Y52.615 I-0.4 J0
G1 X17.231 Y49.473
G2 X12.4 Y52.856 I-1.231 J3.383
G1 Z5
Y17.144
Z1.028 F333.3
Z-1.983
G2 X17.231 Y20.527 I3.6 J0 F1000
G1 X25.863 Y17.385
G3 X26.4 Y17.761 I0.137 J0.376
G1 Y52.239
G3 X25.863 Y52.615 I-0.4 J0
G1 X17.231 Y49.473
G2 X12.4 Y52.856 I-1.231 J3.383
G1 Z5
Y17.144
Z0.037 F333.3
Z-2.975
G2 X17.231 Y20.527 I3.6 J0 F1000
G1 X25.863 Y17.385
G3 X26.4 Y17.761 I0.137 J0.376
G1 Y52.239
G3 X25.863 Y52.615 I-0.4 J0
G1 X17.231 Y49.473
G2 X12.4 Y52.856 I-1.231 J3.383
G1 Z5
Y17.144
Z-0.955 F333.3
Z-3.967
G2 X17.231 Y20.527 I3.6 J0 F1000
G1 X25.863 Y17.385
G3 X26.4 Y17.761 I0.137 J0.376
G1 Y52.239
G3 X25.863 Y52.615 I-0.4 J0
G1 X17.231 Y49.473
G2 X12.4 Y52.856 I-1.231 J3.383
G1 Z5
Y17.144
Z-1.947 F333.3
Z-4.958
G2 X17.231 Y20.527 I3.6 J0 F1000
G1 X25.863 Y17.385
G3 X26.4 Y17.761 I0.137 J0.376
G1 Y52.239
G3 X25.863 Y52.615 I-0.4 J0
G1 X17.231 Y49.473
G2 X12.4 Y52.856 I-1.231 J3.383
G1 Z5
Y17.144
Z-2.938 F333.3
Z-5.95
G2 X17.231 Y20.527 I3.6 J0 F1000
G1 X25.863 Y17.385
G3 X26.4 Y17.761 I0.137 J0.376
G1 Y52.239
G3 X25.863 Y52.615 I-0.4 J0
G1 X17.231 Y49.473
G2 X12.4 Y52.856 I-1.231 J3.383
G1 Z5
X12.6 Y17.144
Z-2.938 F333.3
Z-5.95
G2 X17.163 Y20.339 I3.4 J0 F1000
G1 X25.795 Y17.197
G3 X26.6 Y17.761 I0.205 J0.564
G1 Y52.239
G3 X25.795 Y52.803 I-0.6 J0
G1 X17.163 Y49.661
G2 X12.6 Y52.856 I-1.163 J3.195
G1 Z10
(When using Fusion 360 for Personal Use, the feedrate of)
(rapid moves is reduced to match the feedrate of cutting)
(moves, which can increase machining time. Unrestricted rapid)
(moves are available with a Fusion 360 Subscription.)

(Bore1)
G0 X214.7 Y34.72
G1 Z10 F1000
Z-3.95
Z-5.67
G18 G2 X214.98 Z-5.95 I0.28 K0
G1 X215.12
G17 G3 X215.4 Y35 I0 J0.28
X212.6 Y35 Z-6.2 I-1.4 J0
X215.4 Y35 Z-6.45 I1.4 J0
X212.6 Y35 Z-6.7 I-1.4 J0
X215.4 Y35 Z-6.95 I1.4 J0
X212.6 Y35 Z-7.2 I-1.4 J0
X215.4 Y35 Z-7.45 I1.4 J0
X212.6 Y35 Z-7.7 I-1.4 J0
X215.4 Y35 Z-7.95 I1.4 J0
X212.6 Y35 Z-8.2 I-1.4 J0
X215.4 Y35 Z-8.45 I1.4 J0
X212.6 Y35 Z-8.7 I-1.4 J0
X215.4 Y35 Z-8.95 I1.4 J0
X212.6 Y35 Z-9.2 I-1.4 J0
X215.4 Y35 Z-9.45 I1.4 J0
X212.6 Y35 Z-9.7 I-1.4 J0
X215.4 Y35 Z-9.95 I1.4 J0
X212.6 Y35 Z-10.2 I-1.4 J0
X215.4 Y35 Z-10.45 I1.4 J0
X212.6 Y35 Z-10.7 I-1.4 J0
X215.4 Y35 Z-10.95 I1.4 J0
X212.6 Y35 Z-11.2 I-1.4 J0
X215.4 Y35 Z-11.45 I1.4 J0
X212.6 Y35 Z-11.7 I-1.4 J0
X215.4 Y35 Z-11.95 I1.4 J0
X212.6 Y35 Z-12.2 I-1.4 J0
X215.4 Y35 Z-12.45 I1.4 J0
X212.6 Y35 Z-12.7 I-1.4 J0
X215.4 Y35 Z-12.95 I1.4 J0
X212.6 Y35 Z-13.2 I-1.4 J0
X213.567 Y33.669 Z-13.3 I1.4 J0
X214.433 Y36.331 I0.433 J1.331
X213.567 Y33.669 I-0.433 J-1.331
X213.92 Y33.848 I0.087 J0.266
G1 X213.963 Y33.981
X213.983 Y34.041 Z-13.293
X214.001 Y34.097 Z-13.272
X214.017 Y34.147 Z-13.239
X214.031 Y34.19 Z-13.195
X214.041 Y34.221 Z-13.141
X214.048 Y34.241 Z-13.082
X214.05 Y34.248 Z-13.02
Z5
Z10
X214.8 Y34.72
Z-3.95
Z-5.67
G18 G2 X215.08 Z-5.95 I0.28 K0
G1 X215.22
G17 G3 X215.5 Y35 I0 J0.28
X212.5 Y35 Z-6.2 I-1.5 J0
X215.5 Y35 Z-6.45 I1.5 J0
X212.5 Y35 Z-6.7 I-1.5 J0
X215.5 Y35 Z-6.95 I1.5 J0
X212.5 Y35 Z-7.2 I-1.5 J0
X215.5 Y35 Z-7.45 I1.5 J0
X212.5 Y35 Z-7.7 I-1.5 J0
X215.5 Y35 Z-7.95 I1.5 J0
X212.5 Y35 Z-8.2 I-1.5 J0
X215.5 Y35 Z-8.45 I1.5 J0
X212.5 Y35 Z-8.7 I-1.5 J0
X215.5 Y35 Z-8.95 I1.5 J0
X212.5 Y35 Z-9.2 I-1.5 J0
X215.5 Y35 Z-9.45 I1.5 J0
X212.5 Y35 Z-9.7 I-1.5 J0
X215.5 Y35 Z-9.95 I1.5 J0
X212.5 Y35 Z-10.2 I-1.5 J0
X215.5 Y35 Z-10.45 I1.5 J0
X212.5 Y35 Z-10.7 I-1.5 J0
X215.5 Y35 Z-10.95 I1.5 J0
X212.5 Y35 Z-11.2 I-1.5 J0
X215.5 Y35 Z-11.45 I1.5 J0
X212.5 Y35 Z-11.7 I-1.5 J0
X215.5 Y35 Z-11.95 I1.5 J0
X212.5 Y35 Z-12.2 I-1.5 J0
X215.5 Y35 Z-12.45 I1.5 J0
X212.5 Y35 Z-12.7 I-1.5 J0
X215.5 Y35 Z-12.95 I1.5 J0
X212.5 Y35 Z-13.2 I-1.5 J0
X213.536 Y33.573 Z-13.3 I1.5 J0
X214.464 Y36.427 I0.464 J1.427
X213.536 Y33.573 I-0.464 J-1.427
X213.889 Y33.753 I0.087 J0.266
G1 X213.933 Y33.886
X213.952 Y33.946 Z-13.293
X213.97 Y34.002 Z-13.272
X213.987 Y34.052 Z-13.239
X214 Y34.095 Z-13.195
X214.011 Y34.126 Z-13.141
X214.017 Y34.146 Z-13.082
X214.019 Y34.153 Z-13.02
Z5
X214.8 Y34.72
Z-3.95
Z-5.67
G18 G2 X215.08 Z-5.95 I0.28 K0
G1 X215.22
G17 G3 X215.5 Y35 I0 J0.28
X212.5 Y35 Z-6.2 I-1.5 J0
X215.5 Y35 Z-6.45 I1.5 J0
X212.5 Y35 Z-6.7 I-1.5 J0
X215.5 Y35 Z-6.95 I1.5 J0
X212.5 Y35 Z-7.2 I-1.5 J0
X215.5 Y35 Z-7.45 I1.5 J0
X212.5 Y35 Z-7.7 I-1.5 J0
X215.5 Y35 Z-7.95 I1.5 J0
X212.5 Y35 Z-8.2 I-1.5 J0
X215.5 Y35 Z-8.45 I1.5 J0
X212.5 Y35 Z-8.7 I-1.5 J0
X215.5 Y35 Z-8.95 I1.5 J0
X212.5 Y35 Z-9.2 I-1.5 J0
X215.5 Y35 Z-9.45 I1.5 J0
X212.5 Y35 Z-9.7 I-1.5 J0
X215.5 Y35 Z-9.95 I1.5 J0
X212.5 Y35 Z-10.2 I-1.5 J0
X215.5 Y35 Z-10.45 I1.5 J0
X212.5 Y35 Z-10.7 I-1.5 J0
X215.5 Y35 Z-10.95 I1.5 J0
X212.5 Y35 Z-11.2 I-1.5 J0
X215.5 Y35 Z-11.45 I1.5 J0
X212.5 Y35 Z-11.7 I-1.5 J0
X215.5 Y35 Z-11.95 I1.5 J0
X212.5 Y35 Z-12.2 I-1.5 J0
X215.5 Y35 Z-12.45 I1.5 J0
X212.5 Y35 Z-12.7 I-1.5 J0
X215.5 Y35 Z-12.95 I1.5 J0
X212.5 Y35 Z-13.2 I-1.5 J0
X213.536 Y33.573 Z-13.3 I1.5 J0
X214.464 Y36.427 I0.464 J1.427
X213.536 Y33.573 I-0.464 J-1.427
X213.889 Y33.753 I0.087 J0.266
G1 X213.933 Y33.886
X213.952 Y33.946 Z-13.293
X213.97 Y34.002 Z-13.272
X213.987 Y34.052 Z-13.239
X214 Y34.095 Z-13.195
X214.011 Y34.126 Z-13.141
X214.017 Y34.146 Z-13.082
X214.019 Y34.153 Z-13.02
Z5
X153.96 Y34.9
Z1.72
Z0
X154.1
X154.138 Y34.908
X154.171 Y34.929
X154.192 Y34.962
X154.2 Y35
G3 X153.8 Y35 Z-0.25 I-0.2 J0
X154.2 Y35 Z-0.5 I0.2 J0
X153.8 Y35 Z-0.75 I-0.2 J0
X154.2 Y35 Z-1 I0.2 J0
X153.8 Y35 Z-1.25 I-0.2 J0
X154.2 Y35 Z-1.5 I0.2 J0
X153.8 Y35 Z-1.75 I-0.2 J0
X154.2 Y35 Z-2 I0.2 J0
X153.8 Y35 Z-2.25 I-0.2 J0
X154.2 Y35 Z-2.5 I0.2 J0
X153.8 Y35 Z-2.75 I-0.2 J0
X154.2 Y35 Z-3 I0.2 J0
X153.8 Y35 Z-3.25 I-0.2 J0
X154.2 Y35 Z-3.5 I0.2 J0
X153.8 Y35 Z-3.75 I-0.2 J0
X154.2 Y35 Z-4 I0.2 J0
X153.8 Y35 Z-4.25 I-0.2 J0
X154.2 Y35 Z-4.5 I0.2 J0
X153.8 Y35 Z-4.75 I-0.2 J0
X154.2 Y35 Z-5 I0.2 J0
X153.8 Y35 Z-5.25 I-0.2 J0
X154.2 Y35 Z-5.5 I0.2 J0
X153.8 Y35 Z-5.75 I-0.2 J0
X154.2 Y35 Z-6 I0.2 J0
X153.8 Y35 Z-6.25 I-0.2 J0
X154.2 Y35 Z-6.5 I0.2 J0
X153.8 Y35 Z-6.75 I-0.2 J0
X154.2 Y35 Z-7 I0.2 J0
X153.8 Y35 Z-7.25 I-0.2 J0
X154.2 Y35 Z-7.5 I0.2 J0
X153.8 Y35 Z-7.75 I-0.2 J0
X154.2 Y35 Z-8 I0.2 J0
X153.8 Y35 Z-8.25 I-0.2 J0
X154.2 Y35 Z-8.5 I0.2 J0
X153.8 Y35 Z-8.75 I-0.2 J0
X154.2 Y35 Z-9 I0.2 J0
X153.8 Y35 Z-9.25 I-0.2 J0
X154.2 Y35 Z-9.5 I0.2 J0
X153.8 Y35 Z-9.75 I-0.2 J0
X154.2 Y35 Z-10 I0.2 J0
X153.8 Y35 Z-10.25 I-0.2 J0
X154.2 Y35 Z-10.5 I0.2 J0
X153.8 Y35 Z-10.75 I-0.2 J0
X154.2 Y35 Z-11 I0.2 J0
X153.8 Y35 Z-11.25 I-0.2 J0
X154.2 Y35 Z-11.5 I0.2 J0
X153.8 Y35 Z-11.75 I-0.2 J0
X154.2 Y35 Z-12 I0.2 J0
X153.8 Y35 Z-12.25 I-0.2 J0
X154.2 Y35 Z-12.5 I0.2 J0
X153.8 Y35 Z-12.75 I-0.2 J0
X154.2 Y35 Z-13 I0.2 J0
X153.8 Y35 Z-13.25 I-0.2 J0
X153.838 Y34.882 Z-13.3 I0.2 J0
X154.162 Y35.118 I0.162 J0.118
X153.838 Y34.882 I-0.162 J-0.118
G1 X153.867 Y34.856
X153.903 Y34.842
X153.942 Y34.844
X153.978 Y34.86
X154.091 Y34.943
Z5
X154.01 Y34.85
Z1.72
Z0
X154.15
X154.196 Y34.857
X154.238 Y34.879
X154.271 Y34.912
X154.293 Y34.954
X154.3 Y35
G3 X153.7 Y35 Z-0.25 I-0.3 J0
X154.3 Y35 Z-0.5 I0.3 J0
X153.7 Y35 Z-0.75 I-0.3 J0
X154.3 Y35 Z-1 I0.3 J0
X153.7 Y35 Z-1.25 I-0.3 J0
X154.3 Y35 Z-1.5 I0.3 J0
X153.7 Y35 Z-1.75 I-0.3 J0
X154.3 Y35 Z-2 I0.3 J0
X153.7 Y35 Z-2.25 I-0.3 J0
X154.3 Y35 Z-2.5 I0.3 J0
X153.7 Y35 Z-2.75 I-0.3 J0
X154.3 Y35 Z-3 I0.3 J0
X153.7 Y35 Z-3.25 I-0.3 J0
X154.3 Y35 Z-3.5 I0.3 J0
X153.7 Y35 Z-3.75 I-0.3 J0
X154.3 Y35 Z-4 I0.3 J0
X153.7 Y35 Z-4.25 I-0.3 J0
X154.3 Y35 Z-4.5 I0.3 J0
X153.7 Y35 Z-4.75 I-0.3 J0
X154.3 Y35 Z-5 I0.3 J0
X153.7 Y35 Z-5.25 I-0.3 J0
X154.3 Y35 Z-5.5 I0.3 J0
X153.7 Y35 Z-5.75 I-0.3 J0
X154.3 Y35 Z-6 I0.3 J0
X153.7 Y35 Z-6.25 I-0.3 J0
X154.3 Y35 Z-6.5 I0.3 J0
X153.7 Y35 Z-6.75 I-0.3 J0
X154.3 Y35 Z-7 I0.3 J0
X153.7 Y35 Z-7.25 I-0.3 J0
X154.3 Y35 Z-7.5 I0.3 J0
X153.7 Y35 Z-7.75 I-0.3 J0
X154.3 Y35 Z-8 I0.3 J0
X153.7 Y35 Z-8.25 I-0.3 J0
X154.3 Y35 Z-8.5 I0.3 J0
X153.7 Y35 Z-8.75 I-0.3 J0
X154.3 Y35 Z-9 I0.3 J0
X153.7 Y35 Z-9.25 I-0.3 J0
X154.3 Y35 Z-9.5 I0.3 J0
X153.7 Y35 Z-9.75 I-0.3 J0
X154.3 Y35 Z-10 I0.3 J0
X153.7 Y35 Z-10.25 I-0.3 J0
X154.3 Y35 Z-10.5 I0.3 J0
X153.7 Y35 Z-10.75 I-0.3 J0
X154.3 Y35 Z-11 I0.3 J0
X153.7 Y35 Z-11.25 I-0.3 J0
X154.3 Y35 Z-11.5 I0.3 J0
X153.7 Y35 Z-11.75 I-0.3 J0
X154.3 Y35 Z-12 I0.3 J0
X153.7 Y35 Z-12.25 I-0.3 J0
X154.3 Y35 Z-12.5 I0.3 J0
X153.7 Y35 Z-12.75 I-0.3 J0
X154.3 Y35 Z-13 I0.3 J0
X153.7 Y35 Z-13.25 I-0.3 J0
X153.757 Y34.824 Z-13.3 I0.3 J0
X154.243 Y35.176 I0.243 J0.176
X153.757 Y34.824 I-0.243 J-0.176
G1 X153.79 Y34.79
X153.832 Y34.769
X153.879 Y34.762
X153.925 Y34.769
X153.967 Y34.79
X154.08 Y34.873
Z5
X154.01 Y34.85
Z1.72
Z0
X154.15
X154.196 Y34.857
X154.238 Y34.879
X154.271 Y34.912
X154.293 Y34.954
X154.3 Y35
G3 X153.7 Y35 Z-0.25 I-0.3 J0
X154.3 Y35 Z-0.5 I0.3 J0
X153.7 Y35 Z-0.75 I-0.3 J0
X154.3 Y35 Z-1 I0.3 J0
X153.7 Y35 Z-1.25 I-0.3 J0
X154.3 Y35 Z-1.5 I0.3 J0
X153.7 Y35 Z-1.75 I-0.3 J0
X154.3 Y35 Z-2 I0.3 J0
X153.7 Y35 Z-2.25 I-0.3 J0
X154.3 Y35 Z-2.5 I0.3 J0
X153.7 Y35 Z-2.75 I-0.3 J0
X154.3 Y35 Z-3 I0.3 J0
X153.7 Y35 Z-3.25 I-0.3 J0
X154.3 Y35 Z-3.5 I0.3 J0
X153.7 Y35 Z-3.75 I-0.3 J0
X154.3 Y35 Z-4 I0.3 J0
X153.7 Y35 Z-4.25 I-0.3 J0
X154.3 Y35 Z-4.5 I0.3 J0
X153.7 Y35 Z-4.75 I-0.3 J0
X154.3 Y35 Z-5 I0.3 J0
X153.7 Y35 Z-5.25 I-0.3 J0
X154.3 Y35 Z-5.5 I0.3 J0
X153.7 Y35 Z-5.75 I-0.3 J0
X154.3 Y35 Z-6 I0.3 J0
X153.7 Y35 Z-6.25 I-0.3 J0
X154.3 Y35 Z-6.5 I0.3 J0
X153.7 Y35 Z-6.75 I-0.3 J0
X154.3 Y35 Z-7 I0.3 J0
X153.7 Y35 Z-7.25 I-0.3 J0
X154.3 Y35 Z-7.5 I0.3 J0
X153.7 Y35 Z-7.75 I-0.3 J0
X154.3 Y35 Z-8 I0.3 J0
X153.7 Y35 Z-8.25 I-0.3 J0
X154.3 Y35 Z-8.5 I0.3 J0
X153.7 Y35 Z-8.75 I-0.3 J0
X154.3 Y35 Z-9 I0.3 J0
X153.7 Y35 Z-9.25 I-0.3 J0
X154.3 Y35 Z-9.5 I0.3 J0
X153.7 Y35 Z-9.75 I-0.3 J0
X154.3 Y35 Z-10 I0.3 J0
X153.7 Y35 Z-10.25 I-0.3 J0
X154.3 Y35 Z-10.5 I0.3 J0
X153.7 Y35 Z-10.75 I-0.3 J0
X154.3 Y35 Z-11 I0.3 J0
X153.7 Y35 Z-11.25 I-0.3 J0
X154.3 Y35 Z-11.5 I0.3 J0
X153.7 Y35 Z-11.75 I-0.3 J0
X154.3 Y35 Z-12 I0.3 J0
X153.7 Y35 Z-12.25 I-0.3 J0
X154.3 Y35 Z-12.5 I0.3 J0
X153.7 Y35 Z-12.75 I-0.3 J0
X154.3 Y35 Z-13 I0.3 J0
X153.7 Y35 Z-13.25 I-0.3 J0
X153.757 Y34.824 Z-13.3 I0.3 J0
X154.243 Y35.176 I0.243 J0.176
X153.757 Y34.824 I-0.243 J-0.176
G1 X153.79 Y34.79
X153.832 Y34.769
X153.879 Y34.762
X153.925 Y34.769
X153.967 Y34.79
X154.08 Y34.873
Z5
X135.96 Y34.9
Z1.72
Z0
X136.1
X136.138 Y34.908
X136.171 Y34.929
X136.192 Y34.962
X136.2 Y35
G3 X135.8 Y35 Z-0.25 I-0.2 J0
X136.2 Y35 Z-0.5 I0.2 J0
X135.8 Y35 Z-0.75 I-0.2 J0
X136.2 Y35 Z-1 I0.2 J0
X135.8 Y35 Z-1.25 I-0.2 J0
X136.2 Y35 Z-1.5 I0.2 J0
X135.8 Y35 Z-1.75 I-0.2 J0
X136.2 Y35 Z-2 I0.2 J0
X135.8 Y35 Z-2.25 I-0.2 J0
X136.2 Y35 Z-2.5 I0.2 J0
X135.8 Y35 Z-2.75 I-0.2 J0
X136.2 Y35 Z-3 I0.2 J0
X135.8 Y35 Z-3.25 I-0.2 J0
X136.2 Y35 Z-3.5 I0.2 J0
X135.8 Y35 Z-3.75 I-0.2 J0
X136.2 Y35 Z-4 I0.2 J0
X135.8 Y35 Z-4.25 I-0.2 J0
X136.2 Y35 Z-4.5 I0.2 J0
X135.8 Y35 Z-4.75 I-0.2 J0
X136.2 Y35 Z-5 I0.2 J0
X135.8 Y35 Z-5.25 I-0.2 J0
X136.2 Y35 Z-5.5 I0.2 J0
X135.8 Y35 Z-5.75 I-0.2 J0
X136.2 Y35 Z-6 I0.2 J0
X135.8 Y35 Z-6.25 I-0.2 J0
X136.2 Y35 Z-6.5 I0.2 J0
X135.8 Y35 Z-6.75 I-0.2 J0
X136.2 Y35 Z-7 I0.2 J0
X135.8 Y35 Z-7.25 I-0.2 J0
X136.2 Y35 Z-7.5 I0.2 J0
X135.8 Y35 Z-7.75 I-0.2 J0
X136.2 Y35 Z-8 I0.2 J0
X135.8 Y35 Z-8.25 I-0.2 J0
X136.2 Y35 Z-8.5 I0.2 J0
X135.8 Y35 Z-8.75 I-0.2 J0
X136.2 Y35 Z-9 I0.2 J0
X135.8 Y35 Z-9.25 I-0.2 J0
X136.2 Y35 Z-9.5 I0.2 J0
X135.8 Y35 Z-9.75 I-0.2 J0
X136.2 Y35 Z-10 I0.2 J0
X135.8 Y35 Z-10.25 I-0.2 J0
X136.2 Y35 Z-10.5 I0.2 J0
X135.8 Y35 Z-10.75 I-0.2 J0
X136.2 Y35 Z-11 I0.2 J0
X135.8 Y35 Z-11.25 I-0.2 J0
X136.2 Y35 Z-11.5 I0.2 J0
X135.8 Y35 Z-11.75 I-0.2 J0
X136.2 Y35 Z-12 I0.2 J0
X135.8 Y35 Z-12.25 I-0.2 J0
X136.2 Y35 Z-12.5 I0.2 J0
X135.8 Y35 Z-12.75 I-0.2 J0
X136.2 Y35 Z-13 I0.2 J0
X135.8 Y35 Z-13.25 I-0.2 J0
X135.838 Y34.882 Z-13.3 I0.2 J0
X136.162 Y35.118 I0.162 J0.118
X135.838 Y34.882 I-0.162 J-0.118
G1 X135.867 Y34.856
X135.903 Y34.842
X135.942 Y34.844
X135.978 Y34.86
X136.091 Y34.943
Z5
X136.01 Y34.85
Z1.72
Z0
X136.15
X136.196 Y34.857
X136.238 Y34.879
X136.271 Y34.912
X136.293 Y34.954
X136.3 Y35
G3 X135.7 Y35 Z-0.25 I-0.3 J0
X136.3 Y35 Z-0.5 I0.3 J0
X135.7 Y35 Z-0.75 I-0.3 J0
X136.3 Y35 Z-1 I0.3 J0
X135.7 Y35 Z-1.25 I-0.3 J0
X136.3 Y35 Z-1.5 I0.3 J0
X135.7 Y35 Z-1.75 I-0.3 J0
X136.3 Y35 Z-2 I0.3 J0
X135.7 Y35 Z-2.25 I-0.3 J0
X136.3 Y35 Z-2.5 I0.3 J0
X135.7 Y35 Z-2.75 I-0.3 J0
X136.3 Y35 Z-3 I0.3 J0
X135.7 Y35 Z-3.25 I-0.3 J0
X136.3 Y35 Z-3.5 I0.3 J0
X135.7 Y35 Z-3.75 I-0.3 J0
X136.3 Y35 Z-4 I0.3 J0
X135.7 Y35 Z-4.25 I-0.3 J0
X136.3 Y35 Z-4.5 I0.3 J0
X135.7 Y35 Z-4.75 I-0.3 J0
X136.3 Y35 Z-5 I0.3 J0
X135.7 Y35 Z-5.25 I-0.3 J0
X136.3 Y35 Z-5.5 I0.3 J0
X135.7 Y35 Z-5.75 I-0.3 J0
X136.3 Y35 Z-6 I0.3 J0
X135.7 Y35 Z-6.25 I-0.3 J0
X136.3 Y35 Z-6.5 I0.3 J0
X135.7 Y35 Z-6.75 I-0.3 J0
X136.3 Y35 Z-7 I0.3 J0
X135.7 Y35 Z-7.25 I-0.3 J0
X136.3 Y35 Z-7.5 I0.3 J0
X135.7 Y35 Z-7.75 I-0.3 J0
X136.3 Y35 Z-8 I0.3 J0
X135.7 Y35 Z-8.25 I-0.3 J0
X136.3 Y35 Z-8.5 I0.3 J0
X135.7 Y35 Z-8.75 I-0.3 J0
X136.3 Y35 Z-9 I0.3 J0
X135.7 Y35 Z-9.25 I-0.3 J0
X136.3 Y35 Z-9.5 I0.3 J0
X135.7 Y35 Z-9.75 I-0.3 J0
X136.3 Y35 Z-10 I0.3 J0
X135.7 Y35 Z-10.25 I-0.3 J0
X136.3 Y35 Z-10.5 I0.3 J0
X135.7 Y35 Z-10.75 I-0.3 J0
X136.3 Y35 Z-11 I0.3 J0
X135.7 Y35 Z-11.25 I-0.3 J0
X136.3 Y35 Z-11.5 I0.3 J0
X135.7 Y35 Z-11.75 I-0.3 J0
X136.3 Y35 Z-12 I0.3 J0
X135.7 Y35 Z-12.25 I-0.3 J0
X136.3 Y35 Z-12.5 I0.3 J0
X135.7 Y35 Z-12.75 I-0.3 J0
X136.3 Y35 Z-13 I0.3 J0
X135.7 Y35 Z-13.25 I-0.3 J0
X135.757 Y34.824 Z-13.3 I0.3 J0
X136.243 Y35.176 I0.243 J0.176
X135.757 Y34.824 I-0.243 J-0.176
G1 X135.79 Y34.79
X135.832 Y34.769
X135.879 Y34.762
X135.925 Y34.769
X135.967 Y34.79
X136.08 Y34.873
Z5
X136.01 Y34.85
Z1.72
Z0
X136.15
X136.196 Y34.857
X136.238 Y34.879
X136.271 Y34.912
X136.293 Y34.954
X136.3 Y35
G3 X135.7 Y35 Z-0.25 I-0.3 J0
X136.3 Y35 Z-0.5 I0.3 J0
X135.7 Y35 Z-0.75 I-0.3 J0
X136.3 Y35 Z-1 I0.3 J0
X135.7 Y35 Z-1.25 I-0.3 J0
X136.3 Y35 Z-1.5 I0.3 J0
X135.7 Y35 Z-1.75 I-0.3 J0
X136.3 Y35 Z-2 I0.3 J0
X135.7 Y35 Z-2.25 I-0.3 J0
X136.3 Y35 Z-2.5 I0.3 J0
X135.7 Y35 Z-2.75 I-0.3 J0
X136.3 Y35 Z-3 I0.3 J0
X135.7 Y35 Z-3.25 I-0.3 J0
X136.3 Y35 Z-3.5 I0.3 J0
X135.7 Y35 Z-3.75 I-0.3 J0
X136.3 Y35 Z-4 I0.3 J0
X135.7 Y35 Z-4.25 I-0.3 J0
X136.3 Y35 Z-4.5 I0.3 J0
X135.7 Y35 Z-4.75 I-0.3 J0
X136.3 Y35 Z-5 I0.3 J0
X135.7 Y35 Z-5.25 I-0.3 J0
X136.3 Y35 Z-5.5 I0.3 J0
X135.7 Y35 Z-5.75 I-0.3 J0
X136.3 Y35 Z-6 I0.3 J0
X135.7 Y35 Z-6.25 I-0.3 J0
X136.3 Y35 Z-6.5 I0.3 J0
X135.7 Y35 Z-6.75 I-0.3 J0
X136.3 Y35 Z-7 I0.3 J0
X135.7 Y35 Z-7.25 I-0.3 J0
X136.3 Y35 Z-7.5 I0.3 J0
X135.7 Y35 Z-7.75 I-0.3 J0
X136.3 Y35 Z-8 I0.3 J0
X135.7 Y35 Z-8.25 I-0.3 J0
X136.3 Y35 Z-8.5 I0.3 J0
X135.7 Y35 Z-8.75 I-0.3 J0
X136.3 Y35 Z-9 I0.3 J0
X135.7 Y35 Z-9.25 I-0.3 J0
X136.3 Y35 Z-9.5 I0.3 J0
X135.7 Y35 Z-9.75 I-0.3 J0
X136.3 Y35 Z-10 I0.3 J0
X135.7 Y35 Z-10.25 I-0.3 J0
X136.3 Y35 Z-10.5 I0.3 J0
X135.7 Y35 Z-10.75 I-0.3 J0
X136.3 Y35 Z-11 I0.3 J0
X135.7 Y35 Z-11.25 I-0.3 J0
X136.3 Y35 Z-11.5 I0.3 J0
X135.7 Y35 Z-11.75 I-0.3 J0
X136.3 Y35 Z-12 I0.3 J0
X135.7 Y35 Z-12.25 I-0.3 J0
X136.3 Y35 Z-12.5 I0.3 J0
X135.7 Y35 Z-12.75 I-0.3 J0
X136.3 Y35 Z-13 I0.3 J0
X135.7 Y35 Z-13.25 I-0.3 J0
X135.757 Y34.824 Z-13.3 I0.3 J0
X136.243 Y35.176 I0.243 J0.176
X135.757 Y34.824 I-0.243 J-0.176
G1 X135.79 Y34.79
X135.832 Y34.769
X135.879 Y34.762
X135.925 Y34.769
X135.967 Y34.79
X136.08 Y34.873
Z5
X91.96 Y34.9
Z1.72
Z0
X92.1
X92.138 Y34.908
X92.171 Y34.929
X92.192 Y34.962
X92.2 Y35
G3 X91.8 Y35 Z-0.25 I-0.2 J0
X92.2 Y35 Z-0.5 I0.2 J0
X91.8 Y35 Z-0.75 I-0.2 J0
X92.2 Y35 Z-1 I0.2 J0
X91.8 Y35 Z-1.25 I-0.2 J0
X92.2 Y35 Z-1.5 I0.2 J0
X91.8 Y35 Z-1.75 I-0.2 J0
X92.2 Y35 Z-2 I0.2 J0
X91.8 Y35 Z-2.25 I-0.2 J0
X92.2 Y35 Z-2.5 I0.2 J0
X91.8 Y35 Z-2.75 I-0.2 J0
X92.2 Y35 Z-3 I0.2 J0
X91.8 Y35 Z-3.25 I-0.2 J0
X92.2 Y35 Z-3.5 I0.2 J0
X91.8 Y35 Z-3.75 I-0.2 J0
X92.2 Y35 Z-4 I0.2 J0
X91.8 Y35 Z-4.25 I-0.2 J0
X92.2 Y35 Z-4.5 I0.2 J0
X91.8 Y35 Z-4.75 I-0.2 J0
X92.2 Y35 Z-5 I0.2 J0
X91.8 Y35 Z-5.25 I-0.2 J0
X92.2 Y35 Z-5.5 I0.2 J0
X91.8 Y35 Z-5.75 I-0.2 J0
X92.2 Y35 Z-6 I0.2 J0
X91.8 Y35 Z-6.25 I-0.2 J0
X92.2 Y35 Z-6.5 I0.2 J0
X91.8 Y35 Z-6.75 I-0.2 J0
X92.2 Y35 Z-7 I0.2 J0
X91.8 Y35 Z-7.25 I-0.2 J0
X92.2 Y35 Z-7.5 I0.2 J0
X91.8 Y35 Z-7.75 I-0.2 J0
X92.2 Y35 Z-8 I0.2 J0
X91.8 Y35 Z-8.25 I-0.2 J0
X92.2 Y35 Z-8.5 I0.2 J0
X91.8 Y35 Z-8.75 I-0.2 J0
X92.2 Y35 Z-9 I0.2 J0
X91.8 Y35 Z-9.25 I-0.2 J0
X92.2 Y35 Z-9.5 I0.2 J0
X91.8 Y35 Z-9.75 I-0.2 J0
X92.2 Y35 Z-10 I0.2 J0
X91.8 Y35 Z-10.25 I-0.2 J0
X92.2 Y35 Z-10.5 I0.2 J0
X91.8 Y35 Z-10.75 I-0.2 J0
X92.2 Y35 Z-11 I0.2 J0
X91.8 Y35 Z-11.25 I-0.2 J0
X92.2 Y35 Z-11.5 I0.2 J0
X91.8 Y35 Z-11.75 I-0.2 J0
X92.2 Y35 Z-12 I0.2 J0
X91.8 Y35 Z-12.25 I-0.2 J0
X92.2 Y35 Z-12.5 I0.2 J0
X91.8 Y35 Z-12.75 I-0.2 J0
X92.2 Y35 Z-13 I0.2 J0
X91.8 Y35 Z-13.25 I-0.2 J0
X91.838 Y34.882 Z-13.3 I0.2 J0
X92.162 Y35.118 I0.162 J0.118
X91.838 Y34.882 I-0.162 J-0.118
G1 X91.867 Y34.856
X91.903 Y34.842
X91.942 Y34.844
X91.978 Y34.86
X92.091 Y34.943
Z5
X92.01 Y34.85
Z1.72
Z0
X92.15
X92.196 Y34.857
X92.238 Y34.879
X92.271 Y34.912
X92.293 Y34.954
X92.3 Y35
G3 X91.7 Y35 Z-0.25 I-0.3 J0
X92.3 Y35 Z-0.5 I0.3 J0
X91.7 Y35 Z-0.75 I-0.3 J0
X92.3 Y35 Z-1 I0.3 J0
X91.7 Y35 Z-1.25 I-0.3 J0
X92.3 Y35 Z-1.5 I0.3 J0
X91.7 Y35 Z-1.75 I-0.3 J0
X92.3 Y35 Z-2 I0.3 J0
X91.7 Y35 Z-2.25 I-0.3 J0
X92.3 Y35 Z-2.5 I0.3 J0
X91.7 Y35 Z-2.75 I-0.3 J0
X92.3 Y35 Z-3 I0.3 J0
X91.7 Y35 Z-3.25 I-0.3 J0
X92.3 Y35 Z-3.5 I0.3 J0
X91.7 Y35 Z-3.75 I-0.3 J0
X92.3 Y35 Z-4 I0.3 J0
X91.7 Y35 Z-4.25 I-0.3 J0
X92.3 Y35 Z-4.5 I0.3 J0
X91.7 Y35 Z-4.75 I-0.3 J0
X92.3 Y35 Z-5 I0.3 J0
X91.7 Y35 Z-5.25 I-0.3 J0
X92.3 Y35 Z-5.5 I0.3 J0
X91.7 Y35 Z-5.75 I-0.3 J0
X92.3 Y35 Z-6 I0.3 J0
X91.7 Y35 Z-6.25 I-0.3 J0
X92.3 Y35 Z-6.5 I0.3 J0
X91.7 Y35 Z-6.75 I-0.3 J0
X92.3 Y35 Z-7 I0.3 J0
X91.7 Y35 Z-7.25 I-0.3 J0
X92.3 Y35 Z-7.5 I0.3 J0
X91.7 Y35 Z-7.75 I-0.3 J0
X92.3 Y35 Z-8 I0.3 J0
X91.7 Y35 Z-8.25 I-0.3 J0
X92.3 Y35 Z-8.5 I0.3 J0
X91.7 Y35 Z-8.75 I-0.3 J0
X92.3 Y35 Z-9 I0.3 J0
X91.7 Y35 Z-9.25 I-0.3 J0
X92.3 Y35 Z-9.5 I0.3 J0
X91.7 Y35 Z-9.75 I-0.3 J0
X92.3 Y35 Z-10 I0.3 J0
X91.7 Y35 Z-10.25 I-0.3 J0
X92.3 Y35 Z-10.5 I0.3 J0
X91.7 Y35 Z-10.75 I-0.3 J0
X92.3 Y35 Z-11 I0.3 J0
X91.7 Y35 Z-11.25 I-0.3 J0
X92.3 Y35 Z-11.5 I0.3 J0
X91.7 Y35 Z-11.75 I-0.3 J0
X92.3 Y35 Z-12 I0.3 J0
X91.7 Y35 Z-12.25 I-0.3 J0
X92.3 Y35 Z-12.5 I0.3 J0
X91.7 Y35 Z-12.75 I-0.3 J0
X92.3 Y35 Z-13 I0.3 J0
X91.7 Y35 Z-13.25 I-0.3 J0
X91.757 Y34.824 Z-13.3 I0.3 J0
X92.243 Y35.176 I0.243 J0.176
X91.757 Y34.824 I-0.243 J-0.176
G1 X91.79 Y34.79
X91.832 Y34.769
X91.879 Y34.762
X91.925 Y34.769
X91.967 Y34.79
X92.08 Y34.873
Z5
X92.01 Y34.85
Z1.72
Z0
X92.15
X92.196 Y34.857
X92.238 Y34.879
X92.271 Y34.912
X92.293 Y34.954
X92.3 Y35
G3 X91.7 Y35 Z-0.25 I-0.3 J0
X92.3 Y35 Z-0.5 I0.3 J0
X91.7 Y35 Z-0.75 I-0.3 J0
X92.3 Y35 Z-1 I0.3 J0
X91.7 Y35 Z-1.25 I-0.3 J0
X92.3 Y35 Z-1.5 I0.3 J0
X91.7 Y35 Z-1.75 I-0.3 J0
X92.3 Y35 Z-2 I0.3 J0
X91.7 Y35 Z-2.25 I-0.3 J0
X92.3 Y35 Z-2.5 I0.3 J0
X91.7 Y35 Z-2.75 I-0.3 J0
X92.3 Y35 Z-3 I0.3 J0
X91.7 Y35 Z-3.25 I-0.3 J0
X92.3 Y35 Z-3.5 I0.3 J0
X91.7 Y35 Z-3.75 I-0.3 J0
X92.3 Y35 Z-4 I0.3 J0
X91.7 Y35 Z-4.25 I-0.3 J0
X92.3 Y35 Z-4.5 I0.3 J0
X91.7 Y35 Z-4.75 I-0.3 J0
X92.3 Y35 Z-5 I0.3 J0
X91.7 Y35 Z-5.25 I-0.3 J0
X92.3 Y35 Z-5.5 I0.3 J0
X91.7 Y35 Z-5.75 I-0.3 J0
X92.3 Y35 Z-6 I0.3 J0
X91.7 Y35 Z-6.25 I-0.3 J0
X92.3 Y35 Z-6.5 I0.3 J0
X91.7 Y35 Z-6.75 I-0.3 J0
X92.3 Y35 Z-7 I0.3 J0
X91.7 Y35 Z-7.25 I-0.3 J0
X92.3 Y35 Z-7.5 I0.3 J0
X91.7 Y35 Z-7.75 I-0.3 J0
X92.3 Y35 Z-8 I0.3 J0
X91.7 Y35 Z-8.25 I-0.3 J0
X92.3 Y35 Z-8.5 I0.3 J0
X91.7 Y35 Z-8.75 I-0.3 J0
X92.3 Y35 Z-9 I0.3 J0
X91.7 Y35 Z-9.25 I-0.3 J0
X92.3 Y35 Z-9.5 I0.3 J0
X91.7 Y35 Z-9.75 I-0.3 J0
X92.3 Y35 Z-10 I0.3 J0
X91.7 Y35 Z-10.25 I-0.3 J0
X92.3 Y35 Z-10.5 I0.3 J0
X91.7 Y35 Z-10.75 I-0.3 J0
X92.3 Y35 Z-11 I0.3 J0
X91.7 Y35 Z-11.25 I-0.3 J0
X92.3 Y35 Z-11.5 I0.3 J0
X91.7 Y35 Z-11.75 I-0.3 J0
X92.3 Y35 Z-12 I0.3 J0
X91.7 Y35 Z-12.25 I-0.3 J0
X92.3 Y35 Z-12.5 I0.3 J0
X91.7 Y35 Z-12.75 I-0.3 J0
X92.3 Y35 Z-13 I0.3 J0
X91.7 Y35 Z-13.25 I-0.3 J0
X91.757 Y34.824 Z-13.3 I0.3 J0
X92.243 Y35.176 I0.243 J0.176
X91.757 Y34.824 I-0.243 J-0.176
G1 X91.79 Y34.79
X91.832 Y34.769
X91.879 Y34.762
X91.925 Y34.769
X91.967 Y34.79
X92.08 Y34.873
Z5
X73.96 Y34.9
Z1.72
Z0
X74.1
X74.138 Y34.908
X74.171 Y34.929
X74.192 Y34.962
X74.2 Y35
G3 X73.8 Y35 Z-0.25 I-0.2 J0
X74.2 Y35 Z-0.5 I0.2 J0
X73.8 Y35 Z-0.75 I-0.2 J0
X74.2 Y35 Z-1 I0.2 J0
X73.8 Y35 Z-1.25 I-0.2 J0
X74.2 Y35 Z-1.5 I0.2 J0
X73.8 Y35 Z-1.75 I-0.2 J0
X74.2 Y35 Z-2 I0.2 J0
X73.8 Y35 Z-2.25 I-0.2 J0
X74.2 Y35 Z-2.5 I0.2 J0
X73.8 Y35 Z-2.75 I-0.2 J0
X74.2 Y35 Z-3 I0.2 J0
X73.8 Y35 Z-3.25 I-0.2 J0
X74.2 Y35 Z-3.5 I0.2 J0
X73.8 Y35 Z-3.75 I-0.2 J0
X74.2 Y35 Z-4 I0.2 J0
X73.8 Y35 Z-4.25 I-0.2 J0
X74.2 Y35 Z-4.5 I0.2 J0
X73.8 Y35 Z-4.75 I-0.2 J0
X74.2 Y35 Z-5 I0.2 J0
X73.8 Y35 Z-5.25 I-0.2 J0
X74.2 Y35 Z-5.5 I0.2 J0
X73.8 Y35 Z-5.75 I-0.2 J0
X74.2 Y35 Z-6 I0.2 J0
X73.8 Y35 Z-6.25 I-0.2 J0
X74.2 Y35 Z-6.5 I0.2 J0
X73.8 Y35 Z-6.75 I-0.2 J0
X74.2 Y35 Z-7 I0.2 J0
X73.8 Y35 Z-7.25 I-0.2 J0
X74.2 Y35 Z-7.5 I0.2 J0
X73.8 Y35 Z-7.75 I-0.2 J0
X74.2 Y35 Z-8 I0.2 J0
X73.8 Y35 Z-8.25 I-0.2 J0
X74.2 Y35 Z-8.5 I0.2 J0
X73.8 Y35 Z-8.75 I-0.2 J0
X74.2 Y35 Z-9 I0.2 J0
X73.8 Y35 Z-9.25 I-0.2 J0
X74.2 Y35 Z-9.5 I0.2 J0
X73.8 Y35 Z-9.75 I-0.2 J0
X74.2 Y35 Z-10 I0.2 J0
X73.8 Y35 Z-10.25 I-0.2 J0
X74.2 Y35 Z-10.5 I0.2 J0
X73.8 Y35 Z-10.75 I-0.2 J0
X74.2 Y35 Z-11 I0.2 J0
X73.8 Y35 Z-11.25 I-0.2 J0
X74.2 Y35 Z-11.5 I0.2 J0
X73.8 Y35 Z-11.75 I-0.2 J0
X74.2 Y35 Z-12 I0.2 J0
X73.8 Y35 Z-12.25 I-0.2 J0
X74.2 Y35 Z-12.5 I0.2 J0
X73.8 Y35 Z-12.75 I-0.2 J0
X74.2 Y35 Z-13 I0.2 J0
X73.8 Y35 Z-13.25 I-0.2 J0
X73.838 Y34.882 Z-13.3 I0.2 J0
X74.162 Y35.118 I0.162 J0.118
X73.838 Y34.882 I-0.162 J-0.118
G1 X73.867 Y34.856
X73.903 Y34.842
X73.942 Y34.844
X73.978 Y34.86
X74.091 Y34.943
Z5
X74.01 Y34.85
Z1.72
Z0
X74.15
X74.196 Y34.857
X74.238 Y34.879
X74.271 Y34.912
X74.293 Y34.954
X74.3 Y35
G3 X73.7 Y35 Z-0.25 I-0.3 J0
X74.3 Y35 Z-0.5 I0.3 J0
X73.7 Y35 Z-0.75 I-0.3 J0
X74.3 Y35 Z-1 I0.3 J0
X73.7 Y35 Z-1.25 I-0.3 J0
X74.3 Y35 Z-1.5 I0.3 J0
X73.7 Y35 Z-1.75 I-0.3 J0
X74.3 Y35 Z-2 I0.3 J0
X73.7 Y35 Z-2.25 I-0.3 J0
X74.3 Y35 Z-2.5 I0.3 J0
X73.7 Y35 Z-2.75 I-0.3 J0
X74.3 Y35 Z-3 I0.3 J0
X73.7 Y35 Z-3.25 I-0.3 J0
X74.3 Y35 Z-3.5 I0.3 J0
X73.7 Y35 Z-3.75 I-0.3 J0
X74.3 Y35 Z-4 I0.3 J0
X73.7 Y35 Z-4.25 I-0.3 J0
X74.3 Y35 Z-4.5 I0.3 J0
X73.7 Y35 Z-4.75 I-0.3 J0
X74.3 Y35 Z-5 I0.3 J0
X73.7 Y35 Z-5.25 I-0.3 J0
X74.3 Y35 Z-5.5 I0.3 J0
X73.7 Y35 Z-5.75 I-0.3 J0
X74.3 Y35 Z-6 I0.3 J0
X73.7 Y35 Z-6.25 I-0.3 J0
X74.3 Y35 Z-6.5 I0.3 J0
X73.7 Y35 Z-6.75 I-0.3 J0
X74.3 Y35 Z-7 I0.3 J0
X73.7 Y35 Z-7.25 I-0.3 J0
X74.3 Y35 Z-7.5 I0.3 J0
X73.7 Y35 Z-7.75 I-0.3 J0
X74.3 Y35 Z-8 I0.3 J0
X73.7 Y35 Z-8.25 I-0.3 J0
X74.3 Y35 Z-8.5 I0.3 J0
X73.7 Y35 Z-8.75 I-0.3 J0
X74.3 Y35 Z-9 I0.3 J0
X73.7 Y35 Z-9.25 I-0.3 J0
X74.3 Y35 Z-9.5 I0.3 J0
X73.7 Y35 Z-9.75 I-0.3 J0
X74.3 Y35 Z-10 I0.3 J0
X73.7 Y35 Z-10.25 I-0.3 J0
X74.3 Y35 Z-10.5 I0.3 J0
X73.7 Y35 Z-10.75 I-0.3 J0
X74.3 Y35 Z-11 I0.3 J0
X73.7 Y35 Z-11.25 I-0.3 J0
X74.3 Y35 Z-11.5 I0.3 J0
X73.7 Y35 Z-11.75 I-0.3 J0
X74.3 Y35 Z-12 I0.3 J0
X73.7 Y35 Z-12.25 I-0.3 J0
X74.3 Y35 Z-12.5 I0.3 J0
X73.7 Y35 Z-12.75 I-0.3 J0
X74.3 Y35 Z-13 I0.3 J0
X73.7 Y35 Z-13.25 I-0.3 J0
X73.757 Y34.824 Z-13.3 I0.3 J0
X74.243 Y35.176 I0.243 J0.176
X73.757 Y34.824 I-0.243 J-0.176
G1 X73.79 Y34.79
X73.832 Y34.769
X73.879 Y34.762
X73.925 Y34.769
X73.967 Y34.79
X74.08 Y34.873
Z5
X74.01 Y34.85
Z1.72
Z0
X74.15
X74.196 Y34.857
X74.238 Y34.879
X74.271 Y34.912
X74.293 Y34.954
X74.3 Y35
G3 X73.7 Y35 Z-0.25 I-0.3 J0
X74.3 Y35 Z-0.5 I0.3 J0
X73.7 Y35 Z-0.75 I-0.3 J0
X74.3 Y35 Z-1 I0.3 J0
X73.7 Y35 Z-1.25 I-0.3 J0
X74.3 Y35 Z-1.5 I0.3 J0
X73.7 Y35 Z-1.75 I-0.3 J0
X74.3 Y35 Z-2 I0.3 J0
X73.7 Y35 Z-2.25 I-0.3 J0
X74.3 Y35 Z-2.5 I0.3 J0
X73.7 Y35 Z-2.75 I-0.3 J0
X74.3 Y35 Z-3 I0.3 J0
X73.7 Y35 Z-3.25 I-0.3 J0
X74.3 Y35 Z-3.5 I0.3 J0
X73.7 Y35 Z-3.75 I-0.3 J0
X74.3 Y35 Z-4 I0.3 J0
X73.7 Y35 Z-4.25 I-0.3 J0
X74.3 Y35 Z-4.5 I0.3 J0
X73.7 Y35 Z-4.75 I-0.3 J0
X74.3 Y35 Z-5 I0.3 J0
X73.7 Y35 Z-5.25 I-0.3 J0
X74.3 Y35 Z-5.5 I0.3 J0
X73.7 Y35 Z-5.75 I-0.3 J0
X74.3 Y35 Z-6 I0.3 J0
X73.7 Y35 Z-6.25 I-0.3 J0
X74.3 Y35 Z-6.5 I0.3 J0
X73.7 Y35 Z-6.75 I-0.3 J0
X74.3 Y35 Z-7 I0.3 J0
X73.7 Y35 Z-7.25 I-0.3 J0
X74.3 Y35 Z-7.5 I0.3 J0
X73.7 Y35 Z-7.75 I-0.3 J0
X74.3 Y35 Z-8 I0.3 J0
X73.7 Y35 Z-8.25 I-0.3 J0
X74.3 Y35 Z-8.5 I0.3 J0
X73.7 Y35 Z-8.75 I-0.3 J0
X74.3 Y35 Z-9 I0.3 J0
X73.7 Y35 Z-9.25 I-0.3 J0
X74.3 Y35 Z-9.5 I0.3 J0
X73.7 Y35 Z-9.75 I-0.3 J0
X74.3 Y35 Z-10 I0.3 J0
X73.7 Y35 Z-10.25 I-0.3 J0
X74.3 Y35 Z-10.5 I0.3 J0
X73.7 Y35 Z-10.75 I-0.3 J0
X74.3 Y35 Z-11 I0.3 J0
X73.7 Y35 Z-11.25 I-0.3 J0
X74.3 Y35 Z-11.5 I0.3 J0
X73.7 Y35 Z-11.75 I-0.3 J0
X74.3 Y35 Z-12 I0.3 J0
X73.7 Y35 Z-12.25 I-0.3 J0
X74.3 Y35 Z-12.5 I0.3 J0
X73.7 Y35 Z-12.75 I-0.3 J0
X74.3 Y35 Z-13 I0.3 J0
X73.7 Y35 Z-13.25 I-0.3 J0
X73.757 Y34.824 Z-13.3 I0.3 J0
X74.243 Y35.176 I0.243 J0.176
X73.757 Y34.824 I-0.243 J-0.176
G1 X73.79 Y34.79
X73.832 Y34.769
X73.879 Y34.762
X73.925 Y34.769
X73.967 Y34.79
X74.08 Y34.873
Z5
X14.7 Y34.72
Z-3.95
Z-5.67
G18 G2 X14.98 Z-5.95 I0.28 K0
G1 X15.12
G17 G3 X15.4 Y35 I0 J0.28
X12.6 Y35 Z-6.2 I-1.4 J0
X15.4 Y35 Z-6.45 I1.4 J0
X12.6 Y35 Z-6.7 I-1.4 J0
X15.4 Y35 Z-6.95 I1.4 J0
X12.6 Y35 Z-7.2 I-1.4 J0
X15.4 Y35 Z-7.45 I1.4 J0
X12.6 Y35 Z-7.7 I-1.4 J0
X15.4 Y35 Z-7.95 I1.4 J0
X12.6 Y35 Z-8.2 I-1.4 J0
X15.4 Y35 Z-8.45 I1.4 J0
X12.6 Y35 Z-8.7 I-1.4 J0
X15.4 Y35 Z-8.95 I1.4 J0
X12.6 Y35 Z-9.2 I-1.4 J0
X15.4 Y35 Z-9.45 I1.4 J0
X12.6 Y35 Z-9.7 I-1.4 J0
X15.4 Y35 Z-9.95 I1.4 J0
X12.6 Y35 Z-10.2 I-1.4 J0
X15.4 Y35 Z-10.45 I1.4 J0
X12.6 Y35 Z-10.7 I-1.4 J0
X15.4 Y35 Z-10.95 I1.4 J0
X12.6 Y35 Z-11.2 I-1.4 J0
X15.4 Y35 Z-11.45 I1.4 J0
X12.6 Y35 Z-11.7 I-1.4 J0
X15.4 Y35 Z-11.95 I1.4 J0
X12.6 Y35 Z-12.2 I-1.4 J0
X15.4 Y35 Z-12.45 I1.4 J0
X12.6 Y35 Z-12.7 I-1.4 J0
X15.4 Y35 Z-12.95 I1.4 J0
X12.6 Y35 Z-13.2 I-1.4 J0
X13.567 Y33.669 Z-13.3 I1.4 J0
X14.433 Y36.331 I0.433 J1.331
X13.567 Y33.669 I-0.433 J-1.331
X13.92 Y33.848 I0.087 J0.266
G1 X13.963 Y33.981
X13.983 Y34.041 Z-13.293
X14.001 Y34.097 Z-13.272
X14.017 Y34.147 Z-13.239
X14.031 Y34.19 Z-13.195
X14.041 Y34.221 Z-13.141
X14.048 Y34.241 Z-13.082
X14.05 Y34.248 Z-13.02
Z5
X14.8 Y34.72
Z-3.95
Z-5.67
G18 G2 X15.08 Z-5.95 I0.28 K0
G1 X15.22
G17 G3 X15.5 Y35 I0 J0.28
X12.5 Y35 Z-6.2 I-1.5 J0
X15.5 Y35 Z-6.45 I1.5 J0
X12.5 Y35 Z-6.7 I-1.5 J0
X15.5 Y35 Z-6.95 I1.5 J0
X12.5 Y35 Z-7.2 I-1.5 J0
X15.5 Y35 Z-7.45 I1.5 J0
X12.5 Y35 Z-7.7 I-1.5 J0
X15.5 Y35 Z-7.95 I1.5 J0
X12.5 Y35 Z-8.2 I-1.5 J0
X15.5 Y35 Z-8.45 I1.5 J0
X12.5 Y35 Z-8.7 I-1.5 J0
X15.5 Y35 Z-8.95 I1.5 J0
X12.5 Y35 Z-9.2 I-1.5 J0
X15.5 Y35 Z-9.45 I1.5 J0
X12.5 Y35 Z-9.7 I-1.5 J0
X15.5 Y35 Z-9.95 I1.5 J0
X12.5 Y35 Z-10.2 I-1.5 J0
X15.5 Y35 Z-10.45 I1.5 J0
X12.5 Y35 Z-10.7 I-1.5 J0
X15.5 Y35 Z-10.95 I1.5 J0
X12.5 Y35 Z-11.2 I-1.5 J0
X15.5 Y35 Z-11.45 I1.5 J0
X12.5 Y35 Z-11.7 I-1.5 J0
X15.5 Y35 Z-11.95 I1.5 J0
X12.5 Y35 Z-12.2 I-1.5 J0
X15.5 Y35 Z-12.45 I1.5 J0
X12.5 Y35 Z-12.7 I-1.5 J0
X15.5 Y35 Z-12.95 I1.5 J0
X12.5 Y35 Z-13.2 I-1.5 J0
X13.536 Y33.573 Z-13.3 I1.5 J0
X14.464 Y36.427 I0.464 J1.427
X13.536 Y33.573 I-0.464 J-1.427
X13.889 Y33.753 I0.087 J0.266
G1 X13.933 Y33.886
X13.952 Y33.946 Z-13.293
X13.97 Y34.002 Z-13.272
X13.987 Y34.052 Z-13.239
X14 Y34.095 Z-13.195
X14.011 Y34.126 Z-13.141
X14.017 Y34.146 Z-13.082
X14.019 Y34.153 Z-13.02
Z5
X14.8 Y34.72
Z-3.95
Z-5.67
G18 G2 X15.08 Z-5.95 I0.28 K0
G1 X15.22
G17 G3 X15.5 Y35 I0 J0.28
X12.5 Y35 Z-6.2 I-1.5 J0
X15.5 Y35 Z-6.45 I1.5 J0
X12.5 Y35 Z-6.7 I-1.5 J0
X15.5 Y35 Z-6.95 I1.5 J0
X12.5 Y35 Z-7.2 I-1.5 J0
X15.5 Y35 Z-7.45 I1.5 J0
X12.5 Y35 Z-7.7 I-1.5 J0
X15.5 Y35 Z-7.95 I1.5 J0
X12.5 Y35 Z-8.2 I-1.5 J0
X15.5 Y35 Z-8.45 I1.5 J0
X12.5 Y35 Z-8.7 I-1.5 J0
X15.5 Y35 Z-8.95 I1.5 J0
X12.5 Y35 Z-9.2 I-1.5 J0
X15.5 Y35 Z-9.45 I1.5 J0
X12.5 Y35 Z-9.7 I-1.5 J0
X15.5 Y35 Z-9.95 I1.5 J0
X12.5 Y35 Z-10.2 I-1.5 J0
X15.5 Y35 Z-10.45 I1.5 J0
X12.5 Y35 Z-10.7 I-1.5 J0
X15.5 Y35 Z-10.95 I1.5 J0
X12.5 Y35 Z-11.2 I-1.5 J0
X15.5 Y35 Z-11.45 I1.5 J0
X12.5 Y35 Z-11.7 I-1.5 J0
X15.5 Y35 Z-11.95 I1.5 J0
X12.5 Y35 Z-12.2 I-1.5 J0
X15.5 Y35 Z-12.45 I1.5 J0
X12.5 Y35 Z-12.7 I-1.5 J0
X15.5 Y35 Z-12.95 I1.5 J0
X12.5 Y35 Z-13.2 I-1.5 J0
X13.536 Y33.573 Z-13.3 I1.5 J0
X14.464 Y36.427 I0.464 J1.427
X13.536 Y33.573 I-0.464 J-1.427
X13.889 Y33.753 I0.087 J0.266
G1 X13.933 Y33.886
X13.952 Y33.946 Z-13.293
X13.97 Y34.002 Z-13.272
X13.987 Y34.052 Z-13.239
X14 Y34.095 Z-13.195
X14.011 Y34.126 Z-13.141
X14.017 Y34.146 Z-13.082
X14.019 Y34.153 Z-13.02
Z10
(When using Fusion 360 for Personal Use, the feedrate of)
(rapid moves is reduced to match the feedrate of cutting)
(moves, which can increase machining time. Unrestricted rapid)
(moves are available with a Fusion 360 Subscription.)

(2D Contour both)
G0 X151.333 Y62.6
G1 Z10 F1000
Z5
Z2.02 F333.3
Z-0.946
X161.5 F500
G2 X163.1 Y61 I0 J-1.6
G1 Y60.4
X164.9
Y61
G2 X166.5 Y62.6 I1.6 J0
G1 X177
Y63.05
X151
Y62.6
X151.333
Z-1.892 F333.3
X161.5 F500
G2 X163.1 Y61 I0 J-1.6
G1 Y60.4
X164.9
Y61
G2 X166.5 Y62.6 I1.6 J0
G1 X177
Y63.05
X151
Y62.6
X151.333
Z-2.838 F333.3
X161.5 F500
G2 X163.1 Y61 I0 J-1.6
G1 Y60.4
X164.9
Y61
G2 X166.5 Y62.6 I1.6 J0
G1 X177
Y63.05
X151
Y62.6
X151.333
Z-3.785 F333.3
X161.5 F500
G2 X163.1 Y61 I0 J-1.6
G1 Y60.4
X164.9
Y61
G2 X166.5 Y62.6 I1.6 J0
G1 X177
Y63.05
X151
Y62.6
X151.333
Z-4.731 F333.3
X161.5 F500
G2 X163.1 Y61 I0 J-1.6
G1 Y60.4
X164.9
Y61
G2 X166.5 Y62.6 I1.6 J0
G1 X177
Y63.05
X151
Y62.6
X151.333
Z-5.677 F333.3
X161.5 F500
G2 X163.1 Y61 I0 J-1.6
G1 Y60.4
X164.9
Y61
G2 X166.5 Y62.6 I1.6 J0
G1 X177
Y63.05
X151
Y62.6
X151.333
Z-6.623 F333.3
X161.5 F500
G2 X163.1 Y61 I0 J-1.6
G1 Y60.4
X164.9
Y61
G2 X166.5 Y62.6 I1.6 J0
G1 X177
Y63.05
X151
Y62.6
X151.333
Z-7.569 F333.3
X161.5 F500
G2 X163.1 Y61 I0 J-1.6
G1 Y60.4
X164.9
Y61
G2 X166.5 Y62.6 I1.6 J0
G1 X177
Y63.05
X151
Y62.6
X151.333
Z-8.515 F333.3
X161.5 F500
G2 X163.1 Y61 I0 J-1.6
G1 Y60.4
X164.9
Y61
G2 X166.5 Y62.6 I1.6 J0
G1 X177
Y63.05
X151
Y62.6
X151.333
Z-9.462 F333.3
X161.5 F500
G2 X163.1 Y61 I0 J-1.6
G1 Y60.4
X164.9
Y61
G2 X166.5 Y62.6 I1.6 J0
G1 X177
Y63.05
X151
Y62.6
X151.333
Z-10.408 F333.3
X161.5 F500
G2 X163.1 Y61 I0 J-1.6
G1 Y60.4
X164.9
Y61
G2 X166.5 Y62.6 I1.6 J0
G1 X177
Y63.05
X151
Y62.6
X151.333
Z-11.354 F333.3
X161.5 F500
G2 X163.1 Y61 I0 J-1.6
G1 Y60.4
X164.9
Y61
G2 X166.5 Y62.6 I1.6 J0
G1 X177
Y63.05
X151
Y62.6
X151.333
Z-12.3 F333.3
X161.5 F1000
G2 X163.1 Y61 I0 J-1.6
G1 Y60.4
X164.9
Y61
G2 X166.5 Y62.6 I1.6 J0
G1 X177
Y63.05
X151
Y62.6
X151.333
X151.38 Y62.593
X151.423 Y62.573
X151.458 Y62.541
X151.483 Y62.5
X151.507 Y62.459
X151.543 Y62.427
X151.586 Y62.407
X151.633 Y62.4
X161.5 F500
G2 X162.9 Y61 I0 J-1.4
G1 Y60.2
X165.1
Y61
G2 X166.5 Y62.4 I1.4 J0
G1 X177.2
Y63.25
X150.8
Y62.4
X151.633
Z5 F1000
X151.333 Y6.95
Z2.02 F333.3
Z-0.946
X177 F500
Y7.4
X166.5
G2 X164.9 Y9 I0 J1.6
G1 Y9.6
X163.1
Y9
G2 X161.5 Y7.4 I-1.6 J0
G1 X151
Y6.95
X151.333
Z-1.892 F333.3
X177 F500
Y7.4
X166.5
G2 X164.9 Y9 I0 J1.6
G1 Y9.6
X163.1
Y9
G2 X161.5 Y7.4 I-1.6 J0
G1 X151
Y6.95
X151.333
Z-2.838 F333.3
X177 F500
Y7.4
X166.5
G2 X164.9 Y9 I0 J1.6
G1 Y9.6
X163.1
Y9
G2 X161.5 Y7.4 I-1.6 J0
G1 X151
Y6.95
X151.333
Z-3.785 F333.3
X177 F500
Y7.4
X166.5
G2 X164.9 Y9 I0 J1.6
G1 Y9.6
X163.1
Y9
G2 X161.5 Y7.4 I-1.6 J0
G1 X151
Y6.95
X151.333
Z-4.731 F333.3
X177 F500
Y7.4
X166.5
G2 X164.9 Y9 I0 J1.6
G1 Y9.6
X163.1
Y9
G2 X161.5 Y7.4 I-1.6 J0
G1 X151
Y6.95
X151.333
Z-5.677 F333.3
X177 F500
Y7.4
X166.5
G2 X164.9 Y9 I0 J1.6
G1 Y9.6
X163.1
Y9
G2 X161.5 Y7.4 I-1.6 J0
G1 X151
Y6.95
X151.333
Z-6.623 F333.3
X177 F500
Y7.4
X166.5
G2 X164.9 Y9 I0 J1.6
G1 Y9.6
X163.1
Y9
G2 X161.5 Y7.4 I-1.6 J0
G1 X151
Y6.95
X151.333
Z-7.569 F333.3
X177 F500
Y7.4
X166.5
G2 X164.9 Y9 I0 J1.6
G1 Y9.6
X163.1
Y9
G2 X161.5 Y7.4 I-1.6 J0
G1 X151
Y6.95
X151.333
Z-8.515 F333.3
X177 F500
Y7.4
X166.5
G2 X164.9 Y9 I0 J1.6
G1 Y9.6
X163.1
Y9
G2 X161.5 Y7.4 I-1.6 J0
G1 X151
Y6.95
X151.333
Z-9.462 F333.3
X177 F500
Y7.4
X166.5
G2 X164.9 Y9 I0 J1.6
G1 Y9.6
X163.1
Y9
G2 X161.5 Y7.4 I-1.6 J0
G1 X151
Y6.95
X151.333
Z-10.408 F333.3
X177 F500
Y7.4
X166.5
G2 X164.9 Y9 I0 J1.6
G1 Y9.6
X163.1
Y9
G2 X161.5 Y7.4 I-1.6 J0
G1 X151
Y6.95
X151.333
Z-11.354 F333.3
X177 F500
Y7.4
X166.5
G2 X164.9 Y9 I0 J1.6
G1 Y9.6
X163.1
Y9
G2 X161.5 Y7.4 I-1.6 J0
G1 X151
Y6.95
X151.333
Z-12.3 F333.3
X177 F1000
Y7.4
X166.5
G2 X164.9 Y9 I0 J1.6
G1 Y9.6
X163.1
Y9
G2 X161.5 Y7.4 I-1.6 J0
G1 X151
Y6.95
X151.333
X151.38 Y6.943
X151.423 Y6.923
X151.458 Y6.891
X151.483 Y6.85
X151.507 Y6.809
X151.543 Y6.777
X151.586 Y6.757
X151.633 Y6.75
X177.2 F500
Y7.6
X166.5
G2 X165.1 Y9 I0 J1.4
G1 Y9.8
X162.9
Y9
G2 X161.5 Y7.6 I-1.4 J0
G1 X150.8
Y6.75
X151.633
Z5 F1000
X51.333 Y6.95
Z2.02 F333.3
Z-0.946
X77 F500
Y7.4
X66.5
G2 X64.9 Y9 I0 J1.6
G1 Y9.6
X63.1
Y9
G2 X61.5 Y7.4 I-1.6 J0
G1 X51
Y6.95
X51.333
Z-1.892 F333.3
X77 F500
Y7.4
X66.5
G2 X64.9 Y9 I0 J1.6
G1 Y9.6
X63.1
Y9
G2 X61.5 Y7.4 I-1.6 J0
G1 X51
Y6.95
X51.333
Z-2.838 F333.3
X77 F500
Y7.4
X66.5
G2 X64.9 Y9 I0 J1.6
G1 Y9.6
X63.1
Y9
G2 X61.5 Y7.4 I-1.6 J0
G1 X51
Y6.95
X51.333
Z-3.785 F333.3
X77 F500
Y7.4
X66.5
G2 X64.9 Y9 I0 J1.6
G1 Y9.6
X63.1
Y9
G2 X61.5 Y7.4 I-1.6 J0
G1 X51
Y6.95
X51.333
Z-4.731 F333.3
X77 F500
Y7.4
X66.5
G2 X64.9 Y9 I0 J1.6
G1 Y9.6
X63.1
Y9
G2 X61.5 Y7.4 I-1.6 J0
G1 X51
Y6.95
X51.333
Z-5.677 F333.3
X77 F500
Y7.4
X66.5
G2 X64.9 Y9 I0 J1.6
G1 Y9.6
X63.1
Y9
G2 X61.5 Y7.4 I-1.6 J0
G1 X51
Y6.95
X51.333
Z-6.623 F333.3
X77 F500
Y7.4
X66.5
G2 X64.9 Y9 I0 J1.6
G1 Y9.6
X63.1
Y9
G2 X61.5 Y7.4 I-1.6 J0
G1 X51
Y6.95
X51.333
Z-7.569 F333.3
X77 F500
Y7.4
X66.5
G2 X64.9 Y9 I0 J1.6
G1 Y9.6
X63.1
Y9
G2 X61.5 Y7.4 I-1.6 J0
G1 X51
Y6.95
X51.333
Z-8.515 F333.3
X77 F500
Y7.4
X66.5
G2 X64.9 Y9 I0 J1.6
G1 Y9.6
X63.1
Y9
G2 X61.5 Y7.4 I-1.6 J0
G1 X51
Y6.95
X51.333
Z-9.462 F333.3
X77 F500
Y7.4
X66.5
G2 X64.9 Y9 I0 J1.6
G1 Y9.6
X63.1
Y9
G2 X61.5 Y7.4 I-1.6 J0
G1 X51
Y6.95
X51.333
Z-10.408 F333.3
X77 F500
Y7.4
X66.5
G2 X64.9 Y9 I0 J1.6
G1 Y9.6
X63.1
Y9
G2 X61.5 Y7.4 I-1.6 J0
G1 X51
Y6.95
X51.333
Z-11.354 F333.3
X77 F500
Y7.4
X66.5
G2 X64.9 Y9 I0 J1.6
G1 Y9.6
X63.1
Y9
G2 X61.5 Y7.4 I-1.6 J0
G1 X51
Y6.95
X51.333
Z-12.3 F333.3
X77 F1000
Y7.4
X66.5
G2 X64.9 Y9 I0 J1.6
G1 Y9.6
X63.1
Y9
G2 X61.5 Y7.4 I-1.6 J0
G1 X51
Y6.95
X51.333
X51.38 Y6.943
X51.423 Y6.923
X51.458 Y6.891
X51.483 Y6.85
X51.507 Y6.809
X51.543 Y6.777
X51.586 Y6.757
X51.633 Y6.75
X77.2 F500
Y7.6
X66.5
G2 X65.1 Y9 I0 J1.4
G1 Y9.8
X62.9
Y9
G2 X61.5 Y7.6 I-1.4 J0
G1 X50.8
Y6.75
X51.633
Z5 F1000
X51.333 Y62.6
Z2.02 F333.3
Z-0.946
X61.5 F500
G2 X63.1 Y61 I0 J-1.6
G1 Y60.4
X64.9
Y61
G2 X66.5 Y62.6 I1.6 J0
G1 X77
Y63.05
X51
Y62.6
X51.333
Z-1.892 F333.3
X61.5 F500
G2 X63.1 Y61 I0 J-1.6
G1 Y60.4
X64.9
Y61
G2 X66.5 Y62.6 I1.6 J0
G1 X77
Y63.05
X51
Y62.6
X51.333
Z-2.838 F333.3
X61.5 F500
G2 X63.1 Y61 I0 J-1.6
G1 Y60.4
X64.9
Y61
G2 X66.5 Y62.6 I1.6 J0
G1 X77
Y63.05
X51
Y62.6
X51.333
Z-3.785 F333.3
X61.5 F500
G2 X63.1 Y61 I0 J-1.6
G1 Y60.4
X64.9
Y61
G2 X66.5 Y62.6 I1.6 J0
G1 X77
Y63.05
X51
Y62.6
X51.333
Z-4.731 F333.3
X61.5 F500
G2 X63.1 Y61 I0 J-1.6
G1 Y60.4
X64.9
Y61
G2 X66.5 Y62.6 I1.6 J0
G1 X77
Y63.05
X51
Y62.6
X51.333
Z-5.677 F333.3
X61.5 F500
G2 X63.1 Y61 I0 J-1.6
G1 Y60.4
X64.9
Y61
G2 X66.5 Y62.6 I1.6 J0
G1 X77
Y63.05
X51
Y62.6
X51.333
Z-6.623 F333.3
X61.5 F500
G2 X63.1 Y61 I0 J-1.6
G1 Y60.4
X64.9
Y61
G2 X66.5 Y62.6 I1.6 J0
G1 X77
Y63.05
X51
Y62.6
X51.333
Z-7.569 F333.3
X61.5 F500
G2 X63.1 Y61 I0 J-1.6
G1 Y60.4
X64.9
Y61
G2 X66.5 Y62.6 I1.6 J0
G1 X77
Y63.05
X51
Y62.6
X51.333
Z-8.515 F333.3
X61.5 F500
G2 X63.1 Y61 I0 J-1.6
G1 Y60.4
X64.9
Y61
G2 X66.5 Y62.6 I1.6 J0
G1 X77
Y63.05
X51
Y62.6
X51.333
Z-9.462 F333.3
X61.5 F500
G2 X63.1 Y61 I0 J-1.6
G1 Y60.4
X64.9
Y61
G2 X66.5 Y62.6 I1.6 J0
G1 X77
Y63.05
X51
Y62.6
X51.333
Z-10.408 F333.3
X61.5 F500
G2 X63.1 Y61 I0 J-1.6
G1 Y60.4
X64.9
Y61
G2 X66.5 Y62.6 I1.6 J0
G1 X77
Y63.05
X51
Y62.6
X51.333
Z-11.354 F333.3
X61.5 F500
G2 X63.1 Y61 I0 J-1.6
G1 Y60.4
X64.9
Y61
G2 X66.5 Y62.6 I1.6 J0
G1 X77
Y63.05
X51
Y62.6
X51.333
Z-12.3 F333.3
X61.5 F1000
G2 X63.1 Y61 I0 J-1.6
G1 Y60.4
X64.9
Y61
G2 X66.5 Y62.6 I1.6 J0
G1 X77
Y63.05
X51
Y62.6
X51.333
X51.38 Y62.593
X51.423 Y62.573
X51.458 Y62.541
X51.483 Y62.5
X51.507 Y62.459
X51.543 Y62.427
X51.586 Y62.407
X51.633 Y62.4
X61.5 F500
G2 X62.9 Y61 I0 J-1.4
G1 Y60.2
X65.1
Y61
G2 X66.5 Y62.4 I1.4 J0
G1 X77.2
Y63.25
X50.8
Y62.4
X51.633
Z5 F1000
X29.297 Y-1.6
Z2.02 F333.3
Z-0.946
X14 F500
G2 X12.4 Y0 I0 J1.6
G1 Y17.144
G3 X11.863 Y17.52 I-0.4 J0
G1 X3.231 Y14.378
G2 X-1.6 Y17.761 I-1.231 J3.383
G1 Y52.239
G2 X3.231 Y55.622 I3.6 J0
G1 X11.863 Y52.48
G3 X12.4 Y52.856 I0.137 J0.376
G1 Y70
G2 X14 Y71.6 I1.6 J0
G1 X107.8
G2 X109.4 Y70 I0 J-1.6
G1 Y38.05
G2 X107.8 Y36.45 I-1.6 J0
G1 X120.2
G2 X118.6 Y38.05 I0 J1.6
G1 Y70
G2 X120.2 Y71.6 I1.6 J0
G1 X214
G2 X215.6 Y70 I0 J-1.6
G1 Y52.856
G3 X216.137 Y52.48 I0.4 J0
G1 X224.769 Y55.622
G2 X229.6 Y52.239 I1.231 J-3.383
G1 Y17.761
G2 X224.769 Y14.378 I-3.6 J0
G1 X216.137 Y17.52
G3 X215.6 Y17.144 I-0.137 J-0.376
G1 Y0
G2 X214 Y-1.6 I-1.6 J0
G1 X29.297
Z-1.892 F333.3
X14 F500
G2 X12.4 Y0 I0 J1.6
G1 Y17.144
G3 X11.863 Y17.52 I-0.4 J0
G1 X3.231 Y14.378
G2 X-1.6 Y17.761 I-1.231 J3.383
G1 Y52.239
G2 X3.231 Y55.622 I3.6 J0
G1 X11.863 Y52.48
G3 X12.4 Y52.856 I0.137 J0.376
G1 Y70
G2 X14 Y71.6 I1.6 J0
G1 X107.8
G2 X109.4 Y70 I0 J-1.6
G1 Y38.05
G2 X107.8 Y36.45 I-1.6 J0
G1 X120.2
G2 X118.6 Y38.05 I0 J1.6
G1 Y70
G2 X120.2 Y71.6 I1.6 J0
G1 X214
G2 X215.6 Y70 I0 J-1.6
G1 Y52.856
G3 X216.137 Y52.48 I0.4 J0
G1 X224.769 Y55.622
G2 X229.6 Y52.239 I1.231 J-3.383
G1 Y17.761
G2 X224.769 Y14.378 I-3.6 J0
G1 X216.137 Y17.52
G3 X215.6 Y17.144 I-0.137 J-0.376
G1 Y0
G2 X214 Y-1.6 I-1.6 J0
G1 X29.297
Z-2.838 F333.3
X14 F500
G2 X12.4 Y0 I0 J1.6
G1 Y17.144
G3 X11.863 Y17.52 I-0.4 J0
G1 X3.231 Y14.378
G2 X-1.6 Y17.761 I-1.231 J3.383
G1 Y52.239
G2 X3.231 Y55.622 I3.6 J0
G1 X11.863 Y52.48
G3 X12.4 Y52.856 I0.137 J0.376
G1 Y70
G2 X14 Y71.6 I1.6 J0
G1 X107.8
G2 X109.4 Y70 I0 J-1.6
G1 Y38.05
G2 X107.8 Y36.45 I-1.6 J0
G1 X120.2
G2 X118.6 Y38.05 I0 J1.6
G1 Y70
G2 X120.2 Y71.6 I1.6 J0
G1 X214
G2 X215.6 Y70 I0 J-1.6
G1 Y52.856
G3 X216.137 Y52.48 I0.4 J0
G1 X224.769 Y55.622
G2 X229.6 Y52.239 I1.231 J-3.383
G1 Y17.761
G2 X224.769 Y14.378 I-3.6 J0
G1 X216.137 Y17.52
G3 X215.6 Y17.144 I-0.137 J-0.376
G1 Y0
G2 X214 Y-1.6 I-1.6 J0
G1 X29.297
Z-3.785 F333.3
X14 F500
G2 X12.4 Y0 I0 J1.6
G1 Y17.144
G3 X11.863 Y17.52 I-0.4 J0
G1 X3.231 Y14.378
G2 X-1.6 Y17.761 I-1.231 J3.383
G1 Y52.239
G2 X3.231 Y55.622 I3.6 J0
G1 X11.863 Y52.48
G3 X12.4 Y52.856 I0.137 J0.376
G1 Y70
G2 X14 Y71.6 I1.6 J0
G1 X107.8
G2 X109.4 Y70 I0 J-1.6
G1 Y38.05
G2 X107.8 Y36.45 I-1.6 J0
G1 X120.2
G2 X118.6 Y38.05 I0 J1.6
G1 Y70
G2 X120.2 Y71.6 I1.6 J0
G1 X214
G2 X215.6 Y70 I0 J-1.6
G1 Y52.856
G3 X216.137 Y52.48 I0.4 J0
G1 X224.769 Y55.622
G2 X229.6 Y52.239 I1.231 J-3.383
G1 Y17.761
G2 X224.769 Y14.378 I-3.6 J0
G1 X216.137 Y17.52
G3 X215.6 Y17.144 I-0.137 J-0.376
G1 Y0
G2 X214 Y-1.6 I-1.6 J0
G1 X29.297
Z-4.731 F333.3
X14 F500
G2 X12.4 Y0 I0 J1.6
G1 Y17.144
G3 X11.863 Y17.52 I-0.4 J0
G1 X3.231 Y14.378
G2 X-1.6 Y17.761 I-1.231 J3.383
G1 Y52.239
G2 X3.231 Y55.622 I3.6 J0
G1 X11.863 Y52.48
G3 X12.4 Y52.856 I0.137 J0.376
G1 Y70
G2 X14 Y71.6 I1.6 J0
G1 X107.8
G2 X109.4 Y70 I0 J-1.6
G1 Y38.05
G2 X107.8 Y36.45 I-1.6 J0
G1 X120.2
G2 X118.6 Y38.05 I0 J1.6
G1 Y70
G2 X120.2 Y71.6 I1.6 J0
G1 X214
G2 X215.6 Y70 I0 J-1.6
G1 Y52.856
G3 X216.137 Y52.48 I0.4 J0
G1 X224.769 Y55.622
G2 X229.6 Y52.239 I1.231 J-3.383
G1 Y17.761
G2 X224.769 Y14.378 I-3.6 J0
G1 X216.137 Y17.52
G3 X215.6 Y17.144 I-0.137 J-0.376
G1 Y0
G2 X214 Y-1.6 I-1.6 J0
G1 X29.297
Z-5.677 F333.3
X14 F500
G2 X12.4 Y0 I0 J1.6
G1 Y17.144
G3 X11.863 Y17.52 I-0.4 J0
G1 X3.231 Y14.378
G2 X-1.6 Y17.761 I-1.231 J3.383
G1 Y52.239
G2 X3.231 Y55.622 I3.6 J0
G1 X11.863 Y52.48
G3 X12.4 Y52.856 I0.137 J0.376
G1 Y70
G2 X14 Y71.6 I1.6 J0
G1 X107.8
G2 X109.4 Y70 I0 J-1.6
G1 Y38.05
G2 X107.8 Y36.45 I-1.6 J0
G1 X120.2
G2 X118.6 Y38.05 I0 J1.6
G1 Y70
G2 X120.2 Y71.6 I1.6 J0
G1 X214
G2 X215.6 Y70 I0 J-1.6
G1 Y52.856
G3 X216.137 Y52.48 I0.4 J0
G1 X224.769 Y55.622
G2 X229.6 Y52.239 I1.231 J-3.383
G1 Y17.761
G2 X224.769 Y14.378 I-3.6 J0
G1 X216.137 Y17.52
G3 X215.6 Y17.144 I-0.137 J-0.376
G1 Y0
G2 X214 Y-1.6 I-1.6 J0
G1 X29.297
Z-6.623 F333.3
X14 F500
G2 X12.4 Y0 I0 J1.6
G1 Y17.144
G3 X11.863 Y17.52 I-0.4 J0
G1 X3.231 Y14.378
G2 X-1.6 Y17.761 I-1.231 J3.383
G1 Y52.239
G2 X3.231 Y55.622 I3.6 J0
G1 X11.863 Y52.48
G3 X12.4 Y52.856 I0.137 J0.376
G1 Y70
G2 X14 Y71.6 I1.6 J0
G1 X107.8
G2 X109.4 Y70 I0 J-1.6
G1 Y38.05
G2 X107.8 Y36.45 I-1.6 J0
G1 X120.2
G2 X118.6 Y38.05 I0 J1.6
G1 Y70
G2 X120.2 Y71.6 I1.6 J0
G1 X214
G2 X215.6 Y70 I0 J-1.6
G1 Y52.856
G3 X216.137 Y52.48 I0.4 J0
G1 X224.769 Y55.622
G2 X229.6 Y52.239 I1.231 J-3.383
G1 Y17.761
G2 X224.769 Y14.378 I-3.6 J0
G1 X216.137 Y17.52
G3 X215.6 Y17.144 I-0.137 J-0.376
G1 Y0
G2 X214 Y-1.6 I-1.6 J0
G1 X29.297
Z-7.569 F333.3
X14 F500
G2 X12.4 Y0 I0 J1.6
G1 Y17.144
G3 X11.863 Y17.52 I-0.4 J0
G1 X3.231 Y14.378
G2 X-1.6 Y17.761 I-1.231 J3.383
G1 Y52.239
G2 X3.231 Y55.622 I3.6 J0
G1 X11.863 Y52.48
G3 X12.4 Y52.856 I0.137 J0.376
G1 Y70
G2 X14 Y71.6 I1.6 J0
G1 X107.8
G2 X109.4 Y70 I0 J-1.6
G1 Y38.05
G2 X107.8 Y36.45 I-1.6 J0
G1 X120.2
G2 X118.6 Y38.05 I0 J1.6
G1 Y70
G2 X120.2 Y71.6 I1.6 J0
G1 X214
G2 X215.6 Y70 I0 J-1.6
G1 Y52.856
G3 X216.137 Y52.48 I0.4 J0
G1 X224.769 Y55.622
G2 X229.6 Y52.239 I1.231 J-3.383
G1 Y17.761
G2 X224.769 Y14.378 I-3.6 J0
G1 X216.137 Y17.52
G3 X215.6 Y17.144 I-0.137 J-0.376
G1 Y0
G2 X214 Y-1.6 I-1.6 J0
G1 X29.297
Z-8.515 F333.3
X14 F500
G2 X12.4 Y0 I0 J1.6
G1 Y17.144
G3 X11.863 Y17.52 I-0.4 J0
G1 X3.231 Y14.378
G2 X-1.6 Y17.761 I-1.231 J3.383
G1 Y52.239
G2 X3.231 Y55.622 I3.6 J0
G1 X11.863 Y52.48
G3 X12.4 Y52.856 I0.137 J0.376
G1 Y70
G2 X14 Y71.6 I1.6 J0
G1 X107.8
G2 X109.4 Y70 I0 J-1.6
G1 Y38.05
G2 X107.8 Y36.45 I-1.6 J0
G1 X120.2
G2 X118.6 Y38.05 I0 J1.6
G1 Y70
G2 X120.2 Y71.6 I1.6 J0
G1 X214
G2 X215.6 Y70 I0 J-1.6
G1 Y52.856
G3 X216.137 Y52.48 I0.4 J0
G1 X224.769 Y55.622
G2 X229.6 Y52.239 I1.231 J-3.383
G1 Y17.761
G2 X224.769 Y14.378 I-3.6 J0
G1 X216.137 Y17.52
G3 X215.6 Y17.144 I-0.137 J-0.376
G1 Y0
G2 X214 Y-1.6 I-1.6 J0
G1 X29.297
Z-9.462 F333.3
X14 F500
G2 X12.4 Y0 I0 J1.6
G1 Y17.144
G3 X11.863 Y17.52 I-0.4 J0
G1 X3.231 Y14.378
G2 X-1.6 Y17.761 I-1.231 J3.383
G1 Y52.239
G2 X3.231 Y55.622 I3.6 J0
G1 X11.863 Y52.48
G3 X12.4 Y52.856 I0.137 J0.376
G1 Y70
G2 X14 Y71.6 I1.6 J0
G1 X107.8
G2 X109.4 Y70 I0 J-1.6
G1 Y38.05
G2 X107.8 Y36.45 I-1.6 J0
G1 X120.2
G2 X118.6 Y38.05 I0 J1.6
G1 Y70
G2 X120.2 Y71.6 I1.6 J0
G1 X214
G2 X215.6 Y70 I0 J-1.6
G1 Y52.856
G3 X216.137 Y52.48 I0.4 J0
G1 X224.769 Y55.622
G2 X229.6 Y52.239 I1.231 J-3.383
G1 Y17.761
G2 X224.769 Y14.378 I-3.6 J0
G1 X216.137 Y17.52
G3 X215.6 Y17.144 I-0.137 J-0.376
G1 Y0
G2 X214 Y-1.6 I-1.6 J0
G1 X29.297
Z-10.408 F333.3
X14 F500
G2 X12.4 Y0 I0 J1.6
G1 Y6.51
Z-9.6
Y12.31
Z-10.408 F333.3
Y17.144 F500
G3 X11.863 Y17.52 I-0.4 J0
G1 X3.231 Y14.378
G2 X-1.6 Y17.761 I-1.231 J3.383
G1 Y52.239
G2 X3.231 Y55.622 I3.6 J0
G1 X11.863 Y52.48
G3 X12.4 Y52.856 I0.137 J0.376
G1 Y59.604
Z-9.6
Y65.404
Z-10.408 F333.3
Y70 F500
G2 X14 Y71.6 I1.6 J0
G1 X107.8
G2 X109.4 Y70 I0 J-1.6
G1 Y51.082
Z-9.6
Y45.282
Z-10.408 F333.3
Y38.05 F500
G2 X107.8 Y36.45 I-1.6 J0
G1 X120.2
G2 X118.6 Y38.05 I0 J1.6
G1 Y70
G2 X120.2 Y71.6 I1.6 J0
G1 X214
G2 X215.6 Y70 I0 J-1.6
G1 Y64.084
Z-9.6
Y58.284
Z-10.408 F333.3
Y52.856 F500
G3 X216.137 Y52.48 I0.4 J0
G1 X224.769 Y55.622
G2 X229.6 Y52.239 I1.231 J-3.383
G1 Y17.761
G2 X224.769 Y14.378 I-3.6 J0
G1 X216.137 Y17.52
G3 X215.6 Y17.144 I-0.137 J-0.376
G1 Y11.878
Z-9.6
Y6.078
Z-10.408 F333.3
Y0 F500
G2 X214 Y-1.6 I-1.6 J0
G1 X29.297
Z-11.354 F333.3
X14 F500
G2 X12.4 Y0 I0 J1.6
G1 Y6.51
Z-9.6
Y12.31
Z-11.354 F333.3
Y17.144 F500
G3 X11.863 Y17.52 I-0.4 J0
G1 X3.231 Y14.378
G2 X-1.6 Y17.761 I-1.231 J3.383
G1 Y52.239
G2 X3.231 Y55.622 I3.6 J0
G1 X11.863 Y52.48
G3 X12.4 Y52.856 I0.137 J0.376
G1 Y59.604
Z-9.6
Y65.404
Z-11.354 F333.3
Y70 F500
G2 X14 Y71.6 I1.6 J0
G1 X107.8
G2 X109.4 Y70 I0 J-1.6
G1 Y51.082
Z-9.6
Y45.282
Z-11.354 F333.3
Y38.05 F500
G2 X107.8 Y36.45 I-1.6 J0
G1 X120.2
G2 X118.6 Y38.05 I0 J1.6
G1 Y70
G2 X120.2 Y71.6 I1.6 J0
G1 X214
G2 X215.6 Y70 I0 J-1.6
G1 Y64.084
Z-9.6
Y58.284
Z-11.354 F333.3
Y52.856 F500
G3 X216.137 Y52.48 I0.4 J0
G1 X224.769 Y55.622
G2 X229.6 Y52.239 I1.231 J-3.383
G1 Y17.761
G2 X224.769 Y14.378 I-3.6 J0
G1 X216.137 Y17.52
G3 X215.6 Y17.144 I-0.137 J-0.376
G1 Y11.878
Z-9.6
Y6.078
Z-11.354 F333.3
Y0 F500
G2 X214 Y-1.6 I-1.6 J0
G1 X29.297
Z-12.3 F333.3
X14 F1000
G2 X12.4 Y0 I0 J1.6
G1 Y6.51
Z-9.6
Y12.31
Z-12.3 F333.3
Y17.144 F1000
G3 X11.863 Y17.52 I-0.4 J0
G1 X3.231 Y14.378
G2 X-1.6 Y17.761 I-1.231 J3.383
G1 Y52.239
G2 X3.231 Y55.622 I3.6 J0
G1 X11.863 Y52.48
G3 X12.4 Y52.856 I0.137 J0.376
G1 Y59.604
Z-9.6
Y65.404
Z-12.3 F333.3
Y70 F1000
G2 X14 Y71.6 I1.6 J0
G1 X107.8
G2 X109.4 Y70 I0 J-1.6
G1 Y51.082
Z-9.6
Y45.282
Z-12.3 F333.3
Y38.05 F1000
G2 X107.8 Y36.45 I-1.6 J0
G1 X120.2
G2 X118.6 Y38.05 I0 J1.6
G1 Y70
G2 X120.2 Y71.6 I1.6 J0
G1 X214
G2 X215.6 Y70 I0 J-1.6
G1 Y64.084
Z-9.6
Y58.284
Z-12.3 F333.3
Y52.856 F1000
G3 X216.137 Y52.48 I0.4 J0
G1 X224.769 Y55.622
G2 X229.6 Y52.239 I1.231 J-3.383
G1 Y17.761
G2 X224.769 Y14.378 I-3.6 J0
G1 X216.137 Y17.52
G3 X215.6 Y17.144 I-0.137 J-0.376
G1 Y11.878
Z-9.6
Y6.078
Z-12.3 F333.3
Y0 F1000
G2 X214 Y-1.6 I-1.6 J0
G1 X29.297
X29.25 Y-1.593
X29.207 Y-1.573
X29.172 Y-1.541
X29.147 Y-1.5
X29.123 Y-1.459
X29.087 Y-1.427
X29.044 Y-1.407
X28.997 Y-1.4
X14 F500
G2 X12.6 Y0 I0 J1.4
G1 Y6.51
Z-9.6
Y12.31
Z-12.3 F333.3
Y17.144 F500
G3 X11.795 Y17.708 I-0.6 J0
G1 X3.163 Y14.566
G2 X-1.4 Y17.761 I-1.163 J3.195
G1 Y52.239
G2 X3.163 Y55.434 I3.4 J0
G1 X11.795 Y52.292
G3 X12.6 Y52.856 I0.205 J0.564
G1 Y59.604
Z-9.6
Y65.404
Z-12.3 F333.3
Y70 F500
G2 X14 Y71.4 I1.4 J0
G1 X107.8
G2 X109.2 Y70 I0 J-1.4
G1 Y51.082
Z-9.6
Y45.282
Z-12.3 F333.3
Y38.05 F500
G2 X107.8 Y36.65 I-1.4 J0
G1 X107.6
Y36.25
X120.4
Y36.65
X120.2
G2 X118.8 Y38.05 I0 J1.4
G1 Y70
G2 X120.2 Y71.4 I1.4 J0
G1 X214
G2 X215.4 Y70 I0 J-1.4
G1 Y64.084
Z-9.6
Y58.284
Z-12.3 F333.3
Y52.856 F500
G3 X216.205 Y52.292 I0.6 J0
G1 X224.837 Y55.434
G2 X229.4 Y52.239 I1.163 J-3.195
G1 Y17.761
G2 X224.837 Y14.566 I-3.4 J0
G1 X216.205 Y17.708
G3 X215.4 Y17.144 I-0.205 J-0.564
G1 Y11.878
Z-9.6
Y6.078
Z-12.3 F333.3
Y0 F500
G2 X214 Y-1.4 I-1.4 J0
G1 X28.997
Z10 F1000
M5
M30
