(1119_btn_20bit_switch_dog_ears)
(T1  D=2 CR=0 - ZMIN=-5.9 - flat end mill)
G90 G94
G17
G21
(When using Fusion 360 for Personal Use, the feedrate of)
(rapid moves is reduced to match the feedrate of cutting)
(moves, which can increase machining time. Unrestricted rapid)
(moves are available with a Fusion 360 Subscription.)

(Bore2)
T1
S5000 M3
G54
G0 X12.425 Y4.8
Z10
G1 Z2 F1000
Z0.2
G18 G2 X12.625 Z0 I0.2 K0
G1 X12.725
G17 G3 X12.925 Y5 I0 J0.2
X11.075 Y5 Z-0.25 I-0.925 J0
X12.925 Y5 Z-0.5 I0.925 J0
X11.075 Y5 Z-0.75 I-0.925 J0
X12.925 Y5 Z-1 I0.925 J0
X11.075 Y5 Z-1.25 I-0.925 J0
X12.925 Y5 Z-1.5 I0.925 J0
X11.075 Y5 Z-1.75 I-0.925 J0
X12.925 Y5 Z-2 I0.925 J0
X11.075 Y5 Z-2.25 I-0.925 J0
X12.925 Y5 Z-2.5 I0.925 J0
X11.075 Y5 Z-2.75 I-0.925 J0
X12.925 Y5 Z-3 I0.925 J0
X11.075 Y5 Z-3.25 I-0.925 J0
X12.925 Y5 Z-3.5 I0.925 J0
X11.075 Y5 Z-3.75 I-0.925 J0
X12.925 Y5 Z-4 I0.925 J0
X11.075 Y5 Z-4.25 I-0.925 J0
X12.925 Y5 Z-4.5 I0.925 J0
X11.075 Y5 Z-4.75 I-0.925 J0
X12.925 Y5 Z-5 I0.925 J0
X11.075 Y5 Z-5.25 I-0.925 J0
X12.925 Y5 Z-5.5 I0.925 J0
X11.075 Y5 Z-5.75 I-0.925 J0
X12.286 Y4.12 Z-5.9 I0.925 J0
X11.714 Y5.88 I-0.286 J0.88
X12.286 Y4.12 I0.286 J-0.88
X12.414 Y4.372 I-0.062 J0.19
G1 X12.383 Y4.467
X12.367 Y4.517 Z-5.893
X12.352 Y4.562 Z-5.873
X12.34 Y4.602 Z-5.841
X12.33 Y4.632 Z-5.8
X12.324 Y4.651 Z-5.752
X12.322 Y4.658 Z-5.7
Z5
Z10
X12.575 Y4.8
Z-3.9
Z-5.7
G18 G2 X12.775 Z-5.9 I0.2 K0
G1 X12.875
G17 G3 X13.075 Y5 I0 J0.2
X10.925 Y5 I-1.075 J0
X13.075 Y5 I1.075 J0
X12.875 Y5.2 I-0.2 J0
G1 X12.775
G18 G3 X12.575 Z-5.7 I0 K0.2
G1 Z5
X30.425 Y4.8
Z2
Z0.2
G2 X30.625 Z0 I0.2 K0
G1 X30.725
G17 G3 X30.925 Y5 I0 J0.2
X29.075 Y5 Z-0.25 I-0.925 J0
X30.925 Y5 Z-0.5 I0.925 J0
X29.075 Y5 Z-0.75 I-0.925 J0
X30.925 Y5 Z-1 I0.925 J0
X29.075 Y5 Z-1.25 I-0.925 J0
X30.925 Y5 Z-1.5 I0.925 J0
X29.075 Y5 Z-1.75 I-0.925 J0
X30.925 Y5 Z-2 I0.925 J0
X29.075 Y5 Z-2.25 I-0.925 J0
X30.925 Y5 Z-2.5 I0.925 J0
X29.075 Y5 Z-2.75 I-0.925 J0
X30.925 Y5 Z-3 I0.925 J0
X29.075 Y5 Z-3.25 I-0.925 J0
X30.925 Y5 Z-3.5 I0.925 J0
X29.075 Y5 Z-3.75 I-0.925 J0
X30.925 Y5 Z-4 I0.925 J0
X29.075 Y5 Z-4.25 I-0.925 J0
X30.925 Y5 Z-4.5 I0.925 J0
X29.075 Y5 Z-4.75 I-0.925 J0
X30.925 Y5 Z-5 I0.925 J0
X29.075 Y5 Z-5.25 I-0.925 J0
X30.925 Y5 Z-5.5 I0.925 J0
X29.075 Y5 Z-5.75 I-0.925 J0
X30.286 Y4.12 Z-5.9 I0.925 J0
X29.714 Y5.88 I-0.286 J0.88
X30.286 Y4.12 I0.286 J-0.88
X30.414 Y4.372 I-0.062 J0.19
G1 X30.383 Y4.467
X30.367 Y4.517 Z-5.893
X30.352 Y4.562 Z-5.873
X30.34 Y4.602 Z-5.841
X30.33 Y4.632 Z-5.8
X30.324 Y4.651 Z-5.752
X30.322 Y4.658 Z-5.7
Z5
X30.575 Y4.8
Z-3.9
Z-5.7
G18 G2 X30.775 Z-5.9 I0.2 K0
G1 X30.875
G17 G3 X31.075 Y5 I0 J0.2
X28.925 Y5 I-1.075 J0
X31.075 Y5 I1.075 J0
X30.875 Y5.2 I-0.2 J0
G1 X30.775
G18 G3 X30.575 Z-5.7 I0 K0.2
G1 Z10
G17
(When using Fusion 360 for Personal Use, the feedrate of)
(rapid moves is reduced to match the feedrate of cutting)
(moves, which can increase machining time. Unrestricted rapid)
(moves are available with a Fusion 360 Subscription.)

(2D Contour inside)
G0 X22.4 Y8.81
G1 Z10 F1000
Z5
Z2.05 F333.3
Z-0.7
G18 G2 X22.6 Z-0.9 I0.2 K0 F1000
G1 X22.8
G17 G3 X23 Y9.01 I0 J0.2
G1 Y10
G2 X24 Y11 I1 J0
G1 X35.5
G2 X36.5 Y10 I0 J-1
G1 Y3
X39.5
Y17.01
X36.5
Y12.01
G2 X35.5 Y11.01 I-1 J0
G1 X6.5
G2 X5.5 Y12.01 I0 J1
G1 Y17.01
X2.5
Y3
X5.5
Y10
G2 X6.5 Y11 I1 J0
G1 X18
G2 X19 Y10 I0 J-1
G1 Y8.01
G2 X18 Y7.01 I-1 J0
G1 X24
G2 X23 Y8.01 I0 J1
G1 Y9.01
G3 X22.8 Y9.21 I-0.2 J0
G1 X22.6
G18 G3 X22.4 Z-0.7 I0 K0.2
G1 Y8.81
Z-1.6 F333.3
G2 X22.6 Z-1.8 I0.2 K0 F1000
G1 X22.8
G17 G3 X23 Y9.01 I0 J0.2
G1 Y10
G2 X24 Y11 I1 J0
G1 X35.5
G2 X36.5 Y10 I0 J-1
G1 Y3
X39.5
Y17.01
X36.5
Y12.01
G2 X35.5 Y11.01 I-1 J0
G1 X6.5
G2 X5.5 Y12.01 I0 J1
G1 Y17.01
X2.5
Y3
X5.5
Y10
G2 X6.5 Y11 I1 J0
G1 X18
G2 X19 Y10 I0 J-1
G1 Y8.01
G2 X18 Y7.01 I-1 J0
G1 X24
G2 X23 Y8.01 I0 J1
G1 Y9.01
G3 X22.8 Y9.21 I-0.2 J0
G1 X22.6
G18 G3 X22.4 Z-1.6 I0 K0.2
G1 Y8.81
Z-2.5 F333.3
G2 X22.6 Z-2.7 I0.2 K0 F1000
G1 X22.8
G17 G3 X23 Y9.01 I0 J0.2
G1 Y10
G2 X24 Y11 I1 J0
G1 X35.5
G2 X36.5 Y10 I0 J-1
G1 Y3
X39.5
Y17.01
X36.5
Y12.01
G2 X35.5 Y11.01 I-1 J0
G1 X6.5
G2 X5.5 Y12.01 I0 J1
G1 Y17.01
X2.5
Y3
X5.5
Y10
G2 X6.5 Y11 I1 J0
G1 X18
G2 X19 Y10 I0 J-1
G1 Y8.01
G2 X18 Y7.01 I-1 J0
G1 X24
G2 X23 Y8.01 I0 J1
G1 Y9.01
G3 X22.8 Y9.21 I-0.2 J0
G1 X22.6
G18 G3 X22.4 Z-2.5 I0 K0.2
G1 Y8.81
Z-3.4 F333.3
G2 X22.6 Z-3.6 I0.2 K0 F1000
G1 X22.8
G17 G3 X23 Y9.01 I0 J0.2
G1 Y10
G2 X24 Y11 I1 J0
G1 X35.5
G2 X36.5 Y10 I0 J-1
G1 Y3
X39.5
Y17.01
X36.5
Y12.01
G2 X35.5 Y11.01 I-1 J0
G1 X6.5
G2 X5.5 Y12.01 I0 J1
G1 Y17.01
X2.5
Y3
X5.5
Y10
G2 X6.5 Y11 I1 J0
G1 X18
G2 X19 Y10 I0 J-1
G1 Y8.01
G2 X18 Y7.01 I-1 J0
G1 X24
G2 X23 Y8.01 I0 J1
G1 Y9.01
G3 X22.8 Y9.21 I-0.2 J0
G1 X22.6
G18 G3 X22.4 Z-3.4 I0 K0.2
G1 Y8.81
Z-4.3 F333.3
G2 X22.6 Z-4.5 I0.2 K0 F1000
G1 X22.8
G17 G3 X23 Y9.01 I0 J0.2
G1 Y10
G2 X24 Y11 I1 J0
G1 X35.5
G2 X36.5 Y10 I0 J-1
G1 Y3
X39.5
Y17.01
X36.5
Y12.01
G2 X35.5 Y11.01 I-1 J0
G1 X6.5
G2 X5.5 Y12.01 I0 J1
G1 Y17.01
X2.5
Y3
X5.5
Y10
G2 X6.5 Y11 I1 J0
G1 X18
G2 X19 Y10 I0 J-1
G1 Y8.01
G2 X18 Y7.01 I-1 J0
G1 X24
G2 X23 Y8.01 I0 J1
G1 Y9.01
G3 X22.8 Y9.21 I-0.2 J0
G1 X22.6
G18 G3 X22.4 Z-4.3 I0 K0.2
G1 Y8.81
Z-5.2 F333.3
G2 X22.6 Z-5.4 I0.2 K0 F1000
G1 X22.8
G17 G3 X23 Y9.01 I0 J0.2
G1 Y10
G2 X24 Y11 I1 J0
G1 X35.5
G2 X36.5 Y10 I0 J-1
G1 Y3
X39.5
Y17.01
X36.5
Y12.01
G2 X35.5 Y11.01 I-1 J0
G1 X6.5
G2 X5.5 Y12.01 I0 J1
G1 Y17.01
X2.5
Y3
X5.5
Y10
G2 X6.5 Y11 I1 J0
G1 X18
G2 X19 Y10 I0 J-1
G1 Y8.01
G2 X18 Y7.01 I-1 J0
G1 X24
G2 X23 Y8.01 I0 J1
G1 Y9.01
G3 X22.8 Y9.21 I-0.2 J0
G1 X22.6
G18 G3 X22.4 Z-5.2 I0 K0.2
G1 Z10
G17
(When using Fusion 360 for Personal Use, the feedrate of)
(rapid moves is reduced to match the feedrate of cutting)
(moves, which can increase machining time. Unrestricted rapid)
(moves are available with a Fusion 360 Subscription.)

(2D Contour outside 2)
G0 X3.048 Y-1.8
G1 Z10 F1000
Z5
Z2.05 F333.3
Z-0.7
G19 G3 Y-1.6 Z-0.9 J0.2 K0 F1000
G1 Y-1.4
G17 G3 X2.848 Y-1.2 I-0.2 J0
G1 X2
G2 X-1.2 Y2 I0 J3.2
G1 Y18.01
G2 X1.5 Y20.71 I2.7 J0
G1 X6.5
G2 X9.2 Y18.01 I0 J-2.7
G1 Y14.71
X16.8
Y40.8
G2 X18 Y42 I1.2 J0
G1 X24
G2 X25.2 Y40.8 I0 J-1.2
G1 Y14.71
X32.8
Y18.01
G2 X35.5 Y20.71 I2.7 J0
G1 X40.5
G2 X43.2 Y18.01 I0 J-2.7
G1 Y2
G2 X40 Y-1.2 I-3.2 J0
G1 X2.848
G3 X2.648 Y-1.4 I0 J-0.2
G1 Y-1.6
G19 G2 Y-1.8 Z-0.7 J0 K0.2
G1 X3.048
Z-1.6 F333.3
G3 Y-1.6 Z-1.8 J0.2 K0 F1000
G1 Y-1.4
G17 G3 X2.848 Y-1.2 I-0.2 J0
G1 X2
G2 X-1.2 Y2 I0 J3.2
G1 Y18.01
G2 X1.5 Y20.71 I2.7 J0
G1 X6.5
G2 X9.2 Y18.01 I0 J-2.7
G1 Y14.71
X16.8
Y40.8
G2 X18 Y42 I1.2 J0
G1 X24
G2 X25.2 Y40.8 I0 J-1.2
G1 Y14.71
X32.8
Y18.01
G2 X35.5 Y20.71 I2.7 J0
G1 X40.5
G2 X43.2 Y18.01 I0 J-2.7
G1 Y2
G2 X40 Y-1.2 I-3.2 J0
G1 X2.848
G3 X2.648 Y-1.4 I0 J-0.2
G1 Y-1.6
G19 G2 Y-1.8 Z-1.6 J0 K0.2
G1 X3.048
Z-2.5 F333.3
G3 Y-1.6 Z-2.7 J0.2 K0 F1000
G1 Y-1.4
G17 G3 X2.848 Y-1.2 I-0.2 J0
G1 X2
G2 X-1.2 Y2 I0 J3.2
G1 Y18.01
G2 X1.5 Y20.71 I2.7 J0
G1 X6.5
G2 X9.2 Y18.01 I0 J-2.7
G1 Y14.71
X16.8
Y40.8
G2 X18 Y42 I1.2 J0
G1 X24
G2 X25.2 Y40.8 I0 J-1.2
G1 Y14.71
X32.8
Y18.01
G2 X35.5 Y20.71 I2.7 J0
G1 X40.5
G2 X43.2 Y18.01 I0 J-2.7
G1 Y2
G2 X40 Y-1.2 I-3.2 J0
G1 X2.848
G3 X2.648 Y-1.4 I0 J-0.2
G1 Y-1.6
G19 G2 Y-1.8 Z-2.5 J0 K0.2
G1 X3.048
Z-3.4 F333.3
G3 Y-1.6 Z-3.6 J0.2 K0 F1000
G1 Y-1.4
G17 G3 X2.848 Y-1.2 I-0.2 J0
G1 X2
G2 X-1.2 Y2 I0 J3.2
G1 Y18.01
G2 X1.5 Y20.71 I2.7 J0
G1 X6.5
G2 X9.2 Y18.01 I0 J-2.7
G1 Y14.71
X16.8
Y40.8
G2 X18 Y42 I1.2 J0
G1 X24
G2 X25.2 Y40.8 I0 J-1.2
G1 Y14.71
X32.8
Y18.01
G2 X35.5 Y20.71 I2.7 J0
G1 X40.5
G2 X43.2 Y18.01 I0 J-2.7
G1 Y2
G2 X40 Y-1.2 I-3.2 J0
G1 X2.848
G3 X2.648 Y-1.4 I0 J-0.2
G1 Y-1.6
G19 G2 Y-1.8 Z-3.4 J0 K0.2
G1 X3.048
Z-4.3 F333.3
G3 Y-1.6 Z-4.5 J0.2 K0 F1000
G1 Y-1.4
G17 G3 X2.848 Y-1.2 I-0.2 J0
G1 X2
G2 X-1.2 Y2 I0 J3.2
G1 Y11.328
Y11.628 Z-3.9
Y13.628
Y13.928 Z-4.5 F333.3
Y18.01 F1000
G2 X1.5 Y20.71 I2.7 J0
G1 X6.5
G2 X9.2 Y18.01 I0 J-2.7
G1 Y14.71
X16.8
Y21.733
Y22.033 Z-3.9
Y24.033
Y24.333 Z-4.5 F333.3
Y40.8 F1000
G2 X18 Y42 I1.2 J0
G1 X24
G2 X25.2 Y40.8 I0 J-1.2
G1 Y23.983
Y23.683 Z-3.9
Y21.683
Y21.383 Z-4.5 F333.3
Y14.71 F1000
X32.8
Y18.01
G2 X35.5 Y20.71 I2.7 J0
G1 X40.5
G2 X43.2 Y18.01 I0 J-2.7
G1 Y14.883
Y14.583 Z-3.9
Y12.583
Y12.283 Z-4.5 F333.3
Y2 F1000
G2 X40 Y-1.2 I-3.2 J0
G1 X22.125
X21.825 Z-3.9
X19.825
X19.525 Z-4.5 F333.3
X2.848 F1000
G3 X2.648 Y-1.4 I0 J-0.2
G1 Y-1.6
G19 G2 Y-1.8 Z-4.3 J0 K0.2
G1 X3.048
Z-5.2 F333.3
G3 Y-1.6 Z-5.4 J0.2 K0 F1000
G1 Y-1.4
G17 G3 X2.848 Y-1.2 I-0.2 J0
G1 X2
G2 X-1.2 Y2 I0 J3.2
G1 Y10.878
Y11.628 Z-3.9
Y13.628
Y14.378 Z-5.4 F333.3
Y18.01 F1000
G2 X1.5 Y20.71 I2.7 J0
G1 X6.5
G2 X9.2 Y18.01 I0 J-2.7
G1 Y14.71
X16.8
Y21.283
Y22.033 Z-3.9
Y24.033
Y24.783 Z-5.4 F333.3
Y40.8 F1000
G2 X18 Y42 I1.2 J0
G1 X24
G2 X25.2 Y40.8 I0 J-1.2
G1 Y24.433
Y23.683 Z-3.9
Y21.683
Y20.933 Z-5.4 F333.3
Y14.71 F1000
X32.8
Y18.01
G2 X35.5 Y20.71 I2.7 J0
G1 X40.5
G2 X43.2 Y18.01 I0 J-2.7
G1 Y15.333
Y14.583 Z-3.9
Y12.583
Y11.833 Z-5.4 F333.3
Y2 F1000
G2 X40 Y-1.2 I-3.2 J0
G1 X22.575
X21.825 Z-3.9
X19.825
X19.075 Z-5.4 F333.3
X2.848 F1000
X2.801 Y-1.193
X2.758 Y-1.173
X2.723 Y-1.141
X2.698 Y-1.1
X2.674 Y-1.059
X2.638 Y-1.027
X2.595 Y-1.007
X2.548 Y-1
X2
G2 X-1 Y2 I0 J3
G1 Y10.878
Y11.628 Z-3.9
Y13.628
Y14.378 Z-5.4 F333.3
Y18.01 F1000
G2 X1.5 Y20.51 I2.5 J0
G1 X6.5
G2 X9 Y18.01 I0 J-2.5
G1 Y14.51
X17
Y21.283
Y22.033 Z-3.9
Y24.033
Y24.783 Z-5.4 F333.3
Y40.8 F1000
G2 X18 Y41.8 I1 J0
G1 X24
G2 X25 Y40.8 I0 J-1
G1 Y24.433
Y23.683 Z-3.9
Y21.683
Y20.933 Z-5.4 F333.3
Y14.51 F1000
X33
Y18.01
G2 X35.5 Y20.51 I2.5 J0
G1 X40.5
G2 X43 Y18.01 I0 J-2.5
G1 Y15.333
Y14.583 Z-3.9
Y12.583
Y11.833 Z-5.4 F333.3
Y2 F1000
G2 X40 Y-1 I-3 J0
G1 X22.575
X21.825 Z-3.9
X19.825
X19.075 Z-5.4 F333.3
X2.548 F1000
G3 X2.348 Y-1.2 I0 J-0.2
G1 Y-1.4
G19 G2 Y-1.6 Z-5.2 J0 K0.2
G1 Z10
G17
M5
M30
