(1121_btn8copies_20bit)
(T1  D=2 CR=0 - ZMIN=-5.9 - flat end mill)
G90 G94
G17
G21
(When using Fusion 360 for Personal Use, the feedrate of)
(rapid moves is reduced to match the feedrate of cutting)
(moves, which can increase machining time. Unrestricted rapid)
(moves are available with a Fusion 360 Subscription.)

(Bore2 2)
T1
S5000 M3
G54
G0 X185.6 Y59.149
Z10
G1 Z2 F1000
Z0.2
G18 G3 X185.4 Z0 I-0.2 K0
G1 X185.3
G17 G3 X185.1 Y58.949 I0 J-0.2
X186.9 Y58.949 Z-0.25 I0.9 J0
X185.1 Y58.949 Z-0.5 I-0.9 J0
X186.9 Y58.949 Z-0.75 I0.9 J0
X185.1 Y58.949 Z-1 I-0.9 J0
X186.9 Y58.949 Z-1.25 I0.9 J0
X185.1 Y58.949 Z-1.5 I-0.9 J0
X186.9 Y58.949 Z-1.75 I0.9 J0
X185.1 Y58.949 Z-2 I-0.9 J0
X186.9 Y58.949 Z-2.25 I0.9 J0
X185.1 Y58.949 Z-2.5 I-0.9 J0
X186.9 Y58.949 Z-2.75 I0.9 J0
X185.1 Y58.949 Z-3 I-0.9 J0
X186.9 Y58.949 Z-3.25 I0.9 J0
X185.1 Y58.949 Z-3.5 I-0.9 J0
X186.9 Y58.949 Z-3.75 I0.9 J0
X185.1 Y58.949 Z-4 I-0.9 J0
X186.9 Y58.949 Z-4.25 I0.9 J0
X185.1 Y58.949 Z-4.5 I-0.9 J0
X186.9 Y58.949 Z-4.75 I0.9 J0
X185.1 Y58.949 Z-5 I-0.9 J0
X186.9 Y58.949 Z-5.25 I0.9 J0
X185.1 Y58.949 Z-5.5 I-0.9 J0
X186.9 Y58.949 Z-5.75 I0.9 J0
X185.721 Y59.804 Z-5.9 I-0.9 J0
X186.278 Y58.093 I0.278 J-0.856
X185.721 Y59.804 I-0.278 J0.856
X185.593 Y59.552 I0.062 J-0.19
G1 X185.624 Y59.457
X185.64 Y59.408 Z-5.893
X185.655 Y59.362 Z-5.873
X185.668 Y59.323 Z-5.841
X185.677 Y59.293 Z-5.8
X185.684 Y59.274 Z-5.752
X185.686 Y59.267 Z-5.7
Z5
Z10
X185.45 Y59.149
Z-3.9
Z-5.7
G18 G3 X185.25 Z-5.9 I-0.2 K0
G1 X185.15
G17 G3 X184.95 Y58.949 I0 J-0.2
X187.05 Y58.949 I1.05 J0
X184.95 Y58.949 I-1.05 J0
X185.15 Y58.749 I0.2 J0
G1 X185.25
G18 G2 X185.45 Z-5.7 I0 K0.2
G1 Z5
X167.6 Y59.149
Z2
Z0.2
G3 X167.4 Z0 I-0.2 K0
G1 X167.3
G17 G3 X167.1 Y58.949 I0 J-0.2
X168.9 Y58.949 Z-0.25 I0.9 J0
X167.1 Y58.949 Z-0.5 I-0.9 J0
X168.9 Y58.949 Z-0.75 I0.9 J0
X167.1 Y58.949 Z-1 I-0.9 J0
X168.9 Y58.949 Z-1.25 I0.9 J0
X167.1 Y58.949 Z-1.5 I-0.9 J0
X168.9 Y58.949 Z-1.75 I0.9 J0
X167.1 Y58.949 Z-2 I-0.9 J0
X168.9 Y58.949 Z-2.25 I0.9 J0
X167.1 Y58.949 Z-2.5 I-0.9 J0
X168.9 Y58.949 Z-2.75 I0.9 J0
X167.1 Y58.949 Z-3 I-0.9 J0
X168.9 Y58.949 Z-3.25 I0.9 J0
X167.1 Y58.949 Z-3.5 I-0.9 J0
X168.9 Y58.949 Z-3.75 I0.9 J0
X167.1 Y58.949 Z-4 I-0.9 J0
X168.9 Y58.949 Z-4.25 I0.9 J0
X167.1 Y58.949 Z-4.5 I-0.9 J0
X168.9 Y58.949 Z-4.75 I0.9 J0
X167.1 Y58.949 Z-5 I-0.9 J0
X168.9 Y58.949 Z-5.25 I0.9 J0
X167.1 Y58.949 Z-5.5 I-0.9 J0
X168.9 Y58.949 Z-5.75 I0.9 J0
X167.721 Y59.804 Z-5.9 I-0.9 J0
X168.278 Y58.093 I0.278 J-0.856
X167.721 Y59.804 I-0.278 J0.856
X167.593 Y59.552 I0.062 J-0.19
G1 X167.624 Y59.457
X167.64 Y59.408 Z-5.893
X167.655 Y59.362 Z-5.873
X167.668 Y59.323 Z-5.841
X167.677 Y59.293 Z-5.8
X167.684 Y59.274 Z-5.752
X167.686 Y59.267 Z-5.7
Z5
X167.45 Y59.149
Z-3.9
Z-5.7
G18 G3 X167.25 Z-5.9 I-0.2 K0
G1 X167.15
G17 G3 X166.95 Y58.949 I0 J-0.2
X169.05 Y58.949 I1.05 J0
X166.95 Y58.949 I-1.05 J0
X167.15 Y58.749 I0.2 J0
G1 X167.25
G18 G2 X167.45 Z-5.7 I0 K0.2
G1 Z5
X137.6 Y59.149
Z2
Z0.2
G3 X137.4 Z0 I-0.2 K0
G1 X137.3
G17 G3 X137.1 Y58.949 I0 J-0.2
X138.9 Y58.949 Z-0.25 I0.9 J0
X137.1 Y58.949 Z-0.5 I-0.9 J0
X138.9 Y58.949 Z-0.75 I0.9 J0
X137.1 Y58.949 Z-1 I-0.9 J0
X138.9 Y58.949 Z-1.25 I0.9 J0
X137.1 Y58.949 Z-1.5 I-0.9 J0
X138.9 Y58.949 Z-1.75 I0.9 J0
X137.1 Y58.949 Z-2 I-0.9 J0
X138.9 Y58.949 Z-2.25 I0.9 J0
X137.1 Y58.949 Z-2.5 I-0.9 J0
X138.9 Y58.949 Z-2.75 I0.9 J0
X137.1 Y58.949 Z-3 I-0.9 J0
X138.9 Y58.949 Z-3.25 I0.9 J0
X137.1 Y58.949 Z-3.5 I-0.9 J0
X138.9 Y58.949 Z-3.75 I0.9 J0
X137.1 Y58.949 Z-4 I-0.9 J0
X138.9 Y58.949 Z-4.25 I0.9 J0
X137.1 Y58.949 Z-4.5 I-0.9 J0
X138.9 Y58.949 Z-4.75 I0.9 J0
X137.1 Y58.949 Z-5 I-0.9 J0
X138.9 Y58.949 Z-5.25 I0.9 J0
X137.1 Y58.949 Z-5.5 I-0.9 J0
X138.9 Y58.949 Z-5.75 I0.9 J0
X137.721 Y59.804 Z-5.9 I-0.9 J0
X138.278 Y58.093 I0.278 J-0.856
X137.721 Y59.804 I-0.278 J0.856
X137.593 Y59.552 I0.062 J-0.19
G1 X137.624 Y59.457
X137.64 Y59.408 Z-5.893
X137.655 Y59.362 Z-5.873
X137.668 Y59.323 Z-5.841
X137.677 Y59.293 Z-5.8
X137.684 Y59.274 Z-5.752
X137.686 Y59.267 Z-5.7
Z5
X137.45 Y59.149
Z-3.9
Z-5.7
G18 G3 X137.25 Z-5.9 I-0.2 K0
G1 X137.15
G17 G3 X136.95 Y58.949 I0 J-0.2
X139.05 Y58.949 I1.05 J0
X136.95 Y58.949 I-1.05 J0
X137.15 Y58.749 I0.2 J0
G1 X137.25
G18 G2 X137.45 Z-5.7 I0 K0.2
G1 Z5
X119.6 Y59.149
Z2
Z0.2
G3 X119.4 Z0 I-0.2 K0
G1 X119.3
G17 G3 X119.1 Y58.949 I0 J-0.2
X120.9 Y58.949 Z-0.25 I0.9 J0
X119.1 Y58.949 Z-0.5 I-0.9 J0
X120.9 Y58.949 Z-0.75 I0.9 J0
X119.1 Y58.949 Z-1 I-0.9 J0
X120.9 Y58.949 Z-1.25 I0.9 J0
X119.1 Y58.949 Z-1.5 I-0.9 J0
X120.9 Y58.949 Z-1.75 I0.9 J0
X119.1 Y58.949 Z-2 I-0.9 J0
X120.9 Y58.949 Z-2.25 I0.9 J0
X119.1 Y58.949 Z-2.5 I-0.9 J0
X120.9 Y58.949 Z-2.75 I0.9 J0
X119.1 Y58.949 Z-3 I-0.9 J0
X120.9 Y58.949 Z-3.25 I0.9 J0
X119.1 Y58.949 Z-3.5 I-0.9 J0
X120.9 Y58.949 Z-3.75 I0.9 J0
X119.1 Y58.949 Z-4 I-0.9 J0
X120.9 Y58.949 Z-4.25 I0.9 J0
X119.1 Y58.949 Z-4.5 I-0.9 J0
X120.9 Y58.949 Z-4.75 I0.9 J0
X119.1 Y58.949 Z-5 I-0.9 J0
X120.9 Y58.949 Z-5.25 I0.9 J0
X119.1 Y58.949 Z-5.5 I-0.9 J0
X120.9 Y58.949 Z-5.75 I0.9 J0
X119.721 Y59.804 Z-5.9 I-0.9 J0
X120.278 Y58.093 I0.278 J-0.856
X119.721 Y59.804 I-0.278 J0.856
X119.593 Y59.552 I0.062 J-0.19
G1 X119.624 Y59.457
X119.64 Y59.408 Z-5.893
X119.655 Y59.362 Z-5.873
X119.668 Y59.323 Z-5.841
X119.677 Y59.293 Z-5.8
X119.684 Y59.274 Z-5.752
X119.686 Y59.267 Z-5.7
Z5
X119.45 Y59.149
Z-3.9
Z-5.7
G18 G3 X119.25 Z-5.9 I-0.2 K0
G1 X119.15
G17 G3 X118.95 Y58.949 I0 J-0.2
X121.05 Y58.949 I1.05 J0
X118.95 Y58.949 I-1.05 J0
X119.15 Y58.749 I0.2 J0
G1 X119.25
G18 G2 X119.45 Z-5.7 I0 K0.2
G1 Z5
X89.6 Y59.149
Z2
Z0.2
G3 X89.4 Z0 I-0.2 K0
G1 X89.3
G17 G3 X89.1 Y58.949 I0 J-0.2
X90.9 Y58.949 Z-0.25 I0.9 J0
X89.1 Y58.949 Z-0.5 I-0.9 J0
X90.9 Y58.949 Z-0.75 I0.9 J0
X89.1 Y58.949 Z-1 I-0.9 J0
X90.9 Y58.949 Z-1.25 I0.9 J0
X89.1 Y58.949 Z-1.5 I-0.9 J0
X90.9 Y58.949 Z-1.75 I0.9 J0
X89.1 Y58.949 Z-2 I-0.9 J0
X90.9 Y58.949 Z-2.25 I0.9 J0
X89.1 Y58.949 Z-2.5 I-0.9 J0
X90.9 Y58.949 Z-2.75 I0.9 J0
X89.1 Y58.949 Z-3 I-0.9 J0
X90.9 Y58.949 Z-3.25 I0.9 J0
X89.1 Y58.949 Z-3.5 I-0.9 J0
X90.9 Y58.949 Z-3.75 I0.9 J0
X89.1 Y58.949 Z-4 I-0.9 J0
X90.9 Y58.949 Z-4.25 I0.9 J0
X89.1 Y58.949 Z-4.5 I-0.9 J0
X90.9 Y58.949 Z-4.75 I0.9 J0
X89.1 Y58.949 Z-5 I-0.9 J0
X90.9 Y58.949 Z-5.25 I0.9 J0
X89.1 Y58.949 Z-5.5 I-0.9 J0
X90.9 Y58.949 Z-5.75 I0.9 J0
X89.721 Y59.804 Z-5.9 I-0.9 J0
X90.278 Y58.093 I0.278 J-0.856
X89.721 Y59.804 I-0.278 J0.856
X89.593 Y59.552 I0.062 J-0.19
G1 X89.624 Y59.457
X89.64 Y59.408 Z-5.893
X89.655 Y59.362 Z-5.873
X89.668 Y59.323 Z-5.841
X89.677 Y59.293 Z-5.8
X89.684 Y59.274 Z-5.752
X89.686 Y59.267 Z-5.7
Z5
X89.45 Y59.149
Z-3.9
Z-5.7
G18 G3 X89.25 Z-5.9 I-0.2 K0
G1 X89.15
G17 G3 X88.95 Y58.949 I0 J-0.2
X91.05 Y58.949 I1.05 J0
X88.95 Y58.949 I-1.05 J0
X89.15 Y58.749 I0.2 J0
G1 X89.25
G18 G2 X89.45 Z-5.7 I0 K0.2
G1 Z5
X71.6 Y59.149
Z2
Z0.2
G3 X71.4 Z0 I-0.2 K0
G1 X71.3
G17 G3 X71.1 Y58.949 I0 J-0.2
X72.9 Y58.949 Z-0.25 I0.9 J0
X71.1 Y58.949 Z-0.5 I-0.9 J0
X72.9 Y58.949 Z-0.75 I0.9 J0
X71.1 Y58.949 Z-1 I-0.9 J0
X72.9 Y58.949 Z-1.25 I0.9 J0
X71.1 Y58.949 Z-1.5 I-0.9 J0
X72.9 Y58.949 Z-1.75 I0.9 J0
X71.1 Y58.949 Z-2 I-0.9 J0
X72.9 Y58.949 Z-2.25 I0.9 J0
X71.1 Y58.949 Z-2.5 I-0.9 J0
X72.9 Y58.949 Z-2.75 I0.9 J0
X71.1 Y58.949 Z-3 I-0.9 J0
X72.9 Y58.949 Z-3.25 I0.9 J0
X71.1 Y58.949 Z-3.5 I-0.9 J0
X72.9 Y58.949 Z-3.75 I0.9 J0
X71.1 Y58.949 Z-4 I-0.9 J0
X72.9 Y58.949 Z-4.25 I0.9 J0
X71.1 Y58.949 Z-4.5 I-0.9 J0
X72.9 Y58.949 Z-4.75 I0.9 J0
X71.1 Y58.949 Z-5 I-0.9 J0
X72.9 Y58.949 Z-5.25 I0.9 J0
X71.1 Y58.949 Z-5.5 I-0.9 J0
X72.9 Y58.949 Z-5.75 I0.9 J0
X71.721 Y59.804 Z-5.9 I-0.9 J0
X72.278 Y58.093 I0.278 J-0.856
X71.721 Y59.804 I-0.278 J0.856
X71.593 Y59.552 I0.062 J-0.19
G1 X71.624 Y59.457
X71.64 Y59.408 Z-5.893
X71.655 Y59.362 Z-5.873
X71.668 Y59.323 Z-5.841
X71.677 Y59.293 Z-5.8
X71.684 Y59.274 Z-5.752
X71.686 Y59.267 Z-5.7
Z5
X71.45 Y59.149
Z-3.9
Z-5.7
G18 G3 X71.25 Z-5.9 I-0.2 K0
G1 X71.15
G17 G3 X70.95 Y58.949 I0 J-0.2
X73.05 Y58.949 I1.05 J0
X70.95 Y58.949 I-1.05 J0
X71.15 Y58.749 I0.2 J0
G1 X71.25
G18 G2 X71.45 Z-5.7 I0 K0.2
G1 Z5
X41.6 Y59.149
Z2
Z0.2
G3 X41.4 Z0 I-0.2 K0
G1 X41.3
G17 G3 X41.1 Y58.949 I0 J-0.2
X42.9 Y58.949 Z-0.25 I0.9 J0
X41.1 Y58.949 Z-0.5 I-0.9 J0
X42.9 Y58.949 Z-0.75 I0.9 J0
X41.1 Y58.949 Z-1 I-0.9 J0
X42.9 Y58.949 Z-1.25 I0.9 J0
X41.1 Y58.949 Z-1.5 I-0.9 J0
X42.9 Y58.949 Z-1.75 I0.9 J0
X41.1 Y58.949 Z-2 I-0.9 J0
X42.9 Y58.949 Z-2.25 I0.9 J0
X41.1 Y58.949 Z-2.5 I-0.9 J0
X42.9 Y58.949 Z-2.75 I0.9 J0
X41.1 Y58.949 Z-3 I-0.9 J0
X42.9 Y58.949 Z-3.25 I0.9 J0
X41.1 Y58.949 Z-3.5 I-0.9 J0
X42.9 Y58.949 Z-3.75 I0.9 J0
X41.1 Y58.949 Z-4 I-0.9 J0
X42.9 Y58.949 Z-4.25 I0.9 J0
X41.1 Y58.949 Z-4.5 I-0.9 J0
X42.9 Y58.949 Z-4.75 I0.9 J0
X41.1 Y58.949 Z-5 I-0.9 J0
X42.9 Y58.949 Z-5.25 I0.9 J0
X41.1 Y58.949 Z-5.5 I-0.9 J0
X42.9 Y58.949 Z-5.75 I0.9 J0
X41.721 Y59.804 Z-5.9 I-0.9 J0
X42.278 Y58.093 I0.278 J-0.856
X41.721 Y59.804 I-0.278 J0.856
X41.593 Y59.552 I0.062 J-0.19
G1 X41.624 Y59.457
X41.64 Y59.408 Z-5.893
X41.655 Y59.362 Z-5.873
X41.668 Y59.323 Z-5.841
X41.677 Y59.293 Z-5.8
X41.684 Y59.274 Z-5.752
X41.686 Y59.267 Z-5.7
Z5
X41.45 Y59.149
Z-3.9
Z-5.7
G18 G3 X41.25 Z-5.9 I-0.2 K0
G1 X41.15
G17 G3 X40.95 Y58.949 I0 J-0.2
X43.05 Y58.949 I1.05 J0
X40.95 Y58.949 I-1.05 J0
X41.15 Y58.749 I0.2 J0
G1 X41.25
G18 G2 X41.45 Z-5.7 I0 K0.2
G1 Z5
X23.6 Y59.149
Z2
Z0.2
G3 X23.4 Z0 I-0.2 K0
G1 X23.3
G17 G3 X23.1 Y58.949 I0 J-0.2
X24.9 Y58.949 Z-0.25 I0.9 J0
X23.1 Y58.949 Z-0.5 I-0.9 J0
X24.9 Y58.949 Z-0.75 I0.9 J0
X23.1 Y58.949 Z-1 I-0.9 J0
X24.9 Y58.949 Z-1.25 I0.9 J0
X23.1 Y58.949 Z-1.5 I-0.9 J0
X24.9 Y58.949 Z-1.75 I0.9 J0
X23.1 Y58.949 Z-2 I-0.9 J0
X24.9 Y58.949 Z-2.25 I0.9 J0
X23.1 Y58.949 Z-2.5 I-0.9 J0
X24.9 Y58.949 Z-2.75 I0.9 J0
X23.1 Y58.949 Z-3 I-0.9 J0
X24.9 Y58.949 Z-3.25 I0.9 J0
X23.1 Y58.949 Z-3.5 I-0.9 J0
X24.9 Y58.949 Z-3.75 I0.9 J0
X23.1 Y58.949 Z-4 I-0.9 J0
X24.9 Y58.949 Z-4.25 I0.9 J0
X23.1 Y58.949 Z-4.5 I-0.9 J0
X24.9 Y58.949 Z-4.75 I0.9 J0
X23.1 Y58.949 Z-5 I-0.9 J0
X24.9 Y58.949 Z-5.25 I0.9 J0
X23.1 Y58.949 Z-5.5 I-0.9 J0
X24.9 Y58.949 Z-5.75 I0.9 J0
X23.721 Y59.804 Z-5.9 I-0.9 J0
X24.278 Y58.093 I0.278 J-0.856
X23.721 Y59.804 I-0.278 J0.856
X23.593 Y59.552 I0.062 J-0.19
G1 X23.624 Y59.457
X23.64 Y59.408 Z-5.893
X23.655 Y59.362 Z-5.873
X23.668 Y59.323 Z-5.841
X23.677 Y59.293 Z-5.8
X23.684 Y59.274 Z-5.752
X23.686 Y59.267 Z-5.7
Z5
X23.45 Y59.149
Z-3.9
Z-5.7
G18 G3 X23.25 Z-5.9 I-0.2 K0
G1 X23.15
G17 G3 X22.95 Y58.949 I0 J-0.2
X25.05 Y58.949 I1.05 J0
X22.95 Y58.949 I-1.05 J0
X23.15 Y58.749 I0.2 J0
G1 X23.25
G18 G2 X23.45 Z-5.7 I0 K0.2
G1 Z5
X12.4 Y4.8
Z2
Z0.2
G2 X12.6 Z0 I0.2 K0
G1 X12.7
G17 G3 X12.9 Y5 I0 J0.2
X11.1 Y5 Z-0.25 I-0.9 J0
X12.9 Y5 Z-0.5 I0.9 J0
X11.1 Y5 Z-0.75 I-0.9 J0
X12.9 Y5 Z-1 I0.9 J0
X11.1 Y5 Z-1.25 I-0.9 J0
X12.9 Y5 Z-1.5 I0.9 J0
X11.1 Y5 Z-1.75 I-0.9 J0
X12.9 Y5 Z-2 I0.9 J0
X11.1 Y5 Z-2.25 I-0.9 J0
X12.9 Y5 Z-2.5 I0.9 J0
X11.1 Y5 Z-2.75 I-0.9 J0
X12.9 Y5 Z-3 I0.9 J0
X11.1 Y5 Z-3.25 I-0.9 J0
X12.9 Y5 Z-3.5 I0.9 J0
X11.1 Y5 Z-3.75 I-0.9 J0
X12.9 Y5 Z-4 I0.9 J0
X11.1 Y5 Z-4.25 I-0.9 J0
X12.9 Y5 Z-4.5 I0.9 J0
X11.1 Y5 Z-4.75 I-0.9 J0
X12.9 Y5 Z-5 I0.9 J0
X11.1 Y5 Z-5.25 I-0.9 J0
X12.9 Y5 Z-5.5 I0.9 J0
X11.1 Y5 Z-5.75 I-0.9 J0
X12.278 Y4.144 Z-5.9 I0.9 J0
X11.722 Y5.856 I-0.278 J0.856
X12.278 Y4.144 I0.278 J-0.856
X12.407 Y4.396 I-0.062 J0.19
G1 X12.376 Y4.491
X12.36 Y4.54 Z-5.893
X12.345 Y4.586 Z-5.873
X12.332 Y4.626 Z-5.841
X12.322 Y4.656 Z-5.8
X12.316 Y4.675 Z-5.752
X12.314 Y4.681 Z-5.7
Z5
X12.55 Y4.8
Z-3.9
Z-5.7
G18 G2 X12.75 Z-5.9 I0.2 K0
G1 X12.85
G17 G3 X13.05 Y5 I0 J0.2
X10.95 Y5 I-1.05 J0
X13.05 Y5 I1.05 J0
X12.85 Y5.2 I-0.2 J0
G1 X12.75
G18 G3 X12.55 Z-5.7 I0 K0.2
G1 Z5
X30.4 Y4.8
Z2
Z0.2
G2 X30.6 Z0 I0.2 K0
G1 X30.7
G17 G3 X30.9 Y5 I0 J0.2
X29.1 Y5 Z-0.25 I-0.9 J0
X30.9 Y5 Z-0.5 I0.9 J0
X29.1 Y5 Z-0.75 I-0.9 J0
X30.9 Y5 Z-1 I0.9 J0
X29.1 Y5 Z-1.25 I-0.9 J0
X30.9 Y5 Z-1.5 I0.9 J0
X29.1 Y5 Z-1.75 I-0.9 J0
X30.9 Y5 Z-2 I0.9 J0
X29.1 Y5 Z-2.25 I-0.9 J0
X30.9 Y5 Z-2.5 I0.9 J0
X29.1 Y5 Z-2.75 I-0.9 J0
X30.9 Y5 Z-3 I0.9 J0
X29.1 Y5 Z-3.25 I-0.9 J0
X30.9 Y5 Z-3.5 I0.9 J0
X29.1 Y5 Z-3.75 I-0.9 J0
X30.9 Y5 Z-4 I0.9 J0
X29.1 Y5 Z-4.25 I-0.9 J0
X30.9 Y5 Z-4.5 I0.9 J0
X29.1 Y5 Z-4.75 I-0.9 J0
X30.9 Y5 Z-5 I0.9 J0
X29.1 Y5 Z-5.25 I-0.9 J0
X30.9 Y5 Z-5.5 I0.9 J0
X29.1 Y5 Z-5.75 I-0.9 J0
X30.278 Y4.144 Z-5.9 I0.9 J0
X29.722 Y5.856 I-0.278 J0.856
X30.278 Y4.144 I0.278 J-0.856
X30.407 Y4.396 I-0.062 J0.19
G1 X30.376 Y4.491
X30.36 Y4.54 Z-5.893
X30.345 Y4.586 Z-5.873
X30.332 Y4.626 Z-5.841
X30.322 Y4.656 Z-5.8
X30.316 Y4.675 Z-5.752
X30.314 Y4.681 Z-5.7
Z5
X30.55 Y4.8
Z-3.9
Z-5.7
G18 G2 X30.75 Z-5.9 I0.2 K0
G1 X30.85
G17 G3 X31.05 Y5 I0 J0.2
X28.95 Y5 I-1.05 J0
X31.05 Y5 I1.05 J0
X30.85 Y5.2 I-0.2 J0
G1 X30.75
G18 G3 X30.55 Z-5.7 I0 K0.2
G1 Z5
X60.4 Y4.8
Z2
Z0.2
G2 X60.6 Z0 I0.2 K0
G1 X60.7
G17 G3 X60.9 Y5 I0 J0.2
X59.1 Y5 Z-0.25 I-0.9 J0
X60.9 Y5 Z-0.5 I0.9 J0
X59.1 Y5 Z-0.75 I-0.9 J0
X60.9 Y5 Z-1 I0.9 J0
X59.1 Y5 Z-1.25 I-0.9 J0
X60.9 Y5 Z-1.5 I0.9 J0
X59.1 Y5 Z-1.75 I-0.9 J0
X60.9 Y5 Z-2 I0.9 J0
X59.1 Y5 Z-2.25 I-0.9 J0
X60.9 Y5 Z-2.5 I0.9 J0
X59.1 Y5 Z-2.75 I-0.9 J0
X60.9 Y5 Z-3 I0.9 J0
X59.1 Y5 Z-3.25 I-0.9 J0
X60.9 Y5 Z-3.5 I0.9 J0
X59.1 Y5 Z-3.75 I-0.9 J0
X60.9 Y5 Z-4 I0.9 J0
X59.1 Y5 Z-4.25 I-0.9 J0
X60.9 Y5 Z-4.5 I0.9 J0
X59.1 Y5 Z-4.75 I-0.9 J0
X60.9 Y5 Z-5 I0.9 J0
X59.1 Y5 Z-5.25 I-0.9 J0
X60.9 Y5 Z-5.5 I0.9 J0
X59.1 Y5 Z-5.75 I-0.9 J0
X60.278 Y4.144 Z-5.9 I0.9 J0
X59.722 Y5.856 I-0.278 J0.856
X60.278 Y4.144 I0.278 J-0.856
X60.407 Y4.396 I-0.062 J0.19
G1 X60.376 Y4.491
X60.36 Y4.54 Z-5.893
X60.345 Y4.586 Z-5.873
X60.332 Y4.626 Z-5.841
X60.322 Y4.656 Z-5.8
X60.316 Y4.675 Z-5.752
X60.314 Y4.681 Z-5.7
Z5
X60.55 Y4.8
Z-3.9
Z-5.7
G18 G2 X60.75 Z-5.9 I0.2 K0
G1 X60.85
G17 G3 X61.05 Y5 I0 J0.2
X58.95 Y5 I-1.05 J0
X61.05 Y5 I1.05 J0
X60.85 Y5.2 I-0.2 J0
G1 X60.75
G18 G3 X60.55 Z-5.7 I0 K0.2
G1 Z5
X78.4 Y4.8
Z2
Z0.2
G2 X78.6 Z0 I0.2 K0
G1 X78.7
G17 G3 X78.9 Y5 I0 J0.2
X77.1 Y5 Z-0.25 I-0.9 J0
X78.9 Y5 Z-0.5 I0.9 J0
X77.1 Y5 Z-0.75 I-0.9 J0
X78.9 Y5 Z-1 I0.9 J0
X77.1 Y5 Z-1.25 I-0.9 J0
X78.9 Y5 Z-1.5 I0.9 J0
X77.1 Y5 Z-1.75 I-0.9 J0
X78.9 Y5 Z-2 I0.9 J0
X77.1 Y5 Z-2.25 I-0.9 J0
X78.9 Y5 Z-2.5 I0.9 J0
X77.1 Y5 Z-2.75 I-0.9 J0
X78.9 Y5 Z-3 I0.9 J0
X77.1 Y5 Z-3.25 I-0.9 J0
X78.9 Y5 Z-3.5 I0.9 J0
X77.1 Y5 Z-3.75 I-0.9 J0
X78.9 Y5 Z-4 I0.9 J0
X77.1 Y5 Z-4.25 I-0.9 J0
X78.9 Y5 Z-4.5 I0.9 J0
X77.1 Y5 Z-4.75 I-0.9 J0
X78.9 Y5 Z-5 I0.9 J0
X77.1 Y5 Z-5.25 I-0.9 J0
X78.9 Y5 Z-5.5 I0.9 J0
X77.1 Y5 Z-5.75 I-0.9 J0
X78.278 Y4.144 Z-5.9 I0.9 J0
X77.722 Y5.856 I-0.278 J0.856
X78.278 Y4.144 I0.278 J-0.856
X78.407 Y4.396 I-0.062 J0.19
G1 X78.376 Y4.491
X78.36 Y4.54 Z-5.893
X78.345 Y4.586 Z-5.873
X78.332 Y4.626 Z-5.841
X78.322 Y4.656 Z-5.8
X78.316 Y4.675 Z-5.752
X78.314 Y4.681 Z-5.7
Z5
X78.55 Y4.8
Z-3.9
Z-5.7
G18 G2 X78.75 Z-5.9 I0.2 K0
G1 X78.85
G17 G3 X79.05 Y5 I0 J0.2
X76.95 Y5 I-1.05 J0
X79.05 Y5 I1.05 J0
X78.85 Y5.2 I-0.2 J0
G1 X78.75
G18 G3 X78.55 Z-5.7 I0 K0.2
G1 Z5
X108.4 Y4.8
Z2
Z0.2
G2 X108.6 Z0 I0.2 K0
G1 X108.7
G17 G3 X108.9 Y5 I0 J0.2
X107.1 Y5 Z-0.25 I-0.9 J0
X108.9 Y5 Z-0.5 I0.9 J0
X107.1 Y5 Z-0.75 I-0.9 J0
X108.9 Y5 Z-1 I0.9 J0
X107.1 Y5 Z-1.25 I-0.9 J0
X108.9 Y5 Z-1.5 I0.9 J0
X107.1 Y5 Z-1.75 I-0.9 J0
X108.9 Y5 Z-2 I0.9 J0
X107.1 Y5 Z-2.25 I-0.9 J0
X108.9 Y5 Z-2.5 I0.9 J0
X107.1 Y5 Z-2.75 I-0.9 J0
X108.9 Y5 Z-3 I0.9 J0
X107.1 Y5 Z-3.25 I-0.9 J0
X108.9 Y5 Z-3.5 I0.9 J0
X107.1 Y5 Z-3.75 I-0.9 J0
X108.9 Y5 Z-4 I0.9 J0
X107.1 Y5 Z-4.25 I-0.9 J0
X108.9 Y5 Z-4.5 I0.9 J0
X107.1 Y5 Z-4.75 I-0.9 J0
X108.9 Y5 Z-5 I0.9 J0
X107.1 Y5 Z-5.25 I-0.9 J0
X108.9 Y5 Z-5.5 I0.9 J0
X107.1 Y5 Z-5.75 I-0.9 J0
X108.278 Y4.144 Z-5.9 I0.9 J0
X107.722 Y5.856 I-0.278 J0.856
X108.278 Y4.144 I0.278 J-0.856
X108.407 Y4.396 I-0.062 J0.19
G1 X108.376 Y4.491
X108.36 Y4.54 Z-5.893
X108.345 Y4.586 Z-5.873
X108.332 Y4.626 Z-5.841
X108.322 Y4.656 Z-5.8
X108.316 Y4.675 Z-5.752
X108.314 Y4.681 Z-5.7
Z5
X108.55 Y4.8
Z-3.9
Z-5.7
G18 G2 X108.75 Z-5.9 I0.2 K0
G1 X108.85
G17 G3 X109.05 Y5 I0 J0.2
X106.95 Y5 I-1.05 J0
X109.05 Y5 I1.05 J0
X108.85 Y5.2 I-0.2 J0
G1 X108.75
G18 G3 X108.55 Z-5.7 I0 K0.2
G1 Z5
X126.4 Y4.8
Z2
Z0.2
G2 X126.6 Z0 I0.2 K0
G1 X126.7
G17 G3 X126.9 Y5 I0 J0.2
X125.1 Y5 Z-0.25 I-0.9 J0
X126.9 Y5 Z-0.5 I0.9 J0
X125.1 Y5 Z-0.75 I-0.9 J0
X126.9 Y5 Z-1 I0.9 J0
X125.1 Y5 Z-1.25 I-0.9 J0
X126.9 Y5 Z-1.5 I0.9 J0
X125.1 Y5 Z-1.75 I-0.9 J0
X126.9 Y5 Z-2 I0.9 J0
X125.1 Y5 Z-2.25 I-0.9 J0
X126.9 Y5 Z-2.5 I0.9 J0
X125.1 Y5 Z-2.75 I-0.9 J0
X126.9 Y5 Z-3 I0.9 J0
X125.1 Y5 Z-3.25 I-0.9 J0
X126.9 Y5 Z-3.5 I0.9 J0
X125.1 Y5 Z-3.75 I-0.9 J0
X126.9 Y5 Z-4 I0.9 J0
X125.1 Y5 Z-4.25 I-0.9 J0
X126.9 Y5 Z-4.5 I0.9 J0
X125.1 Y5 Z-4.75 I-0.9 J0
X126.9 Y5 Z-5 I0.9 J0
X125.1 Y5 Z-5.25 I-0.9 J0
X126.9 Y5 Z-5.5 I0.9 J0
X125.1 Y5 Z-5.75 I-0.9 J0
X126.278 Y4.144 Z-5.9 I0.9 J0
X125.722 Y5.856 I-0.278 J0.856
X126.278 Y4.144 I0.278 J-0.856
X126.407 Y4.396 I-0.062 J0.19
G1 X126.376 Y4.491
X126.36 Y4.54 Z-5.893
X126.345 Y4.586 Z-5.873
X126.332 Y4.626 Z-5.841
X126.322 Y4.656 Z-5.8
X126.316 Y4.675 Z-5.752
X126.314 Y4.681 Z-5.7
Z5
X126.55 Y4.8
Z-3.9
Z-5.7
G18 G2 X126.75 Z-5.9 I0.2 K0
G1 X126.85
G17 G3 X127.05 Y5 I0 J0.2
X124.95 Y5 I-1.05 J0
X127.05 Y5 I1.05 J0
X126.85 Y5.2 I-0.2 J0
G1 X126.75
G18 G3 X126.55 Z-5.7 I0 K0.2
G1 Z5
X156.4 Y4.8
Z2
Z0.2
G2 X156.6 Z0 I0.2 K0
G1 X156.7
G17 G3 X156.9 Y5 I0 J0.2
X155.1 Y5 Z-0.25 I-0.9 J0
X156.9 Y5 Z-0.5 I0.9 J0
X155.1 Y5 Z-0.75 I-0.9 J0
X156.9 Y5 Z-1 I0.9 J0
X155.1 Y5 Z-1.25 I-0.9 J0
X156.9 Y5 Z-1.5 I0.9 J0
X155.1 Y5 Z-1.75 I-0.9 J0
X156.9 Y5 Z-2 I0.9 J0
X155.1 Y5 Z-2.25 I-0.9 J0
X156.9 Y5 Z-2.5 I0.9 J0
X155.1 Y5 Z-2.75 I-0.9 J0
X156.9 Y5 Z-3 I0.9 J0
X155.1 Y5 Z-3.25 I-0.9 J0
X156.9 Y5 Z-3.5 I0.9 J0
X155.1 Y5 Z-3.75 I-0.9 J0
X156.9 Y5 Z-4 I0.9 J0
X155.1 Y5 Z-4.25 I-0.9 J0
X156.9 Y5 Z-4.5 I0.9 J0
X155.1 Y5 Z-4.75 I-0.9 J0
X156.9 Y5 Z-5 I0.9 J0
X155.1 Y5 Z-5.25 I-0.9 J0
X156.9 Y5 Z-5.5 I0.9 J0
X155.1 Y5 Z-5.75 I-0.9 J0
X156.278 Y4.144 Z-5.9 I0.9 J0
X155.722 Y5.856 I-0.278 J0.856
X156.278 Y4.144 I0.278 J-0.856
X156.407 Y4.396 I-0.062 J0.19
G1 X156.376 Y4.491
X156.36 Y4.54 Z-5.893
X156.345 Y4.586 Z-5.873
X156.332 Y4.626 Z-5.841
X156.322 Y4.656 Z-5.8
X156.316 Y4.675 Z-5.752
X156.314 Y4.681 Z-5.7
Z5
X156.55 Y4.8
Z-3.9
Z-5.7
G18 G2 X156.75 Z-5.9 I0.2 K0
G1 X156.85
G17 G3 X157.05 Y5 I0 J0.2
X154.95 Y5 I-1.05 J0
X157.05 Y5 I1.05 J0
X156.85 Y5.2 I-0.2 J0
G1 X156.75
G18 G3 X156.55 Z-5.7 I0 K0.2
G1 Z5
X174.4 Y4.8
Z2
Z0.2
G2 X174.6 Z0 I0.2 K0
G1 X174.7
G17 G3 X174.9 Y5 I0 J0.2
X173.1 Y5 Z-0.25 I-0.9 J0
X174.9 Y5 Z-0.5 I0.9 J0
X173.1 Y5 Z-0.75 I-0.9 J0
X174.9 Y5 Z-1 I0.9 J0
X173.1 Y5 Z-1.25 I-0.9 J0
X174.9 Y5 Z-1.5 I0.9 J0
X173.1 Y5 Z-1.75 I-0.9 J0
X174.9 Y5 Z-2 I0.9 J0
X173.1 Y5 Z-2.25 I-0.9 J0
X174.9 Y5 Z-2.5 I0.9 J0
X173.1 Y5 Z-2.75 I-0.9 J0
X174.9 Y5 Z-3 I0.9 J0
X173.1 Y5 Z-3.25 I-0.9 J0
X174.9 Y5 Z-3.5 I0.9 J0
X173.1 Y5 Z-3.75 I-0.9 J0
X174.9 Y5 Z-4 I0.9 J0
X173.1 Y5 Z-4.25 I-0.9 J0
X174.9 Y5 Z-4.5 I0.9 J0
X173.1 Y5 Z-4.75 I-0.9 J0
X174.9 Y5 Z-5 I0.9 J0
X173.1 Y5 Z-5.25 I-0.9 J0
X174.9 Y5 Z-5.5 I0.9 J0
X173.1 Y5 Z-5.75 I-0.9 J0
X174.278 Y4.144 Z-5.9 I0.9 J0
X173.722 Y5.856 I-0.278 J0.856
X174.278 Y4.144 I0.278 J-0.856
X174.407 Y4.396 I-0.062 J0.19
G1 X174.376 Y4.491
X174.36 Y4.54 Z-5.893
X174.345 Y4.586 Z-5.873
X174.332 Y4.626 Z-5.841
X174.322 Y4.656 Z-5.8
X174.316 Y4.675 Z-5.752
X174.314 Y4.681 Z-5.7
Z5
X174.55 Y4.8
Z-3.9
Z-5.7
G18 G2 X174.75 Z-5.9 I0.2 K0
G1 X174.85
G17 G3 X175.05 Y5 I0 J0.2
X172.95 Y5 I-1.05 J0
X175.05 Y5 I1.05 J0
X174.85 Y5.2 I-0.2 J0
G1 X174.75
G18 G3 X174.55 Z-5.7 I0 K0.2
G1 Z10
G17
(When using Fusion 360 for Personal Use, the feedrate of)
(rapid moves is reduced to match the feedrate of cutting)
(moves, which can increase machining time. Unrestricted rapid)
(moves are available with a Fusion 360 Subscription.)

(2D Contour inside 2)
G0 X98.9 Y52.743
G1 Z10 F1000
Z5
Z2.05 F333.3
Z-0.7
G18 G2 X99.1 Z-0.9 I0.2 K0 F1000
G1 X99.3
G17 G3 X99.5 Y52.944 I0 J0.2
G1 Y60.949
X96.5
Y53.949
G2 X95.5 Y52.949 I-1 J0
G1 X84.15
G2 X83.15 Y53.949 I0 J1
G1 Y55.938
G2 X84.15 Y56.938 I1 J0
G1 X77.85
G2 X78.85 Y55.938 I0 J-1
G1 Y53.949
G2 X77.85 Y52.949 I-1 J0
G1 X66.5
G2 X65.5 Y53.949 I0 J1
G1 Y60.949
X62.5
Y46.938
X65.5
Y51.938
G2 X66.5 Y52.938 I1 J0
G1 X95.5
G2 X96.5 Y51.938 I0 J-1
G1 Y46.938
X99.5
Y52.944
G3 X99.3 Y53.144 I-0.2 J0
G1 X99.1
G18 G3 X98.9 Z-0.7 I0 K0.2
G1 Z5
Y52.743
Z1.15 F333.3
Z-1.6
G2 X99.1 Z-1.8 I0.2 K0 F1000
G1 X99.3
G17 G3 X99.5 Y52.944 I0 J0.2
G1 Y60.949
X96.5
Y53.949
G2 X95.5 Y52.949 I-1 J0
G1 X84.15
G2 X83.15 Y53.949 I0 J1
G1 Y55.938
G2 X84.15 Y56.938 I1 J0
G1 X77.85
G2 X78.85 Y55.938 I0 J-1
G1 Y53.949
G2 X77.85 Y52.949 I-1 J0
G1 X66.5
G2 X65.5 Y53.949 I0 J1
G1 Y60.949
X62.5
Y46.938
X65.5
Y51.938
G2 X66.5 Y52.938 I1 J0
G1 X95.5
G2 X96.5 Y51.938 I0 J-1
G1 Y46.938
X99.5
Y52.944
G3 X99.3 Y53.144 I-0.2 J0
G1 X99.1
G18 G3 X98.9 Z-1.6 I0 K0.2
G1 Z5
Y52.743
Z0.25 F333.3
Z-2.5
G2 X99.1 Z-2.7 I0.2 K0 F1000
G1 X99.3
G17 G3 X99.5 Y52.944 I0 J0.2
G1 Y60.949
X96.5
Y53.949
G2 X95.5 Y52.949 I-1 J0
G1 X84.15
G2 X83.15 Y53.949 I0 J1
G1 Y55.938
G2 X84.15 Y56.938 I1 J0
G1 X77.85
G2 X78.85 Y55.938 I0 J-1
G1 Y53.949
G2 X77.85 Y52.949 I-1 J0
G1 X66.5
G2 X65.5 Y53.949 I0 J1
G1 Y60.949
X62.5
Y46.938
X65.5
Y51.938
G2 X66.5 Y52.938 I1 J0
G1 X95.5
G2 X96.5 Y51.938 I0 J-1
G1 Y46.938
X99.5
Y52.944
G3 X99.3 Y53.144 I-0.2 J0
G1 X99.1
G18 G3 X98.9 Z-2.5 I0 K0.2
G1 Z5
Y52.743
Z-0.65 F333.3
Z-3.4
G2 X99.1 Z-3.6 I0.2 K0 F1000
G1 X99.3
G17 G3 X99.5 Y52.944 I0 J0.2
G1 Y60.949
X96.5
Y53.949
G2 X95.5 Y52.949 I-1 J0
G1 X84.15
G2 X83.15 Y53.949 I0 J1
G1 Y55.938
G2 X84.15 Y56.938 I1 J0
G1 X77.85
G2 X78.85 Y55.938 I0 J-1
G1 Y53.949
G2 X77.85 Y52.949 I-1 J0
G1 X66.5
G2 X65.5 Y53.949 I0 J1
G1 Y60.949
X62.5
Y46.938
X65.5
Y51.938
G2 X66.5 Y52.938 I1 J0
G1 X95.5
G2 X96.5 Y51.938 I0 J-1
G1 Y46.938
X99.5
Y52.944
G3 X99.3 Y53.144 I-0.2 J0
G1 X99.1
G18 G3 X98.9 Z-3.4 I0 K0.2
G1 Z5
Y52.743
Z-1.55 F333.3
Z-4.3
G2 X99.1 Z-4.5 I0.2 K0 F1000
G1 X99.3
G17 G3 X99.5 Y52.944 I0 J0.2
G1 Y60.949
X96.5
Y53.949
G2 X95.5 Y52.949 I-1 J0
G1 X84.15
G2 X83.15 Y53.949 I0 J1
G1 Y55.938
G2 X84.15 Y56.938 I1 J0
G1 X77.85
G2 X78.85 Y55.938 I0 J-1
G1 Y53.949
G2 X77.85 Y52.949 I-1 J0
G1 X66.5
G2 X65.5 Y53.949 I0 J1
G1 Y60.949
X62.5
Y46.938
X65.5
Y51.938
G2 X66.5 Y52.938 I1 J0
G1 X95.5
G2 X96.5 Y51.938 I0 J-1
G1 Y46.938
X99.5
Y52.944
G3 X99.3 Y53.144 I-0.2 J0
G1 X99.1
G18 G3 X98.9 Z-4.3 I0 K0.2
G1 Z5
Y52.743
Z-2.45 F333.3
Z-5.2
G2 X99.1 Z-5.4 I0.2 K0 F1000
G1 X99.3
G17 G3 X99.5 Y52.944 I0 J0.2
G1 Y60.949
X96.5
Y53.949
G2 X95.5 Y52.949 I-1 J0
G1 X84.15
G2 X83.15 Y53.949 I0 J1
G1 Y55.938
G2 X84.15 Y56.938 I1 J0
G1 X77.85
G2 X78.85 Y55.938 I0 J-1
G1 Y53.949
G2 X77.85 Y52.949 I-1 J0
G1 X66.5
G2 X65.5 Y53.949 I0 J1
G1 Y60.949
X62.5
Y46.938
X65.5
Y51.938
G2 X66.5 Y52.938 I1 J0
G1 X95.5
G2 X96.5 Y51.938 I0 J-1
G1 Y46.938
X99.5
Y52.944
G3 X99.3 Y53.144 I-0.2 J0
G1 X99.1
G18 G3 X98.9 Z-5.2 I0 K0.2
G1 Z5
X113.102 Y53.146
Z2.05 F333.3
Z-0.7
X113.108 Y53.148 Z-0.752 F1000
X113.126 Y53.156 Z-0.8
X113.156 Y53.168 Z-0.841
X113.194 Y53.184 Z-0.873
X113.238 Y53.203 Z-0.893
X113.286 Y53.223 Z-0.9
X113.47 Y53.3
G17 G3 X113.578 Y53.562 I-0.077 J0.184
G2 X113.5 Y53.949 I0.922 J0.386
G1 Y60.949
X110.5
Y46.938
X113.5
Y51.938
G2 X114.5 Y52.938 I1 J0
G1 X143.5
G2 X144.5 Y51.938 I0 J-1
G1 Y46.938
X147.5
Y60.949
X144.5
Y53.949
G2 X143.5 Y52.949 I-1 J0
G1 X132.15
G2 X131.15 Y53.949 I0 J1
G1 Y55.938
G2 X132.15 Y56.938 I1 J0
G1 X125.85
G2 X126.85 Y55.938 I0 J-1
G1 Y53.949
G2 X125.85 Y52.949 I-1 J0
G1 X114.5
G2 X113.578 Y53.562 I0 J1
G3 X113.316 Y53.669 I-0.184 J-0.077
G1 X113.131 Y53.592
X113.084 Y53.572 Z-0.893
X113.039 Y53.553 Z-0.873
X113.001 Y53.537 Z-0.841
X112.972 Y53.525 Z-0.8
X112.953 Y53.517 Z-0.752
X112.947 Y53.515 Z-0.7
Z5
X113.102 Y53.146
Z1.15 F333.3
Z-1.6
X113.108 Y53.148 Z-1.652 F1000
X113.126 Y53.156 Z-1.7
X113.156 Y53.168 Z-1.741
X113.194 Y53.184 Z-1.773
X113.238 Y53.203 Z-1.793
X113.286 Y53.223 Z-1.8
X113.47 Y53.3
G3 X113.578 Y53.562 I-0.077 J0.184
G2 X113.5 Y53.949 I0.922 J0.386
G1 Y60.949
X110.5
Y46.938
X113.5
Y51.938
G2 X114.5 Y52.938 I1 J0
G1 X143.5
G2 X144.5 Y51.938 I0 J-1
G1 Y46.938
X147.5
Y60.949
X144.5
Y53.949
G2 X143.5 Y52.949 I-1 J0
G1 X132.15
G2 X131.15 Y53.949 I0 J1
G1 Y55.938
G2 X132.15 Y56.938 I1 J0
G1 X125.85
G2 X126.85 Y55.938 I0 J-1
G1 Y53.949
G2 X125.85 Y52.949 I-1 J0
G1 X114.5
G2 X113.578 Y53.562 I0 J1
G3 X113.316 Y53.669 I-0.184 J-0.077
G1 X113.131 Y53.592
X113.084 Y53.572 Z-1.793
X113.039 Y53.553 Z-1.773
X113.001 Y53.537 Z-1.741
X112.972 Y53.525 Z-1.7
X112.953 Y53.517 Z-1.652
X112.947 Y53.515 Z-1.6
Z5
X113.102 Y53.146
Z0.25 F333.3
Z-2.5
X113.108 Y53.148 Z-2.552 F1000
X113.126 Y53.156 Z-2.6
X113.156 Y53.168 Z-2.641
X113.194 Y53.184 Z-2.673
X113.238 Y53.203 Z-2.693
X113.286 Y53.223 Z-2.7
X113.47 Y53.3
G3 X113.578 Y53.562 I-0.077 J0.184
G2 X113.5 Y53.949 I0.922 J0.386
G1 Y60.949
X110.5
Y46.938
X113.5
Y51.938
G2 X114.5 Y52.938 I1 J0
G1 X143.5
G2 X144.5 Y51.938 I0 J-1
G1 Y46.938
X147.5
Y60.949
X144.5
Y53.949
G2 X143.5 Y52.949 I-1 J0
G1 X132.15
G2 X131.15 Y53.949 I0 J1
G1 Y55.938
G2 X132.15 Y56.938 I1 J0
G1 X125.85
G2 X126.85 Y55.938 I0 J-1
G1 Y53.949
G2 X125.85 Y52.949 I-1 J0
G1 X114.5
G2 X113.578 Y53.562 I0 J1
G3 X113.316 Y53.669 I-0.184 J-0.077
G1 X113.131 Y53.592
X113.084 Y53.572 Z-2.693
X113.039 Y53.553 Z-2.673
X113.001 Y53.537 Z-2.641
X112.972 Y53.525 Z-2.6
X112.953 Y53.517 Z-2.552
X112.947 Y53.515 Z-2.5
Z5
X113.102 Y53.146
Z-0.65 F333.3
Z-3.4
X113.108 Y53.148 Z-3.452 F1000
X113.126 Y53.156 Z-3.5
X113.156 Y53.168 Z-3.541
X113.194 Y53.184 Z-3.573
X113.238 Y53.203 Z-3.593
X113.286 Y53.223 Z-3.6
X113.47 Y53.3
G3 X113.578 Y53.562 I-0.077 J0.184
G2 X113.5 Y53.949 I0.922 J0.386
G1 Y60.949
X110.5
Y46.938
X113.5
Y51.938
G2 X114.5 Y52.938 I1 J0
G1 X143.5
G2 X144.5 Y51.938 I0 J-1
G1 Y46.938
X147.5
Y60.949
X144.5
Y53.949
G2 X143.5 Y52.949 I-1 J0
G1 X132.15
G2 X131.15 Y53.949 I0 J1
G1 Y55.938
G2 X132.15 Y56.938 I1 J0
G1 X125.85
G2 X126.85 Y55.938 I0 J-1
G1 Y53.949
G2 X125.85 Y52.949 I-1 J0
G1 X114.5
G2 X113.578 Y53.562 I0 J1
G3 X113.316 Y53.669 I-0.184 J-0.077
G1 X113.131 Y53.592
X113.084 Y53.572 Z-3.593
X113.039 Y53.553 Z-3.573
X113.001 Y53.537 Z-3.541
X112.972 Y53.525 Z-3.5
X112.953 Y53.517 Z-3.452
X112.947 Y53.515 Z-3.4
Z5
X113.102 Y53.146
Z-1.55 F333.3
Z-4.3
X113.108 Y53.148 Z-4.352 F1000
X113.126 Y53.156 Z-4.4
X113.156 Y53.168 Z-4.441
X113.194 Y53.184 Z-4.473
X113.238 Y53.203 Z-4.493
X113.286 Y53.223 Z-4.5
X113.47 Y53.3
G3 X113.578 Y53.562 I-0.077 J0.184
G2 X113.5 Y53.949 I0.922 J0.386
G1 Y60.949
X110.5
Y46.938
X113.5
Y51.938
G2 X114.5 Y52.938 I1 J0
G1 X143.5
G2 X144.5 Y51.938 I0 J-1
G1 Y46.938
X147.5
Y60.949
X144.5
Y53.949
G2 X143.5 Y52.949 I-1 J0
G1 X132.15
G2 X131.15 Y53.949 I0 J1
G1 Y55.938
G2 X132.15 Y56.938 I1 J0
G1 X125.85
G2 X126.85 Y55.938 I0 J-1
G1 Y53.949
G2 X125.85 Y52.949 I-1 J0
G1 X114.5
G2 X113.578 Y53.562 I0 J1
G3 X113.316 Y53.669 I-0.184 J-0.077
G1 X113.131 Y53.592
X113.084 Y53.572 Z-4.493
X113.039 Y53.553 Z-4.473
X113.001 Y53.537 Z-4.441
X112.972 Y53.525 Z-4.4
X112.953 Y53.517 Z-4.352
X112.947 Y53.515 Z-4.3
Z5
X113.102 Y53.146
Z-2.45 F333.3
Z-5.2
X113.108 Y53.148 Z-5.252 F1000
X113.126 Y53.156 Z-5.3
X113.156 Y53.168 Z-5.341
X113.194 Y53.184 Z-5.373
X113.238 Y53.203 Z-5.393
X113.286 Y53.223 Z-5.4
X113.47 Y53.3
G3 X113.578 Y53.562 I-0.077 J0.184
G2 X113.5 Y53.949 I0.922 J0.386
G1 Y60.949
X110.5
Y46.938
X113.5
Y51.938
G2 X114.5 Y52.938 I1 J0
G1 X143.5
G2 X144.5 Y51.938 I0 J-1
G1 Y46.938
X147.5
Y60.949
X144.5
Y53.949
G2 X143.5 Y52.949 I-1 J0
G1 X132.15
G2 X131.15 Y53.949 I0 J1
G1 Y55.938
G2 X132.15 Y56.938 I1 J0
G1 X125.85
G2 X126.85 Y55.938 I0 J-1
G1 Y53.949
G2 X125.85 Y52.949 I-1 J0
G1 X114.5
G2 X113.578 Y53.562 I0 J1
G3 X113.316 Y53.669 I-0.184 J-0.077
G1 X113.131 Y53.592
X113.084 Y53.572 Z-5.393
X113.039 Y53.553 Z-5.373
X113.001 Y53.537 Z-5.341
X112.972 Y53.525 Z-5.3
X112.953 Y53.517 Z-5.252
X112.947 Y53.515 Z-5.2
Z5
X116.06 Y10.41
Z2.05 F333.3
Z-0.7
G19 G3 Y10.61 Z-0.9 J0.2 K0 F1000
G1 Y10.81
G17 G3 X115.86 Y11.01 I-0.2 J0
G1 X102.5
G2 X101.5 Y12.01 I0 J1
G1 Y17.01
X98.5
Y3
X101.5
Y10
G2 X102.5 Y11 I1 J0
G1 X113.85
G2 X114.85 Y10 I0 J-1
G1 Y8.01
G2 X113.85 Y7.01 I-1 J0
G1 X120.15
G2 X119.15 Y8.01 I0 J1
G1 Y10
G2 X120.15 Y11 I1 J0
G1 X131.5
G2 X132.5 Y10 I0 J-1
G1 Y3
X135.5
Y17.01
X132.5
Y12.01
G2 X131.5 Y11.01 I-1 J0
G1 X115.86
G3 X115.66 Y10.81 I0 J-0.2
G1 Y10.61
G19 G2 Y10.41 Z-0.7 J0 K0.2
G1 Z5
X116.06
Z1.15 F333.3
Z-1.6
G3 Y10.61 Z-1.8 J0.2 K0 F1000
G1 Y10.81
G17 G3 X115.86 Y11.01 I-0.2 J0
G1 X102.5
G2 X101.5 Y12.01 I0 J1
G1 Y17.01
X98.5
Y3
X101.5
Y10
G2 X102.5 Y11 I1 J0
G1 X113.85
G2 X114.85 Y10 I0 J-1
G1 Y8.01
G2 X113.85 Y7.01 I-1 J0
G1 X120.15
G2 X119.15 Y8.01 I0 J1
G1 Y10
G2 X120.15 Y11 I1 J0
G1 X131.5
G2 X132.5 Y10 I0 J-1
G1 Y3
X135.5
Y17.01
X132.5
Y12.01
G2 X131.5 Y11.01 I-1 J0
G1 X115.86
G3 X115.66 Y10.81 I0 J-0.2
G1 Y10.61
G19 G2 Y10.41 Z-1.6 J0 K0.2
G1 Z5
X116.06
Z0.25 F333.3
Z-2.5
G3 Y10.61 Z-2.7 J0.2 K0 F1000
G1 Y10.81
G17 G3 X115.86 Y11.01 I-0.2 J0
G1 X102.5
G2 X101.5 Y12.01 I0 J1
G1 Y17.01
X98.5
Y3
X101.5
Y10
G2 X102.5 Y11 I1 J0
G1 X113.85
G2 X114.85 Y10 I0 J-1
G1 Y8.01
G2 X113.85 Y7.01 I-1 J0
G1 X120.15
G2 X119.15 Y8.01 I0 J1
G1 Y10
G2 X120.15 Y11 I1 J0
G1 X131.5
G2 X132.5 Y10 I0 J-1
G1 Y3
X135.5
Y17.01
X132.5
Y12.01
G2 X131.5 Y11.01 I-1 J0
G1 X115.86
G3 X115.66 Y10.81 I0 J-0.2
G1 Y10.61
G19 G2 Y10.41 Z-2.5 J0 K0.2
G1 Z5
X116.06
Z-0.65 F333.3
Z-3.4
G3 Y10.61 Z-3.6 J0.2 K0 F1000
G1 Y10.81
G17 G3 X115.86 Y11.01 I-0.2 J0
G1 X102.5
G2 X101.5 Y12.01 I0 J1
G1 Y17.01
X98.5
Y3
X101.5
Y10
G2 X102.5 Y11 I1 J0
G1 X113.85
G2 X114.85 Y10 I0 J-1
G1 Y8.01
G2 X113.85 Y7.01 I-1 J0
G1 X120.15
G2 X119.15 Y8.01 I0 J1
G1 Y10
G2 X120.15 Y11 I1 J0
G1 X131.5
G2 X132.5 Y10 I0 J-1
G1 Y3
X135.5
Y17.01
X132.5
Y12.01
G2 X131.5 Y11.01 I-1 J0
G1 X115.86
G3 X115.66 Y10.81 I0 J-0.2
G1 Y10.61
G19 G2 Y10.41 Z-3.4 J0 K0.2
G1 Z5
X116.06
Z-1.55 F333.3
Z-4.3
G3 Y10.61 Z-4.5 J0.2 K0 F1000
G1 Y10.81
G17 G3 X115.86 Y11.01 I-0.2 J0
G1 X102.5
G2 X101.5 Y12.01 I0 J1
G1 Y17.01
X98.5
Y3
X101.5
Y10
G2 X102.5 Y11 I1 J0
G1 X113.85
G2 X114.85 Y10 I0 J-1
G1 Y8.01
G2 X113.85 Y7.01 I-1 J0
G1 X120.15
G2 X119.15 Y8.01 I0 J1
G1 Y10
G2 X120.15 Y11 I1 J0
G1 X131.5
G2 X132.5 Y10 I0 J-1
G1 Y3
X135.5
Y17.01
X132.5
Y12.01
G2 X131.5 Y11.01 I-1 J0
G1 X115.86
G3 X115.66 Y10.81 I0 J-0.2
G1 Y10.61
G19 G2 Y10.41 Z-4.3 J0 K0.2
G1 Z5
X116.06
Z-2.45 F333.3
Z-5.2
G3 Y10.61 Z-5.4 J0.2 K0 F1000
G1 Y10.81
G17 G3 X115.86 Y11.01 I-0.2 J0
G1 X102.5
G2 X101.5 Y12.01 I0 J1
G1 Y17.01
X98.5
Y3
X101.5
Y10
G2 X102.5 Y11 I1 J0
G1 X113.85
G2 X114.85 Y10 I0 J-1
G1 Y8.01
G2 X113.85 Y7.01 I-1 J0
G1 X120.15
G2 X119.15 Y8.01 I0 J1
G1 Y10
G2 X120.15 Y11 I1 J0
G1 X131.5
G2 X132.5 Y10 I0 J-1
G1 Y3
X135.5
Y17.01
X132.5
Y12.01
G2 X131.5 Y11.01 I-1 J0
G1 X115.86
G3 X115.66 Y10.81 I0 J-0.2
G1 Y10.61
G19 G2 Y10.41 Z-5.2 J0 K0.2
G1 Z5
X86.9 Y10.805
Z2.05 F333.3
Z-0.7
G18 G2 X87.1 Z-0.9 I0.2 K0 F1000
G1 X87.3
G17 G3 X87.5 Y11.005 I0 J0.2
G1 Y17.01
X84.5
Y12.01
G2 X83.5 Y11.01 I-1 J0
G1 X54.5
G2 X53.5 Y12.01 I0 J1
G1 Y17.01
X50.5
Y3
X53.5
Y10
G2 X54.5 Y11 I1 J0
G1 X65.85
G2 X66.85 Y10 I0 J-1
G1 Y8.01
G2 X65.85 Y7.01 I-1 J0
G1 X72.15
G2 X71.15 Y8.01 I0 J1
G1 Y10
G2 X72.15 Y11 I1 J0
G1 X83.5
G2 X84.5 Y10 I0 J-1
G1 Y3
X87.5
Y11.005
G3 X87.3 Y11.205 I-0.2 J0
G1 X87.1
G18 G3 X86.9 Z-0.7 I0 K0.2
G1 Z5
Y10.805
Z1.15 F333.3
Z-1.6
G2 X87.1 Z-1.8 I0.2 K0 F1000
G1 X87.3
G17 G3 X87.5 Y11.005 I0 J0.2
G1 Y17.01
X84.5
Y12.01
G2 X83.5 Y11.01 I-1 J0
G1 X54.5
G2 X53.5 Y12.01 I0 J1
G1 Y17.01
X50.5
Y3
X53.5
Y10
G2 X54.5 Y11 I1 J0
G1 X65.85
G2 X66.85 Y10 I0 J-1
G1 Y8.01
G2 X65.85 Y7.01 I-1 J0
G1 X72.15
G2 X71.15 Y8.01 I0 J1
G1 Y10
G2 X72.15 Y11 I1 J0
G1 X83.5
G2 X84.5 Y10 I0 J-1
G1 Y3
X87.5
Y11.005
G3 X87.3 Y11.205 I-0.2 J0
G1 X87.1
G18 G3 X86.9 Z-1.6 I0 K0.2
G1 Z5
Y10.805
Z0.25 F333.3
Z-2.5
G2 X87.1 Z-2.7 I0.2 K0 F1000
G1 X87.3
G17 G3 X87.5 Y11.005 I0 J0.2
G1 Y17.01
X84.5
Y12.01
G2 X83.5 Y11.01 I-1 J0
G1 X54.5
G2 X53.5 Y12.01 I0 J1
G1 Y17.01
X50.5
Y3
X53.5
Y10
G2 X54.5 Y11 I1 J0
G1 X65.85
G2 X66.85 Y10 I0 J-1
G1 Y8.01
G2 X65.85 Y7.01 I-1 J0
G1 X72.15
G2 X71.15 Y8.01 I0 J1
G1 Y10
G2 X72.15 Y11 I1 J0
G1 X83.5
G2 X84.5 Y10 I0 J-1
G1 Y3
X87.5
Y11.005
G3 X87.3 Y11.205 I-0.2 J0
G1 X87.1
G18 G3 X86.9 Z-2.5 I0 K0.2
G1 Z5
Y10.805
Z-0.65 F333.3
Z-3.4
G2 X87.1 Z-3.6 I0.2 K0 F1000
G1 X87.3
G17 G3 X87.5 Y11.005 I0 J0.2
G1 Y17.01
X84.5
Y12.01
G2 X83.5 Y11.01 I-1 J0
G1 X54.5
G2 X53.5 Y12.01 I0 J1
G1 Y17.01
X50.5
Y3
X53.5
Y10
G2 X54.5 Y11 I1 J0
G1 X65.85
G2 X66.85 Y10 I0 J-1
G1 Y8.01
G2 X65.85 Y7.01 I-1 J0
G1 X72.15
G2 X71.15 Y8.01 I0 J1
G1 Y10
G2 X72.15 Y11 I1 J0
G1 X83.5
G2 X84.5 Y10 I0 J-1
G1 Y3
X87.5
Y11.005
G3 X87.3 Y11.205 I-0.2 J0
G1 X87.1
G18 G3 X86.9 Z-3.4 I0 K0.2
G1 Z5
Y10.805
Z-1.55 F333.3
Z-4.3
G2 X87.1 Z-4.5 I0.2 K0 F1000
G1 X87.3
G17 G3 X87.5 Y11.005 I0 J0.2
G1 Y17.01
X84.5
Y12.01
G2 X83.5 Y11.01 I-1 J0
G1 X54.5
G2 X53.5 Y12.01 I0 J1
G1 Y17.01
X50.5
Y3
X53.5
Y10
G2 X54.5 Y11 I1 J0
G1 X65.85
G2 X66.85 Y10 I0 J-1
G1 Y8.01
G2 X65.85 Y7.01 I-1 J0
G1 X72.15
G2 X71.15 Y8.01 I0 J1
G1 Y10
G2 X72.15 Y11 I1 J0
G1 X83.5
G2 X84.5 Y10 I0 J-1
G1 Y3
X87.5
Y11.005
G3 X87.3 Y11.205 I-0.2 J0
G1 X87.1
G18 G3 X86.9 Z-4.3 I0 K0.2
G1 Z5
Y10.805
Z-2.45 F333.3
Z-5.2
G2 X87.1 Z-5.4 I0.2 K0 F1000
G1 X87.3
G17 G3 X87.5 Y11.005 I0 J0.2
G1 Y17.01
X84.5
Y12.01
G2 X83.5 Y11.01 I-1 J0
G1 X54.5
G2 X53.5 Y12.01 I0 J1
G1 Y17.01
X50.5
Y3
X53.5
Y10
G2 X54.5 Y11 I1 J0
G1 X65.85
G2 X66.85 Y10 I0 J-1
G1 Y8.01
G2 X65.85 Y7.01 I-1 J0
G1 X72.15
G2 X71.15 Y8.01 I0 J1
G1 Y10
G2 X72.15 Y11 I1 J0
G1 X83.5
G2 X84.5 Y10 I0 J-1
G1 Y3
X87.5
Y11.005
G3 X87.3 Y11.205 I-0.2 J0
G1 X87.1
G18 G3 X86.9 Z-5.2 I0 K0.2
G1 Z5
X38.9 Y10.805
Z2.05 F333.3
Z-0.7
G2 X39.1 Z-0.9 I0.2 K0 F1000
G1 X39.3
G17 G3 X39.5 Y11.005 I0 J0.2
G1 Y17.01
X36.5
Y12.01
G2 X35.5 Y11.01 I-1 J0
G1 X6.5
G2 X5.5 Y12.01 I0 J1
G1 Y17.01
X2.5
Y3
X5.5
Y10
G2 X6.5 Y11 I1 J0
G1 X17.85
G2 X18.85 Y10 I0 J-1
G1 Y8.01
G2 X17.85 Y7.01 I-1 J0
G1 X24.15
G2 X23.15 Y8.01 I0 J1
G1 Y10
G2 X24.15 Y11 I1 J0
G1 X35.5
G2 X36.5 Y10 I0 J-1
G1 Y3
X39.5
Y11.005
G3 X39.3 Y11.205 I-0.2 J0
G1 X39.1
G18 G3 X38.9 Z-0.7 I0 K0.2
G1 Z5
Y10.805
Z1.15 F333.3
Z-1.6
G2 X39.1 Z-1.8 I0.2 K0 F1000
G1 X39.3
G17 G3 X39.5 Y11.005 I0 J0.2
G1 Y17.01
X36.5
Y12.01
G2 X35.5 Y11.01 I-1 J0
G1 X6.5
G2 X5.5 Y12.01 I0 J1
G1 Y17.01
X2.5
Y3
X5.5
Y10
G2 X6.5 Y11 I1 J0
G1 X17.85
G2 X18.85 Y10 I0 J-1
G1 Y8.01
G2 X17.85 Y7.01 I-1 J0
G1 X24.15
G2 X23.15 Y8.01 I0 J1
G1 Y10
G2 X24.15 Y11 I1 J0
G1 X35.5
G2 X36.5 Y10 I0 J-1
G1 Y3
X39.5
Y11.005
G3 X39.3 Y11.205 I-0.2 J0
G1 X39.1
G18 G3 X38.9 Z-1.6 I0 K0.2
G1 Z5
Y10.805
Z0.25 F333.3
Z-2.5
G2 X39.1 Z-2.7 I0.2 K0 F1000
G1 X39.3
G17 G3 X39.5 Y11.005 I0 J0.2
G1 Y17.01
X36.5
Y12.01
G2 X35.5 Y11.01 I-1 J0
G1 X6.5
G2 X5.5 Y12.01 I0 J1
G1 Y17.01
X2.5
Y3
X5.5
Y10
G2 X6.5 Y11 I1 J0
G1 X17.85
G2 X18.85 Y10 I0 J-1
G1 Y8.01
G2 X17.85 Y7.01 I-1 J0
G1 X24.15
G2 X23.15 Y8.01 I0 J1
G1 Y10
G2 X24.15 Y11 I1 J0
G1 X35.5
G2 X36.5 Y10 I0 J-1
G1 Y3
X39.5
Y11.005
G3 X39.3 Y11.205 I-0.2 J0
G1 X39.1
G18 G3 X38.9 Z-2.5 I0 K0.2
G1 Z5
Y10.805
Z-0.65 F333.3
Z-3.4
G2 X39.1 Z-3.6 I0.2 K0 F1000
G1 X39.3
G17 G3 X39.5 Y11.005 I0 J0.2
G1 Y17.01
X36.5
Y12.01
G2 X35.5 Y11.01 I-1 J0
G1 X6.5
G2 X5.5 Y12.01 I0 J1
G1 Y17.01
X2.5
Y3
X5.5
Y10
G2 X6.5 Y11 I1 J0
G1 X17.85
G2 X18.85 Y10 I0 J-1
G1 Y8.01
G2 X17.85 Y7.01 I-1 J0
G1 X24.15
G2 X23.15 Y8.01 I0 J1
G1 Y10
G2 X24.15 Y11 I1 J0
G1 X35.5
G2 X36.5 Y10 I0 J-1
G1 Y3
X39.5
Y11.005
G3 X39.3 Y11.205 I-0.2 J0
G1 X39.1
G18 G3 X38.9 Z-3.4 I0 K0.2
G1 Z5
Y10.805
Z-1.55 F333.3
Z-4.3
G2 X39.1 Z-4.5 I0.2 K0 F1000
G1 X39.3
G17 G3 X39.5 Y11.005 I0 J0.2
G1 Y17.01
X36.5
Y12.01
G2 X35.5 Y11.01 I-1 J0
G1 X6.5
G2 X5.5 Y12.01 I0 J1
G1 Y17.01
X2.5
Y3
X5.5
Y10
G2 X6.5 Y11 I1 J0
G1 X17.85
G2 X18.85 Y10 I0 J-1
G1 Y8.01
G2 X17.85 Y7.01 I-1 J0
G1 X24.15
G2 X23.15 Y8.01 I0 J1
G1 Y10
G2 X24.15 Y11 I1 J0
G1 X35.5
G2 X36.5 Y10 I0 J-1
G1 Y3
X39.5
Y11.005
G3 X39.3 Y11.205 I-0.2 J0
G1 X39.1
G18 G3 X38.9 Z-4.3 I0 K0.2
G1 Z5
Y10.805
Z-2.45 F333.3
Z-5.2
G2 X39.1 Z-5.4 I0.2 K0 F1000
G1 X39.3
G17 G3 X39.5 Y11.005 I0 J0.2
G1 Y17.01
X36.5
Y12.01
G2 X35.5 Y11.01 I-1 J0
G1 X6.5
G2 X5.5 Y12.01 I0 J1
G1 Y17.01
X2.5
Y3
X5.5
Y10
G2 X6.5 Y11 I1 J0
G1 X17.85
G2 X18.85 Y10 I0 J-1
G1 Y8.01
G2 X17.85 Y7.01 I-1 J0
G1 X24.15
G2 X23.15 Y8.01 I0 J1
G1 Y10
G2 X24.15 Y11 I1 J0
G1 X35.5
G2 X36.5 Y10 I0 J-1
G1 Y3
X39.5
Y11.005
G3 X39.3 Y11.205 I-0.2 J0
G1 X39.1
G18 G3 X38.9 Z-5.2 I0 K0.2
G1 Z5
X50.9 Y52.743
Z2.05 F333.3
Z-0.7
G2 X51.1 Z-0.9 I0.2 K0 F1000
G1 X51.3
G17 G3 X51.5 Y52.944 I0 J0.2
G1 Y60.949
X48.5
Y53.949
G2 X47.5 Y52.949 I-1 J0
G1 X36.15
G2 X35.15 Y53.949 I0 J1
G1 Y55.938
G2 X36.15 Y56.938 I1 J0
G1 X29.85
G2 X30.85 Y55.938 I0 J-1
G1 Y53.949
G2 X29.85 Y52.949 I-1 J0
G1 X18.5
G2 X17.5 Y53.949 I0 J1
G1 Y60.949
X14.5
Y46.938
X17.5
Y51.938
G2 X18.5 Y52.938 I1 J0
G1 X47.5
G2 X48.5 Y51.938 I0 J-1
G1 Y46.938
X51.5
Y51.938
Y52.944
G3 X51.3 Y53.144 I-0.2 J0
G1 X51.1
G18 G3 X50.9 Z-0.7 I0 K0.2
G1 Z5
Y52.743
Z1.15 F333.3
Z-1.6
G2 X51.1 Z-1.8 I0.2 K0 F1000
G1 X51.3
G17 G3 X51.5 Y52.944 I0 J0.2
G1 Y60.949
X48.5
Y53.949
G2 X47.5 Y52.949 I-1 J0
G1 X36.15
G2 X35.15 Y53.949 I0 J1
G1 Y55.938
G2 X36.15 Y56.938 I1 J0
G1 X29.85
G2 X30.85 Y55.938 I0 J-1
G1 Y53.949
G2 X29.85 Y52.949 I-1 J0
G1 X18.5
G2 X17.5 Y53.949 I0 J1
G1 Y60.949
X14.5
Y46.938
X17.5
Y51.938
G2 X18.5 Y52.938 I1 J0
G1 X47.5
G2 X48.5 Y51.938 I0 J-1
G1 Y46.938
X51.5
Y51.938
Y52.944
G3 X51.3 Y53.144 I-0.2 J0
G1 X51.1
G18 G3 X50.9 Z-1.6 I0 K0.2
G1 Z5
Y52.743
Z0.25 F333.3
Z-2.5
G2 X51.1 Z-2.7 I0.2 K0 F1000
G1 X51.3
G17 G3 X51.5 Y52.944 I0 J0.2
G1 Y60.949
X48.5
Y53.949
G2 X47.5 Y52.949 I-1 J0
G1 X36.15
G2 X35.15 Y53.949 I0 J1
G1 Y55.938
G2 X36.15 Y56.938 I1 J0
G1 X29.85
G2 X30.85 Y55.938 I0 J-1
G1 Y53.949
G2 X29.85 Y52.949 I-1 J0
G1 X18.5
G2 X17.5 Y53.949 I0 J1
G1 Y60.949
X14.5
Y46.938
X17.5
Y51.938
G2 X18.5 Y52.938 I1 J0
G1 X47.5
G2 X48.5 Y51.938 I0 J-1
G1 Y46.938
X51.5
Y51.938
Y52.944
G3 X51.3 Y53.144 I-0.2 J0
G1 X51.1
G18 G3 X50.9 Z-2.5 I0 K0.2
G1 Z5
Y52.743
Z-0.65 F333.3
Z-3.4
G2 X51.1 Z-3.6 I0.2 K0 F1000
G1 X51.3
G17 G3 X51.5 Y52.944 I0 J0.2
G1 Y60.949
X48.5
Y53.949
G2 X47.5 Y52.949 I-1 J0
G1 X36.15
G2 X35.15 Y53.949 I0 J1
G1 Y55.938
G2 X36.15 Y56.938 I1 J0
G1 X29.85
G2 X30.85 Y55.938 I0 J-1
G1 Y53.949
G2 X29.85 Y52.949 I-1 J0
G1 X18.5
G2 X17.5 Y53.949 I0 J1
G1 Y60.949
X14.5
Y46.938
X17.5
Y51.938
G2 X18.5 Y52.938 I1 J0
G1 X47.5
G2 X48.5 Y51.938 I0 J-1
G1 Y46.938
X51.5
Y51.938
Y52.944
G3 X51.3 Y53.144 I-0.2 J0
G1 X51.1
G18 G3 X50.9 Z-3.4 I0 K0.2
G1 Z5
Y52.743
Z-1.55 F333.3
Z-4.3
G2 X51.1 Z-4.5 I0.2 K0 F1000
G1 X51.3
G17 G3 X51.5 Y52.944 I0 J0.2
G1 Y60.949
X48.5
Y53.949
G2 X47.5 Y52.949 I-1 J0
G1 X36.15
G2 X35.15 Y53.949 I0 J1
G1 Y55.938
G2 X36.15 Y56.938 I1 J0
G1 X29.85
G2 X30.85 Y55.938 I0 J-1
G1 Y53.949
G2 X29.85 Y52.949 I-1 J0
G1 X18.5
G2 X17.5 Y53.949 I0 J1
G1 Y60.949
X14.5
Y46.938
X17.5
Y51.938
G2 X18.5 Y52.938 I1 J0
G1 X47.5
G2 X48.5 Y51.938 I0 J-1
G1 Y46.938
X51.5
Y51.938
Y52.944
G3 X51.3 Y53.144 I-0.2 J0
G1 X51.1
G18 G3 X50.9 Z-4.3 I0 K0.2
G1 Z5
Y52.743
Z-2.45 F333.3
Z-5.2
G2 X51.1 Z-5.4 I0.2 K0 F1000
G1 X51.3
G17 G3 X51.5 Y52.944 I0 J0.2
G1 Y60.949
X48.5
Y53.949
G2 X47.5 Y52.949 I-1 J0
G1 X36.15
G2 X35.15 Y53.949 I0 J1
G1 Y55.938
G2 X36.15 Y56.938 I1 J0
G1 X29.85
G2 X30.85 Y55.938 I0 J-1
G1 Y53.949
G2 X29.85 Y52.949 I-1 J0
G1 X18.5
G2 X17.5 Y53.949 I0 J1
G1 Y60.949
X14.5
Y46.938
X17.5
Y51.938
G2 X18.5 Y52.938 I1 J0
G1 X47.5
G2 X48.5 Y51.938 I0 J-1
G1 Y46.938
X51.5
Y51.938
Y52.944
G3 X51.3 Y53.144 I-0.2 J0
G1 X51.1
G18 G3 X50.9 Z-5.2 I0 K0.2
G1 Z5
X148.947 Y10.434
Z2.05 F333.3
Z-0.7
X148.953 Y10.431 Z-0.752 F1000
X148.972 Y10.423 Z-0.8
X149.001 Y10.411 Z-0.841
X149.039 Y10.395 Z-0.873
X149.084 Y10.376 Z-0.893
X149.131 Y10.356 Z-0.9
X149.316 Y10.279
G17 G3 X149.578 Y10.386 I0.077 J0.184
G2 X150.5 Y11 I0.922 J-0.386
G1 X161.85
G2 X162.85 Y10 I0 J-1
G1 Y8.01
G2 X161.85 Y7.01 I-1 J0
G1 X168.15
G2 X167.15 Y8.01 I0 J1
G1 Y10
G2 X168.15 Y11 I1 J0
G1 X179.5
G2 X180.5 Y10 I0 J-1
G1 Y3
X183.5
Y17.01
X180.5
Y12.01
G2 X179.5 Y11.01 I-1 J0
G1 X150.5
G2 X149.5 Y12.01 I0 J1
G1 Y17.01
X146.5
Y3
X149.5
Y10
G2 X149.578 Y10.386 I1 J0
G3 X149.47 Y10.648 I-0.184 J0.077
G1 X149.286 Y10.725
X149.238 Y10.745 Z-0.893
X149.194 Y10.764 Z-0.873
X149.156 Y10.78 Z-0.841
X149.126 Y10.792 Z-0.8
X149.108 Y10.8 Z-0.752
X149.102 Y10.803 Z-0.7
Z5
X148.947 Y10.434
Z1.15 F333.3
Z-1.6
X148.953 Y10.431 Z-1.652 F1000
X148.972 Y10.423 Z-1.7
X149.001 Y10.411 Z-1.741
X149.039 Y10.395 Z-1.773
X149.084 Y10.376 Z-1.793
X149.131 Y10.356 Z-1.8
X149.316 Y10.279
G3 X149.578 Y10.386 I0.077 J0.184
G2 X150.5 Y11 I0.922 J-0.386
G1 X161.85
G2 X162.85 Y10 I0 J-1
G1 Y8.01
G2 X161.85 Y7.01 I-1 J0
G1 X168.15
G2 X167.15 Y8.01 I0 J1
G1 Y10
G2 X168.15 Y11 I1 J0
G1 X179.5
G2 X180.5 Y10 I0 J-1
G1 Y3
X183.5
Y17.01
X180.5
Y12.01
G2 X179.5 Y11.01 I-1 J0
G1 X150.5
G2 X149.5 Y12.01 I0 J1
G1 Y17.01
X146.5
Y3
X149.5
Y10
G2 X149.578 Y10.386 I1 J0
G3 X149.47 Y10.648 I-0.184 J0.077
G1 X149.286 Y10.725
X149.238 Y10.745 Z-1.793
X149.194 Y10.764 Z-1.773
X149.156 Y10.78 Z-1.741
X149.126 Y10.792 Z-1.7
X149.108 Y10.8 Z-1.652
X149.102 Y10.803 Z-1.6
Z5
X148.947 Y10.434
Z0.25 F333.3
Z-2.5
X148.953 Y10.431 Z-2.552 F1000
X148.972 Y10.423 Z-2.6
X149.001 Y10.411 Z-2.641
X149.039 Y10.395 Z-2.673
X149.084 Y10.376 Z-2.693
X149.131 Y10.356 Z-2.7
X149.316 Y10.279
G3 X149.578 Y10.386 I0.077 J0.184
G2 X150.5 Y11 I0.922 J-0.386
G1 X161.85
G2 X162.85 Y10 I0 J-1
G1 Y8.01
G2 X161.85 Y7.01 I-1 J0
G1 X168.15
G2 X167.15 Y8.01 I0 J1
G1 Y10
G2 X168.15 Y11 I1 J0
G1 X179.5
G2 X180.5 Y10 I0 J-1
G1 Y3
X183.5
Y17.01
X180.5
Y12.01
G2 X179.5 Y11.01 I-1 J0
G1 X150.5
G2 X149.5 Y12.01 I0 J1
G1 Y17.01
X146.5
Y3
X149.5
Y10
G2 X149.578 Y10.386 I1 J0
G3 X149.47 Y10.648 I-0.184 J0.077
G1 X149.286 Y10.725
X149.238 Y10.745 Z-2.693
X149.194 Y10.764 Z-2.673
X149.156 Y10.78 Z-2.641
X149.126 Y10.792 Z-2.6
X149.108 Y10.8 Z-2.552
X149.102 Y10.803 Z-2.5
Z5
X148.947 Y10.434
Z-0.65 F333.3
Z-3.4
X148.953 Y10.431 Z-3.452 F1000
X148.972 Y10.423 Z-3.5
X149.001 Y10.411 Z-3.541
X149.039 Y10.395 Z-3.573
X149.084 Y10.376 Z-3.593
X149.131 Y10.356 Z-3.6
X149.316 Y10.279
G3 X149.578 Y10.386 I0.077 J0.184
G2 X150.5 Y11 I0.922 J-0.386
G1 X161.85
G2 X162.85 Y10 I0 J-1
G1 Y8.01
G2 X161.85 Y7.01 I-1 J0
G1 X168.15
G2 X167.15 Y8.01 I0 J1
G1 Y10
G2 X168.15 Y11 I1 J0
G1 X179.5
G2 X180.5 Y10 I0 J-1
G1 Y3
X183.5
Y17.01
X180.5
Y12.01
G2 X179.5 Y11.01 I-1 J0
G1 X150.5
G2 X149.5 Y12.01 I0 J1
G1 Y17.01
X146.5
Y3
X149.5
Y10
G2 X149.578 Y10.386 I1 J0
G3 X149.47 Y10.648 I-0.184 J0.077
G1 X149.286 Y10.725
X149.238 Y10.745 Z-3.593
X149.194 Y10.764 Z-3.573
X149.156 Y10.78 Z-3.541
X149.126 Y10.792 Z-3.5
X149.108 Y10.8 Z-3.452
X149.102 Y10.803 Z-3.4
Z5
X148.947 Y10.434
Z-1.55 F333.3
Z-4.3
X148.953 Y10.431 Z-4.352 F1000
X148.972 Y10.423 Z-4.4
X149.001 Y10.411 Z-4.441
X149.039 Y10.395 Z-4.473
X149.084 Y10.376 Z-4.493
X149.131 Y10.356 Z-4.5
X149.316 Y10.279
G3 X149.578 Y10.386 I0.077 J0.184
G2 X150.5 Y11 I0.922 J-0.386
G1 X161.85
G2 X162.85 Y10 I0 J-1
G1 Y8.01
G2 X161.85 Y7.01 I-1 J0
G1 X168.15
G2 X167.15 Y8.01 I0 J1
G1 Y10
G2 X168.15 Y11 I1 J0
G1 X179.5
G2 X180.5 Y10 I0 J-1
G1 Y3
X183.5
Y17.01
X180.5
Y12.01
G2 X179.5 Y11.01 I-1 J0
G1 X150.5
G2 X149.5 Y12.01 I0 J1
G1 Y17.01
X146.5
Y3
X149.5
Y10
G2 X149.578 Y10.386 I1 J0
G3 X149.47 Y10.648 I-0.184 J0.077
G1 X149.286 Y10.725
X149.238 Y10.745 Z-4.493
X149.194 Y10.764 Z-4.473
X149.156 Y10.78 Z-4.441
X149.126 Y10.792 Z-4.4
X149.108 Y10.8 Z-4.352
X149.102 Y10.803 Z-4.3
Z5
X148.947 Y10.434
Z-2.45 F333.3
Z-5.2
X148.953 Y10.431 Z-5.252 F1000
X148.972 Y10.423 Z-5.3
X149.001 Y10.411 Z-5.341
X149.039 Y10.395 Z-5.373
X149.084 Y10.376 Z-5.393
X149.131 Y10.356 Z-5.4
X149.316 Y10.279
G3 X149.578 Y10.386 I0.077 J0.184
G2 X150.5 Y11 I0.922 J-0.386
G1 X161.85
G2 X162.85 Y10 I0 J-1
G1 Y8.01
G2 X161.85 Y7.01 I-1 J0
G1 X168.15
G2 X167.15 Y8.01 I0 J1
G1 Y10
G2 X168.15 Y11 I1 J0
G1 X179.5
G2 X180.5 Y10 I0 J-1
G1 Y3
X183.5
Y17.01
X180.5
Y12.01
G2 X179.5 Y11.01 I-1 J0
G1 X150.5
G2 X149.5 Y12.01 I0 J1
G1 Y17.01
X146.5
Y3
X149.5
Y10
G2 X149.578 Y10.386 I1 J0
G3 X149.47 Y10.648 I-0.184 J0.077
G1 X149.286 Y10.725
X149.238 Y10.745 Z-5.393
X149.194 Y10.764 Z-5.373
X149.156 Y10.78 Z-5.341
X149.126 Y10.792 Z-5.3
X149.108 Y10.8 Z-5.252
X149.102 Y10.803 Z-5.2
Z5
X161.102 Y53.146
Z2.05 F333.3
Z-0.7
X161.108 Y53.148 Z-0.752 F1000
X161.126 Y53.156 Z-0.8
X161.156 Y53.168 Z-0.841
X161.194 Y53.184 Z-0.873
X161.238 Y53.203 Z-0.893
X161.286 Y53.223 Z-0.9
X161.47 Y53.3
G3 X161.578 Y53.562 I-0.077 J0.184
G2 X161.5 Y53.949 I0.922 J0.386
G1 Y60.949
X158.5
Y46.938
X161.5
Y51.938
G2 X162.5 Y52.938 I1 J0
G1 X191.5
G2 X192.5 Y51.938 I0 J-1
G1 Y46.938
X195.5
Y60.949
X192.5
Y53.949
G2 X191.5 Y52.949 I-1 J0
G1 X180.15
G2 X179.15 Y53.949 I0 J1
G1 Y55.938
G2 X180.15 Y56.938 I1 J0
G1 X173.85
G2 X174.85 Y55.938 I0 J-1
G1 Y53.949
G2 X173.85 Y52.949 I-1 J0
G1 X162.5
G2 X161.578 Y53.562 I0 J1
G3 X161.316 Y53.669 I-0.184 J-0.077
G1 X161.131 Y53.592
X161.084 Y53.572 Z-0.893
X161.039 Y53.553 Z-0.873
X161.001 Y53.537 Z-0.841
X160.972 Y53.525 Z-0.8
X160.953 Y53.517 Z-0.752
X160.947 Y53.515 Z-0.7
Z5
X161.102 Y53.146
Z1.15 F333.3
Z-1.6
X161.108 Y53.148 Z-1.652 F1000
X161.126 Y53.156 Z-1.7
X161.156 Y53.168 Z-1.741
X161.194 Y53.184 Z-1.773
X161.238 Y53.203 Z-1.793
X161.286 Y53.223 Z-1.8
X161.47 Y53.3
G3 X161.578 Y53.562 I-0.077 J0.184
G2 X161.5 Y53.949 I0.922 J0.386
G1 Y60.949
X158.5
Y46.938
X161.5
Y51.938
G2 X162.5 Y52.938 I1 J0
G1 X191.5
G2 X192.5 Y51.938 I0 J-1
G1 Y46.938
X195.5
Y60.949
X192.5
Y53.949
G2 X191.5 Y52.949 I-1 J0
G1 X180.15
G2 X179.15 Y53.949 I0 J1
G1 Y55.938
G2 X180.15 Y56.938 I1 J0
G1 X173.85
G2 X174.85 Y55.938 I0 J-1
G1 Y53.949
G2 X173.85 Y52.949 I-1 J0
G1 X162.5
G2 X161.578 Y53.562 I0 J1
G3 X161.316 Y53.669 I-0.184 J-0.077
G1 X161.131 Y53.592
X161.084 Y53.572 Z-1.793
X161.039 Y53.553 Z-1.773
X161.001 Y53.537 Z-1.741
X160.972 Y53.525 Z-1.7
X160.953 Y53.517 Z-1.652
X160.947 Y53.515 Z-1.6
Z5
X161.102 Y53.146
Z0.25 F333.3
Z-2.5
X161.108 Y53.148 Z-2.552 F1000
X161.126 Y53.156 Z-2.6
X161.156 Y53.168 Z-2.641
X161.194 Y53.184 Z-2.673
X161.238 Y53.203 Z-2.693
X161.286 Y53.223 Z-2.7
X161.47 Y53.3
G3 X161.578 Y53.562 I-0.077 J0.184
G2 X161.5 Y53.949 I0.922 J0.386
G1 Y60.949
X158.5
Y46.938
X161.5
Y51.938
G2 X162.5 Y52.938 I1 J0
G1 X191.5
G2 X192.5 Y51.938 I0 J-1
G1 Y46.938
X195.5
Y60.949
X192.5
Y53.949
G2 X191.5 Y52.949 I-1 J0
G1 X180.15
G2 X179.15 Y53.949 I0 J1
G1 Y55.938
G2 X180.15 Y56.938 I1 J0
G1 X173.85
G2 X174.85 Y55.938 I0 J-1
G1 Y53.949
G2 X173.85 Y52.949 I-1 J0
G1 X162.5
G2 X161.578 Y53.562 I0 J1
G3 X161.316 Y53.669 I-0.184 J-0.077
G1 X161.131 Y53.592
X161.084 Y53.572 Z-2.693
X161.039 Y53.553 Z-2.673
X161.001 Y53.537 Z-2.641
X160.972 Y53.525 Z-2.6
X160.953 Y53.517 Z-2.552
X160.947 Y53.515 Z-2.5
Z5
X161.102 Y53.146
Z-0.65 F333.3
Z-3.4
X161.108 Y53.148 Z-3.452 F1000
X161.126 Y53.156 Z-3.5
X161.156 Y53.168 Z-3.541
X161.194 Y53.184 Z-3.573
X161.238 Y53.203 Z-3.593
X161.286 Y53.223 Z-3.6
X161.47 Y53.3
G3 X161.578 Y53.562 I-0.077 J0.184
G2 X161.5 Y53.949 I0.922 J0.386
G1 Y60.949
X158.5
Y46.938
X161.5
Y51.938
G2 X162.5 Y52.938 I1 J0
G1 X191.5
G2 X192.5 Y51.938 I0 J-1
G1 Y46.938
X195.5
Y60.949
X192.5
Y53.949
G2 X191.5 Y52.949 I-1 J0
G1 X180.15
G2 X179.15 Y53.949 I0 J1
G1 Y55.938
G2 X180.15 Y56.938 I1 J0
G1 X173.85
G2 X174.85 Y55.938 I0 J-1
G1 Y53.949
G2 X173.85 Y52.949 I-1 J0
G1 X162.5
G2 X161.578 Y53.562 I0 J1
G3 X161.316 Y53.669 I-0.184 J-0.077
G1 X161.131 Y53.592
X161.084 Y53.572 Z-3.593
X161.039 Y53.553 Z-3.573
X161.001 Y53.537 Z-3.541
X160.972 Y53.525 Z-3.5
X160.953 Y53.517 Z-3.452
X160.947 Y53.515 Z-3.4
Z5
X161.102 Y53.146
Z-1.55 F333.3
Z-4.3
X161.108 Y53.148 Z-4.352 F1000
X161.126 Y53.156 Z-4.4
X161.156 Y53.168 Z-4.441
X161.194 Y53.184 Z-4.473
X161.238 Y53.203 Z-4.493
X161.286 Y53.223 Z-4.5
X161.47 Y53.3
G3 X161.578 Y53.562 I-0.077 J0.184
G2 X161.5 Y53.949 I0.922 J0.386
G1 Y60.949
X158.5
Y46.938
X161.5
Y51.938
G2 X162.5 Y52.938 I1 J0
G1 X191.5
G2 X192.5 Y51.938 I0 J-1
G1 Y46.938
X195.5
Y60.949
X192.5
Y53.949
G2 X191.5 Y52.949 I-1 J0
G1 X180.15
G2 X179.15 Y53.949 I0 J1
G1 Y55.938
G2 X180.15 Y56.938 I1 J0
G1 X173.85
G2 X174.85 Y55.938 I0 J-1
G1 Y53.949
G2 X173.85 Y52.949 I-1 J0
G1 X162.5
G2 X161.578 Y53.562 I0 J1
G3 X161.316 Y53.669 I-0.184 J-0.077
G1 X161.131 Y53.592
X161.084 Y53.572 Z-4.493
X161.039 Y53.553 Z-4.473
X161.001 Y53.537 Z-4.441
X160.972 Y53.525 Z-4.4
X160.953 Y53.517 Z-4.352
X160.947 Y53.515 Z-4.3
Z5
X161.102 Y53.146
Z-2.45 F333.3
Z-5.2
X161.108 Y53.148 Z-5.252 F1000
X161.126 Y53.156 Z-5.3
X161.156 Y53.168 Z-5.341
X161.194 Y53.184 Z-5.373
X161.238 Y53.203 Z-5.393
X161.286 Y53.223 Z-5.4
X161.47 Y53.3
G3 X161.578 Y53.562 I-0.077 J0.184
G2 X161.5 Y53.949 I0.922 J0.386
G1 Y60.949
X158.5
Y46.938
X161.5
Y51.938
G2 X162.5 Y52.938 I1 J0
G1 X191.5
G2 X192.5 Y51.938 I0 J-1
G1 Y46.938
X195.5
Y60.949
X192.5
Y53.949
G2 X191.5 Y52.949 I-1 J0
G1 X180.15
G2 X179.15 Y53.949 I0 J1
G1 Y55.938
G2 X180.15 Y56.938 I1 J0
G1 X173.85
G2 X174.85 Y55.938 I0 J-1
G1 Y53.949
G2 X173.85 Y52.949 I-1 J0
G1 X162.5
G2 X161.578 Y53.562 I0 J1
G3 X161.316 Y53.669 I-0.184 J-0.077
G1 X161.131 Y53.592
X161.084 Y53.572 Z-5.393
X161.039 Y53.553 Z-5.373
X161.001 Y53.537 Z-5.341
X160.972 Y53.525 Z-5.3
X160.953 Y53.517 Z-5.252
X160.947 Y53.515 Z-5.2
Z10
(When using Fusion 360 for Personal Use, the feedrate of)
(rapid moves is reduced to match the feedrate of cutting)
(moves, which can increase machining time. Unrestricted rapid)
(moves are available with a Fusion 360 Subscription.)

(2D Contour outside 3)
G0 X112.2 Y29.8
G1 Z10 F1000
Z5
Z2.05 F333.3
Z-0.7
G18 G2 X112.4 Z-0.9 I0.2 K0 F1000
G1 X112.6
G17 G3 X112.8 Y30 I0 J0.2
G1 Y41
G2 X114 Y42.2 I1.2 J0
G1 X120
G2 X121.2 Y41 I0 J-1.2
G1 Y14.71
X128.8
Y18.01
G2 X131.5 Y20.71 I2.7 J0
G1 X136.5
G2 X139.2 Y18.01 I0 J-2.7
G1 Y2
G2 X136 Y-1.2 I-3.2 J0
G1 X98
G2 X94.8 Y2 I0 J3.2
G1 Y18.01
G2 X97.5 Y20.71 I2.7 J0
G1 X102.5
G2 X105.2 Y18.01 I0 J-2.7
G1 Y14.71
X112.8
Y30
G3 X112.6 Y30.2 I-0.2 J0
G1 X112.4
G18 G3 X112.2 Z-0.7 I0 K0.2
G1 Z5
X124.2 Y29.8
Z2.05 F333.3
Z-0.7
G2 X124.4 Z-0.9 I0.2 K0 F1000
G1 X124.6
G17 G3 X124.8 Y30 I0 J0.2
G1 Y49.238
X117.2
Y45.938
G2 X114.5 Y43.238 I-2.7 J0
G1 X109.5
G2 X106.8 Y45.938 I0 J2.7
G1 Y61.949
G2 X110 Y65.148 I3.2 J0
G1 X148
G2 X151.2 Y61.949 I0 J-3.2
G1 Y45.938
G2 X148.5 Y43.238 I-2.7 J0
G1 X143.5
G2 X140.8 Y45.938 I0 J2.7
G1 Y49.238
X133.2
Y22.948
G2 X132 Y21.749 I-1.2 J0
G1 X126
G2 X124.8 Y22.948 I0 J1.2
G1 Y30
G3 X124.6 Y30.2 I-0.2 J0
G1 X124.4
G18 G3 X124.2 Z-0.7 I0 K0.2
G1 Z5
Y29.8
Z1.15 F333.3
Z-1.6
G2 X124.4 Z-1.8 I0.2 K0 F1000
G1 X124.6
G17 G3 X124.8 Y30 I0 J0.2
G1 Y49.238
X117.2
Y45.938
G2 X114.5 Y43.238 I-2.7 J0
G1 X109.5
G2 X106.8 Y45.938 I0 J2.7
G1 Y61.949
G2 X110 Y65.148 I3.2 J0
G1 X148
G2 X151.2 Y61.949 I0 J-3.2
G1 Y45.938
G2 X148.5 Y43.238 I-2.7 J0
G1 X143.5
G2 X140.8 Y45.938 I0 J2.7
G1 Y49.238
X133.2
Y22.948
G2 X132 Y21.749 I-1.2 J0
G1 X126
G2 X124.8 Y22.948 I0 J1.2
G1 Y30
G3 X124.6 Y30.2 I-0.2 J0
G1 X124.4
G18 G3 X124.2 Z-1.6 I0 K0.2
G1 Z5
X112.2 Y29.8
Z1.15 F333.3
Z-1.6
G2 X112.4 Z-1.8 I0.2 K0 F1000
G1 X112.6
G17 G3 X112.8 Y30 I0 J0.2
G1 Y41
G2 X114 Y42.2 I1.2 J0
G1 X120
G2 X121.2 Y41 I0 J-1.2
G1 Y14.71
X128.8
Y18.01
G2 X131.5 Y20.71 I2.7 J0
G1 X136.5
G2 X139.2 Y18.01 I0 J-2.7
G1 Y2
G2 X136 Y-1.2 I-3.2 J0
G1 X98
G2 X94.8 Y2 I0 J3.2
G1 Y18.01
G2 X97.5 Y20.71 I2.7 J0
G1 X102.5
G2 X105.2 Y18.01 I0 J-2.7
G1 Y14.71
X112.8
Y30
G3 X112.6 Y30.2 I-0.2 J0
G1 X112.4
G18 G3 X112.2 Z-1.6 I0 K0.2
G1 Z5
Y29.8
Z0.25 F333.3
Z-2.5
G2 X112.4 Z-2.7 I0.2 K0 F1000
G1 X112.6
G17 G3 X112.8 Y30 I0 J0.2
G1 Y41
G2 X114 Y42.2 I1.2 J0
G1 X120
G2 X121.2 Y41 I0 J-1.2
G1 Y14.71
X128.8
Y18.01
G2 X131.5 Y20.71 I2.7 J0
G1 X136.5
G2 X139.2 Y18.01 I0 J-2.7
G1 Y2
G2 X136 Y-1.2 I-3.2 J0
G1 X98
G2 X94.8 Y2 I0 J3.2
G1 Y18.01
G2 X97.5 Y20.71 I2.7 J0
G1 X102.5
G2 X105.2 Y18.01 I0 J-2.7
G1 Y14.71
X112.8
Y30
G3 X112.6 Y30.2 I-0.2 J0
G1 X112.4
G18 G3 X112.2 Z-2.5 I0 K0.2
G1 Z5
X124.2 Y29.8
Z0.25 F333.3
Z-2.5
G2 X124.4 Z-2.7 I0.2 K0 F1000
G1 X124.6
G17 G3 X124.8 Y30 I0 J0.2
G1 Y49.238
X117.2
Y45.938
G2 X114.5 Y43.238 I-2.7 J0
G1 X109.5
G2 X106.8 Y45.938 I0 J2.7
G1 Y61.949
G2 X110 Y65.148 I3.2 J0
G1 X148
G2 X151.2 Y61.949 I0 J-3.2
G1 Y45.938
G2 X148.5 Y43.238 I-2.7 J0
G1 X143.5
G2 X140.8 Y45.938 I0 J2.7
G1 Y49.238
X133.2
Y22.948
G2 X132 Y21.749 I-1.2 J0
G1 X126
G2 X124.8 Y22.948 I0 J1.2
G1 Y30
G3 X124.6 Y30.2 I-0.2 J0
G1 X124.4
G18 G3 X124.2 Z-2.5 I0 K0.2
G1 Z5
Y29.8
Z-0.65 F333.3
Z-3.4
G2 X124.4 Z-3.6 I0.2 K0 F1000
G1 X124.6
G17 G3 X124.8 Y30 I0 J0.2
G1 Y49.238
X117.2
Y45.938
G2 X114.5 Y43.238 I-2.7 J0
G1 X109.5
G2 X106.8 Y45.938 I0 J2.7
G1 Y61.949
G2 X110 Y65.148 I3.2 J0
G1 X148
G2 X151.2 Y61.949 I0 J-3.2
G1 Y45.938
G2 X148.5 Y43.238 I-2.7 J0
G1 X143.5
G2 X140.8 Y45.938 I0 J2.7
G1 Y49.238
X133.2
Y22.948
G2 X132 Y21.749 I-1.2 J0
G1 X126
G2 X124.8 Y22.948 I0 J1.2
G1 Y30
G3 X124.6 Y30.2 I-0.2 J0
G1 X124.4
G18 G3 X124.2 Z-3.4 I0 K0.2
G1 Z5
X112.2 Y29.8
Z-0.65 F333.3
Z-3.4
G2 X112.4 Z-3.6 I0.2 K0 F1000
G1 X112.6
G17 G3 X112.8 Y30 I0 J0.2
G1 Y41
G2 X114 Y42.2 I1.2 J0
G1 X120
G2 X121.2 Y41 I0 J-1.2
G1 Y14.71
X128.8
Y18.01
G2 X131.5 Y20.71 I2.7 J0
G1 X136.5
G2 X139.2 Y18.01 I0 J-2.7
G1 Y2
G2 X136 Y-1.2 I-3.2 J0
G1 X98
G2 X94.8 Y2 I0 J3.2
G1 Y18.01
G2 X97.5 Y20.71 I2.7 J0
G1 X102.5
G2 X105.2 Y18.01 I0 J-2.7
G1 Y14.71
X112.8
Y30
G3 X112.6 Y30.2 I-0.2 J0
G1 X112.4
G18 G3 X112.2 Z-3.4 I0 K0.2
G1 Z5
Y29.8
Z-1.55 F333.3
Z-3.9
X112.4 F1000
X112.6
G17 G3 X112.8 Y30 I0 J0.2
G1 Y30.976
Y31.275 Z-4.5 F333.3
Y41 F1000
G2 X114 Y42.2 I1.2 J0
G1 X120
G2 X121.2 Y41 I0 J-1.2
G1 Y34.142
Y33.842 Z-3.9
Y31.842
Y31.542 Z-4.5 F333.3
Y14.71 F1000
X128.8
Y18.01
G2 X131.5 Y20.71 I2.7 J0
G1 X136.5
G2 X139.2 Y18.01 I0 J-2.7
G1 Y11.298
Y10.998 Z-3.9
Y8.998
Y8.698 Z-4.5 F333.3
Y2 F1000
G2 X136 Y-1.2 I-3.2 J0
G1 X119.075
X118.775 Z-3.9
X116.775
X116.475 Z-4.5 F333.3
X98 F1000
G2 X94.8 Y2 I0 J3.2
G1 Y8.697
Y8.997 Z-3.9
Y10.997
Y11.297 Z-4.5 F333.3
Y18.01 F1000
G2 X97.5 Y20.71 I2.7 J0
G1 X102.5
G2 X105.2 Y18.01 I0 J-2.7
G1 Y14.71
X112.8
Y28.676
Y28.976 Z-3.9
Y30
G3 X112.6 Y30.2 I-0.2 J0
G1 X112.2
Z5
X124.2 Y29.8
Z-1.55 F333.3
Z-4.3
G18 G2 X124.4 Z-4.5 I0.2 K0 F1000
G1 X124.6
G17 G3 X124.8 Y30 I0 J0.2
G1 Y31.502
Y31.802 Z-3.9
Y33.802
Y34.102 Z-4.5 F333.3
Y49.238 F1000
X117.2
Y45.938
G2 X114.5 Y43.238 I-2.7 J0
G1 X109.5
G2 X106.8 Y45.938 I0 J2.7
G1 Y53.706
Y54.006 Z-3.9
Y56.006
Y56.306 Z-4.5 F333.3
Y61.949 F1000
G2 X110 Y65.148 I3.2 J0
G1 X127.381
X127.681 Z-3.9
X129.681
X129.981 Z-4.5 F333.3
X148 F1000
G2 X151.2 Y61.949 I0 J-3.2
G1 Y56.3
Y56 Z-3.9
Y54
Y53.7 Z-4.5 F333.3
Y45.938 F1000
G2 X148.5 Y43.238 I-2.7 J0
G1 X143.5
G2 X140.8 Y45.938 I0 J2.7
G1 Y49.238
X133.2
Y36.305
Y36.005 Z-3.9
Y34.005
Y33.705 Z-4.5 F333.3
Y22.948 F1000
G2 X132 Y21.749 I-1.2 J0
G1 X126
G2 X124.8 Y22.948 I0 J1.2
G1 Y30
G3 X124.6 Y30.2 I-0.2 J0
G1 X124.4
G18 G3 X124.2 Z-4.3 I0 K0.2
G1 Z5
Y29.8
Z-2.45 F333.3
Z-5.2
G2 X124.4 Z-5.4 I0.2 K0 F1000
G1 X124.6
G17 G3 X124.8 Y30 I0 J0.2
G1 Y31.052
Y31.802 Z-3.9
Y33.802
Y34.552 Z-5.4 F333.3
Y49.238 F1000
X117.2
Y45.938
G2 X114.5 Y43.238 I-2.7 J0
G1 X109.5
G2 X106.8 Y45.938 I0 J2.7
G1 Y53.256
Y54.006 Z-3.9
Y56.006
Y56.756 Z-5.4 F333.3
Y61.949 F1000
G2 X110 Y65.148 I3.2 J0
G1 X126.931
X127.681 Z-3.9
X129.681
X130.431 Z-5.4 F333.3
X148 F1000
G2 X151.2 Y61.949 I0 J-3.2
G1 Y56.75
Y56 Z-3.9
Y54
Y53.25 Z-5.4 F333.3
Y45.938 F1000
G2 X148.5 Y43.238 I-2.7 J0
G1 X143.5
G2 X140.8 Y45.938 I0 J2.7
G1 Y49.238
X133.2
Y36.755
Y36.005 Z-3.9
Y34.005
Y33.255 Z-5.4 F333.3
Y22.948 F1000
G2 X132 Y21.749 I-1.2 J0
G1 X126
G2 X124.8 Y22.948 I0 J1.2
G1 Y30
X124.807 Y30.047
X124.827 Y30.09
X124.859 Y30.125
X124.9 Y30.15
X124.941 Y30.175
X124.973 Y30.21
X124.993 Y30.253
X125 Y30.3
Y31.052
Y31.802 Z-3.9
Y33.802
Y34.552 Z-5.4 F333.3
Y49.438 F1000
X117
Y45.938
G2 X114.5 Y43.438 I-2.5 J0
G1 X109.5
G2 X107 Y45.938 I0 J2.5
G1 Y53.256
Y54.006 Z-3.9
Y56.006
Y56.756 Z-5.4 F333.3
Y61.949 F1000
G2 X110 Y64.949 I3 J0
G1 X126.931
X127.681 Z-3.9
X129.681
X130.431 Z-5.4 F333.3
X148 F1000
G2 X151 Y61.949 I0 J-3
G1 Y56.75
Y56 Z-3.9
Y54
Y53.25 Z-5.4 F333.3
Y45.938 F1000
G2 X148.5 Y43.438 I-2.5 J0
G1 X143.5
G2 X141 Y45.938 I0 J2.5
G1 Y49.438
X133
Y36.755
Y36.005 Z-3.9
Y34.005
Y33.255 Z-5.4 F333.3
Y22.948 F1000
G2 X132 Y21.948 I-1 J0
G1 X126
G2 X125 Y22.948 I0 J1
G1 Y30.3
G3 X124.8 Y30.5 I-0.2 J0
G1 X124.6
G18 G3 X124.4 Z-5.2 I0 K0.2
G1 Z5
X112.2 Y29.8
Z-2.45 F333.3
Z-3.9
X112.4 F1000
X112.6
G17 G3 X112.8 Y30 I0 J0.2
G1 Y30.976
Y31.726 Z-5.4 F333.3
Y41 F1000
G2 X114 Y42.2 I1.2 J0
G1 X120
G2 X121.2 Y41 I0 J-1.2
G1 Y34.592
Y33.842 Z-3.9
Y31.842
Y31.092 Z-5.4 F333.3
Y14.71 F1000
X128.8
Y18.01
G2 X131.5 Y20.71 I2.7 J0
G1 X136.5
G2 X139.2 Y18.01 I0 J-2.7
G1 Y11.748
Y10.998 Z-3.9
Y8.998
Y8.248 Z-5.4 F333.3
Y2 F1000
G2 X136 Y-1.2 I-3.2 J0
G1 X119.525
X118.775 Z-3.9
X116.775
X116.025 Z-5.4 F333.3
X98 F1000
G2 X94.8 Y2 I0 J3.2
G1 Y8.247
Y8.997 Z-3.9
Y10.997
Y11.747 Z-5.4 F333.3
Y18.01 F1000
G2 X97.5 Y20.71 I2.7 J0
G1 X102.5
G2 X105.2 Y18.01 I0 J-2.7
G1 Y14.71
X112.8
Y28.226
Y28.976 Z-3.9
Y30
X112.807 Y30.047
X112.827 Y30.09
X112.859 Y30.125
X112.9 Y30.15
X112.941 Y30.175
X112.973 Y30.21
X112.993 Y30.253
X113 Y30.3
Y30.976
Y31.726 Z-5.4 F333.3
Y41 F1000
G2 X114 Y42 I1 J0
G1 X120
G2 X121 Y41 I0 J-1
G1 Y34.592
Y33.842 Z-3.9
Y31.842
Y31.092 Z-5.4 F333.3
Y14.51 F1000
X129
Y18.01
G2 X131.5 Y20.51 I2.5 J0
G1 X136.5
G2 X139 Y18.01 I0 J-2.5
G1 Y11.748
Y10.998 Z-3.9
Y8.998
Y8.248 Z-5.4 F333.3
Y2 F1000
G2 X136 Y-1 I-3 J0
G1 X119.525
X118.775 Z-3.9
X116.775
X116.025 Z-5.4 F333.3
X98 F1000
G2 X95 Y2 I0 J3
G1 Y8.247
Y8.997 Z-3.9
Y10.997
Y11.747 Z-5.4 F333.3
Y18.01 F1000
G2 X97.5 Y20.51 I2.5 J0
G1 X102.5
G2 X105 Y18.01 I0 J-2.5
G1 Y14.51
X113
Y28.226
Y28.976 Z-3.9
Y30.3
G3 X112.8 Y30.5 I-0.2 J0
G1 X112.4
Z5
X102.679 Y43.452
Z2.05 F333.3
Z-0.7
X102.675 Y43.458 Z-0.752 F1000
X102.663 Y43.473 Z-0.8
X102.643 Y43.499 Z-0.841
X102.618 Y43.531 Z-0.873
X102.588 Y43.569 Z-0.893
X102.557 Y43.61 Z-0.9
X102.434 Y43.768
G3 X102.154 Y43.804 I-0.158 J-0.122
G2 X100.5 Y43.238 I-1.654 J2.134
G1 X95.5
G2 X92.8 Y45.938 I0 J2.7
G1 Y49.238
X85.2
Y22.948
G2 X84 Y21.749 I-1.2 J0
G1 X78
G2 X76.8 Y22.948 I0 J1.2
G1 Y49.238
X69.2
Y45.938
G2 X66.5 Y43.238 I-2.7 J0
G1 X61.5
G2 X58.8 Y45.938 I0 J2.7
G1 Y61.949
G2 X62 Y65.148 I3.2 J0
G1 X100
G2 X103.2 Y61.949 I0 J-3.2
G1 Y45.938
G2 X102.154 Y43.804 I-2.7 J0
G3 X102.118 Y43.524 I0.122 J-0.158
G1 X102.24 Y43.365
X102.272 Y43.324 Z-0.893
X102.302 Y43.286 Z-0.873
X102.327 Y43.254 Z-0.841
X102.347 Y43.228 Z-0.8
X102.359 Y43.213 Z-0.752
X102.363 Y43.207 Z-0.7
Z5
X91.372 Y19.647
Z2.05 F333.3
Z-0.7
X91.366 Y19.644 Z-0.752 F1000
X91.348 Y19.635 Z-0.8
X91.32 Y19.621 Z-0.841
X91.282 Y19.603 Z-0.873
X91.239 Y19.582 Z-0.893
X91.193 Y19.559 Z-0.9
X91.013 Y19.471
G3 X90.922 Y19.203 I0.088 J-0.179
G2 X91.2 Y18.01 I-2.422 J-1.193
G1 Y2
G2 X88 Y-1.2 I-3.2 J0
G1 X50
G2 X46.8 Y2 I0 J3.2
G1 Y18.01
G2 X49.5 Y20.71 I2.7 J0
G1 X54.5
G2 X57.2 Y18.01 I0 J-2.7
G1 Y14.71
X64.8
Y41
G2 X66 Y42.2 I1.2 J0
G1 X72
G2 X73.2 Y41 I0 J-1.2
G1 Y14.71
X80.8
Y18.01
G2 X83.5 Y20.71 I2.7 J0
G1 X88.5
G2 X90.922 Y19.203 I0 J-2.7
G3 X91.19 Y19.112 I0.179 J0.088
G1 X91.369 Y19.2
X91.416 Y19.223 Z-0.893
X91.459 Y19.244 Z-0.873
X91.496 Y19.263 Z-0.841
X91.525 Y19.277 Z-0.8
X91.543 Y19.285 Z-0.752
X91.549 Y19.288 Z-0.7
Z5
X91.372 Y19.647
Z1.15 F333.3
Z-1.6
X91.366 Y19.644 Z-1.652 F1000
X91.348 Y19.635 Z-1.7
X91.32 Y19.621 Z-1.741
X91.282 Y19.603 Z-1.773
X91.239 Y19.582 Z-1.793
X91.193 Y19.559 Z-1.8
X91.013 Y19.471
G3 X90.922 Y19.203 I0.088 J-0.179
G2 X91.2 Y18.01 I-2.422 J-1.193
G1 Y2
G2 X88 Y-1.2 I-3.2 J0
G1 X50
G2 X46.8 Y2 I0 J3.2
G1 Y18.01
G2 X49.5 Y20.71 I2.7 J0
G1 X54.5
G2 X57.2 Y18.01 I0 J-2.7
G1 Y14.71
X64.8
Y41
G2 X66 Y42.2 I1.2 J0
G1 X72
G2 X73.2 Y41 I0 J-1.2
G1 Y14.71
X80.8
Y18.01
G2 X83.5 Y20.71 I2.7 J0
G1 X88.5
G2 X90.922 Y19.203 I0 J-2.7
G3 X91.19 Y19.112 I0.179 J0.088
G1 X91.369 Y19.2
X91.416 Y19.223 Z-1.793
X91.459 Y19.244 Z-1.773
X91.496 Y19.263 Z-1.741
X91.525 Y19.277 Z-1.7
X91.543 Y19.285 Z-1.652
X91.549 Y19.288 Z-1.6
Z5
X102.679 Y43.452
Z1.15 F333.3
Z-1.6
X102.675 Y43.458 Z-1.652 F1000
X102.663 Y43.473 Z-1.7
X102.643 Y43.499 Z-1.741
X102.618 Y43.531 Z-1.773
X102.588 Y43.569 Z-1.793
X102.557 Y43.61 Z-1.8
X102.434 Y43.768
G3 X102.154 Y43.804 I-0.158 J-0.122
G2 X100.5 Y43.238 I-1.654 J2.134
G1 X95.5
G2 X92.8 Y45.938 I0 J2.7
G1 Y49.238
X85.2
Y22.948
G2 X84 Y21.749 I-1.2 J0
G1 X78
G2 X76.8 Y22.948 I0 J1.2
G1 Y49.238
X69.2
Y45.938
G2 X66.5 Y43.238 I-2.7 J0
G1 X61.5
G2 X58.8 Y45.938 I0 J2.7
G1 Y61.949
G2 X62 Y65.148 I3.2 J0
G1 X100
G2 X103.2 Y61.949 I0 J-3.2
G1 Y45.938
G2 X102.154 Y43.804 I-2.7 J0
G3 X102.118 Y43.524 I0.122 J-0.158
G1 X102.24 Y43.365
X102.272 Y43.324 Z-1.793
X102.302 Y43.286 Z-1.773
X102.327 Y43.254 Z-1.741
X102.347 Y43.228 Z-1.7
X102.359 Y43.213 Z-1.652
X102.363 Y43.207 Z-1.6
Z5
X102.679 Y43.452
Z0.25 F333.3
Z-2.5
X102.675 Y43.458 Z-2.552 F1000
X102.663 Y43.473 Z-2.6
X102.643 Y43.499 Z-2.641
X102.618 Y43.531 Z-2.673
X102.588 Y43.569 Z-2.693
X102.557 Y43.61 Z-2.7
X102.434 Y43.768
G3 X102.154 Y43.804 I-0.158 J-0.122
G2 X100.5 Y43.238 I-1.654 J2.134
G1 X95.5
G2 X92.8 Y45.938 I0 J2.7
G1 Y49.238
X85.2
Y22.948
G2 X84 Y21.749 I-1.2 J0
G1 X78
G2 X76.8 Y22.948 I0 J1.2
G1 Y49.238
X69.2
Y45.938
G2 X66.5 Y43.238 I-2.7 J0
G1 X61.5
G2 X58.8 Y45.938 I0 J2.7
G1 Y61.949
G2 X62 Y65.148 I3.2 J0
G1 X100
G2 X103.2 Y61.949 I0 J-3.2
G1 Y45.938
G2 X102.154 Y43.804 I-2.7 J0
G3 X102.118 Y43.524 I0.122 J-0.158
G1 X102.24 Y43.365
X102.272 Y43.324 Z-2.693
X102.302 Y43.286 Z-2.673
X102.327 Y43.254 Z-2.641
X102.347 Y43.228 Z-2.6
X102.359 Y43.213 Z-2.552
X102.363 Y43.207 Z-2.5
Z5
X91.372 Y19.647
Z0.25 F333.3
Z-2.5
X91.366 Y19.644 Z-2.552 F1000
X91.348 Y19.635 Z-2.6
X91.32 Y19.621 Z-2.641
X91.282 Y19.603 Z-2.673
X91.239 Y19.582 Z-2.693
X91.193 Y19.559 Z-2.7
X91.013 Y19.471
G3 X90.922 Y19.203 I0.088 J-0.179
G2 X91.2 Y18.01 I-2.422 J-1.193
G1 Y2
G2 X88 Y-1.2 I-3.2 J0
G1 X50
G2 X46.8 Y2 I0 J3.2
G1 Y18.01
G2 X49.5 Y20.71 I2.7 J0
G1 X54.5
G2 X57.2 Y18.01 I0 J-2.7
G1 Y14.71
X64.8
Y41
G2 X66 Y42.2 I1.2 J0
G1 X72
G2 X73.2 Y41 I0 J-1.2
G1 Y14.71
X80.8
Y18.01
G2 X83.5 Y20.71 I2.7 J0
G1 X88.5
G2 X90.922 Y19.203 I0 J-2.7
G3 X91.19 Y19.112 I0.179 J0.088
G1 X91.369 Y19.2
X91.416 Y19.223 Z-2.693
X91.459 Y19.244 Z-2.673
X91.496 Y19.263 Z-2.641
X91.525 Y19.277 Z-2.6
X91.543 Y19.285 Z-2.552
X91.549 Y19.288 Z-2.5
Z5
X91.372 Y19.647
Z-0.65 F333.3
Z-3.4
X91.366 Y19.644 Z-3.452 F1000
X91.348 Y19.635 Z-3.5
X91.32 Y19.621 Z-3.541
X91.282 Y19.603 Z-3.573
X91.239 Y19.582 Z-3.593
X91.193 Y19.559 Z-3.6
X91.013 Y19.471
G3 X90.922 Y19.203 I0.088 J-0.179
G2 X91.2 Y18.01 I-2.422 J-1.193
G1 Y2
G2 X88 Y-1.2 I-3.2 J0
G1 X50
G2 X46.8 Y2 I0 J3.2
G1 Y18.01
G2 X49.5 Y20.71 I2.7 J0
G1 X54.5
G2 X57.2 Y18.01 I0 J-2.7
G1 Y14.71
X64.8
Y41
G2 X66 Y42.2 I1.2 J0
G1 X72
G2 X73.2 Y41 I0 J-1.2
G1 Y14.71
X80.8
Y18.01
G2 X83.5 Y20.71 I2.7 J0
G1 X88.5
G2 X90.922 Y19.203 I0 J-2.7
G3 X91.19 Y19.112 I0.179 J0.088
G1 X91.369 Y19.2
X91.416 Y19.223 Z-3.593
X91.459 Y19.244 Z-3.573
X91.496 Y19.263 Z-3.541
X91.525 Y19.277 Z-3.5
X91.543 Y19.285 Z-3.452
X91.549 Y19.288 Z-3.4
Z5
X102.679 Y43.452
Z-0.65 F333.3
Z-3.4
X102.675 Y43.458 Z-3.452 F1000
X102.663 Y43.473 Z-3.5
X102.643 Y43.499 Z-3.541
X102.618 Y43.531 Z-3.573
X102.588 Y43.569 Z-3.593
X102.557 Y43.61 Z-3.6
X102.434 Y43.768
G3 X102.154 Y43.804 I-0.158 J-0.122
G2 X100.5 Y43.238 I-1.654 J2.134
G1 X95.5
G2 X92.8 Y45.938 I0 J2.7
G1 Y49.238
X85.2
Y22.948
G2 X84 Y21.749 I-1.2 J0
G1 X78
G2 X76.8 Y22.948 I0 J1.2
G1 Y49.238
X69.2
Y45.938
G2 X66.5 Y43.238 I-2.7 J0
G1 X61.5
G2 X58.8 Y45.938 I0 J2.7
G1 Y61.949
G2 X62 Y65.148 I3.2 J0
G1 X100
G2 X103.2 Y61.949 I0 J-3.2
G1 Y45.938
G2 X102.154 Y43.804 I-2.7 J0
G3 X102.118 Y43.524 I0.122 J-0.158
G1 X102.24 Y43.365
X102.272 Y43.324 Z-3.593
X102.302 Y43.286 Z-3.573
X102.327 Y43.254 Z-3.541
X102.347 Y43.228 Z-3.5
X102.359 Y43.213 Z-3.452
X102.363 Y43.207 Z-3.4
Z5
X102.679 Y43.452
Z-1.55 F333.3
Z-4.3
X102.675 Y43.458 Z-4.352 F1000
X102.663 Y43.473 Z-4.4
X102.643 Y43.499 Z-4.441
X102.618 Y43.531 Z-4.473
X102.588 Y43.569 Z-4.493
X102.557 Y43.61 Z-4.5
X102.434 Y43.768
G3 X102.154 Y43.804 I-0.158 J-0.122
G2 X100.5 Y43.238 I-1.654 J2.134
G1 X95.5
G2 X92.8 Y45.938 I0 J2.7
G1 Y49.238
X85.2
Y36.354
Y36.054 Z-3.9
Y34.054
Y33.754 Z-4.5 F333.3
Y22.948 F1000
G2 X84 Y21.749 I-1.2 J0
G1 X78
G2 X76.8 Y22.948 I0 J1.2
G1 Y31.196
Y31.496 Z-3.9
Y33.496
Y33.796 Z-4.5 F333.3
Y49.238 F1000
X69.2
Y45.938
G2 X66.5 Y43.238 I-2.7 J0
G1 X61.5
G2 X58.8 Y45.938 I0 J2.7
G1 Y53.698
Y53.998 Z-3.9
Y55.998
Y56.298 Z-4.5 F333.3
Y61.949 F1000
G2 X62 Y65.148 I3.2 J0
G1 X79.165
X79.465 Z-3.9
X81.465
X81.765 Z-4.5 F333.3
X100 F1000
G2 X103.2 Y61.949 I0 J-3.2
G1 Y56.306
Y56.006 Z-3.9
Y54.006
Y53.706 Z-4.5 F333.3
Y45.938 F1000
G2 X102.154 Y43.804 I-2.7 J0
G3 X102.118 Y43.524 I0.122 J-0.158
G1 X102.24 Y43.365
X102.272 Y43.324 Z-4.493
X102.302 Y43.286 Z-4.473
X102.327 Y43.254 Z-4.441
X102.347 Y43.228 Z-4.4
X102.359 Y43.213 Z-4.352
X102.363 Y43.207 Z-4.3
Z5
X91.372 Y19.647
Z-1.55 F333.3
Z-4.3
X91.366 Y19.644 Z-4.352 F1000
X91.348 Y19.635 Z-4.4
X91.32 Y19.621 Z-4.441
X91.282 Y19.603 Z-4.473
X91.239 Y19.582 Z-4.493
X91.193 Y19.559 Z-4.5
X91.013 Y19.471
G3 X90.922 Y19.203 I0.088 J-0.179
G2 X91.2 Y18.01 I-2.422 J-1.193
G1 Y11.306
Y11.006 Z-3.9
Y9.006
Y8.706 Z-4.5 F333.3
Y2 F1000
G2 X88 Y-1.2 I-3.2 J0
G1 X70.484
X70.184 Z-3.9
X68.184
X67.884 Z-4.5 F333.3
X50 F1000
G2 X46.8 Y2 I0 J3.2
G1 Y8.699
Y8.999 Z-3.9
Y10.999
Y11.299 Z-4.5 F333.3
Y18.01 F1000
G2 X49.5 Y20.71 I2.7 J0
G1 X54.5
G2 X57.2 Y18.01 I0 J-2.7
G1 Y14.71
X64.8
Y28.626
Y28.926 Z-3.9
Y30.926
Y31.226 Z-4.5 F333.3
Y41 F1000
G2 X66 Y42.2 I1.2 J0
G1 X72
G2 X73.2 Y41 I0 J-1.2
G1 Y33.796
Y33.496 Z-3.9
Y31.496
Y31.196 Z-4.5 F333.3
Y14.71 F1000
X80.8
Y18.01
G2 X83.5 Y20.71 I2.7 J0
G1 X88.5
G2 X90.922 Y19.203 I0 J-2.7
G3 X91.19 Y19.112 I0.179 J0.088
G1 X91.369 Y19.2
X91.416 Y19.223 Z-4.493
X91.459 Y19.244 Z-4.473
X91.496 Y19.263 Z-4.441
X91.525 Y19.277 Z-4.4
X91.543 Y19.285 Z-4.352
X91.549 Y19.288 Z-4.3
Z5
X91.372 Y19.647
Z-2.45 F333.3
Z-5.2
X91.366 Y19.644 Z-5.252 F1000
X91.348 Y19.635 Z-5.3
X91.32 Y19.621 Z-5.341
X91.282 Y19.603 Z-5.373
X91.239 Y19.582 Z-5.393
X91.193 Y19.559 Z-5.4
X91.013 Y19.471
G3 X90.922 Y19.203 I0.088 J-0.179
G2 X91.2 Y18.01 I-2.422 J-1.193
G1 Y11.756
Y11.006 Z-3.9
Y9.006
Y8.256 Z-5.4 F333.3
Y2 F1000
G2 X88 Y-1.2 I-3.2 J0
G1 X70.934
X70.184 Z-3.9
X68.184
X67.434 Z-5.4 F333.3
X50 F1000
G2 X46.8 Y2 I0 J3.2
G1 Y8.249
Y8.999 Z-3.9
Y10.999
Y11.749 Z-5.4 F333.3
Y18.01 F1000
G2 X49.5 Y20.71 I2.7 J0
G1 X54.5
G2 X57.2 Y18.01 I0 J-2.7
G1 Y14.71
X64.8
Y28.176
Y28.926 Z-3.9
Y30.926
Y31.676 Z-5.4 F333.3
Y41 F1000
G2 X66 Y42.2 I1.2 J0
G1 X72
G2 X73.2 Y41 I0 J-1.2
G1 Y34.246
Y33.496 Z-3.9
Y31.496
Y30.746 Z-5.4 F333.3
Y14.71 F1000
X80.8
Y18.01
G2 X83.5 Y20.71 I2.7 J0
G1 X88.5
G2 X90.922 Y19.203 I0 J-2.7
G1 X90.937 Y19.156
Y19.107
X90.923 Y19.06
X90.896 Y19.019
X90.868 Y18.98
X90.852 Y18.934
X90.849 Y18.886
X90.859 Y18.838
G2 X91 Y18.01 I-2.359 J-0.828
G1 Y11.756
Y11.006 Z-3.9
Y9.006
Y8.256 Z-5.4 F333.3
Y2 F1000
G2 X88 Y-1 I-3 J0
G1 X70.934
X70.184 Z-3.9
X68.184
X67.434 Z-5.4 F333.3
X50 F1000
G2 X47 Y2 I0 J3
G1 Y8.249
Y8.999 Z-3.9
Y10.999
Y11.749 Z-5.4 F333.3
Y18.01 F1000
G2 X49.5 Y20.51 I2.5 J0
G1 X54.5
G2 X57 Y18.01 I0 J-2.5
G1 Y14.51
X65
Y28.176
Y28.926 Z-3.9
Y30.926
Y31.676 Z-5.4 F333.3
Y41 F1000
G2 X66 Y42 I1 J0
G1 X72
G2 X73 Y41 I0 J-1
G1 Y34.246
Y33.496 Z-3.9
Y31.496
Y30.746 Z-5.4 F333.3
Y14.51 F1000
X81
Y18.01
G2 X83.5 Y20.51 I2.5 J0
G1 X88.5
G2 X90.859 Y18.838 I0 J-2.5
G3 X91.114 Y18.716 I0.189 J0.066
G1 X91.303 Y18.782
X91.351 Y18.799 Z-5.393
X91.397 Y18.815 Z-5.373
X91.436 Y18.829 Z-5.341
X91.466 Y18.839 Z-5.3
X91.485 Y18.846 Z-5.252
X91.491 Y18.848 Z-5.2
Z5
X102.679 Y43.452
Z-2.45 F333.3
Z-5.2
X102.675 Y43.458 Z-5.252 F1000
X102.663 Y43.473 Z-5.3
X102.643 Y43.499 Z-5.341
X102.618 Y43.531 Z-5.373
X102.588 Y43.569 Z-5.393
X102.557 Y43.61 Z-5.4
X102.434 Y43.768
G3 X102.154 Y43.804 I-0.158 J-0.122
G2 X100.5 Y43.238 I-1.654 J2.134
G1 X95.5
G2 X92.8 Y45.938 I0 J2.7
G1 Y49.238
X85.2
Y36.804
Y36.054 Z-3.9
Y34.054
Y33.304 Z-5.4 F333.3
Y22.948 F1000
G2 X84 Y21.749 I-1.2 J0
G1 X78
G2 X76.8 Y22.948 I0 J1.2
G1 Y30.746
Y31.496 Z-3.9
Y33.496
Y34.246 Z-5.4 F333.3
Y49.238 F1000
X69.2
Y45.938
G2 X66.5 Y43.238 I-2.7 J0
G1 X61.5
G2 X58.8 Y45.938 I0 J2.7
G1 Y53.248
Y53.998 Z-3.9
Y55.998
Y56.748 Z-5.4 F333.3
Y61.949 F1000
G2 X62 Y65.148 I3.2 J0
G1 X78.715
X79.465 Z-3.9
X81.465
X82.215 Z-5.4 F333.3
X100 F1000
G2 X103.2 Y61.949 I0 J-3.2
G1 Y56.756
Y56.006 Z-3.9
Y54.006
Y53.256 Z-5.4 F333.3
Y45.938 F1000
G2 X102.154 Y43.804 I-2.7 J0
G1 X102.111 Y43.78
X102.063 Y43.77
X102.014 Y43.774
X101.969 Y43.793
X101.924 Y43.812
X101.876 Y43.819
X101.828 Y43.812
X101.783 Y43.793
G2 X100.5 Y43.438 I-1.283 J2.145
G1 X95.5
G2 X93 Y45.938 I0 J2.5
G1 Y49.438
X85
Y36.804
Y36.054 Z-3.9
Y34.054
Y33.304 Z-5.4 F333.3
Y22.948 F1000
G2 X84 Y21.948 I-1 J0
G1 X78
G2 X77 Y22.948 I0 J1
G1 Y30.746
Y31.496 Z-3.9
Y33.496
Y34.246 Z-5.4 F333.3
Y49.438 F1000
X69
Y45.938
G2 X66.5 Y43.438 I-2.5 J0
G1 X61.5
G2 X59 Y45.938 I0 J2.5
G1 Y53.248
Y53.998 Z-3.9
Y55.998
Y56.748 Z-5.4 F333.3
Y61.949 F1000
G2 X62 Y64.949 I3 J0
G1 X78.715
X79.465 Z-3.9
X81.465
X82.215 Z-5.4 F333.3
X100 F1000
G2 X103 Y61.949 I0 J-3
G1 Y56.756
Y56.006 Z-3.9
Y54.006
Y53.256 Z-5.4 F333.3
Y45.938 F1000
G2 X101.783 Y43.793 I-2.5 J0
G3 X101.715 Y43.519 I0.103 J-0.172
G1 X101.817 Y43.347
X101.844 Y43.303 Z-5.393
X101.869 Y43.261 Z-5.373
X101.89 Y43.226 Z-5.341
X101.906 Y43.199 Z-5.3
X101.916 Y43.181 Z-5.252
X101.92 Y43.176 Z-5.2
Z5
X55.741 Y45.289
Z2.05 F333.3
Z-0.7
X55.735 Y45.291 Z-0.752 F1000
X55.715 Y45.296 Z-0.8
X55.685 Y45.304 Z-0.841
X55.645 Y45.315 Z-0.873
X55.598 Y45.327 Z-0.893
X55.548 Y45.34 Z-0.9
X55.355 Y45.391
G3 X55.11 Y45.249 I-0.051 J-0.193
G2 X52.5 Y43.238 I-2.61 J0.689
G1 X47.5
G2 X44.8 Y45.938 I0 J2.7
G1 Y49.238
X37.2
Y22.948
G2 X36 Y21.749 I-1.2 J0
G1 X30
G2 X28.8 Y22.948 I0 J1.2
G1 Y49.238
X21.2
Y45.938
G2 X18.5 Y43.238 I-2.7 J0
G1 X13.5
G2 X10.8 Y45.938 I0 J2.7
G1 Y61.949
G2 X14 Y65.148 I3.2 J0
G1 X52
G2 X55.2 Y61.949 I0 J-3.2
G1 Y45.938
G2 X55.11 Y45.249 I-2.7 J0
G3 X55.252 Y45.005 I0.193 J-0.051
G1 X55.446 Y44.954
X55.496 Y44.94 Z-0.893
X55.542 Y44.928 Z-0.873
X55.582 Y44.917 Z-0.841
X55.613 Y44.909 Z-0.8
X55.633 Y44.904 Z-0.752
X55.639 Y44.902 Z-0.7
Z5
X43.723 Y18.747
Z2.05 F333.3
Z-0.7
X43.716 Y18.746 Z-0.752 F1000
X43.696 Y18.742 Z-0.8
X43.665 Y18.737 Z-0.841
X43.624 Y18.73 Z-0.873
X43.577 Y18.723 Z-0.893
X43.526 Y18.714 Z-0.9
X43.328 Y18.681
G3 X43.164 Y18.451 I0.033 J-0.197
G2 X43.2 Y18.01 I-2.664 J-0.441
G1 Y2
G2 X40 Y-1.2 I-3.2 J0
G1 X2
G2 X-1.2 Y2 I0 J3.2
G1 Y18.01
G2 X1.5 Y20.71 I2.7 J0
G1 X6.5
G2 X9.2 Y18.01 I0 J-2.7
G1 Y14.71
X16.8
Y41
G2 X18 Y42.2 I1.2 J0
G1 X24
G2 X25.2 Y41 I0 J-1.2
G1 Y14.71
X32.8
Y18.01
G2 X35.5 Y20.71 I2.7 J0
G1 X40.5
G2 X43.164 Y18.451 I0 J-2.7
G3 X43.394 Y18.287 I0.197 J0.033
G1 X43.591 Y18.32
X43.642 Y18.328 Z-0.893
X43.69 Y18.336 Z-0.873
X43.731 Y18.343 Z-0.841
X43.762 Y18.348 Z-0.8
X43.782 Y18.351 Z-0.752
X43.788 Y18.352 Z-0.7
Z5
X43.723 Y18.747
Z1.15 F333.3
Z-1.6
X43.716 Y18.746 Z-1.652 F1000
X43.696 Y18.742 Z-1.7
X43.665 Y18.737 Z-1.741
X43.624 Y18.73 Z-1.773
X43.577 Y18.723 Z-1.793
X43.526 Y18.714 Z-1.8
X43.328 Y18.681
G3 X43.164 Y18.451 I0.033 J-0.197
G2 X43.2 Y18.01 I-2.664 J-0.441
G1 Y2
G2 X40 Y-1.2 I-3.2 J0
G1 X2
G2 X-1.2 Y2 I0 J3.2
G1 Y18.01
G2 X1.5 Y20.71 I2.7 J0
G1 X6.5
G2 X9.2 Y18.01 I0 J-2.7
G1 Y14.71
X16.8
Y41
G2 X18 Y42.2 I1.2 J0
G1 X24
G2 X25.2 Y41 I0 J-1.2
G1 Y14.71
X32.8
Y18.01
G2 X35.5 Y20.71 I2.7 J0
G1 X40.5
G2 X43.164 Y18.451 I0 J-2.7
G3 X43.394 Y18.287 I0.197 J0.033
G1 X43.591 Y18.32
X43.642 Y18.328 Z-1.793
X43.69 Y18.336 Z-1.773
X43.731 Y18.343 Z-1.741
X43.762 Y18.348 Z-1.7
X43.782 Y18.351 Z-1.652
X43.788 Y18.352 Z-1.6
Z5
X55.741 Y45.289
Z1.15 F333.3
Z-1.6
X55.735 Y45.291 Z-1.652 F1000
X55.715 Y45.296 Z-1.7
X55.685 Y45.304 Z-1.741
X55.645 Y45.315 Z-1.773
X55.598 Y45.327 Z-1.793
X55.548 Y45.34 Z-1.8
X55.355 Y45.391
G3 X55.11 Y45.249 I-0.051 J-0.193
G2 X52.5 Y43.238 I-2.61 J0.689
G1 X47.5
G2 X44.8 Y45.938 I0 J2.7
G1 Y49.238
X37.2
Y22.948
G2 X36 Y21.749 I-1.2 J0
G1 X30
G2 X28.8 Y22.948 I0 J1.2
G1 Y49.238
X21.2
Y45.938
G2 X18.5 Y43.238 I-2.7 J0
G1 X13.5
G2 X10.8 Y45.938 I0 J2.7
G1 Y61.949
G2 X14 Y65.148 I3.2 J0
G1 X52
G2 X55.2 Y61.949 I0 J-3.2
G1 Y45.938
G2 X55.11 Y45.249 I-2.7 J0
G3 X55.252 Y45.005 I0.193 J-0.051
G1 X55.446 Y44.954
X55.496 Y44.94 Z-1.793
X55.542 Y44.928 Z-1.773
X55.582 Y44.917 Z-1.741
X55.613 Y44.909 Z-1.7
X55.633 Y44.904 Z-1.652
X55.639 Y44.902 Z-1.6
Z5
X55.741 Y45.289
Z0.25 F333.3
Z-2.5
X55.735 Y45.291 Z-2.552 F1000
X55.715 Y45.296 Z-2.6
X55.685 Y45.304 Z-2.641
X55.645 Y45.315 Z-2.673
X55.598 Y45.327 Z-2.693
X55.548 Y45.34 Z-2.7
X55.355 Y45.391
G3 X55.11 Y45.249 I-0.051 J-0.193
G2 X52.5 Y43.238 I-2.61 J0.689
G1 X47.5
G2 X44.8 Y45.938 I0 J2.7
G1 Y49.238
X37.2
Y22.948
G2 X36 Y21.749 I-1.2 J0
G1 X30
G2 X28.8 Y22.948 I0 J1.2
G1 Y49.238
X21.2
Y45.938
G2 X18.5 Y43.238 I-2.7 J0
G1 X13.5
G2 X10.8 Y45.938 I0 J2.7
G1 Y61.949
G2 X14 Y65.148 I3.2 J0
G1 X52
G2 X55.2 Y61.949 I0 J-3.2
G1 Y45.938
G2 X55.11 Y45.249 I-2.7 J0
G3 X55.252 Y45.005 I0.193 J-0.051
G1 X55.446 Y44.954
X55.496 Y44.94 Z-2.693
X55.542 Y44.928 Z-2.673
X55.582 Y44.917 Z-2.641
X55.613 Y44.909 Z-2.6
X55.633 Y44.904 Z-2.552
X55.639 Y44.902 Z-2.5
Z5
X43.723 Y18.747
Z0.25 F333.3
Z-2.5
X43.716 Y18.746 Z-2.552 F1000
X43.696 Y18.742 Z-2.6
X43.665 Y18.737 Z-2.641
X43.624 Y18.73 Z-2.673
X43.577 Y18.723 Z-2.693
X43.526 Y18.714 Z-2.7
X43.328 Y18.681
G3 X43.164 Y18.451 I0.033 J-0.197
G2 X43.2 Y18.01 I-2.664 J-0.441
G1 Y2
G2 X40 Y-1.2 I-3.2 J0
G1 X2
G2 X-1.2 Y2 I0 J3.2
G1 Y18.01
G2 X1.5 Y20.71 I2.7 J0
G1 X6.5
G2 X9.2 Y18.01 I0 J-2.7
G1 Y14.71
X16.8
Y41
G2 X18 Y42.2 I1.2 J0
G1 X24
G2 X25.2 Y41 I0 J-1.2
G1 Y14.71
X32.8
Y18.01
G2 X35.5 Y20.71 I2.7 J0
G1 X40.5
G2 X43.164 Y18.451 I0 J-2.7
G3 X43.394 Y18.287 I0.197 J0.033
G1 X43.591 Y18.32
X43.642 Y18.328 Z-2.693
X43.69 Y18.336 Z-2.673
X43.731 Y18.343 Z-2.641
X43.762 Y18.348 Z-2.6
X43.782 Y18.351 Z-2.552
X43.788 Y18.352 Z-2.5
Z5
X43.723 Y18.747
Z-0.65 F333.3
Z-3.4
X43.716 Y18.746 Z-3.452 F1000
X43.696 Y18.742 Z-3.5
X43.665 Y18.737 Z-3.541
X43.624 Y18.73 Z-3.573
X43.577 Y18.723 Z-3.593
X43.526 Y18.714 Z-3.6
X43.328 Y18.681
G3 X43.164 Y18.451 I0.033 J-0.197
G2 X43.2 Y18.01 I-2.664 J-0.441
G1 Y2
G2 X40 Y-1.2 I-3.2 J0
G1 X2
G2 X-1.2 Y2 I0 J3.2
G1 Y18.01
G2 X1.5 Y20.71 I2.7 J0
G1 X6.5
G2 X9.2 Y18.01 I0 J-2.7
G1 Y14.71
X16.8
Y41
G2 X18 Y42.2 I1.2 J0
G1 X24
G2 X25.2 Y41 I0 J-1.2
G1 Y14.71
X32.8
Y18.01
G2 X35.5 Y20.71 I2.7 J0
G1 X40.5
G2 X43.164 Y18.451 I0 J-2.7
G3 X43.394 Y18.287 I0.197 J0.033
G1 X43.591 Y18.32
X43.642 Y18.328 Z-3.593
X43.69 Y18.336 Z-3.573
X43.731 Y18.343 Z-3.541
X43.762 Y18.348 Z-3.5
X43.782 Y18.351 Z-3.452
X43.788 Y18.352 Z-3.4
Z5
X55.741 Y45.289
Z-0.65 F333.3
Z-3.4
X55.735 Y45.291 Z-3.452 F1000
X55.715 Y45.296 Z-3.5
X55.685 Y45.304 Z-3.541
X55.645 Y45.315 Z-3.573
X55.598 Y45.327 Z-3.593
X55.548 Y45.34 Z-3.6
X55.355 Y45.391
G3 X55.11 Y45.249 I-0.051 J-0.193
G2 X52.5 Y43.238 I-2.61 J0.689
G1 X47.5
G2 X44.8 Y45.938 I0 J2.7
G1 Y49.238
X37.2
Y22.948
G2 X36 Y21.749 I-1.2 J0
G1 X30
G2 X28.8 Y22.948 I0 J1.2
G1 Y49.238
X21.2
Y45.938
G2 X18.5 Y43.238 I-2.7 J0
G1 X13.5
G2 X10.8 Y45.938 I0 J2.7
G1 Y61.949
G2 X14 Y65.148 I3.2 J0
G1 X52
G2 X55.2 Y61.949 I0 J-3.2
G1 Y45.938
G2 X55.11 Y45.249 I-2.7 J0
G3 X55.252 Y45.005 I0.193 J-0.051
G1 X55.446 Y44.954
X55.496 Y44.94 Z-3.593
X55.542 Y44.928 Z-3.573
X55.582 Y44.917 Z-3.541
X55.613 Y44.909 Z-3.5
X55.633 Y44.904 Z-3.452
X55.639 Y44.902 Z-3.4
Z5
X55.741 Y45.289
Z-1.55 F333.3
Z-4.3
X55.735 Y45.291 Z-4.352 F1000
X55.715 Y45.296 Z-4.4
X55.685 Y45.304 Z-4.441
X55.645 Y45.315 Z-4.473
X55.598 Y45.327 Z-4.493
X55.548 Y45.34 Z-4.5
X55.355 Y45.391
G3 X55.11 Y45.249 I-0.051 J-0.193
G2 X52.5 Y43.238 I-2.61 J0.689
G1 X47.5
G2 X44.8 Y45.938 I0 J2.7
G1 Y49.238
X37.2
Y36.354
Y36.054 Z-3.9
Y34.054
Y33.754 Z-4.5 F333.3
Y22.948 F1000
G2 X36 Y21.749 I-1.2 J0
G1 X30
G2 X28.8 Y22.948 I0 J1.2
G1 Y31.197
Y31.497 Z-3.9
Y33.497
Y33.797 Z-4.5 F333.3
Y49.238 F1000
X21.2
Y45.938
G2 X18.5 Y43.238 I-2.7 J0
G1 X13.5
G2 X10.8 Y45.938 I0 J2.7
G1 Y53.693
Y53.993 Z-3.9
Y55.993
Y56.293 Z-4.5 F333.3
Y61.949 F1000
G2 X14 Y65.148 I3.2 J0
G1 X31.699
X31.999 Z-3.9
X33.999
X34.299 Z-4.5 F333.3
X52 F1000
G2 X55.2 Y61.949 I0 J-3.2
G1 Y56.303
Y56.003 Z-3.9
Y54.003
Y53.703 Z-4.5 F333.3
Y45.938 F1000
G2 X55.11 Y45.249 I-2.7 J0
G3 X55.252 Y45.005 I0.193 J-0.051
G1 X55.446 Y44.954
X55.496 Y44.94 Z-4.493
X55.542 Y44.928 Z-4.473
X55.582 Y44.917 Z-4.441
X55.613 Y44.909 Z-4.4
X55.633 Y44.904 Z-4.352
X55.639 Y44.902 Z-4.3
Z5
X43.723 Y18.747
Z-1.55 F333.3
Z-4.3
X43.716 Y18.746 Z-4.352 F1000
X43.696 Y18.742 Z-4.4
X43.665 Y18.737 Z-4.441
X43.624 Y18.73 Z-4.473
X43.577 Y18.723 Z-4.493
X43.526 Y18.714 Z-4.5
X43.328 Y18.681
G3 X43.164 Y18.451 I0.033 J-0.197
G2 X43.2 Y18.01 I-2.664 J-0.441
G1 Y11.306
Y11.006 Z-3.9
Y9.006
Y8.706 Z-4.5 F333.3
Y2 F1000
G2 X40 Y-1.2 I-3.2 J0
G1 X21.987
X21.687 Z-3.9
X19.687
X19.387 Z-4.5 F333.3
X2 F1000
G2 X-1.2 Y2 I0 J3.2
G1 Y8.598
Y8.898 Z-3.9
Y10.898
Y11.198 Z-4.5 F333.3
Y18.01 F1000
G2 X1.5 Y20.71 I2.7 J0
G1 X6.5
G2 X9.2 Y18.01 I0 J-2.7
G1 Y14.71
X16.8
Y28.774
Y29.074 Z-3.9
Y31.074
Y31.374 Z-4.5 F333.3
Y41 F1000
G2 X18 Y42.2 I1.2 J0
G1 X24
G2 X25.2 Y41 I0 J-1.2
G1 Y33.79
Y33.49 Z-3.9
Y31.49
Y31.19 Z-4.5 F333.3
Y14.71 F1000
X32.8
Y18.01
G2 X35.5 Y20.71 I2.7 J0
G1 X40.5
G2 X43.164 Y18.451 I0 J-2.7
G3 X43.394 Y18.287 I0.197 J0.033
G1 X43.591 Y18.32
X43.642 Y18.328 Z-4.493
X43.69 Y18.336 Z-4.473
X43.731 Y18.343 Z-4.441
X43.762 Y18.348 Z-4.4
X43.782 Y18.351 Z-4.352
X43.788 Y18.352 Z-4.3
Z5
X43.723 Y18.747
Z-2.45 F333.3
Z-5.2
X43.716 Y18.746 Z-5.252 F1000
X43.696 Y18.742 Z-5.3
X43.665 Y18.737 Z-5.341
X43.624 Y18.73 Z-5.373
X43.577 Y18.723 Z-5.393
X43.526 Y18.714 Z-5.4
X43.328 Y18.681
G3 X43.164 Y18.451 I0.033 J-0.197
G2 X43.2 Y18.01 I-2.664 J-0.441
G1 Y11.756
Y11.006 Z-3.9
Y9.006
Y8.256 Z-5.4 F333.3
Y2 F1000
G2 X40 Y-1.2 I-3.2 J0
G1 X22.437
X21.687 Z-3.9
X19.687
X18.937 Z-5.4 F333.3
X2 F1000
G2 X-1.2 Y2 I0 J3.2
G1 Y8.148
Y8.898 Z-3.9
Y10.898
Y11.648 Z-5.4 F333.3
Y18.01 F1000
G2 X1.5 Y20.71 I2.7 J0
G1 X6.5
G2 X9.2 Y18.01 I0 J-2.7
G1 Y14.71
X16.8
Y28.324
Y29.074 Z-3.9
Y31.074
Y31.824 Z-5.4 F333.3
Y41 F1000
G2 X18 Y42.2 I1.2 J0
G1 X24
G2 X25.2 Y41 I0 J-1.2
G1 Y34.24
Y33.49 Z-3.9
Y31.49
Y30.74 Z-5.4 F333.3
Y14.71 F1000
X32.8
Y18.01
G2 X35.5 Y20.71 I2.7 J0
G1 X40.5
G2 X43.164 Y18.451 I0 J-2.7
G1 Y18.402
X43.151 Y18.355
X43.124 Y18.315
X43.086 Y18.284
X43.048 Y18.253
X43.019 Y18.214
X43.002 Y18.169
X42.998 Y18.121
X43 Y18.01
Y11.756
Y11.006 Z-3.9
Y9.006
Y8.256 Z-5.4 F333.3
Y2 F1000
G2 X40 Y-1 I-3 J0
G1 X22.437
X21.687 Z-3.9
X19.687
X18.937 Z-5.4 F333.3
X2 F1000
G2 X-1 Y2 I0 J3
G1 Y8.148
Y8.898 Z-3.9
Y10.898
Y11.648 Z-5.4 F333.3
Y18.01 F1000
G2 X1.5 Y20.51 I2.5 J0
G1 X6.5
G2 X9 Y18.01 I0 J-2.5
G1 Y14.51
X17
Y28.324
Y29.074 Z-3.9
Y31.074
Y31.824 Z-5.4 F333.3
Y41 F1000
G2 X18 Y42 I1 J0
G1 X24
G2 X25 Y41 I0 J-1
G1 Y34.24
Y33.49 Z-3.9
Y31.49
Y30.74 Z-5.4 F333.3
Y14.51 F1000
X33
Y18.01
G2 X35.5 Y20.51 I2.5 J0
G1 X40.5
G2 X42.998 Y18.121 I0 J-2.5
G3 X43.206 Y17.93 I0.2 J0.009
G1 X43.406 Y17.938
X43.458 Y17.941 Z-5.393
X43.506 Y17.943 Z-5.373
X43.547 Y17.945 Z-5.341
X43.579 Y17.946 Z-5.3
X43.599 Y17.947 Z-5.252
X43.606 Z-5.2
Z5
X55.741 Y45.289
Z-2.45 F333.3
Z-5.2
X55.735 Y45.291 Z-5.252 F1000
X55.715 Y45.296 Z-5.3
X55.685 Y45.304 Z-5.341
X55.645 Y45.315 Z-5.373
X55.598 Y45.327 Z-5.393
X55.548 Y45.34 Z-5.4
X55.355 Y45.391
G3 X55.11 Y45.249 I-0.051 J-0.193
G2 X52.5 Y43.238 I-2.61 J0.689
G1 X47.5
G2 X44.8 Y45.938 I0 J2.7
G1 Y49.238
X37.2
Y36.804
Y36.054 Z-3.9
Y34.054
Y33.304 Z-5.4 F333.3
Y22.948 F1000
G2 X36 Y21.749 I-1.2 J0
G1 X30
G2 X28.8 Y22.948 I0 J1.2
G1 Y30.747
Y31.497 Z-3.9
Y33.497
Y34.247 Z-5.4 F333.3
Y49.238 F1000
X21.2
Y45.938
G2 X18.5 Y43.238 I-2.7 J0
G1 X13.5
G2 X10.8 Y45.938 I0 J2.7
G1 Y53.243
Y53.993 Z-3.9
Y55.993
Y56.743 Z-5.4 F333.3
Y61.949 F1000
G2 X14 Y65.148 I3.2 J0
G1 X31.249
X31.999 Z-3.9
X33.999
X34.749 Z-5.4 F333.3
X52 F1000
G2 X55.2 Y61.949 I0 J-3.2
G1 Y56.753
Y56.003 Z-3.9
Y54.003
Y53.253 Z-5.4 F333.3
Y45.938 F1000
G2 X55.11 Y45.249 I-2.7 J0
G1 X55.091 Y45.204
X55.059 Y45.167
X55.017 Y45.141
X54.97 Y45.128
X54.923 Y45.116
X54.881 Y45.092
X54.847 Y45.058
X54.823 Y45.015
G2 X52.5 Y43.438 I-2.323 J0.923
G1 X47.5
G2 X45 Y45.938 I0 J2.5
G1 Y49.438
X37
Y36.804
Y36.054 Z-3.9
Y34.054
Y33.304 Z-5.4 F333.3
Y22.948 F1000
G2 X36 Y21.948 I-1 J0
G1 X30
G2 X29 Y22.948 I0 J1
G1 Y30.747
Y31.497 Z-3.9
Y33.497
Y34.247 Z-5.4 F333.3
Y49.438 F1000
X21
Y45.938
G2 X18.5 Y43.438 I-2.5 J0
G1 X13.5
G2 X11 Y45.938 I0 J2.5
G1 Y53.243
Y53.993 Z-3.9
Y55.993
Y56.743 Z-5.4 F333.3
Y61.949 F1000
G2 X14 Y64.949 I3 J0
G1 X31.249
X31.999 Z-3.9
X33.999
X34.749 Z-5.4 F333.3
X52 F1000
G2 X55 Y61.949 I0 J-3
G1 Y56.753
Y56.003 Z-3.9
Y54.003
Y53.253 Z-5.4 F333.3
Y45.938 F1000
G2 X54.823 Y45.015 I-2.5 J0
G3 X54.935 Y44.756 I0.186 J-0.074
G1 X55.121 Y44.682
X55.169 Y44.663 Z-5.393
X55.214 Y44.645 Z-5.373
X55.252 Y44.63 Z-5.341
X55.282 Y44.618 Z-5.3
X55.3 Y44.61 Z-5.252
X55.307 Y44.608 Z-5.2
Z5
X142.333 Y18.96
Z2.05 F333.3
Z-0.7
X142.34 Y18.957 Z-0.752 F1000
X142.358 Y18.951 Z-0.8
X142.388 Y18.94 Z-0.841
X142.427 Y18.925 Z-0.873
X142.472 Y18.909 Z-0.893
X142.521 Y18.891 Z-0.9
X142.709 Y18.822
G3 X142.965 Y18.941 I0.069 J0.188
G2 X145.5 Y20.71 I2.535 J-0.931
G1 X150.5
G2 X153.2 Y18.01 I0 J-2.7
G1 Y14.71
X160.8
Y41
G2 X162 Y42.2 I1.2 J0
G1 X168
G2 X169.2 Y41 I0 J-1.2
G1 Y14.71
X176.8
Y18.01
G2 X179.5 Y20.71 I2.7 J0
G1 X184.5
G2 X187.2 Y18.01 I0 J-2.7
G1 Y2
G2 X184 Y-1.2 I-3.2 J0
G1 X146
G2 X142.8 Y2 I0 J3.2
G1 Y18.01
G2 X142.965 Y18.941 I2.7 J0
G3 X142.847 Y19.197 I-0.188 J0.069
G1 X142.659 Y19.266
X142.61 Y19.284 Z-0.893
X142.565 Y19.301 Z-0.873
X142.526 Y19.315 Z-0.841
X142.496 Y19.326 Z-0.8
X142.478 Y19.333 Z-0.752
X142.471 Y19.335 Z-0.7
Z5
X154.459 Y44.641
Z2.05 F333.3
Z-0.7
X154.466 Y44.643 Z-0.752 F1000
X154.485 Y44.65 Z-0.8
X154.514 Y44.66 Z-0.841
X154.553 Y44.674 Z-0.873
X154.599 Y44.691 Z-0.893
X154.648 Y44.708 Z-0.9
X154.836 Y44.775
G3 X154.957 Y45.031 I-0.067 J0.188
G2 X154.8 Y45.938 I2.543 J0.908
G1 Y61.949
G2 X158 Y65.148 I3.2 J0
G1 X196
G2 X199.2 Y61.949 I0 J-3.2
G1 Y45.938
G2 X196.5 Y43.238 I-2.7 J0
G1 X191.5
G2 X188.8 Y45.938 I0 J2.7
G1 Y49.238
X181.2
Y22.948
G2 X180 Y21.749 I-1.2 J0
G1 X174
G2 X172.8 Y22.948 I0 J1.2
G1 Y49.238
X165.2
Y45.938
G2 X162.5 Y43.238 I-2.7 J0
G1 X157.5
G2 X154.957 Y45.031 I0 J2.7
G3 X154.702 Y45.152 I-0.188 J-0.067
G1 X154.513 Y45.085
X154.464 Y45.067 Z-0.893
X154.419 Y45.051 Z-0.873
X154.38 Y45.037 Z-0.841
X154.35 Y45.026 Z-0.8
X154.331 Y45.02 Z-0.752
X154.325 Y45.017 Z-0.7
Z5
X154.459 Y44.641
Z1.15 F333.3
Z-1.6
X154.466 Y44.643 Z-1.652 F1000
X154.485 Y44.65 Z-1.7
X154.514 Y44.66 Z-1.741
X154.553 Y44.674 Z-1.773
X154.599 Y44.691 Z-1.793
X154.648 Y44.708 Z-1.8
X154.836 Y44.775
G3 X154.957 Y45.031 I-0.067 J0.188
G2 X154.8 Y45.938 I2.543 J0.908
G1 Y61.949
G2 X158 Y65.148 I3.2 J0
G1 X196
G2 X199.2 Y61.949 I0 J-3.2
G1 Y45.938
G2 X196.5 Y43.238 I-2.7 J0
G1 X191.5
G2 X188.8 Y45.938 I0 J2.7
G1 Y49.238
X181.2
Y22.948
G2 X180 Y21.749 I-1.2 J0
G1 X174
G2 X172.8 Y22.948 I0 J1.2
G1 Y49.238
X165.2
Y45.938
G2 X162.5 Y43.238 I-2.7 J0
G1 X157.5
G2 X154.957 Y45.031 I0 J2.7
G3 X154.702 Y45.152 I-0.188 J-0.067
G1 X154.513 Y45.085
X154.464 Y45.067 Z-1.793
X154.419 Y45.051 Z-1.773
X154.38 Y45.037 Z-1.741
X154.35 Y45.026 Z-1.7
X154.331 Y45.02 Z-1.652
X154.325 Y45.017 Z-1.6
Z5
X142.333 Y18.96
Z1.15 F333.3
Z-1.6
X142.34 Y18.957 Z-1.652 F1000
X142.358 Y18.951 Z-1.7
X142.388 Y18.94 Z-1.741
X142.427 Y18.925 Z-1.773
X142.472 Y18.909 Z-1.793
X142.521 Y18.891 Z-1.8
X142.709 Y18.822
G3 X142.965 Y18.941 I0.069 J0.188
G2 X145.5 Y20.71 I2.535 J-0.931
G1 X150.5
G2 X153.2 Y18.01 I0 J-2.7
G1 Y14.71
X160.8
Y41
G2 X162 Y42.2 I1.2 J0
G1 X168
G2 X169.2 Y41 I0 J-1.2
G1 Y14.71
X176.8
Y18.01
G2 X179.5 Y20.71 I2.7 J0
G1 X184.5
G2 X187.2 Y18.01 I0 J-2.7
G1 Y2
G2 X184 Y-1.2 I-3.2 J0
G1 X146
G2 X142.8 Y2 I0 J3.2
G1 Y18.01
G2 X142.965 Y18.941 I2.7 J0
G3 X142.847 Y19.197 I-0.188 J0.069
G1 X142.659 Y19.266
X142.61 Y19.284 Z-1.793
X142.565 Y19.301 Z-1.773
X142.526 Y19.315 Z-1.741
X142.496 Y19.326 Z-1.7
X142.478 Y19.333 Z-1.652
X142.471 Y19.335 Z-1.6
Z5
X142.333 Y18.96
Z0.25 F333.3
Z-2.5
X142.34 Y18.957 Z-2.552 F1000
X142.358 Y18.951 Z-2.6
X142.388 Y18.94 Z-2.641
X142.427 Y18.925 Z-2.673
X142.472 Y18.909 Z-2.693
X142.521 Y18.891 Z-2.7
X142.709 Y18.822
G3 X142.965 Y18.941 I0.069 J0.188
G2 X145.5 Y20.71 I2.535 J-0.931
G1 X150.5
G2 X153.2 Y18.01 I0 J-2.7
G1 Y14.71
X160.8
Y41
G2 X162 Y42.2 I1.2 J0
G1 X168
G2 X169.2 Y41 I0 J-1.2
G1 Y14.71
X176.8
Y18.01
G2 X179.5 Y20.71 I2.7 J0
G1 X184.5
G2 X187.2 Y18.01 I0 J-2.7
G1 Y2
G2 X184 Y-1.2 I-3.2 J0
G1 X146
G2 X142.8 Y2 I0 J3.2
G1 Y18.01
G2 X142.965 Y18.941 I2.7 J0
G3 X142.847 Y19.197 I-0.188 J0.069
G1 X142.659 Y19.266
X142.61 Y19.284 Z-2.693
X142.565 Y19.301 Z-2.673
X142.526 Y19.315 Z-2.641
X142.496 Y19.326 Z-2.6
X142.478 Y19.333 Z-2.552
X142.471 Y19.335 Z-2.5
Z5
X154.459 Y44.641
Z0.25 F333.3
Z-2.5
X154.466 Y44.643 Z-2.552 F1000
X154.485 Y44.65 Z-2.6
X154.514 Y44.66 Z-2.641
X154.553 Y44.674 Z-2.673
X154.599 Y44.691 Z-2.693
X154.648 Y44.708 Z-2.7
X154.836 Y44.775
G3 X154.957 Y45.031 I-0.067 J0.188
G2 X154.8 Y45.938 I2.543 J0.908
G1 Y61.949
G2 X158 Y65.148 I3.2 J0
G1 X196
G2 X199.2 Y61.949 I0 J-3.2
G1 Y45.938
G2 X196.5 Y43.238 I-2.7 J0
G1 X191.5
G2 X188.8 Y45.938 I0 J2.7
G1 Y49.238
X181.2
Y22.948
G2 X180 Y21.749 I-1.2 J0
G1 X174
G2 X172.8 Y22.948 I0 J1.2
G1 Y49.238
X165.2
Y45.938
G2 X162.5 Y43.238 I-2.7 J0
G1 X157.5
G2 X154.957 Y45.031 I0 J2.7
G3 X154.702 Y45.152 I-0.188 J-0.067
G1 X154.513 Y45.085
X154.464 Y45.067 Z-2.693
X154.419 Y45.051 Z-2.673
X154.38 Y45.037 Z-2.641
X154.35 Y45.026 Z-2.6
X154.331 Y45.02 Z-2.552
X154.325 Y45.017 Z-2.5
Z5
X154.459 Y44.641
Z-0.65 F333.3
Z-3.4
X154.466 Y44.643 Z-3.452 F1000
X154.485 Y44.65 Z-3.5
X154.514 Y44.66 Z-3.541
X154.553 Y44.674 Z-3.573
X154.599 Y44.691 Z-3.593
X154.648 Y44.708 Z-3.6
X154.836 Y44.775
G3 X154.957 Y45.031 I-0.067 J0.188
G2 X154.8 Y45.938 I2.543 J0.908
G1 Y61.949
G2 X158 Y65.148 I3.2 J0
G1 X196
G2 X199.2 Y61.949 I0 J-3.2
G1 Y45.938
G2 X196.5 Y43.238 I-2.7 J0
G1 X191.5
G2 X188.8 Y45.938 I0 J2.7
G1 Y49.238
X181.2
Y22.948
G2 X180 Y21.749 I-1.2 J0
G1 X174
G2 X172.8 Y22.948 I0 J1.2
G1 Y49.238
X165.2
Y45.938
G2 X162.5 Y43.238 I-2.7 J0
G1 X157.5
G2 X154.957 Y45.031 I0 J2.7
G3 X154.702 Y45.152 I-0.188 J-0.067
G1 X154.513 Y45.085
X154.464 Y45.067 Z-3.593
X154.419 Y45.051 Z-3.573
X154.38 Y45.037 Z-3.541
X154.35 Y45.026 Z-3.5
X154.331 Y45.02 Z-3.452
X154.325 Y45.017 Z-3.4
Z5
X142.333 Y18.96
Z-0.65 F333.3
Z-3.4
X142.34 Y18.957 Z-3.452 F1000
X142.358 Y18.951 Z-3.5
X142.388 Y18.94 Z-3.541
X142.427 Y18.925 Z-3.573
X142.472 Y18.909 Z-3.593
X142.521 Y18.891 Z-3.6
X142.709 Y18.822
G3 X142.965 Y18.941 I0.069 J0.188
G2 X145.5 Y20.71 I2.535 J-0.931
G1 X150.5
G2 X153.2 Y18.01 I0 J-2.7
G1 Y14.71
X160.8
Y41
G2 X162 Y42.2 I1.2 J0
G1 X168
G2 X169.2 Y41 I0 J-1.2
G1 Y14.71
X176.8
Y18.01
G2 X179.5 Y20.71 I2.7 J0
G1 X184.5
G2 X187.2 Y18.01 I0 J-2.7
G1 Y2
G2 X184 Y-1.2 I-3.2 J0
G1 X146
G2 X142.8 Y2 I0 J3.2
G1 Y18.01
G2 X142.965 Y18.941 I2.7 J0
G3 X142.847 Y19.197 I-0.188 J0.069
G1 X142.659 Y19.266
X142.61 Y19.284 Z-3.593
X142.565 Y19.301 Z-3.573
X142.526 Y19.315 Z-3.541
X142.496 Y19.326 Z-3.5
X142.478 Y19.333 Z-3.452
X142.471 Y19.335 Z-3.4
Z5
X142.333 Y18.96
Z-1.55 F333.3
Z-4.3
X142.34 Y18.957 Z-4.352 F1000
X142.358 Y18.951 Z-4.4
X142.388 Y18.94 Z-4.441
X142.427 Y18.925 Z-4.473
X142.472 Y18.909 Z-4.493
X142.521 Y18.891 Z-4.5
X142.709 Y18.822
G3 X142.965 Y18.941 I0.069 J0.188
G2 X145.5 Y20.71 I2.535 J-0.931
G1 X150.5
G2 X153.2 Y18.01 I0 J-2.7
G1 Y14.71
X160.8
Y28.676
Y28.976 Z-3.9
Y30.976
Y31.275 Z-4.5 F333.3
Y41 F1000
G2 X162 Y42.2 I1.2 J0
G1 X168
G2 X169.2 Y41 I0 J-1.2
G1 Y33.789
Y33.489 Z-3.9
Y31.489
Y31.189 Z-4.5 F333.3
Y14.71 F1000
X176.8
Y18.01
G2 X179.5 Y20.71 I2.7 J0
G1 X184.5
G2 X187.2 Y18.01 I0 J-2.7
G1 Y11.207
Y10.907 Z-3.9
Y8.907
Y8.607 Z-4.5 F333.3
Y2 F1000
G2 X184 Y-1.2 I-3.2 J0
G1 X166.354
X166.054 Z-3.9
X164.054
X163.754 Z-4.5 F333.3
X146 F1000
G2 X142.8 Y2 I0 J3.2
G1 Y8.706
Y9.006 Z-3.9
Y11.006
Y11.306 Z-4.5 F333.3
Y18.01 F1000
G2 X142.965 Y18.941 I2.7 J0
G3 X142.847 Y19.197 I-0.188 J0.069
G1 X142.659 Y19.266
X142.61 Y19.284 Z-4.493
X142.565 Y19.301 Z-4.473
X142.526 Y19.315 Z-4.441
X142.496 Y19.326 Z-4.4
X142.478 Y19.333 Z-4.352
X142.471 Y19.335 Z-4.3
Z5
X154.459 Y44.641
Z-1.55 F333.3
Z-4.3
X154.466 Y44.643 Z-4.352 F1000
X154.485 Y44.65 Z-4.4
X154.514 Y44.66 Z-4.441
X154.553 Y44.674 Z-4.473
X154.599 Y44.691 Z-4.493
X154.648 Y44.708 Z-4.5
X154.836 Y44.775
G3 X154.957 Y45.031 I-0.067 J0.188
G2 X154.8 Y45.938 I2.543 J0.908
G1 Y53.704
Y54.004 Z-3.9
Y56.004
Y56.304 Z-4.5 F333.3
Y61.949 F1000
G2 X158 Y65.148 I3.2 J0
G1 X175.597
X175.897 Z-3.9
X177.897
X178.197 Z-4.5 F333.3
X196 F1000
G2 X199.2 Y61.949 I0 J-3.2
G1 Y56.324
Y56.024 Z-3.9
Y54.024
Y53.724 Z-4.5 F333.3
Y45.938 F1000
G2 X196.5 Y43.238 I-2.7 J0
G1 X191.5
G2 X188.8 Y45.938 I0 J2.7
G1 Y49.238
X181.2
Y36.256
Y35.956 Z-3.9
Y33.956
Y33.656 Z-4.5 F333.3
Y22.948 F1000
G2 X180 Y21.749 I-1.2 J0
G1 X174
G2 X172.8 Y22.948 I0 J1.2
G1 Y31.214
Y31.514 Z-3.9
Y33.514
Y33.814 Z-4.5 F333.3
Y49.238 F1000
X165.2
Y45.938
G2 X162.5 Y43.238 I-2.7 J0
G1 X157.5
G2 X154.957 Y45.031 I0 J2.7
G3 X154.702 Y45.152 I-0.188 J-0.067
G1 X154.513 Y45.085
X154.464 Y45.067 Z-4.493
X154.419 Y45.051 Z-4.473
X154.38 Y45.037 Z-4.441
X154.35 Y45.026 Z-4.4
X154.331 Y45.02 Z-4.352
X154.325 Y45.017 Z-4.3
Z5
X154.459 Y44.641
Z-2.45 F333.3
Z-5.2
X154.466 Y44.643 Z-5.252 F1000
X154.485 Y44.65 Z-5.3
X154.514 Y44.66 Z-5.341
X154.553 Y44.674 Z-5.373
X154.599 Y44.691 Z-5.393
X154.648 Y44.708 Z-5.4
X154.836 Y44.775
G3 X154.957 Y45.031 I-0.067 J0.188
G2 X154.8 Y45.938 I2.543 J0.908
G1 Y53.254
Y54.004 Z-3.9
Y56.004
Y56.754 Z-5.4 F333.3
Y61.949 F1000
G2 X158 Y65.148 I3.2 J0
G1 X175.147
X175.897 Z-3.9
X177.897
X178.647 Z-5.4 F333.3
X196 F1000
G2 X199.2 Y61.949 I0 J-3.2
G1 Y56.774
Y56.024 Z-3.9
Y54.024
Y53.274 Z-5.4 F333.3
Y45.938 F1000
G2 X196.5 Y43.238 I-2.7 J0
G1 X191.5
G2 X188.8 Y45.938 I0 J2.7
G1 Y49.238
X181.2
Y36.706
Y35.956 Z-3.9
Y33.956
Y33.206 Z-5.4 F333.3
Y22.948 F1000
G2 X180 Y21.749 I-1.2 J0
G1 X174
G2 X172.8 Y22.948 I0 J1.2
G1 Y30.764
Y31.514 Z-3.9
Y33.514
Y34.264 Z-5.4 F333.3
Y49.238 F1000
X165.2
Y45.938
G2 X162.5 Y43.238 I-2.7 J0
G1 X157.5
G2 X154.957 Y45.031 I0 J2.7
G1 X154.948 Y45.079
X154.953 Y45.128
X154.972 Y45.173
X155.004 Y45.21
X155.036 Y45.246
X155.057 Y45.29
X155.066 Y45.338
X155.062 Y45.386
G2 X155 Y45.938 I2.438 J0.553
G1 Y53.254
Y54.004 Z-3.9
Y56.004
Y56.754 Z-5.4 F333.3
Y61.949 F1000
G2 X158 Y64.949 I3 J0
G1 X175.147
X175.897 Z-3.9
X177.897
X178.647 Z-5.4 F333.3
X196 F1000
G2 X199 Y61.949 I0 J-3
G1 Y56.774
Y56.024 Z-3.9
Y54.024
Y53.274 Z-5.4 F333.3
Y45.938 F1000
G2 X196.5 Y43.438 I-2.5 J0
G1 X191.5
G2 X189 Y45.938 I0 J2.5
G1 Y49.438
X181
Y36.706
Y35.956 Z-3.9
Y33.956
Y33.206 Z-5.4 F333.3
Y22.948 F1000
G2 X180 Y21.948 I-1 J0
G1 X174
G2 X173 Y22.948 I0 J1
G1 Y30.764
Y31.514 Z-3.9
Y33.514
Y34.264 Z-5.4 F333.3
Y49.438 F1000
X165
Y45.938
G2 X162.5 Y43.438 I-2.5 J0
G1 X157.5
G2 X155.062 Y45.386 I0 J2.5
G3 X154.823 Y45.537 I-0.195 J-0.044
G1 X154.628 Y45.493
X154.577 Y45.481 Z-5.393
X154.53 Y45.471 Z-5.373
X154.49 Y45.461 Z-5.341
X154.459 Y45.454 Z-5.3
X154.439 Y45.45 Z-5.252
X154.432 Y45.448 Z-5.2
Z5
X142.333 Y18.96
Z-2.45 F333.3
Z-5.2
X142.34 Y18.957 Z-5.252 F1000
X142.358 Y18.951 Z-5.3
X142.388 Y18.94 Z-5.341
X142.427 Y18.925 Z-5.373
X142.472 Y18.909 Z-5.393
X142.521 Y18.891 Z-5.4
X142.709 Y18.822
G3 X142.965 Y18.941 I0.069 J0.188
G2 X145.5 Y20.71 I2.535 J-0.931
G1 X150.5
G2 X153.2 Y18.01 I0 J-2.7
G1 Y14.71
X160.8
Y28.226
Y28.976 Z-3.9
Y30.976
Y31.726 Z-5.4 F333.3
Y41 F1000
G2 X162 Y42.2 I1.2 J0
G1 X168
G2 X169.2 Y41 I0 J-1.2
G1 Y34.239
Y33.489 Z-3.9
Y31.489
Y30.739 Z-5.4 F333.3
Y14.71 F1000
X176.8
Y18.01
G2 X179.5 Y20.71 I2.7 J0
G1 X184.5
G2 X187.2 Y18.01 I0 J-2.7
G1 Y11.657
Y10.907 Z-3.9
Y8.907
Y8.157 Z-5.4 F333.3
Y2 F1000
G2 X184 Y-1.2 I-3.2 J0
G1 X166.804
X166.054 Z-3.9
X164.054
X163.304 Z-5.4 F333.3
X146 F1000
G2 X142.8 Y2 I0 J3.2
G1 Y8.256
Y9.006 Z-3.9
Y11.006
Y11.756 Z-5.4 F333.3
Y18.01 F1000
G2 X142.965 Y18.941 I2.7 J0
G1 X142.989 Y18.984
X143.024 Y19.018
X143.068 Y19.04
X143.116 Y19.048
X143.164 Y19.056
X143.208 Y19.076
X143.246 Y19.107
X143.273 Y19.146
G2 X145.5 Y20.51 I2.227 J-1.136
G1 X150.5
G2 X153 Y18.01 I0 J-2.5
G1 Y14.51
X161
Y28.226
Y28.976 Z-3.9
Y30.976
Y31.726 Z-5.4 F333.3
Y41 F1000
G2 X162 Y42 I1 J0
G1 X168
G2 X169 Y41 I0 J-1
G1 Y34.239
Y33.489 Z-3.9
Y31.489
Y30.739 Z-5.4 F333.3
Y14.51 F1000
X177
Y18.01
G2 X179.5 Y20.51 I2.5 J0
G1 X184.5
G2 X187 Y18.01 I0 J-2.5
G1 Y11.657
Y10.907 Z-3.9
Y8.907
Y8.157 Z-5.4 F333.3
Y2 F1000
G2 X184 Y-1 I-3 J0
G1 X166.804
X166.054 Z-3.9
X164.054
X163.304 Z-5.4 F333.3
X146 F1000
G2 X143 Y2 I0 J3
G1 Y8.256
Y9.006 Z-3.9
Y11.006
Y11.756 Z-5.4 F333.3
Y18.01 F1000
G2 X143.273 Y19.146 I2.5 J0
G3 X143.186 Y19.416 I-0.178 J0.091
G1 X143.008 Y19.506
X142.962 Y19.53 Z-5.393
X142.919 Y19.552 Z-5.373
X142.882 Y19.571 Z-5.341
X142.854 Y19.585 Z-5.3
X142.836 Y19.594 Z-5.252
X142.83 Y19.597 Z-5.2
Z10
M5
M30
