(1122_jig_28bit_first)
(T1  D=2.8 CR=0 - ZMIN=-12 - flat end mill)
G90 G94
G17
G21
(When using Fusion 360 for Personal Use, the feedrate of)
(rapid moves is reduced to match the feedrate of cutting)
(moves, which can increase machining time. Unrestricted rapid)
(moves are available with a Fusion 360 Subscription.)

(2D Pocket3)
T1
S5000 M3
G54
G0 X28.865 Y37.944
Z10
G1 Z5 F1000
Z2 F333.3
Z-1 F1000
Y37.933
Y28.184
G3 X29.184 Y27.865 I0.319 J0
G1 X29.298
G2 X29.498 Y27.664 I0 J-0.2
G1 X29.493 Y26.484
G2 X29.293 Y26.285 I-0.2 J0.001
G1 X27.604
G2 X27.285 Y26.604 I0 J0.319
G1 Y38.295
G3 X27.083 Y38.495 I-0.2 J0
G1 X25.903 Y38.484
G3 X25.705 Y38.284 I0.002 J-0.2
G1 Y25.024
G3 X26.024 Y24.705 I0.319 J0
G1 X29.288
G2 X29.488 Y24.507 I0 J-0.2
G1 X29.499 Y23.327
G2 X29.3 Y23.125 I-0.2 J-0.002
G1 X24.444
G2 X24.125 Y23.444 I0 J0.319
G1 Y38.289
G3 X23.926 Y38.489 I-0.2 J0
G1 X22.746 Y38.494
G3 X22.545 Y38.294 I-0.001 J-0.2
G1 Y21.864
G3 X22.864 Y21.545 I0.319 J0
G1 X29.295
G2 X29.495 Y21.344 I0 J-0.2
G1 X29.49 Y20.164
G2 X29.29 Y19.965 I-0.2 J0.001
G1 X21.284
G2 X20.965 Y20.284 I0 J0.319
G1 Y38.299
G3 X20.763 Y38.499 I-0.2 J0
G1 X19.583 Y38.488
G3 X19.385 Y38.288 I0.002 J-0.2
G1 Y18.704
G3 X19.704 Y18.385 I0.319 J0
G1 X29.285
G2 X29.485 Y18.187 I0 J-0.2
G1 X29.496 Y17.007
G2 X29.296 Y16.805 I-0.2 J-0.002
G1 X18.124
G2 X17.805 Y17.124 I0 J0.319
G1 Y38.292
G3 X17.606 Y38.492 I-0.2 J0
G1 X16.426 Y38.497
G3 X16.225 Y38.297 I-0.001 J-0.2
G1 Y15.544
G3 X16.544 Y15.225 I0.319 J0
G1 X29.291
G2 X29.491 Y15.024 I0 J-0.2
G1 X29.486 Y13.844
G2 X29.286 Y13.645 I-0.2 J0.001
G1 X14.964
G2 X14.645 Y13.964 I0 J0.319
G1 Y38.286
G3 X14.446 Y38.486 I-0.2 J0
G1 X13.266 Y38.491
G3 X13.065 Y38.291 I-0.001 J-0.2
G1 Y12.384
G3 X13.384 Y12.065 I0.319 J0
G1 X29.298
G2 X29.498 Y11.864 I0 J-0.2
G1 X29.493 Y10.684
G2 X29.293 Y10.485 I-0.2 J0.001
G1 X11.804
G2 X11.485 Y10.804 I0 J0.319
G1 Y38.296
Y39.696
Z5
X29.321 Y8.901
Z2 F333.3
Z-1 F1000
X29.299 Y8.9
X9.9
Y90
Y91.285
Z5
X28.865 Y37.944
Z1 F333.3
Z-2 F1000
Y37.933
Y28.184
G3 X29.184 Y27.865 I0.319 J0
G1 X29.298
G2 X29.498 Y27.664 I0 J-0.2
G1 X29.493 Y26.484
G2 X29.293 Y26.285 I-0.2 J0.001
G1 X27.604
G2 X27.285 Y26.604 I0 J0.319
G1 Y38.295
G3 X27.083 Y38.495 I-0.2 J0
G1 X25.903 Y38.484
G3 X25.705 Y38.284 I0.002 J-0.2
G1 Y25.024
G3 X26.024 Y24.705 I0.319 J0
G1 X29.288
G2 X29.488 Y24.507 I0 J-0.2
G1 X29.499 Y23.327
G2 X29.3 Y23.125 I-0.2 J-0.002
G1 X24.444
G2 X24.125 Y23.444 I0 J0.319
G1 Y38.289
G3 X23.926 Y38.489 I-0.2 J0
G1 X22.746 Y38.494
G3 X22.545 Y38.294 I-0.001 J-0.2
G1 Y21.864
G3 X22.864 Y21.545 I0.319 J0
G1 X29.295
G2 X29.495 Y21.344 I0 J-0.2
G1 X29.49 Y20.164
G2 X29.29 Y19.965 I-0.2 J0.001
G1 X21.284
G2 X20.965 Y20.284 I0 J0.319
G1 Y38.299
G3 X20.763 Y38.499 I-0.2 J0
G1 X19.583 Y38.488
G3 X19.385 Y38.288 I0.002 J-0.2
G1 Y18.704
G3 X19.704 Y18.385 I0.319 J0
G1 X29.285
G2 X29.485 Y18.187 I0 J-0.2
G1 X29.496 Y17.007
G2 X29.296 Y16.805 I-0.2 J-0.002
G1 X18.124
G2 X17.805 Y17.124 I0 J0.319
G1 Y38.292
G3 X17.606 Y38.492 I-0.2 J0
G1 X16.426 Y38.497
G3 X16.225 Y38.297 I-0.001 J-0.2
G1 Y15.544
G3 X16.544 Y15.225 I0.319 J0
G1 X29.291
G2 X29.491 Y15.024 I0 J-0.2
G1 X29.486 Y13.844
G2 X29.286 Y13.645 I-0.2 J0.001
G1 X14.964
G2 X14.645 Y13.964 I0 J0.319
G1 Y38.286
G3 X14.446 Y38.486 I-0.2 J0
G1 X13.266 Y38.491
G3 X13.065 Y38.291 I-0.001 J-0.2
G1 Y12.384
G3 X13.384 Y12.065 I0.319 J0
G1 X29.298
G2 X29.498 Y11.864 I0 J-0.2
G1 X29.493 Y10.684
G2 X29.293 Y10.485 I-0.2 J0.001
G1 X11.804
G2 X11.485 Y10.804 I0 J0.319
G1 Y38.296
Y39.696
Z5
X29.321 Y8.901
Z1 F333.3
Z-2 F1000
X29.299 Y8.9
X9.9
Y90
Y91.285
Z5
X28.865 Y37.944
Z0 F333.3
Z-3 F1000
Y37.933
Y28.184
G3 X29.184 Y27.865 I0.319 J0
G1 X29.298
G2 X29.498 Y27.664 I0 J-0.2
G1 X29.493 Y26.484
G2 X29.293 Y26.285 I-0.2 J0.001
G1 X27.604
G2 X27.285 Y26.604 I0 J0.319
G1 Y38.295
G3 X27.083 Y38.495 I-0.2 J0
G1 X25.903 Y38.484
G3 X25.705 Y38.284 I0.002 J-0.2
G1 Y25.024
G3 X26.024 Y24.705 I0.319 J0
G1 X29.288
G2 X29.488 Y24.507 I0 J-0.2
G1 X29.499 Y23.327
G2 X29.3 Y23.125 I-0.2 J-0.002
G1 X24.444
G2 X24.125 Y23.444 I0 J0.319
G1 Y38.289
G3 X23.926 Y38.489 I-0.2 J0
G1 X22.746 Y38.494
G3 X22.545 Y38.294 I-0.001 J-0.2
G1 Y21.864
G3 X22.864 Y21.545 I0.319 J0
G1 X29.295
G2 X29.495 Y21.344 I0 J-0.2
G1 X29.49 Y20.164
G2 X29.29 Y19.965 I-0.2 J0.001
G1 X21.284
G2 X20.965 Y20.284 I0 J0.319
G1 Y38.299
G3 X20.763 Y38.499 I-0.2 J0
G1 X19.583 Y38.488
G3 X19.385 Y38.288 I0.002 J-0.2
G1 Y18.704
G3 X19.704 Y18.385 I0.319 J0
G1 X29.285
G2 X29.485 Y18.187 I0 J-0.2
G1 X29.496 Y17.007
G2 X29.296 Y16.805 I-0.2 J-0.002
G1 X18.124
G2 X17.805 Y17.124 I0 J0.319
G1 Y38.292
G3 X17.606 Y38.492 I-0.2 J0
G1 X16.426 Y38.497
G3 X16.225 Y38.297 I-0.001 J-0.2
G1 Y15.544
G3 X16.544 Y15.225 I0.319 J0
G1 X29.291
G2 X29.491 Y15.024 I0 J-0.2
G1 X29.486 Y13.844
G2 X29.286 Y13.645 I-0.2 J0.001
G1 X14.964
G2 X14.645 Y13.964 I0 J0.319
G1 Y38.286
G3 X14.446 Y38.486 I-0.2 J0
G1 X13.266 Y38.491
G3 X13.065 Y38.291 I-0.001 J-0.2
G1 Y12.384
G3 X13.384 Y12.065 I0.319 J0
G1 X29.298
G2 X29.498 Y11.864 I0 J-0.2
G1 X29.493 Y10.684
G2 X29.293 Y10.485 I-0.2 J0.001
G1 X11.804
G2 X11.485 Y10.804 I0 J0.319
G1 Y38.296
Y39.696
Z5
X29.321 Y8.901
Z0 F333.3
Z-3 F1000
X29.299 Y8.9
X9.9
Y90
Y91.285
Z5
X28.865 Y37.944
Z-1 F333.3
Z-4 F1000
Y37.933
Y28.184
G3 X29.184 Y27.865 I0.319 J0
G1 X29.298
G2 X29.498 Y27.664 I0 J-0.2
G1 X29.493 Y26.484
G2 X29.293 Y26.285 I-0.2 J0.001
G1 X27.604
G2 X27.285 Y26.604 I0 J0.319
G1 Y38.295
G3 X27.083 Y38.495 I-0.2 J0
G1 X25.903 Y38.484
G3 X25.705 Y38.284 I0.002 J-0.2
G1 Y25.024
G3 X26.024 Y24.705 I0.319 J0
G1 X29.288
G2 X29.488 Y24.507 I0 J-0.2
G1 X29.499 Y23.327
G2 X29.3 Y23.125 I-0.2 J-0.002
G1 X24.444
G2 X24.125 Y23.444 I0 J0.319
G1 Y38.289
G3 X23.926 Y38.489 I-0.2 J0
G1 X22.746 Y38.494
G3 X22.545 Y38.294 I-0.001 J-0.2
G1 Y21.864
G3 X22.864 Y21.545 I0.319 J0
G1 X29.295
G2 X29.495 Y21.344 I0 J-0.2
G1 X29.49 Y20.164
G2 X29.29 Y19.965 I-0.2 J0.001
G1 X21.284
G2 X20.965 Y20.284 I0 J0.319
G1 Y38.299
G3 X20.763 Y38.499 I-0.2 J0
G1 X19.583 Y38.488
G3 X19.385 Y38.288 I0.002 J-0.2
G1 Y18.704
G3 X19.704 Y18.385 I0.319 J0
G1 X29.285
G2 X29.485 Y18.187 I0 J-0.2
G1 X29.496 Y17.007
G2 X29.296 Y16.805 I-0.2 J-0.002
G1 X18.124
G2 X17.805 Y17.124 I0 J0.319
G1 Y38.292
G3 X17.606 Y38.492 I-0.2 J0
G1 X16.426 Y38.497
G3 X16.225 Y38.297 I-0.001 J-0.2
G1 Y15.544
G3 X16.544 Y15.225 I0.319 J0
G1 X29.291
G2 X29.491 Y15.024 I0 J-0.2
G1 X29.486 Y13.844
G2 X29.286 Y13.645 I-0.2 J0.001
G1 X14.964
G2 X14.645 Y13.964 I0 J0.319
G1 Y38.286
G3 X14.446 Y38.486 I-0.2 J0
G1 X13.266 Y38.491
G3 X13.065 Y38.291 I-0.001 J-0.2
G1 Y12.384
G3 X13.384 Y12.065 I0.319 J0
G1 X29.298
G2 X29.498 Y11.864 I0 J-0.2
G1 X29.493 Y10.684
G2 X29.293 Y10.485 I-0.2 J0.001
G1 X11.804
G2 X11.485 Y10.804 I0 J0.319
G1 Y38.296
Y39.696
Z5
X29.321 Y8.901
Z-1 F333.3
Z-4 F1000
X29.299 Y8.9
X9.9
Y90
Y91.285
Z10
(When using Fusion 360 for Personal Use, the feedrate of)
(rapid moves is reduced to match the feedrate of cutting)
(moves, which can increase machining time. Unrestricted rapid)
(moves are available with a Fusion 360 Subscription.)

(2D Contour19)
G0 X9.7 Y90
G1 Z10 F1000
Z5
Z1 F333.3
Z-4
Y8.7 F1000
X28
Z5
X9.6 Y90
Z1 F333.3
Z-4
Y8.6 F1000
X28
Z5
X9.5 Y90
Z1 F333.3
Z-4
Y8.5 F1000
X28
Z5
X9.4 Y90
Z1 F333.3
Z-4
Y8.4 F1000
X28
Z10
(When using Fusion 360 for Personal Use, the feedrate of)
(rapid moves is reduced to match the feedrate of cutting)
(moves, which can increase machining time. Unrestricted rapid)
(moves are available with a Fusion 360 Subscription.)

(2D Contour18)
G0 X-0.91 Y-1.316
G1 Z10 F1000
Z5
Z2.02 F333.3
Z-1
G2 X-1.6 Y0 I0.91 J1.316 F1000
G1 Y90
G2 X0 Y91.6 I1.6 J0
G1 X10
G2 X11.6 Y90 I0 J-1.6
G1 Y40.2
G2 X10 Y38.6 I-1.6 J0
G1 X28
G2 X29.6 Y37 I0 J-1.6
G1 Y0
G2 X28 Y-1.6 I-1.6 J0
G1 X0
G2 X-0.91 Y-1.316 I0 J1.6
G1 Z-2 F333.3
G2 X-1.6 Y0 I0.91 J1.316 F1000
G1 Y90
G2 X0 Y91.6 I1.6 J0
G1 X10
G2 X11.6 Y90 I0 J-1.6
G1 Y40.2
G2 X10 Y38.6 I-1.6 J0
G1 X28
G2 X29.6 Y37 I0 J-1.6
G1 Y0
G2 X28 Y-1.6 I-1.6 J0
G1 X0
G2 X-0.91 Y-1.316 I0 J1.6
G1 Z-3 F333.3
G2 X-1.6 Y0 I0.91 J1.316 F1000
G1 Y90
G2 X0 Y91.6 I1.6 J0
G1 X10
G2 X11.6 Y90 I0 J-1.6
G1 Y40.2
G2 X10 Y38.6 I-1.6 J0
G1 X28
G2 X29.6 Y37 I0 J-1.6
G1 Y0
G2 X28 Y-1.6 I-1.6 J0
G1 X0
G2 X-0.91 Y-1.316 I0 J1.6
G1 Z-4 F333.3
G2 X-1.6 Y0 I0.91 J1.316 F1000
G1 Y90
G2 X0 Y91.6 I1.6 J0
G1 X10
G2 X11.6 Y90 I0 J-1.6
G1 Y40.2
G2 X10 Y38.6 I-1.6 J0
G1 X28
G2 X29.6 Y37 I0 J-1.6
G1 Y0
G2 X28 Y-1.6 I-1.6 J0
G1 X0
G2 X-0.91 Y-1.316 I0 J1.6
G1 Z-5 F333.3
G2 X-1.6 Y0 I0.91 J1.316 F1000
G1 Y90
G2 X0 Y91.6 I1.6 J0
G1 X10
G2 X11.6 Y90 I0 J-1.6
G1 Y40.2
G2 X10 Y38.6 I-1.6 J0
G1 X28
G2 X29.6 Y37 I0 J-1.6
G1 Y0
G2 X28 Y-1.6 I-1.6 J0
G1 X0
G2 X-0.91 Y-1.316 I0 J1.6
G1 Z-6 F333.3
G2 X-1.6 Y0 I0.91 J1.316 F1000
G1 Y90
G2 X0 Y91.6 I1.6 J0
G1 X10
G2 X11.6 Y90 I0 J-1.6
G1 Y40.2
G2 X10 Y38.6 I-1.6 J0
G1 X28
G2 X29.6 Y37 I0 J-1.6
G1 Y0
G2 X28 Y-1.6 I-1.6 J0
G1 X0
G2 X-0.91 Y-1.316 I0 J1.6
G1 Z-7 F333.3
G2 X-1.6 Y0 I0.91 J1.316 F1000
G1 Y90
G2 X0 Y91.6 I1.6 J0
G1 X10
G2 X11.6 Y90 I0 J-1.6
G1 Y40.2
G2 X10 Y38.6 I-1.6 J0
G1 X28
G2 X29.6 Y37 I0 J-1.6
G1 Y0
G2 X28 Y-1.6 I-1.6 J0
G1 X0
G2 X-0.91 Y-1.316 I0 J1.6
G1 Z-8 F333.3
G2 X-1.6 Y0 I0.91 J1.316 F1000
G1 Y90
G2 X0 Y91.6 I1.6 J0
G1 X10
G2 X11.6 Y90 I0 J-1.6
G1 Y40.2
G2 X10 Y38.6 I-1.6 J0
G1 X28
G2 X29.6 Y37 I0 J-1.6
G1 Y0
G2 X28 Y-1.6 I-1.6 J0
G1 X0
G2 X-0.91 Y-1.316 I0 J1.6
G1 Z-9 F333.3
G2 X-1.6 Y0 I0.91 J1.316 F1000
G1 Y90
G2 X0 Y91.6 I1.6 J0
G1 X10
G2 X11.6 Y90 I0 J-1.6
G1 Y40.2
G2 X10 Y38.6 I-1.6 J0
G1 X28
G2 X29.6 Y37 I0 J-1.6
G1 Y0
G2 X28 Y-1.6 I-1.6 J0
G1 X0
G2 X-0.91 Y-1.316 I0 J1.6
G1 Z-10 F333.3
G2 X-1.6 Y0 I0.91 J1.316 F1000
G1 Y20.406
Z-9.3
Y26.206
Z-10 F333.3
Y73.563 F1000
Z-9.3
Y79.363
Z-10 F333.3
Y90 F1000
G2 X0 Y91.6 I1.6 J0
G1 X10
G2 X11.6 Y90 I0 J-1.6
G1 Y40.2
G2 X10 Y38.6 I-1.6 J0
G1 X28
G2 X29.6 Y37 I0 J-1.6
G1 Y23.233
Z-9.3
Y17.434
Z-10 F333.3
Y0 F1000
G2 X28 Y-1.6 I-1.6 J0
G1 X0
G2 X-0.91 Y-1.316 I0 J1.6
G1 Z-11 F333.3
G2 X-1.6 Y0 I0.91 J1.316 F1000
G1 Y20.406
Z-9.3
Y26.206
Z-11 F333.3
Y73.563 F1000
Z-9.3
Y79.363
Z-11 F333.3
Y90 F1000
G2 X0 Y91.6 I1.6 J0
G1 X10
G2 X11.6 Y90 I0 J-1.6
G1 Y40.2
G2 X10 Y38.6 I-1.6 J0
G1 X28
G2 X29.6 Y37 I0 J-1.6
G1 Y23.233
Z-9.3
Y17.434
Z-11 F333.3
Y0 F1000
G2 X28 Y-1.6 I-1.6 J0
G1 X0
G2 X-0.91 Y-1.316 I0 J1.6
G1 Z-12 F333.3
G2 X-1.6 Y0 I0.91 J1.316 F1000
G1 Y20.406
Z-9.3
Y26.206
Z-12 F333.3
Y73.563 F1000
Z-9.3
Y79.363
Z-12 F333.3
Y90 F1000
G2 X0 Y91.6 I1.6 J0
G1 X10
G2 X11.6 Y90 I0 J-1.6
G1 Y40.2
G2 X10 Y38.6 I-1.6 J0
G1 X28
G2 X29.6 Y37 I0 J-1.6
G1 Y23.233
Z-9.3
Y17.434
Z-12 F333.3
Y0 F1000
G2 X28 Y-1.6 I-1.6 J0
G1 X0
G2 X-0.91 Y-1.316 I0 J1.6
G1 X-0.933 Y-1.292
X-0.944 Y-1.262
X-0.943 Y-1.23
X-0.942 Y-1.198
X-0.952 Y-1.167
X-0.972 Y-1.142
G2 X-1.5 Y0 I0.972 J1.142
G1 Y20.406
Z-9.3
Y26.206
Z-12 F333.3
Y73.563 F1000
Z-9.3
Y79.363
Z-12 F333.3
Y90 F1000
G2 X0 Y91.5 I1.5 J0
G1 X10
G2 X11.5 Y90 I0 J-1.5
G1 Y40.2
G2 X10 Y38.7 I-1.5 J0
G1 X9.9
Y38.5
X28
G2 X29.5 Y37 I0 J-1.5
G1 Y23.233
Z-9.3
Y17.434
Z-12 F333.3
Y0 F1000
G2 X28 Y-1.5 I-1.5 J0
G1 X0
G2 X-0.972 Y-1.142 I0 J1.5
G1 X-0.992 Y-1.117
X-1.001 Y-1.085
X-0.997 Y-1.053
X-0.992 Y-1.021
X-0.999 Y-0.99
X-1.016 Y-0.963
G2 X-1.4 Y0 I1.016 J0.963
G1 Y20.406
Z-9.3
Y26.206
Z-12 F333.3
Y73.563 F1000
Z-9.3
Y79.363
Z-12 F333.3
Y90 F1000
G2 X0 Y91.4 I1.4 J0
G1 X10
G2 X11.4 Y90 I0 J-1.4
G1 Y40.2
G2 X10 Y38.8 I-1.4 J0
G1 X9.8
Y38.4
X28
G2 X29.4 Y37 I0 J-1.4
G1 Y23.233
Z-9.3
Y17.434
Z-12 F333.3
Y0 F1000
G2 X28 Y-1.4 I-1.4 J0
G1 X0
G2 X-1.016 Y-0.963 I0 J1.4
G1 Z10
M5
M30
