(1123_jig_28bit_fixed)
(T1  D=2.8 CR=0 - ZMIN=-12.4 - flat end mill)
G90 G94
G17
G21
(When using Fusion 360 for Personal Use, the feedrate of)
(rapid moves is reduced to match the feedrate of cutting)
(moves, which can increase machining time. Unrestricted rapid)
(moves are available with a Fusion 360 Subscription.)

(2D Pocket3)
T1
S5000 M3
G54
G0 X28.865 Y52.051
Z10
G1 Z5 F1000
Z2 F333.3
Z-1 F1000
Y52.073
Y61.816
G2 X29.184 Y62.135 I0.319 J0
G1 X29.292
G3 X29.492 Y62.334 I0 J0.2
G1 X29.496 Y63.514
G3 X29.296 Y63.715 I-0.2 J0.001
G1 X27.604
G3 X27.285 Y63.396 I0 J-0.319
G1 Y51.704
G2 X27.084 Y51.504 I-0.2 J0
G1 X25.904 Y51.509
G2 X25.705 Y51.709 I0.001 J0.2
G1 Y64.976
G2 X26.024 Y65.295 I0.319 J0
G1 X29.285
G3 X29.485 Y65.494 I0 J0.2
G1 X29.49 Y66.674
G3 X29.29 Y66.875 I-0.2 J0.001
G1 X24.444
G3 X24.125 Y66.556 I0 J-0.319
G1 Y51.714
G2 X23.927 Y51.514 I-0.2 J0
G1 X22.747 Y51.503
G2 X22.545 Y51.703 I-0.002 J0.2
G1 Y68.136
G2 X22.864 Y68.455 I0.319 J0
G1 X29.295
G3 X29.495 Y68.654 I0 J0.2
G1 X29.5 Y69.834
G3 X29.3 Y70.035 I-0.2 J0.001
G1 X21.284
G3 X20.965 Y69.716 I0 J-0.319
G1 Y51.708
G2 X20.764 Y51.508 I-0.2 J0
G1 X19.584 Y51.513
G2 X19.385 Y51.713 I0.001 J0.2
G1 Y71.296
G2 X19.704 Y71.615 I0.319 J0
G1 X29.288
G3 X29.488 Y71.814 I0 J0.2
G1 X29.493 Y72.994
G3 X29.293 Y73.195 I-0.2 J0.001
G1 X18.124
G3 X17.805 Y72.876 I0 J-0.319
G1 Y51.701
G2 X17.604 Y51.501 I-0.2 J0
G1 X16.424 Y51.506
G2 X16.225 Y51.706 I0.001 J0.2
G1 Y74.456
G2 X16.544 Y74.775 I0.319 J0
G1 X29.298
G3 X29.498 Y74.977 I0 J0.2
G1 X29.487 Y76.157
G3 X29.287 Y76.355 I-0.2 J-0.002
G1 X14.964
G3 X14.645 Y76.036 I0 J-0.319
G1 Y51.711
G2 X14.444 Y51.511 I-0.2 J0
G1 X13.264 Y51.516
G2 X13.065 Y51.716 I0.001 J0.2
G1 Y77.616
G2 X13.384 Y77.935 I0.319 J0
G1 X29.292
X29.303
Z2
X30.353
Z-1
X13.384
G3 X13.065 Y77.616 I0 J-0.319
G1 Y50.855
Y-1.057
G2 X12.905 Y-1.253 I-0.2 J0
G1 X11.725 Y-1.492
G2 X11.485 Y-1.296 I-0.04 J0.196
G1 Y79.196
G2 X11.804 Y79.515 I0.319 J0
G1 X29.297
G3 X29.497 Y79.717 I0 J0.2
G1 X29.485 Y80.902
G3 X29.285 Y81.1 I-0.2 J-0.002
G1 X9.9
Y0
Y-1.299
Z5
X28.865 Y52.051
Z1 F333.3
Z-2 F1000
Y52.073
Y61.816
G2 X29.184 Y62.135 I0.319 J0
G1 X29.292
G3 X29.492 Y62.334 I0 J0.2
G1 X29.496 Y63.514
G3 X29.296 Y63.715 I-0.2 J0.001
G1 X27.604
G3 X27.285 Y63.396 I0 J-0.319
G1 Y51.704
G2 X27.084 Y51.504 I-0.2 J0
G1 X25.904 Y51.509
G2 X25.705 Y51.709 I0.001 J0.2
G1 Y64.976
G2 X26.024 Y65.295 I0.319 J0
G1 X29.285
G3 X29.485 Y65.494 I0 J0.2
G1 X29.49 Y66.674
G3 X29.29 Y66.875 I-0.2 J0.001
G1 X24.444
G3 X24.125 Y66.556 I0 J-0.319
G1 Y51.714
G2 X23.927 Y51.514 I-0.2 J0
G1 X22.747 Y51.503
G2 X22.545 Y51.703 I-0.002 J0.2
G1 Y68.136
G2 X22.864 Y68.455 I0.319 J0
G1 X29.295
G3 X29.495 Y68.654 I0 J0.2
G1 X29.5 Y69.834
G3 X29.3 Y70.035 I-0.2 J0.001
G1 X21.284
G3 X20.965 Y69.716 I0 J-0.319
G1 Y51.708
G2 X20.764 Y51.508 I-0.2 J0
G1 X19.584 Y51.513
G2 X19.385 Y51.713 I0.001 J0.2
G1 Y71.296
G2 X19.704 Y71.615 I0.319 J0
G1 X29.288
G3 X29.488 Y71.814 I0 J0.2
G1 X29.493 Y72.994
G3 X29.293 Y73.195 I-0.2 J0.001
G1 X18.124
G3 X17.805 Y72.876 I0 J-0.319
G1 Y51.701
G2 X17.604 Y51.501 I-0.2 J0
G1 X16.424 Y51.506
G2 X16.225 Y51.706 I0.001 J0.2
G1 Y74.456
G2 X16.544 Y74.775 I0.319 J0
G1 X29.298
G3 X29.498 Y74.977 I0 J0.2
G1 X29.487 Y76.157
G3 X29.287 Y76.355 I-0.2 J-0.002
G1 X14.964
G3 X14.645 Y76.036 I0 J-0.319
G1 Y51.711
G2 X14.444 Y51.511 I-0.2 J0
G1 X13.264 Y51.516
G2 X13.065 Y51.716 I0.001 J0.2
G1 Y77.616
G2 X13.384 Y77.935 I0.319 J0
G1 X29.292
X29.303
Z1
X30.353
Z-2
X13.384
G3 X13.065 Y77.616 I0 J-0.319
G1 Y50.855
Y-1.057
G2 X12.905 Y-1.253 I-0.2 J0
G1 X11.725 Y-1.492
G2 X11.485 Y-1.296 I-0.04 J0.196
G1 Y79.196
G2 X11.804 Y79.515 I0.319 J0
G1 X29.297
G3 X29.497 Y79.717 I0 J0.2
G1 X29.485 Y80.902
G3 X29.285 Y81.1 I-0.2 J-0.002
G1 X9.9
Y0
Y-1.299
Z5
X28.865 Y52.051
Z0 F333.3
Z-3 F1000
Y52.073
Y61.816
G2 X29.184 Y62.135 I0.319 J0
G1 X29.292
G3 X29.492 Y62.334 I0 J0.2
G1 X29.496 Y63.514
G3 X29.296 Y63.715 I-0.2 J0.001
G1 X27.604
G3 X27.285 Y63.396 I0 J-0.319
G1 Y51.704
G2 X27.084 Y51.504 I-0.2 J0
G1 X25.904 Y51.509
G2 X25.705 Y51.709 I0.001 J0.2
G1 Y64.976
G2 X26.024 Y65.295 I0.319 J0
G1 X29.285
G3 X29.485 Y65.494 I0 J0.2
G1 X29.49 Y66.674
G3 X29.29 Y66.875 I-0.2 J0.001
G1 X24.444
G3 X24.125 Y66.556 I0 J-0.319
G1 Y51.714
G2 X23.927 Y51.514 I-0.2 J0
G1 X22.747 Y51.503
G2 X22.545 Y51.703 I-0.002 J0.2
G1 Y68.136
G2 X22.864 Y68.455 I0.319 J0
G1 X29.295
G3 X29.495 Y68.654 I0 J0.2
G1 X29.5 Y69.834
G3 X29.3 Y70.035 I-0.2 J0.001
G1 X21.284
G3 X20.965 Y69.716 I0 J-0.319
G1 Y51.708
G2 X20.764 Y51.508 I-0.2 J0
G1 X19.584 Y51.513
G2 X19.385 Y51.713 I0.001 J0.2
G1 Y71.296
G2 X19.704 Y71.615 I0.319 J0
G1 X29.288
G3 X29.488 Y71.814 I0 J0.2
G1 X29.493 Y72.994
G3 X29.293 Y73.195 I-0.2 J0.001
G1 X18.124
G3 X17.805 Y72.876 I0 J-0.319
G1 Y51.701
G2 X17.604 Y51.501 I-0.2 J0
G1 X16.424 Y51.506
G2 X16.225 Y51.706 I0.001 J0.2
G1 Y74.456
G2 X16.544 Y74.775 I0.319 J0
G1 X29.298
G3 X29.498 Y74.977 I0 J0.2
G1 X29.487 Y76.157
G3 X29.287 Y76.355 I-0.2 J-0.002
G1 X14.964
G3 X14.645 Y76.036 I0 J-0.319
G1 Y51.711
G2 X14.444 Y51.511 I-0.2 J0
G1 X13.264 Y51.516
G2 X13.065 Y51.716 I0.001 J0.2
G1 Y77.616
G2 X13.384 Y77.935 I0.319 J0
G1 X29.292
X29.303
Z0
X30.353
Z-3
X13.384
G3 X13.065 Y77.616 I0 J-0.319
G1 Y50.855
Y-1.057
G2 X12.905 Y-1.253 I-0.2 J0
G1 X11.725 Y-1.492
G2 X11.485 Y-1.296 I-0.04 J0.196
G1 Y79.196
G2 X11.804 Y79.515 I0.319 J0
G1 X29.297
G3 X29.497 Y79.717 I0 J0.2
G1 X29.485 Y80.902
G3 X29.285 Y81.1 I-0.2 J-0.002
G1 X9.9
Y0
Y-1.299
Z5
X28.865 Y52.051
Z-1 F333.3
Z-4 F1000
Y52.073
Y61.816
G2 X29.184 Y62.135 I0.319 J0
G1 X29.292
G3 X29.492 Y62.334 I0 J0.2
G1 X29.496 Y63.514
G3 X29.296 Y63.715 I-0.2 J0.001
G1 X27.604
G3 X27.285 Y63.396 I0 J-0.319
G1 Y51.704
G2 X27.084 Y51.504 I-0.2 J0
G1 X25.904 Y51.509
G2 X25.705 Y51.709 I0.001 J0.2
G1 Y64.976
G2 X26.024 Y65.295 I0.319 J0
G1 X29.285
G3 X29.485 Y65.494 I0 J0.2
G1 X29.49 Y66.674
G3 X29.29 Y66.875 I-0.2 J0.001
G1 X24.444
G3 X24.125 Y66.556 I0 J-0.319
G1 Y51.714
G2 X23.927 Y51.514 I-0.2 J0
G1 X22.747 Y51.503
G2 X22.545 Y51.703 I-0.002 J0.2
G1 Y68.136
G2 X22.864 Y68.455 I0.319 J0
G1 X29.295
G3 X29.495 Y68.654 I0 J0.2
G1 X29.5 Y69.834
G3 X29.3 Y70.035 I-0.2 J0.001
G1 X21.284
G3 X20.965 Y69.716 I0 J-0.319
G1 Y51.708
G2 X20.764 Y51.508 I-0.2 J0
G1 X19.584 Y51.513
G2 X19.385 Y51.713 I0.001 J0.2
G1 Y71.296
G2 X19.704 Y71.615 I0.319 J0
G1 X29.288
G3 X29.488 Y71.814 I0 J0.2
G1 X29.493 Y72.994
G3 X29.293 Y73.195 I-0.2 J0.001
G1 X18.124
G3 X17.805 Y72.876 I0 J-0.319
G1 Y51.701
G2 X17.604 Y51.501 I-0.2 J0
G1 X16.424 Y51.506
G2 X16.225 Y51.706 I0.001 J0.2
G1 Y74.456
G2 X16.544 Y74.775 I0.319 J0
G1 X29.298
G3 X29.498 Y74.977 I0 J0.2
G1 X29.487 Y76.157
G3 X29.287 Y76.355 I-0.2 J-0.002
G1 X14.964
G3 X14.645 Y76.036 I0 J-0.319
G1 Y51.711
G2 X14.444 Y51.511 I-0.2 J0
G1 X13.264 Y51.516
G2 X13.065 Y51.716 I0.001 J0.2
G1 Y77.616
G2 X13.384 Y77.935 I0.319 J0
G1 X29.292
X29.303
Z-1
X30.353
Z-4
X13.384
G3 X13.065 Y77.616 I0 J-0.319
G1 Y50.855
Y-1.057
G2 X12.905 Y-1.253 I-0.2 J0
G1 X11.725 Y-1.492
G2 X11.485 Y-1.296 I-0.04 J0.196
G1 Y79.196
G2 X11.804 Y79.515 I0.319 J0
G1 X29.297
G3 X29.497 Y79.717 I0 J0.2
G1 X29.485 Y80.902
G3 X29.285 Y81.1 I-0.2 J-0.002
G1 X9.9
Y0
Y-1.299
Z5
X28.865 Y52.051
Z-2 F333.3
Z-5 F1000
Y52.073
Y61.816
G2 X29.184 Y62.135 I0.319 J0
G1 X29.292
G3 X29.492 Y62.334 I0 J0.2
G1 X29.496 Y63.514
G3 X29.296 Y63.715 I-0.2 J0.001
G1 X27.604
G3 X27.285 Y63.396 I0 J-0.319
G1 Y51.704
G2 X27.084 Y51.504 I-0.2 J0
G1 X25.904 Y51.509
G2 X25.705 Y51.709 I0.001 J0.2
G1 Y64.976
G2 X26.024 Y65.295 I0.319 J0
G1 X29.285
G3 X29.485 Y65.494 I0 J0.2
G1 X29.49 Y66.674
G3 X29.29 Y66.875 I-0.2 J0.001
G1 X24.444
G3 X24.125 Y66.556 I0 J-0.319
G1 Y51.714
G2 X23.927 Y51.514 I-0.2 J0
G1 X22.747 Y51.503
G2 X22.545 Y51.703 I-0.002 J0.2
G1 Y68.136
G2 X22.864 Y68.455 I0.319 J0
G1 X29.295
G3 X29.495 Y68.654 I0 J0.2
G1 X29.5 Y69.834
G3 X29.3 Y70.035 I-0.2 J0.001
G1 X21.284
G3 X20.965 Y69.716 I0 J-0.319
G1 Y51.708
G2 X20.764 Y51.508 I-0.2 J0
G1 X19.584 Y51.513
G2 X19.385 Y51.713 I0.001 J0.2
G1 Y71.296
G2 X19.704 Y71.615 I0.319 J0
G1 X29.288
G3 X29.488 Y71.814 I0 J0.2
G1 X29.493 Y72.994
G3 X29.293 Y73.195 I-0.2 J0.001
G1 X18.124
G3 X17.805 Y72.876 I0 J-0.319
G1 Y51.701
G2 X17.604 Y51.501 I-0.2 J0
G1 X16.424 Y51.506
G2 X16.225 Y51.706 I0.001 J0.2
G1 Y74.456
G2 X16.544 Y74.775 I0.319 J0
G1 X29.298
G3 X29.498 Y74.977 I0 J0.2
G1 X29.487 Y76.157
G3 X29.287 Y76.355 I-0.2 J-0.002
G1 X14.964
G3 X14.645 Y76.036 I0 J-0.319
G1 Y51.711
G2 X14.444 Y51.511 I-0.2 J0
G1 X13.264 Y51.516
G2 X13.065 Y51.716 I0.001 J0.2
G1 Y77.616
G2 X13.384 Y77.935 I0.319 J0
G1 X29.292
X29.303
Z-2
X30.353
Z-5
X13.384
G3 X13.065 Y77.616 I0 J-0.319
G1 Y50.855
Y-1.057
G2 X12.905 Y-1.253 I-0.2 J0
G1 X11.725 Y-1.492
G2 X11.485 Y-1.296 I-0.04 J0.196
G1 Y79.196
G2 X11.804 Y79.515 I0.319 J0
G1 X29.297
G3 X29.497 Y79.717 I0 J0.2
G1 X29.485 Y80.902
G3 X29.285 Y81.1 I-0.2 J-0.002
G1 X9.9
Y0
Y-1.299
Z10
(When using Fusion 360 for Personal Use, the feedrate of)
(rapid moves is reduced to match the feedrate of cutting)
(moves, which can increase machining time. Unrestricted rapid)
(moves are available with a Fusion 360 Subscription.)

(2D Contour19)
G0 X28 Y81.3
G1 Z10 F1000
Z5
Z1 F333.3
Z-5
X9.7 F1000
Y0
Z5
X28 Y81.4
Z1 F333.3
Z-5
X9.6 F1000
Y0
Z5
X28 Y81.5
Z1 F333.3
Z-5
X9.5 F1000
Y0
Z5
X28 Y81.6
Z1 F333.3
Z-5
X9.4 F1000
Y0
Z10
(When using Fusion 360 for Personal Use, the feedrate of)
(rapid moves is reduced to match the feedrate of cutting)
(moves, which can increase machining time. Unrestricted rapid)
(moves are available with a Fusion 360 Subscription.)

(2D Contour18)
G0 X-0.91 Y-1.316
G1 Z10 F1000
Z5
Z2.02 F333.3
Z-0.954
G2 X-1.6 Y0 I0.91 J1.316 F1000
G1 Y90
G2 X0 Y91.6 I1.6 J0
G1 X28
G2 X29.6 Y90 I0 J-1.6
G1 Y53
G2 X28 Y51.4 I-1.6 J0
G1 X12.5
G2 X14.1 Y49.8 I0 J-1.6
G1 Y0
G2 X12.5 Y-1.6 I-1.6 J0
G1 X0
G2 X-0.91 Y-1.316 I0 J1.6
G1 Z-1.908 F333.3
G2 X-1.6 Y0 I0.91 J1.316 F1000
G1 Y90
G2 X0 Y91.6 I1.6 J0
G1 X28
G2 X29.6 Y90 I0 J-1.6
G1 Y53
G2 X28 Y51.4 I-1.6 J0
G1 X12.5
G2 X14.1 Y49.8 I0 J-1.6
G1 Y0
G2 X12.5 Y-1.6 I-1.6 J0
G1 X0
G2 X-0.91 Y-1.316 I0 J1.6
G1 Z-2.862 F333.3
G2 X-1.6 Y0 I0.91 J1.316 F1000
G1 Y90
G2 X0 Y91.6 I1.6 J0
G1 X28
G2 X29.6 Y90 I0 J-1.6
G1 Y53
G2 X28 Y51.4 I-1.6 J0
G1 X12.5
G2 X14.1 Y49.8 I0 J-1.6
G1 Y0
G2 X12.5 Y-1.6 I-1.6 J0
G1 X0
G2 X-0.91 Y-1.316 I0 J1.6
G1 Z-3.815 F333.3
G2 X-1.6 Y0 I0.91 J1.316 F1000
G1 Y90
G2 X0 Y91.6 I1.6 J0
G1 X28
G2 X29.6 Y90 I0 J-1.6
G1 Y53
G2 X28 Y51.4 I-1.6 J0
G1 X12.5
G2 X14.1 Y49.8 I0 J-1.6
G1 Y0
G2 X12.5 Y-1.6 I-1.6 J0
G1 X0
G2 X-0.91 Y-1.316 I0 J1.6
G1 Z-4.769 F333.3
G2 X-1.6 Y0 I0.91 J1.316 F1000
G1 Y90
G2 X0 Y91.6 I1.6 J0
G1 X28
G2 X29.6 Y90 I0 J-1.6
G1 Y53
G2 X28 Y51.4 I-1.6 J0
G1 X12.5
G2 X14.1 Y49.8 I0 J-1.6
G1 Y0
G2 X12.5 Y-1.6 I-1.6 J0
G1 X0
G2 X-0.91 Y-1.316 I0 J1.6
G1 Z-5.723 F333.3
G2 X-1.6 Y0 I0.91 J1.316 F1000
G1 Y90
G2 X0 Y91.6 I1.6 J0
G1 X28
G2 X29.6 Y90 I0 J-1.6
G1 Y53
G2 X28 Y51.4 I-1.6 J0
G1 X12.5
G2 X14.1 Y49.8 I0 J-1.6
G1 Y0
G2 X12.5 Y-1.6 I-1.6 J0
G1 X0
G2 X-0.91 Y-1.316 I0 J1.6
G1 Z-6.677 F333.3
G2 X-1.6 Y0 I0.91 J1.316 F1000
G1 Y90
G2 X0 Y91.6 I1.6 J0
G1 X28
G2 X29.6 Y90 I0 J-1.6
G1 Y53
G2 X28 Y51.4 I-1.6 J0
G1 X12.5
G2 X14.1 Y49.8 I0 J-1.6
G1 Y0
G2 X12.5 Y-1.6 I-1.6 J0
G1 X0
G2 X-0.91 Y-1.316 I0 J1.6
G1 Z-7.631 F333.3
G2 X-1.6 Y0 I0.91 J1.316 F1000
G1 Y90
G2 X0 Y91.6 I1.6 J0
G1 X28
G2 X29.6 Y90 I0 J-1.6
G1 Y53
G2 X28 Y51.4 I-1.6 J0
G1 X12.5
G2 X14.1 Y49.8 I0 J-1.6
G1 Y0
G2 X12.5 Y-1.6 I-1.6 J0
G1 X0
G2 X-0.91 Y-1.316 I0 J1.6
G1 Z-8.585 F333.3
G2 X-1.6 Y0 I0.91 J1.316 F1000
G1 Y90
G2 X0 Y91.6 I1.6 J0
G1 X28
G2 X29.6 Y90 I0 J-1.6
G1 Y53
G2 X28 Y51.4 I-1.6 J0
G1 X12.5
G2 X14.1 Y49.8 I0 J-1.6
G1 Y0
G2 X12.5 Y-1.6 I-1.6 J0
G1 X0
G2 X-0.91 Y-1.316 I0 J1.6
G1 Z-9.538 F333.3
G2 X-1.6 Y0 I0.91 J1.316 F1000
G1 Y90
G2 X0 Y91.6 I1.6 J0
G1 X28
G2 X29.6 Y90 I0 J-1.6
G1 Y53
G2 X28 Y51.4 I-1.6 J0
G1 X12.5
G2 X14.1 Y49.8 I0 J-1.6
G1 Y0
G2 X12.5 Y-1.6 I-1.6 J0
G1 X0
G2 X-0.91 Y-1.316 I0 J1.6
G1 Z-10.492 F333.3
G2 X-1.6 Y0 I0.91 J1.316 F1000
G1 Y20.406
Z-9.7
Y26.206
Z-10.492 F333.3
Y73.563 F1000
Z-9.7
Y79.363
Z-10.492 F333.3
Y90 F1000
G2 X0 Y91.6 I1.6 J0
G1 X28
G2 X29.6 Y90 I0 J-1.6
G1 Y76.233
Z-9.7
Y70.434
Z-10.492 F333.3
Y53 F1000
G2 X28 Y51.4 I-1.6 J0
G1 X12.5
G2 X14.1 Y49.8 I0 J-1.6
G1 Y0
G2 X12.5 Y-1.6 I-1.6 J0
G1 X0
G2 X-0.91 Y-1.316 I0 J1.6
G1 Z-11.446 F333.3
G2 X-1.6 Y0 I0.91 J1.316 F1000
G1 Y20.406
Z-9.7
Y26.206
Z-11.446 F333.3
Y73.563 F1000
Z-9.7
Y79.363
Z-11.446 F333.3
Y90 F1000
G2 X0 Y91.6 I1.6 J0
G1 X28
G2 X29.6 Y90 I0 J-1.6
G1 Y76.233
Z-9.7
Y70.434
Z-11.446 F333.3
Y53 F1000
G2 X28 Y51.4 I-1.6 J0
G1 X12.5
G2 X14.1 Y49.8 I0 J-1.6
G1 Y0
G2 X12.5 Y-1.6 I-1.6 J0
G1 X0
G2 X-0.91 Y-1.316 I0 J1.6
G1 Z-12.4 F333.3
G2 X-1.6 Y0 I0.91 J1.316 F1000
G1 Y20.406
Z-9.7
Y26.206
Z-12.4 F333.3
Y73.563 F1000
Z-9.7
Y79.363
Z-12.4 F333.3
Y90 F1000
G2 X0 Y91.6 I1.6 J0
G1 X28
G2 X29.6 Y90 I0 J-1.6
G1 Y76.233
Z-9.7
Y70.434
Z-12.4 F333.3
Y53 F1000
G2 X28 Y51.4 I-1.6 J0
G1 X12.5
G2 X14.1 Y49.8 I0 J-1.6
G1 Y0
G2 X12.5 Y-1.6 I-1.6 J0
G1 X0
G2 X-0.91 Y-1.316 I0 J1.6
G1 X-0.933 Y-1.292
X-0.944 Y-1.262
X-0.943 Y-1.23
X-0.942 Y-1.198
X-0.952 Y-1.167
X-0.972 Y-1.142
G2 X-1.5 Y0 I0.972 J1.142
G1 Y20.406
Z-9.7
Y26.206
Z-12.4 F333.3
Y73.563 F1000
Z-9.7
Y79.363
Z-12.4 F333.3
Y90 F1000
G2 X0 Y91.5 I1.5 J0
G1 X28
G2 X29.5 Y90 I0 J-1.5
G1 Y76.233
Z-9.7
Y70.434
Z-12.4 F333.3
Y53 F1000
G2 X28 Y51.5 I-1.5 J0
G1 X12.4
Y51.3
X12.5
G2 X14 Y49.8 I0 J-1.5
G1 Y0
G2 X12.5 Y-1.5 I-1.5 J0
G1 X0
G2 X-0.972 Y-1.142 I0 J1.5
G1 X-0.992 Y-1.117
X-1.001 Y-1.085
X-0.997 Y-1.053
X-0.992 Y-1.021
X-0.999 Y-0.99
X-1.016 Y-0.963
G2 X-1.4 Y0 I1.016 J0.963
G1 Y20.406
Z-9.7
Y26.206
Z-12.4 F333.3
Y73.563 F1000
Z-9.7
Y79.363
Z-12.4 F333.3
Y90 F1000
G2 X0 Y91.4 I1.4 J0
G1 X28
G2 X29.4 Y90 I0 J-1.4
G1 Y76.233
Z-9.7
Y70.434
Z-12.4 F333.3
Y53 F1000
G2 X28 Y51.6 I-1.4 J0
G1 X12.3
Y51.2
X12.5
G2 X13.9 Y49.8 I0 J-1.4
G1 Y0
G2 X12.5 Y-1.4 I-1.4 J0
G1 X0
G2 X-1.016 Y-0.963 I0 J1.4
G1 Z10
M5
M30
