(1124_jig_28bit_to_corner_425_ledge)
(T1  D=2.8 CR=0 - ZMIN=-12.4 - flat end mill)
G90 G94
G17
G21
(When using Fusion 360 for Personal Use, the feedrate of)
(rapid moves is reduced to match the feedrate of cutting)
(moves, which can increase machining time. Unrestricted rapid)
(moves are available with a Fusion 360 Subscription.)

(2D Pocket3)
T1
S5000 M3
G54
G0 X13.065 Y-0.969
Z10
G1 Z5 F1000
Z2 F333.3
Z-1 F1000
Y-0.947
Y38.511
Y39.453
Y39.616
G2 X13.384 Y39.935 I0.319 J0
G1 X50.955
X51.006 Y39.942
X51.054 Y39.961
X51.095 Y39.993
X51.127 Y40.034
X51.148 Y40.081
X51.477 Y41.261
G3 X51.285 Y41.515 I-0.193 J0.054
G1 X11.804
G3 X11.485 Y41.196 I0 J-0.319
G1 Y-1.299
G2 X11.285 Y-1.499 I-0.2 J0
G1 X10.1
G2 X9.9 Y-1.299 I0 J0.2
G1 Y43.1
X50
X51.289
Z5
X50.966 Y39.935
Z1 F333.3
Z-2 F1000
X50.955
X13.384
G3 X13.065 Y39.616 I0 J-0.319
G1 Y39.453
Y38.511
Y-0.947
X13.058 Y-0.997
X13.039 Y-1.045
X13.009 Y-1.086
X12.969 Y-1.118
X12.922 Y-1.138
X11.742 Y-1.491
G2 X11.485 Y-1.299 I-0.057 J0.192
G1 Y41.196
G2 X11.804 Y41.515 I0.319 J0
G1 X51.285
G3 X51.485 Y41.714 I0 J0.2
G1 X51.489 Y42.899
G3 X51.289 Y43.1 I-0.2 J0.001
G1 X9.9
Y0
Y-1.299
Z5
X13.065 Y-0.969
Z0 F333.3
Z-3 F1000
Y-0.947
Y38.511
Y39.453
Y39.616
G2 X13.384 Y39.935 I0.319 J0
G1 X50.955
X51.006 Y39.942
X51.054 Y39.961
X51.095 Y39.993
X51.127 Y40.034
X51.148 Y40.081
X51.477 Y41.261
G3 X51.285 Y41.515 I-0.193 J0.054
G1 X11.804
G3 X11.485 Y41.196 I0 J-0.319
G1 Y-1.299
G2 X11.285 Y-1.499 I-0.2 J0
G1 X10.1
G2 X9.9 Y-1.299 I0 J0.2
G1 Y43.1
X50
X51.289
Z5
X50.966 Y39.935
Z-1 F333.3
Z-4 F1000
X50.955
X13.384
G3 X13.065 Y39.616 I0 J-0.319
G1 Y39.453
Y38.511
Y-0.947
X13.058 Y-0.997
X13.039 Y-1.045
X13.009 Y-1.086
X12.969 Y-1.118
X12.922 Y-1.138
X11.742 Y-1.491
G2 X11.485 Y-1.299 I-0.057 J0.192
G1 Y41.196
G2 X11.804 Y41.515 I0.319 J0
G1 X51.285
G3 X51.485 Y41.714 I0 J0.2
G1 X51.489 Y42.899
G3 X51.289 Y43.1 I-0.2 J0.001
G1 X9.9
Y0
Y-1.299
Z5
X13.065 Y-0.969
Z-2 F333.3
Z-5 F1000
Y-0.947
Y38.511
Y39.453
Y39.616
G2 X13.384 Y39.935 I0.319 J0
G1 X50.955
X51.006 Y39.942
X51.054 Y39.961
X51.095 Y39.993
X51.127 Y40.034
X51.148 Y40.081
X51.477 Y41.261
G3 X51.285 Y41.515 I-0.193 J0.054
G1 X11.804
G3 X11.485 Y41.196 I0 J-0.319
G1 Y-1.299
G2 X11.285 Y-1.499 I-0.2 J0
G1 X10.1
G2 X9.9 Y-1.299 I0 J0.2
G1 Y43.1
X50
X51.289
Z10
(When using Fusion 360 for Personal Use, the feedrate of)
(rapid moves is reduced to match the feedrate of cutting)
(moves, which can increase machining time. Unrestricted rapid)
(moves are available with a Fusion 360 Subscription.)

(2D Contour19)
G0 X50 Y43.3
G1 Z10 F1000
Z5
Z1 F333.3
Z-5
X9.7 F1000
Y0
Z5
X50 Y43.4
Z1 F333.3
Z-5
X9.6 F1000
Y0
Z5
X50 Y43.5
Z1 F333.3
Z-5
X9.5 F1000
Y0
Z5
X50 Y43.6
Z1 F333.3
Z-5
X9.4 F1000
Y0
Z10
(When using Fusion 360 for Personal Use, the feedrate of)
(rapid moves is reduced to match the feedrate of cutting)
(moves, which can increase machining time. Unrestricted rapid)
(moves are available with a Fusion 360 Subscription.)

(2D Contour18)
G0 X-0.858 Y-1.35
G1 Z10 F1000
Z5
Z2.02 F333.3
Z-0.954
G2 X-1.6 Y0 I0.858 J1.35 F1000
G1 Y60
G2 X0 Y61.6 I1.6 J0
G1 X50
G2 X51.6 Y60 I0 J-1.6
G1 Y40.75
G2 X50 Y39.15 I-1.6 J0
G1 X12.25
G2 X13.85 Y37.55 I0 J-1.6
G1 Y0
G2 X12.25 Y-1.6 I-1.6 J0
G1 X0
G2 X-0.858 Y-1.35 I0 J1.6
G1 Z-1.908 F333.3
G2 X-1.6 Y0 I0.858 J1.35 F1000
G1 Y60
G2 X0 Y61.6 I1.6 J0
G1 X50
G2 X51.6 Y60 I0 J-1.6
G1 Y40.75
G2 X50 Y39.15 I-1.6 J0
G1 X12.25
G2 X13.85 Y37.55 I0 J-1.6
G1 Y0
G2 X12.25 Y-1.6 I-1.6 J0
G1 X0
G2 X-0.858 Y-1.35 I0 J1.6
G1 Z-2.862 F333.3
G2 X-1.6 Y0 I0.858 J1.35 F1000
G1 Y60
G2 X0 Y61.6 I1.6 J0
G1 X50
G2 X51.6 Y60 I0 J-1.6
G1 Y40.75
G2 X50 Y39.15 I-1.6 J0
G1 X12.25
G2 X13.85 Y37.55 I0 J-1.6
G1 Y0
G2 X12.25 Y-1.6 I-1.6 J0
G1 X0
G2 X-0.858 Y-1.35 I0 J1.6
G1 Z-3.815 F333.3
G2 X-1.6 Y0 I0.858 J1.35 F1000
G1 Y60
G2 X0 Y61.6 I1.6 J0
G1 X50
G2 X51.6 Y60 I0 J-1.6
G1 Y40.75
G2 X50 Y39.15 I-1.6 J0
G1 X12.25
G2 X13.85 Y37.55 I0 J-1.6
G1 Y0
G2 X12.25 Y-1.6 I-1.6 J0
G1 X0
G2 X-0.858 Y-1.35 I0 J1.6
G1 Z-4.769 F333.3
G2 X-1.6 Y0 I0.858 J1.35 F1000
G1 Y60
G2 X0 Y61.6 I1.6 J0
G1 X50
G2 X51.6 Y60 I0 J-1.6
G1 Y40.75
G2 X50 Y39.15 I-1.6 J0
G1 X12.25
G2 X13.85 Y37.55 I0 J-1.6
G1 Y0
G2 X12.25 Y-1.6 I-1.6 J0
G1 X0
G2 X-0.858 Y-1.35 I0 J1.6
G1 Z-5.723 F333.3
G2 X-1.6 Y0 I0.858 J1.35 F1000
G1 Y60
G2 X0 Y61.6 I1.6 J0
G1 X50
G2 X51.6 Y60 I0 J-1.6
G1 Y40.75
G2 X50 Y39.15 I-1.6 J0
G1 X12.25
G2 X13.85 Y37.55 I0 J-1.6
G1 Y0
G2 X12.25 Y-1.6 I-1.6 J0
G1 X0
G2 X-0.858 Y-1.35 I0 J1.6
G1 Z-6.677 F333.3
G2 X-1.6 Y0 I0.858 J1.35 F1000
G1 Y60
G2 X0 Y61.6 I1.6 J0
G1 X50
G2 X51.6 Y60 I0 J-1.6
G1 Y40.75
G2 X50 Y39.15 I-1.6 J0
G1 X12.25
G2 X13.85 Y37.55 I0 J-1.6
G1 Y0
G2 X12.25 Y-1.6 I-1.6 J0
G1 X0
G2 X-0.858 Y-1.35 I0 J1.6
G1 Z-7.631 F333.3
G2 X-1.6 Y0 I0.858 J1.35 F1000
G1 Y60
G2 X0 Y61.6 I1.6 J0
G1 X50
G2 X51.6 Y60 I0 J-1.6
G1 Y40.75
G2 X50 Y39.15 I-1.6 J0
G1 X12.25
G2 X13.85 Y37.55 I0 J-1.6
G1 Y0
G2 X12.25 Y-1.6 I-1.6 J0
G1 X0
G2 X-0.858 Y-1.35 I0 J1.6
G1 Z-8.585 F333.3
G2 X-1.6 Y0 I0.858 J1.35 F1000
G1 Y60
G2 X0 Y61.6 I1.6 J0
G1 X50
G2 X51.6 Y60 I0 J-1.6
G1 Y40.75
G2 X50 Y39.15 I-1.6 J0
G1 X12.25
G2 X13.85 Y37.55 I0 J-1.6
G1 Y0
G2 X12.25 Y-1.6 I-1.6 J0
G1 X0
G2 X-0.858 Y-1.35 I0 J1.6
G1 Z-9.538 F333.3
G2 X-1.6 Y0 I0.858 J1.35 F1000
G1 Y60
G2 X0 Y61.6 I1.6 J0
G1 X50
G2 X51.6 Y60 I0 J-1.6
G1 Y40.75
G2 X50 Y39.15 I-1.6 J0
G1 X12.25
G2 X13.85 Y37.55 I0 J-1.6
G1 Y0
G2 X12.25 Y-1.6 I-1.6 J0
G1 X0
G2 X-0.858 Y-1.35 I0 J1.6
G1 Z-10.492 F333.3
G2 X-1.6 Y0 I0.858 J1.35 F1000
G1 Y24.867
Z-9.7
Y30.667
Z-10.492 F333.3
Y60 F1000
G2 X0 Y61.6 I1.6 J0
G1 X21.652
Z-9.7
X27.451
Z-10.492 F333.3
X50 F1000
G2 X51.6 Y60 I0 J-1.6
G1 Y52.897
Z-9.7
Y47.097
Z-10.492 F333.3
Y40.75 F1000
G2 X50 Y39.15 I-1.6 J0
G1 X12.25
G2 X13.85 Y37.55 I0 J-1.6
G1 Y0
G2 X12.25 Y-1.6 I-1.6 J0
G1 X0
G2 X-0.858 Y-1.35 I0 J1.6
G1 Z-11.446 F333.3
G2 X-1.6 Y0 I0.858 J1.35 F1000
G1 Y24.867
Z-9.7
Y30.667
Z-11.446 F333.3
Y60 F1000
G2 X0 Y61.6 I1.6 J0
G1 X21.652
Z-9.7
X27.451
Z-11.446 F333.3
X50 F1000
G2 X51.6 Y60 I0 J-1.6
G1 Y52.897
Z-9.7
Y47.097
Z-11.446 F333.3
Y40.75 F1000
G2 X50 Y39.15 I-1.6 J0
G1 X12.25
G2 X13.85 Y37.55 I0 J-1.6
G1 Y0
G2 X12.25 Y-1.6 I-1.6 J0
G1 X0
G2 X-0.858 Y-1.35 I0 J1.6
G1 Z-12.4 F333.3
G2 X-1.6 Y0 I0.858 J1.35 F1000
G1 Y24.867
Z-9.7
Y30.667
Z-12.4 F333.3
Y60 F1000
G2 X0 Y61.6 I1.6 J0
G1 X21.652
Z-9.7
X27.451
Z-12.4 F333.3
X50 F1000
G2 X51.6 Y60 I0 J-1.6
G1 Y52.897
Z-9.7
Y47.097
Z-12.4 F333.3
Y40.75 F1000
G2 X50 Y39.15 I-1.6 J0
G1 X12.25
G2 X13.85 Y37.55 I0 J-1.6
G1 Y0
G2 X12.25 Y-1.6 I-1.6 J0
G1 X0
G2 X-0.858 Y-1.35 I0 J1.6
G1 X-0.882 Y-1.328
X-0.894 Y-1.298
X-0.895 Y-1.266
X-0.894 Y-1.234
X-0.906 Y-1.203
X-0.927 Y-1.179
G2 X-1.5 Y0 I0.927 J1.179
G1 Y24.867
Z-9.7
Y30.667
Z-12.4 F333.3
Y60 F1000
G2 X0 Y61.5 I1.5 J0
G1 X21.652
Z-9.7
X27.451
Z-12.4 F333.3
X50 F1000
G2 X51.5 Y60 I0 J-1.5
G1 Y52.897
Z-9.7
Y47.097
Z-12.4 F333.3
Y40.75 F1000
G2 X50 Y39.25 I-1.5 J0
G1 X12.15
Y39.05
X12.25
G2 X13.75 Y37.55 I0 J-1.5
G1 Y0
G2 X12.25 Y-1.5 I-1.5 J0
G1 X0
G2 X-0.927 Y-1.179 I0 J1.5
G1 X-0.948 Y-1.155
X-0.958 Y-1.124
X-0.955 Y-1.091
X-0.951 Y-1.059
X-0.959 Y-1.028
X-0.978 Y-1.002
G2 X-1.4 Y0 I0.978 J1.002
G1 Y24.867
Z-9.7
Y30.667
Z-12.4 F333.3
Y60 F1000
G2 X0 Y61.4 I1.4 J0
G1 X21.652
Z-9.7
X27.451
Z-12.4 F333.3
X50 F1000
G2 X51.4 Y60 I0 J-1.4
G1 Y52.897
Z-9.7
Y47.097
Z-12.4 F333.3
Y40.75 F1000
G2 X50 Y39.35 I-1.4 J0
G1 X12.05
Y38.95
X12.25
G2 X13.65 Y37.55 I0 J-1.4
G1 Y0
G2 X12.25 Y-1.4 I-1.4 J0
G1 X0
G2 X-0.978 Y-1.002 I0 J1.4
G1 Z10
M5
M30
