%
(1003)
(wall_tester)
(Machine)
(  vendor: Autodesk)
(  model: Generic 3-axis)
(  description: This machine has XYZ axis on the Head)
(T1 D=2 CR=0 - ZMIN=-1 - flat end mill)
N10 G90 G94  (absolute prog, feed is per minute)
N15 G17   (XY plane for arcs)
N20 G21   (mm)
(When using Fusion 360 for Personal Use, the feedrate of)
(rapid moves is reduced to match the feedrate of cutting)
(moves, which can increase machining time. Unrestricted rapid)
(moves are available with a Fusion 360 Subscription.)
N25 G28 G91 Z0  (return to home, incremental 0?)
N30 G90 (absolute prog)

(2D Contour2)
N35 T1 M6  (tool select)
N40 S5000 M3  (speed, spindle on)
N45 G54   (set to default saved origin)
N50 G0 X-1.6 Y-1.2
N55 G43 Z25 H1 (tool offset)
N60 G1 Z15 F1000
N65 Z13 F333.3
N70 Z8.2
N75 G18 G2 X-1.4 Z8 I0.2 F1000
N80 G1 X-1.2
N85 G17 G3 X-1 Y-1 J0.2
N90 G1 Y81
N95 X26
N100 Y41.1
N105 X23.9
N110 Y41
N115 X36.1
N120 Y41.1
N125 X35
N130 X34
N135 Y81
N140 X61
N145 Y-1
N150 X-1
N155 G3 X-1.2 Y-1.2 J-0.2
N160 G1 Y-1.4
N165 G19 G2 Y-1.6 Z8.2 K0.2
N170 G1 Z15
N175 X-1.6 Y-1.2
N180 Z11 F333.3
N185 Z6.2
N190 G18 G2 X-1.4 Z6 I0.2 F1000
N195 G1 X-1.2
N200 G17 G3 X-1 Y-1 J0.2
N205 G1 Y81
N210 X26
N215 Y41.1
N220 X23.9
N225 Y41
N230 X36.1
N235 Y41.1
N240 X35
N245 X34
N250 Y81
N255 X61
N260 Y-1
N265 X-1
N270 G3 X-1.2 Y-1.2 J-0.2
N275 G1 Y-1.4
N280 G19 G2 Y-1.6 Z6.2 K0.2
N285 G1 Z15
N290 X-1.6 Y-1.2
N295 Z9 F333.3
N300 Z4.2
N305 G18 G2 X-1.4 Z4 I0.2 F1000
N310 G1 X-1.2
N315 G17 G3 X-1 Y-1 J0.2
N320 G1 Y81
N325 X26
N330 Y41.1
N335 X23.9
N340 Y41
N345 X36.1
N350 Y41.1
N355 X35
N360 X34
N365 Y81
N370 X61
N375 Y-1
N380 X-1
N385 G3 X-1.2 Y-1.2 J-0.2
N390 G1 Y-1.4
N395 G19 G2 Y-1.6 Z4.2 K0.2
N400 G1 Z15
N405 X-1.6 Y-1.2
N410 Z7 F333.3
N415 Z2.2
N420 G18 G2 X-1.4 Z2 I0.2 F1000
N425 G1 X-1.2
N430 G17 G3 X-1 Y-1 J0.2
N435 G1 Y81
N440 X26
N445 Y41.1
N450 X23.9
N455 Y41
N460 X36.1
N465 Y41.1
N470 X35
N475 X34
N480 Y81
N485 X61
N490 Y-1
N495 X-1
N500 G3 X-1.2 Y-1.2 J-0.2
N505 G1 Y-1.4
N510 G19 G2 Y-1.6 Z2.2 K0.2
N515 G1 Z15
N520 X-1.6 Y-1.2
N525 Z5 F333.3
N530 Z0.2
N535 G18 G2 X-1.4 Z0 I0.2 F1000
N540 G1 X-1.2
N545 G17 G3 X-1 Y-1 J0.2
N550 G1 Y18
N555 Z0.5
N560 Y22
N565 Z0 F333.3
N570 Y58 F1000
N575 Z0.5
N580 Y62
N585 Z0 F333.3
N590 Y81 F1000
N595 X26
N600 Y41.1
N605 X23.9
N610 Y41
N615 X36.1
N620 Y41.1
N625 X34
N630 Y81
N635 X61
N640 Y62
N645 Z0.5
N650 Y58
N655 Z0 F333.3
N660 Y22 F1000
N665 Z0.5
N670 Y18
N675 Z0 F333.3
N680 Y-1 F1000
N685 X32
N690 Z0.5
N695 X28
N700 Z0 F333.3
N705 X-1 F1000
N710 G3 X-1.2 Y-1.2 J-0.2
N715 G1 Y-1.4
N720 G19 G2 Y-1.6 Z0.2 K0.2
N725 G1 Z15
N730 X-1.6 Y-1.2
N735 Z3 F333.3
N740 Z-0.8
N745 G18 G2 X-1.4 Z-1 I0.2 F1000
N750 G1 X-1.2
N755 G17 G3 X-1 Y-1 J0.2
N760 G1 Y18
N765 Z0.5
N770 Y22
N775 Z-1 F333.3
N780 Y58 F1000
N785 Z0.5
N790 Y62
N795 Z-1 F333.3
N800 Y81 F1000
N805 X26
N810 Y41.1
N815 X23.9
N820 Y41
N825 X36.1
N830 Y41.1
N835 X34
N840 Y81
N845 X61
N850 Y62
N855 Z0.5
N860 Y58
N865 Z-1 F333.3
N870 Y22 F1000
N875 Z0.5
N880 Y18
N885 Z-1 F333.3
N890 Y-1 F1000
N895 X32
N900 Z0.5
N905 X28
N910 Z-1 F333.3
N915 X-1 F1000
N920 G3 X-1.2 Y-1.2 J-0.2
N925 G1 Y-1.4
N930 G19 G2 Y-1.6 Z-0.8 K0.2
N935 G1 Z25
N940 G17
N945 G28 G91 Z0
N950 G90
N955 G49
N960 G28 G91 X0 Y0
N965 G90
N970 M30
%
