(1005)
(T1  D=2 CR=0 - ZMIN=-6.25 - flat end mill)
G90 G94
G17
G21
(When using Fusion 360 for Personal Use, the feedrate of)
(rapid moves is reduced to match the feedrate of cutting)
(moves, which can increase machining time. Unrestricted rapid)
(moves are available with a Fusion 360 Subscription.)

(2D Contour3)
S5000 M3
G54
M8
G0 X0.2 Y-1.6
Z10
G1 Z-0.8 F333.3
G19 G3 Y-1.4 Z-1 J0.2 K0 F1000
G1 Y-1.2
G17 G3 X0 Y-1 I-0.2 J0
G2 X-1 Y0 I0 J1
G1 Y40
G2 X0 Y41 I1 J0
G1 X40
G2 X41 Y40 I0 J-1
G1 Y0
G2 X40 Y-1 I-1 J0
G1 X0
G3 X-0.2 Y-1.2 I0 J-0.2
G1 Y-1.4
G19 G2 Y-1.6 Z-0.8 J0 K0.2
G1 Z10
X0.2
Z9
Z-1.8 F333.3
G3 Y-1.4 Z-2 J0.2 K0 F1000
G1 Y-1.2
G17 G3 X0 Y-1 I-0.2 J0
G2 X-1 Y0 I0 J1
G1 Y40
G2 X0 Y41 I1 J0
G1 X40
G2 X41 Y40 I0 J-1
G1 Y0
G2 X40 Y-1 I-1 J0
G1 X0
G3 X-0.2 Y-1.2 I0 J-0.2
G1 Y-1.4
G19 G2 Y-1.6 Z-1.8 J0 K0.2
G1 Z10
X0.2
Z8
Z-2.8 F333.3
G3 Y-1.4 Z-3 J0.2 K0 F1000
G1 Y-1.2
G17 G3 X0 Y-1 I-0.2 J0
G2 X-1 Y0 I0 J1
G1 Y40
G2 X0 Y41 I1 J0
G1 X40
G2 X41 Y40 I0 J-1
G1 Y0
G2 X40 Y-1 I-1 J0
G1 X0
G3 X-0.2 Y-1.2 I0 J-0.2
G1 Y-1.4
G19 G2 Y-1.6 Z-2.8 J0 K0.2
G1 Z10
X0.2
Z7
Z-3.8 F333.3
G3 Y-1.4 Z-4 J0.2 K0 F1000
G1 Y-1.2
G17 G3 X0 Y-1 I-0.2 J0
G2 X-1 Y0 I0 J1
G1 Y40
G2 X0 Y41 I1 J0
G1 X40
G2 X41 Y40 I0 J-1
G1 Y0
G2 X40 Y-1 I-1 J0
G1 X0
G3 X-0.2 Y-1.2 I0 J-0.2
G1 Y-1.4
G19 G2 Y-1.6 Z-3.8 J0 K0.2
G1 Z10
X0.2
Z6
Z-4.8 F333.3
G3 Y-1.4 Z-5 J0.2 K0 F1000
G1 Y-1.2
G17 G3 X0 Y-1 I-0.2 J0
G2 X-1 Y0 I0 J1
G1 Y40
G2 X0 Y41 I1 J0
G1 X40
G2 X41 Y40 I0 J-1
G1 Y0
G2 X40 Y-1 I-1 J0
G1 X0
G3 X-0.2 Y-1.2 I0 J-0.2
G1 Y-1.4
G19 G2 Y-1.6 Z-4.8 J0 K0.2
G1 Z10
X0.2
Z5
Z-5.8 F333.3
G3 Y-1.4 Z-6 J0.2 K0 F1000
G1 Y-1.2
G17 G3 X0 Y-1 I-0.2 J0
G2 X-1 Y0 I0 J1
G1 Y40
G2 X0 Y41 I1 J0
G1 X40
G2 X41 Y40 I0 J-1
G1 Y0
G2 X40 Y-1 I-1 J0
G1 X0
G3 X-0.2 Y-1.2 I0 J-0.2
G1 Y-1.4
G19 G2 Y-1.6 Z-5.8 J0 K0.2
G1 Z10
X0.2
Z5
Z4 F333.3
Z-6.05
G3 Y-1.4 Z-6.25 J0.2 K0 F1000
G1 Y-1.2
G17 G3 X0 Y-1 I-0.2 J0
G2 X-1 Y0 I0 J1
G1 Y40
G2 X0 Y41 I1 J0
G1 X40
G2 X41 Y40 I0 J-1
G1 Y0
G2 X40 Y-1 I-1 J0
G1 X0
G3 X-0.2 Y-1.2 I0 J-0.2
G1 Y-1.4
G19 G2 Y-1.6 Z-6.05 J0 K0.2
G1 Z10
G17
M9
M5
M30
