(1008)
(T1  D=2 CR=0 - ZMIN=-6.25 - flat end mill)
G90 G94
G17
G21
(When using Fusion 360 for Personal Use, the feedrate of)
(rapid moves is reduced to match the feedrate of cutting)
(moves, which can increase machining time. Unrestricted rapid)
(moves are available with a Fusion 360 Subscription.)

(2D Contour5)
S5000 M3
G54
M8
G0 X0.2 Y-1.6
Z10
G1 Z5 F1000
Z3 F333.3
Z-1.8
G19 G3 Y-1.4 Z-2 J0.2 K0 F1000
G1 Y-1.2
G17 G3 X0 Y-1 I-0.2 J0
G2 X-1 Y0 I0 J1
G1 Y80
G2 X0 Y81 I1 J0
G1 X26.875
G2 X27.875 Y80 I0 J-1
G1 Y42.1
G2 X26.875 Y41.1 I-1 J0
G1 X26.775
Y41
X33.495
Y41.1
X33.395
G2 X32.395 Y42.1 I0 J1
G1 Y80
G2 X33.395 Y81 I1 J0
G1 X60
G2 X61 Y80 I0 J-1
G1 Y0
G2 X60 Y-1 I-1 J0
G1 X0
G3 X-0.2 Y-1.2 I0 J-0.2
G1 Y-1.4
G19 G2 Y-1.6 Z-1.8 J0 K0.2
G1 Z5
X0.2
Z1 F333.3
Z-3.8
G3 Y-1.4 Z-4 J0.2 K0 F1000
G1 Y-1.2
G17 G3 X0 Y-1 I-0.2 J0
G2 X-1 Y0 I0 J1
G1 Y80
G2 X0 Y81 I1 J0
G1 X26.875
G2 X27.875 Y80 I0 J-1
G1 Y42.1
G2 X26.875 Y41.1 I-1 J0
G1 X26.775
Y41
X33.495
Y41.1
X33.395
G2 X32.395 Y42.1 I0 J1
G1 Y80
G2 X33.395 Y81 I1 J0
G1 X60
G2 X61 Y80 I0 J-1
G1 Y0
G2 X60 Y-1 I-1 J0
G1 X0
G3 X-0.2 Y-1.2 I0 J-0.2
G1 Y-1.4
G19 G2 Y-1.6 Z-3.8 J0 K0.2
G1 Z5
X0.2
Z-1 F333.3
Z-4.925
G3 Y-1.4 Z-5.125 J0.2 K0 F1000
G1 Y-1.2
G17 G3 X0 Y-1 I-0.2 J0
G2 X-1 Y0 I0 J1
G1 Y80
G2 X0 Y81 I1 J0
G1 X26.875
G2 X27.875 Y80 I0 J-1
G1 Y42.1
G2 X26.875 Y41.1 I-1 J0
G1 X26.775
Y41
X33.495
Y41.1
X33.395
G2 X32.395 Y42.1 I0 J1
G1 Y80
G2 X33.395 Y81 I1 J0
G1 X60
G2 X61 Y80 I0 J-1
G1 Y0
G2 X60 Y-1 I-1 J0
G1 X0
G3 X-0.2 Y-1.2 I0 J-0.2
G1 Y-1.4
G19 G2 Y-1.6 Z-4.925 J0 K0.2
G1 Z5
X0.2
Z-2.125 F333.3
Z-6.05
G3 Y-1.4 Z-6.25 J0.2 K0 F1000
G1 Y-1.2
G17 G3 X0 Y-1 I-0.2 J0
G2 X-1 Y0 I0 J1
G1 Y80
G2 X0 Y81 I1 J0
G1 X26.875
G2 X27.875 Y80 I0 J-1
G1 Y42.1
G2 X26.875 Y41.1 I-1 J0
G1 X26.775
Y41
X33.495
Y41.1
X33.395
G2 X32.395 Y42.1 I0 J1
G1 Y80
G2 X33.395 Y81 I1 J0
G1 X60
G2 X61 Y80 I0 J-1
G1 Y0
G2 X60 Y-1 I-1 J0
G1 X0
G3 X-0.2 Y-1.2 I0 J-0.2
G1 Y-1.4
G19 G2 Y-1.6 Z-6.05 J0 K0.2
G1 Z10
G17
M9
M5
M30
