(1010)
(T1  D=2 CR=0 - ZMIN=-6.25 - flat end mill)
G90 G94
G17
G21
(When using Fusion 360 for Personal Use, the feedrate of)
(rapid moves is reduced to match the feedrate of cutting)
(moves, which can increase machining time. Unrestricted rapid)
(moves are available with a Fusion 360 Subscription.)

(2D Contour5)
S5000 M3
G54
M8
G0 X-1.6 Y-0.2
Z10.15
G1 Z5.15 F1000
Z3.65 F333.3
Z-2.15
G18 G2 X-1.4 Z-2.35 I0.2 K0 F1000
G1 X-1.2
G17 G3 X-1 Y0 I0 J0.2
G1 Y50
G2 X0 Y51 I1 J0
G1 X30
G2 X31 Y50 I0 J-1
G1 Y35
G2 X29.658 Y34.06 I-1 J0
G1 X19 Y37.939
Y12.061
X29.658 Y15.94
G2 X31 Y15 I0.342 J-0.94
G1 Y0
G2 X30 Y-1 I-1 J0
G1 X0
G2 X-1 Y0 I0 J1
G3 X-1.2 Y0.2 I-0.2 J0
G1 X-1.4
G18 G3 X-1.6 Z-2.15 I0 K0.2
G1 Z5.15
Y-0.2
Z1.15 F333.3
Z-4.65
G2 X-1.4 Z-4.85 I0.2 K0 F1000
G1 X-1.2
G17 G3 X-1 Y0 I0 J0.2
G1 Y50
G2 X0 Y51 I1 J0
G1 X30
G2 X31 Y50 I0 J-1
G1 Y35
G2 X29.658 Y34.06 I-1 J0
G1 X19 Y37.939
Y12.061
X29.658 Y15.94
G2 X31 Y15 I0.342 J-0.94
G1 Y0
G2 X30 Y-1 I-1 J0
G1 X0
G2 X-1 Y0 I0 J1
G3 X-1.2 Y0.2 I-0.2 J0
G1 X-1.4
G18 G3 X-1.6 Z-4.65 I0 K0.2
G1 Z5.15
Y-0.2
Z-1.35 F333.3
Z-6.05
G2 X-1.4 Z-6.25 I0.2 K0 F1000
G1 X-1.2
G17 G3 X-1 Y0 I0 J0.2
G1 Y50
G2 X0 Y51 I1 J0
G1 X30
G2 X31 Y50 I0 J-1
G1 Y35
G2 X29.658 Y34.06 I-1 J0
G1 X19 Y37.939
Y12.061
X29.658 Y15.94
G2 X31 Y15 I0.342 J-0.94
G1 Y0
G2 X30 Y-1 I-1 J0
G1 X0
G2 X-1 Y0 I0 J1
G3 X-1.2 Y0.2 I-0.2 J0
G1 X-1.4
G18 G3 X-1.6 Z-6.05 I0 K0.2
G1 Z10.15
G17
M9
M5
M30
