(1011)
(T1  D=2 CR=0 - ZMIN=-6.4 - flat end mill)
G90 G94
G17
G21
(When using Fusion 360 for Personal Use, the feedrate of)
(rapid moves is reduced to match the feedrate of cutting)
(moves, which can increase machining time. Unrestricted rapid)
(moves are available with a Fusion 360 Subscription.)

(2D Contour7)
S5000 M3
G54
M8
G0 X12.2 Y-1.6
Z10
G1 Z5 F1000
Z3.25 F333.3
Z-2.05
G19 G3 Y-1.4 Z-2.25 J0.2 K0 F1000
G1 Y-1.2
G17 G3 X12 Y-1 I-0.2 J0
G2 X11 Y0 I0 J1
G1 Y13.572
X1.751 Y10.206
G2 X-1 Y12.132 I-0.701 J1.926
G1 Y37.868
G2 X1.751 Y39.794 I2.05 J0
G1 X11 Y36.428
Y50
G2 X12 Y51 I1 J0
G1 X32
G2 X33 Y50 I0 J-1
G1 Y0
G2 X32 Y-1 I-1 J0
G1 X12
G3 X11.8 Y-1.2 I0 J-0.2
G1 Y-1.4
G19 G2 Y-1.6 Z-2.05 J0 K0.2
G1 Z5
X12.2
Z1 F333.3
Z-4.3
G3 Y-1.4 Z-4.5 J0.2 K0 F1000
G1 Y-1.2
G17 G3 X12 Y-1 I-0.2 J0
G2 X11 Y0 I0 J1
G1 Y13.572
X1.751 Y10.206
G2 X-1 Y12.132 I-0.701 J1.926
G1 Y37.868
G2 X1.751 Y39.794 I2.05 J0
G1 X11 Y36.428
Y50
G2 X12 Y51 I1 J0
G1 X32
G2 X33 Y50 I0 J-1
G1 Y0
G2 X32 Y-1 I-1 J0
G1 X12
G3 X11.8 Y-1.2 I0 J-0.2
G1 Y-1.4
G19 G2 Y-1.6 Z-4.3 J0 K0.2
G1 Z5
X12.2
Z-1.25 F333.3
Z-6.2
G3 Y-1.4 Z-6.4 J0.2 K0 F1000
G1 Y-1.2
G17 G3 X12 Y-1 I-0.2 J0
G2 X11 Y0 I0 J1
G1 Y13.572
X1.751 Y10.206
G2 X-1 Y12.132 I-0.701 J1.926
G1 Y37.868
G2 X1.751 Y39.794 I2.05 J0
G1 X11 Y36.428
Y50
G2 X12 Y51 I1 J0
G1 X32
G2 X33 Y50 I0 J-1
G1 Y0
G2 X32 Y-1 I-1 J0
G1 X12
G3 X11.8 Y-1.2 I0 J-0.2
G1 Y-1.4
G19 G2 Y-1.6 Z-6.2 J0 K0.2
G1 Z10
G17
M9
M5
M30
