(1018)
(T1  D=1.8 CR=0 - ZMIN=-6.25 - flat end mill)
G90 G94
G17
G21
(When using Fusion 360 for Personal Use, the feedrate of)
(rapid moves is reduced to match the feedrate of cutting)
(moves, which can increase machining time. Unrestricted rapid)
(moves are available with a Fusion 360 Subscription.)

(2D Contour5)
S5000 M3
G54
G0 X-0.9 Y0
Z10.15
G1 Z5.15 F1000
Z3.15 F333.3
Z-1.85
Y50 F1000
Y50.9
X30
X30.9
Y36.55
G2 X28.283 Y34.717 I-1.95 J0
G1 X18.8 Y38.169
Y11.831
X28.283 Y15.283
G2 X30.9 Y13.45 I0.667 J-1.832
G1 Y0
Y-0.9
X-0.9
Y0
Z-3.85 F333.3
Y50 F1000
Y50.9
X30
X30.9
Y36.55
G2 X28.283 Y34.717 I-1.95 J0
G1 X18.8 Y38.169
Y11.831
X28.283 Y15.283
G2 X30.9 Y13.45 I0.667 J-1.832
G1 Y0
Y-0.9
X-0.9
Y0
Z-5.05 F333.3
Y50 F1000
Y50.9
X30
X30.9
Y36.55
G2 X28.283 Y34.717 I-1.95 J0
G1 X18.8 Y38.169
Y11.831
X28.283 Y15.283
G2 X30.9 Y13.45 I0.667 J-1.832
G1 Y0
Y-0.9
X-0.9
Y0
Z-6.25 F333.3
Y50 F1000
Y50.9
X30
X30.9
Y36.55
G2 X28.283 Y34.717 I-1.95 J0
G1 X18.8 Y38.169
Y11.831
X28.283 Y15.283
G2 X30.9 Y13.45 I0.667 J-1.832
G1 Y0
Y-0.9
X-0.9
Y0
Z5.15
X37.188 Y11.553
Z3.15 F333.3
Z-1.85
G2 X37.1 Y12.132 I1.862 J0.579 F1000
G1 Y37.868
G2 X39.717 Y39.701 I1.95 J0
G1 X49.1 Y36.285
Y50
Y50.9
X70.9
Y-0.9
X50
X49.1
Y13.715
X39.717 Y10.299
G2 X37.188 Y11.553 I-0.667 J1.832
G1 Z-3.85 F333.3
G2 X37.1 Y12.132 I1.862 J0.579 F1000
G1 Y37.868
G2 X39.717 Y39.701 I1.95 J0
G1 X49.1 Y36.285
Y50
Y50.9
X70.9
Y-0.9
X50
X49.1
Y13.715
X39.717 Y10.299
G2 X37.188 Y11.553 I-0.667 J1.832
G1 Z-5.05 F333.3
G2 X37.1 Y12.132 I1.862 J0.579 F1000
G1 Y37.868
G2 X39.717 Y39.701 I1.95 J0
G1 X49.1 Y36.285
Y50
Y50.9
X70.9
Y-0.9
X50
X49.1
Y13.715
X39.717 Y10.299
G2 X37.188 Y11.553 I-0.667 J1.832
G1 Z-6.25 F333.3
G2 X37.1 Y12.132 I1.862 J0.579 F1000
G1 Y37.868
G2 X39.717 Y39.701 I1.95 J0
G1 X49.1 Y36.285
Y50
Y50.9
X70.9
Y-0.9
X50
X49.1
Y13.715
X39.717 Y10.299
G2 X37.188 Y11.553 I-0.667 J1.832
G1 Z10.15
M5
M30
