(1001)
(T1  D=1.8 CR=0 - ZMIN=-6.25 - flat end mill)
G90 G94
G17
G21
(When using Fusion 360 for Personal Use, the feedrate of)
(rapid moves is reduced to match the feedrate of cutting)
(moves, which can increase machining time. Unrestricted rapid)
(moves are available with a Fusion 360 Subscription.)

(2D Contour5)
T1
S5000 M3
G54
G0 X-0.9 Y-40.9
Z10.15
G1 Z5.15 F1000
Z3.15 F333.3
Z-1.85
Y0 F1000
Y50
Y50.9
X25.9
Y37
G2 X23.283 Y35.167 I-1.95 J0
G1 X13.8 Y38.619
Y11.381
X23.283 Y14.833
G2 X25.9 Y13 I0.667 J-1.832
G1 Y0
Y-0.9
X13.9
Y-19.6
X25
X25.9
Y-40.9
X-0.9
Z-3.85 F333.3
Y0 F1000
Y50
Y50.9
X25.9
Y37
G2 X23.283 Y35.167 I-1.95 J0
G1 X13.8 Y38.619
Y11.381
X23.283 Y14.833
G2 X25.9 Y13 I0.667 J-1.832
G1 Y0
Y-0.9
X13.9
Y-19.6
X25
X25.9
Y-40.9
X-0.9
Z-5.05 F333.3
Y0 F1000
Y50
Y50.9
X25.9
Y37
G2 X23.283 Y35.167 I-1.95 J0
G1 X13.8 Y38.619
Y11.381
X23.283 Y14.833
G2 X25.9 Y13 I0.667 J-1.832
G1 Y0
Y-0.9
X13.9
Y-19.6
X25
X25.9
Y-40.9
X-0.9
Z-6.25 F333.3
Y0 F1000
Y50
Y50.9
X25.9
Y37
G2 X23.283 Y35.167 I-1.95 J0
G1 X13.8 Y38.619
Y11.381
X23.283 Y14.833
G2 X25.9 Y13 I0.667 J-1.832
G1 Y0
Y-0.9
X13.9
Y-19.6
X25
X25.9
Y-40.9
X-0.9
Z5.15
X46.1
Z3.15 F333.3
Z-1.85
Y-20.9 F1000
X35
X34.1
Y0.9
X46.1
Y13.715
X36.717 Y10.299
G2 X34.1 Y12.132 I-0.667 J1.832
G1 Y37.868
G2 X36.717 Y39.701 I1.95 J0
G1 X46.1 Y36.285
Y50
Y50.9
X62.9
Y-40.9
X46.1
Z-3.85 F333.3
Y-20.9 F1000
X35
X34.1
Y0.9
X46.1
Y13.715
X36.717 Y10.299
G2 X34.1 Y12.132 I-0.667 J1.832
G1 Y37.868
G2 X36.717 Y39.701 I1.95 J0
G1 X46.1 Y36.285
Y50
Y50.9
X62.9
Y-40.9
X46.1
Z-5.05 F333.3
Y-20.9 F1000
X35
X34.1
Y0.9
X46.1
Y13.715
X36.717 Y10.299
G2 X34.1 Y12.132 I-0.667 J1.832
G1 Y37.868
G2 X36.717 Y39.701 I1.95 J0
G1 X46.1 Y36.285
Y50
Y50.9
X62.9
Y-40.9
X46.1
Z-6.25 F333.3
Y-20.9 F1000
X35
X34.1
Y0.9
X46.1
Y13.715
X36.717 Y10.299
G2 X34.1 Y12.132 I-0.667 J1.832
G1 Y37.868
G2 X36.717 Y39.701 I1.95 J0
G1 X46.1 Y36.285
Y50
Y50.9
X62.9
Y-40.9
X46.1
Z10.15
M5
M30
