(1021)
(T1  D=2.2 CR=0 - ZMIN=-6.25 - flat end mill)
G90 G94
G17
G21
(When using Fusion 360 for Personal Use, the feedrate of)
(rapid moves is reduced to match the feedrate of cutting)
(moves, which can increase machining time. Unrestricted rapid)
(moves are available with a Fusion 360 Subscription.)

(2D Contour5)
T1
S5000 M3
G54
G0 X-1.1 Y-40
Z10.15
G1 Z5.15 F1000
Z3.15 F333.3
Z-1.85
Y0 F1000
Y50
Y51.1
X26.1
Y37
G2 X23.215 Y34.979 I-2.15 J0
G1 X14 Y38.333
Y11.667
X23.215 Y15.021
G2 X26.1 Y13 I0.735 J-2.02
G1 Y0
Y-1.1
X14.1
Y-19.4
X25
X26.1
Y-41.1
X0
X-1.1
Y-40
Z-3.85 F333.3
Y0 F1000
Y50
Y51.1
X26.1
Y37
G2 X23.215 Y34.979 I-2.15 J0
G1 X14 Y38.333
Y11.667
X23.215 Y15.021
G2 X26.1 Y13 I0.735 J-2.02
G1 Y0
Y-1.1
X14.1
Y-19.4
X25
X26.1
Y-41.1
X0
X-1.1
Y-40
Z-5.05 F333.3
Y0 F1000
Y50
Y51.1
X26.1
Y37
G2 X23.215 Y34.979 I-2.15 J0
G1 X14 Y38.333
Y11.667
X23.215 Y15.021
G2 X26.1 Y13 I0.735 J-2.02
G1 Y0
Y-1.1
X14.1
Y-19.4
X25
X26.1
Y-41.1
X0
X-1.1
Y-40
Z-6.25 F333.3
Y0 F1000
Y50
Y51.1
X26.1
Y37
G2 X23.215 Y34.979 I-2.15 J0
G1 X14 Y38.333
Y11.667
X23.215 Y15.021
G2 X26.1 Y13 I0.735 J-2.02
G1 Y0
Y-1.1
X14.1
Y-19.4
X25
X26.1
Y-41.1
X0
X-1.1
Y-40
Z5.15
X45.9 Y-41.1
Z3.15 F333.3
Z-1.85
Y-21.1 F1000
X35
X33.9
Y0
Y1.1
X45.9
Y13.429
X36.785 Y10.112
G2 X33.9 Y12.132 I-0.735 J2.02
G1 Y37.868
G2 X36.785 Y39.888 I2.15 J0
G1 X45.9 Y36.571
Y50
Y51.1
X63.1
Y-41.1
X45.9
Z-3.85 F333.3
Y-21.1 F1000
X35
X33.9
Y0
Y1.1
X45.9
Y13.429
X36.785 Y10.112
G2 X33.9 Y12.132 I-0.735 J2.02
G1 Y37.868
G2 X36.785 Y39.888 I2.15 J0
G1 X45.9 Y36.571
Y50
Y51.1
X63.1
Y-41.1
X45.9
Z-5.05 F333.3
Y-21.1 F1000
X35
X33.9
Y0
Y1.1
X45.9
Y13.429
X36.785 Y10.112
G2 X33.9 Y12.132 I-0.735 J2.02
G1 Y37.868
G2 X36.785 Y39.888 I2.15 J0
G1 X45.9 Y36.571
Y50
Y51.1
X63.1
Y-41.1
X45.9
Z-6.25 F333.3
Y-21.1 F1000
X35
X33.9
Y0
Y1.1
X45.9
Y13.429
X36.785 Y10.112
G2 X33.9 Y12.132 I-0.735 J2.02
G1 Y37.868
G2 X36.785 Y39.888 I2.15 J0
G1 X45.9 Y36.571
Y50
Y51.1
X63.1
Y-41.1
X45.9
Z10.15
M5
M30
