(1001)
(T1  D=1.4 CR=0 - ZMIN=-7 - flat end mill)
G90 G94
G17
G21
(When using Fusion 360 for Personal Use, the feedrate of)
(rapid moves is reduced to match the feedrate of cutting)
(moves, which can increase machining time. Unrestricted rapid)
(moves are available with a Fusion 360 Subscription.)

(2D Contour5)
T1
S5000 M3
G54
G0 X-0.324 Y-0.775
Z10
G1 Z5 F1000
Z2 F333.3
Z-1
G2 X-0.84 Y0 I0.324 J0.775 F1000
G1 Y20
G2 X0 Y20.84 I0.84 J0
G1 X20
G2 X20.84 Y20 I0 J-0.84
G1 Y0
G2 X20 Y-0.84 I-0.84 J0
G1 X0
G2 X-0.324 Y-0.775 I0 J0.84
G1 X-0.355 Y-0.756
X-0.378 Y-0.729
X-0.392 Y-0.696
X-0.396 Y-0.661
X-0.4 Y-0.614
X-0.419 Y-0.572
X-0.449 Y-0.537
G2 X-0.7 Y0 I0.449 J0.537
G1 Y20
G2 X0 Y20.7 I0.7 J0
G1 X20
G2 X20.7 Y20 I0 J-0.7
G1 Y0
G2 X20 Y-0.7 I-0.7 J0
G1 X0
G2 X-0.449 Y-0.537 I0 J0.7
G1 X-0.324 Y-0.775
Z-2 F333.3
G2 X-0.84 Y0 I0.324 J0.775 F1000
G1 Y20
G2 X0 Y20.84 I0.84 J0
G1 X20
G2 X20.84 Y20 I0 J-0.84
G1 Y0
G2 X20 Y-0.84 I-0.84 J0
G1 X0
G2 X-0.324 Y-0.775 I0 J0.84
G1 X-0.355 Y-0.756
X-0.378 Y-0.729
X-0.392 Y-0.696
X-0.396 Y-0.661
X-0.4 Y-0.614
X-0.419 Y-0.572
X-0.449 Y-0.537
G2 X-0.7 Y0 I0.449 J0.537
G1 Y20
G2 X0 Y20.7 I0.7 J0
G1 X20
G2 X20.7 Y20 I0 J-0.7
G1 Y0
G2 X20 Y-0.7 I-0.7 J0
G1 X0
G2 X-0.449 Y-0.537 I0 J0.7
G1 X-0.324 Y-0.775
Z-3 F333.3
G2 X-0.84 Y0 I0.324 J0.775 F1000
G1 Y20
G2 X0 Y20.84 I0.84 J0
G1 X20
G2 X20.84 Y20 I0 J-0.84
G1 Y0
G2 X20 Y-0.84 I-0.84 J0
G1 X0
G2 X-0.324 Y-0.775 I0 J0.84
G1 X-0.355 Y-0.756
X-0.378 Y-0.729
X-0.392 Y-0.696
X-0.396 Y-0.661
X-0.4 Y-0.614
X-0.419 Y-0.572
X-0.449 Y-0.537
G2 X-0.7 Y0 I0.449 J0.537
G1 Y20
G2 X0 Y20.7 I0.7 J0
G1 X20
G2 X20.7 Y20 I0 J-0.7
G1 Y0
G2 X20 Y-0.7 I-0.7 J0
G1 X0
G2 X-0.449 Y-0.537 I0 J0.7
G1 X-0.324 Y-0.775
Z-4 F333.3
G2 X-0.84 Y0 I0.324 J0.775 F1000
G1 Y20
G2 X0 Y20.84 I0.84 J0
G1 X20
G2 X20.84 Y20 I0 J-0.84
G1 Y0
G2 X20 Y-0.84 I-0.84 J0
G1 X0
G2 X-0.324 Y-0.775 I0 J0.84
G1 X-0.355 Y-0.756
X-0.378 Y-0.729
X-0.392 Y-0.696
X-0.396 Y-0.661
X-0.4 Y-0.614
X-0.419 Y-0.572
X-0.449 Y-0.537
G2 X-0.7 Y0 I0.449 J0.537
G1 Y20
G2 X0 Y20.7 I0.7 J0
G1 X20
G2 X20.7 Y20 I0 J-0.7
G1 Y0
G2 X20 Y-0.7 I-0.7 J0
G1 X0
G2 X-0.449 Y-0.537 I0 J0.7
G1 X-0.324 Y-0.775
Z-5 F333.3
G2 X-0.84 Y0 I0.324 J0.775 F1000
G1 Y20
G2 X0 Y20.84 I0.84 J0
G1 X20
G2 X20.84 Y20 I0 J-0.84
G1 Y0
G2 X20 Y-0.84 I-0.84 J0
G1 X0
G2 X-0.324 Y-0.775 I0 J0.84
G1 X-0.355 Y-0.756
X-0.378 Y-0.729
X-0.392 Y-0.696
X-0.396 Y-0.661
X-0.4 Y-0.614
X-0.419 Y-0.572
X-0.449 Y-0.537
G2 X-0.7 Y0 I0.449 J0.537
G1 Y20
G2 X0 Y20.7 I0.7 J0
G1 X20
G2 X20.7 Y20 I0 J-0.7
G1 Y0
G2 X20 Y-0.7 I-0.7 J0
G1 X0
G2 X-0.449 Y-0.537 I0 J0.7
G1 X-0.324 Y-0.775
Z-6 F333.3
G2 X-0.84 Y0 I0.324 J0.775 F1000
G1 Y20
G2 X0 Y20.84 I0.84 J0
G1 X20
G2 X20.84 Y20 I0 J-0.84
G1 Y0
G2 X20 Y-0.84 I-0.84 J0
G1 X0
G2 X-0.324 Y-0.775 I0 J0.84
G1 X-0.355 Y-0.756
X-0.378 Y-0.729
X-0.392 Y-0.696
X-0.396 Y-0.661
X-0.4 Y-0.614
X-0.419 Y-0.572
X-0.449 Y-0.537
G2 X-0.7 Y0 I0.449 J0.537
G1 Y20
G2 X0 Y20.7 I0.7 J0
G1 X20
G2 X20.7 Y20 I0 J-0.7
G1 Y0
G2 X20 Y-0.7 I-0.7 J0
G1 X0
G2 X-0.449 Y-0.537 I0 J0.7
G1 X-0.324 Y-0.775
Z-7 F333.3
G2 X-0.84 Y0 I0.324 J0.775 F1000
G1 Y8.8
Z-6
Y11.2
Z-7 F333.3
Y20 F1000
G2 X0 Y20.84 I0.84 J0
G1 X8.8
Z-6
X11.2
Z-7 F333.3
X20 F1000
G2 X20.84 Y20 I0 J-0.84
G1 Y11.2
Z-6
Y8.8
Z-7 F333.3
Y0 F1000
G2 X20 Y-0.84 I-0.84 J0
G1 X11.2
Z-6
X8.8
Z-7 F333.3
X0 F1000
G2 X-0.324 Y-0.775 I0 J0.84
G1 X-0.355 Y-0.756
X-0.378 Y-0.729
X-0.392 Y-0.696
X-0.396 Y-0.661
X-0.4 Y-0.614
X-0.419 Y-0.572
X-0.449 Y-0.537
G2 X-0.7 Y0 I0.449 J0.537
G1 Y8.8
Z-6
Y11.2
Z-7 F333.3
Y20 F1000
G2 X0 Y20.7 I0.7 J0
G1 X8.8
Z-6
X11.2
Z-7 F333.3
X20 F1000
G2 X20.7 Y20 I0 J-0.7
G1 Y11.2
Z-6
Y8.8
Z-7 F333.3
Y0 F1000
G2 X20 Y-0.7 I-0.7 J0
G1 X11.2
Z-6
X8.8
Z-7 F333.3
X0 F1000
G2 X-0.449 Y-0.537 I0 J0.7
G1 Z10
M5
M30
