(1027_rough_18bit)
(T1  D=1.8 CR=0 - ZMIN=-7 - flat end mill)
G90 G94
G17
G21
(When using Fusion 360 for Personal Use, the feedrate of)
(rapid moves is reduced to match the feedrate of cutting)
(moves, which can increase machining time. Unrestricted rapid)
(moves are available with a Fusion 360 Subscription.)

(2D Contour5)
T1
S5000 M3
G54
G0 X-0.333 Y-1.027
Z10
G1 Z5 F1000
Z2 F333.3
Z-1
G2 X-1.08 Y0 I0.333 J1.027 F1000
G1 Y20
G2 X0 Y21.08 I1.08 J0
G1 X20
G2 X21.08 Y20 I0 J-1.08
G1 Y0
G2 X20 Y-1.08 I-1.08 J0
G1 X0
G2 X-0.333 Y-1.027 I0 J1.08
G1 X-0.374 Y-1.006
X-0.407 Y-0.974
X-0.429 Y-0.934
X-0.437 Y-0.888
X-0.443 Y-0.844
X-0.46 Y-0.802
X-0.485 Y-0.766
X-0.518 Y-0.736
G2 X-0.9 Y0 I0.518 J0.736
G1 Y20
G2 X0 Y20.9 I0.9 J0
G1 X20
G2 X20.9 Y20 I0 J-0.9
G1 Y0
G2 X20 Y-0.9 I-0.9 J0
G1 X0
G2 X-0.518 Y-0.736 I0 J0.9
G1 X-0.333 Y-1.027
Z-2 F333.3
G2 X-1.08 Y0 I0.333 J1.027 F1000
G1 Y20
G2 X0 Y21.08 I1.08 J0
G1 X20
G2 X21.08 Y20 I0 J-1.08
G1 Y0
G2 X20 Y-1.08 I-1.08 J0
G1 X0
G2 X-0.333 Y-1.027 I0 J1.08
G1 X-0.374 Y-1.006
X-0.407 Y-0.974
X-0.429 Y-0.934
X-0.437 Y-0.888
X-0.443 Y-0.844
X-0.46 Y-0.802
X-0.485 Y-0.766
X-0.518 Y-0.736
G2 X-0.9 Y0 I0.518 J0.736
G1 Y20
G2 X0 Y20.9 I0.9 J0
G1 X20
G2 X20.9 Y20 I0 J-0.9
G1 Y0
G2 X20 Y-0.9 I-0.9 J0
G1 X0
G2 X-0.518 Y-0.736 I0 J0.9
G1 X-0.333 Y-1.027
Z-3 F333.3
G2 X-1.08 Y0 I0.333 J1.027 F1000
G1 Y20
G2 X0 Y21.08 I1.08 J0
G1 X20
G2 X21.08 Y20 I0 J-1.08
G1 Y0
G2 X20 Y-1.08 I-1.08 J0
G1 X0
G2 X-0.333 Y-1.027 I0 J1.08
G1 X-0.374 Y-1.006
X-0.407 Y-0.974
X-0.429 Y-0.934
X-0.437 Y-0.888
X-0.443 Y-0.844
X-0.46 Y-0.802
X-0.485 Y-0.766
X-0.518 Y-0.736
G2 X-0.9 Y0 I0.518 J0.736
G1 Y20
G2 X0 Y20.9 I0.9 J0
G1 X20
G2 X20.9 Y20 I0 J-0.9
G1 Y0
G2 X20 Y-0.9 I-0.9 J0
G1 X0
G2 X-0.518 Y-0.736 I0 J0.9
G1 X-0.333 Y-1.027
Z-4 F333.3
G2 X-1.08 Y0 I0.333 J1.027 F1000
G1 Y20
G2 X0 Y21.08 I1.08 J0
G1 X20
G2 X21.08 Y20 I0 J-1.08
G1 Y0
G2 X20 Y-1.08 I-1.08 J0
G1 X0
G2 X-0.333 Y-1.027 I0 J1.08
G1 X-0.374 Y-1.006
X-0.407 Y-0.974
X-0.429 Y-0.934
X-0.437 Y-0.888
X-0.443 Y-0.844
X-0.46 Y-0.802
X-0.485 Y-0.766
X-0.518 Y-0.736
G2 X-0.9 Y0 I0.518 J0.736
G1 Y20
G2 X0 Y20.9 I0.9 J0
G1 X20
G2 X20.9 Y20 I0 J-0.9
G1 Y0
G2 X20 Y-0.9 I-0.9 J0
G1 X0
G2 X-0.518 Y-0.736 I0 J0.9
G1 X-0.333 Y-1.027
Z-5 F333.3
G2 X-1.08 Y0 I0.333 J1.027 F1000
G1 Y20
G2 X0 Y21.08 I1.08 J0
G1 X20
G2 X21.08 Y20 I0 J-1.08
G1 Y0
G2 X20 Y-1.08 I-1.08 J0
G1 X0
G2 X-0.333 Y-1.027 I0 J1.08
G1 X-0.374 Y-1.006
X-0.407 Y-0.974
X-0.429 Y-0.934
X-0.437 Y-0.888
X-0.443 Y-0.844
X-0.46 Y-0.802
X-0.485 Y-0.766
X-0.518 Y-0.736
G2 X-0.9 Y0 I0.518 J0.736
G1 Y20
G2 X0 Y20.9 I0.9 J0
G1 X20
G2 X20.9 Y20 I0 J-0.9
G1 Y0
G2 X20 Y-0.9 I-0.9 J0
G1 X0
G2 X-0.518 Y-0.736 I0 J0.9
G1 X-0.333 Y-1.027
Z-6 F333.3
G2 X-1.08 Y0 I0.333 J1.027 F1000
G1 Y20
G2 X0 Y21.08 I1.08 J0
G1 X20
G2 X21.08 Y20 I0 J-1.08
G1 Y0
G2 X20 Y-1.08 I-1.08 J0
G1 X0
G2 X-0.333 Y-1.027 I0 J1.08
G1 X-0.374 Y-1.006
X-0.407 Y-0.974
X-0.429 Y-0.934
X-0.437 Y-0.888
X-0.443 Y-0.844
X-0.46 Y-0.802
X-0.485 Y-0.766
X-0.518 Y-0.736
G2 X-0.9 Y0 I0.518 J0.736
G1 Y20
G2 X0 Y20.9 I0.9 J0
G1 X20
G2 X20.9 Y20 I0 J-0.9
G1 Y0
G2 X20 Y-0.9 I-0.9 J0
G1 X0
G2 X-0.518 Y-0.736 I0 J0.9
G1 X-0.333 Y-1.027
Z-7 F333.3
G2 X-1.08 Y0 I0.333 J1.027 F1000
G1 Y8.6
Z-6
Y11.4
Z-7 F333.3
Y20 F1000
G2 X0 Y21.08 I1.08 J0
G1 X8.6
Z-6
X11.4
Z-7 F333.3
X20 F1000
G2 X21.08 Y20 I0 J-1.08
G1 Y11.4
Z-6
Y8.6
Z-7 F333.3
Y0 F1000
G2 X20 Y-1.08 I-1.08 J0
G1 X11.4
Z-6
X8.6
Z-7 F333.3
X0 F1000
G2 X-0.333 Y-1.027 I0 J1.08
G1 X-0.374 Y-1.006
X-0.407 Y-0.974
X-0.429 Y-0.934
X-0.437 Y-0.888
X-0.443 Y-0.844
X-0.46 Y-0.802
X-0.485 Y-0.766
X-0.518 Y-0.736
G2 X-0.9 Y0 I0.518 J0.736
G1 Y8.6
Z-6
Y11.4
Z-7 F333.3
Y20 F1000
G2 X0 Y20.9 I0.9 J0
G1 X8.6
Z-6
X11.4
Z-7 F333.3
X20 F1000
G2 X20.9 Y20 I0 J-0.9
G1 Y11.4
Z-6
Y8.6
Z-7 F333.3
Y0 F1000
G2 X20 Y-0.9 I-0.9 J0
G1 X11.4
Z-6
X8.6
Z-7 F333.3
X0 F1000
G2 X-0.518 Y-0.736 I0 J0.9
G1 Z10
M5
M30
