(1028_rough_16bit)
(T1  D=1.6 CR=0 - ZMIN=-7 - flat end mill)
G90 G94
G17
G21
(When using Fusion 360 for Personal Use, the feedrate of)
(rapid moves is reduced to match the feedrate of cutting)
(moves, which can increase machining time. Unrestricted rapid)
(moves are available with a Fusion 360 Subscription.)

(2D Contour5)
T1
S5000 M3
G54
G0 X-0.329 Y-0.902
Z10
G1 Z5 F1000
Z2 F333.3
Z-1
G2 X-0.96 Y0 I0.329 J0.902 F1000
G1 Y20
G2 X0 Y20.96 I0.96 J0
G1 X20
G2 X20.96 Y20 I0 J-0.96
G1 Y0
G2 X20 Y-0.96 I-0.96 J0
G1 X0
G2 X-0.329 Y-0.902 I0 J0.96
G1 X-0.365 Y-0.882
X-0.393 Y-0.852
X-0.411 Y-0.816
X-0.417 Y-0.775
X-0.421 Y-0.736
X-0.434 Y-0.698
X-0.456 Y-0.664
X-0.484 Y-0.637
G2 X-0.8 Y0 I0.484 J0.637
G1 Y20
G2 X0 Y20.8 I0.8 J0
G1 X20
G2 X20.8 Y20 I0 J-0.8
G1 Y0
G2 X20 Y-0.8 I-0.8 J0
G1 X0
G2 X-0.484 Y-0.637 I0 J0.8
G1 X-0.329 Y-0.902
Z-2 F333.3
G2 X-0.96 Y0 I0.329 J0.902 F1000
G1 Y20
G2 X0 Y20.96 I0.96 J0
G1 X20
G2 X20.96 Y20 I0 J-0.96
G1 Y0
G2 X20 Y-0.96 I-0.96 J0
G1 X0
G2 X-0.329 Y-0.902 I0 J0.96
G1 X-0.365 Y-0.882
X-0.393 Y-0.852
X-0.411 Y-0.816
X-0.417 Y-0.775
X-0.421 Y-0.736
X-0.434 Y-0.698
X-0.456 Y-0.664
X-0.484 Y-0.637
G2 X-0.8 Y0 I0.484 J0.637
G1 Y20
G2 X0 Y20.8 I0.8 J0
G1 X20
G2 X20.8 Y20 I0 J-0.8
G1 Y0
G2 X20 Y-0.8 I-0.8 J0
G1 X0
G2 X-0.484 Y-0.637 I0 J0.8
G1 X-0.329 Y-0.902
Z-3 F333.3
G2 X-0.96 Y0 I0.329 J0.902 F1000
G1 Y20
G2 X0 Y20.96 I0.96 J0
G1 X20
G2 X20.96 Y20 I0 J-0.96
G1 Y0
G2 X20 Y-0.96 I-0.96 J0
G1 X0
G2 X-0.329 Y-0.902 I0 J0.96
G1 X-0.365 Y-0.882
X-0.393 Y-0.852
X-0.411 Y-0.816
X-0.417 Y-0.775
X-0.421 Y-0.736
X-0.434 Y-0.698
X-0.456 Y-0.664
X-0.484 Y-0.637
G2 X-0.8 Y0 I0.484 J0.637
G1 Y20
G2 X0 Y20.8 I0.8 J0
G1 X20
G2 X20.8 Y20 I0 J-0.8
G1 Y0
G2 X20 Y-0.8 I-0.8 J0
G1 X0
G2 X-0.484 Y-0.637 I0 J0.8
G1 X-0.329 Y-0.902
Z-4 F333.3
G2 X-0.96 Y0 I0.329 J0.902 F1000
G1 Y20
G2 X0 Y20.96 I0.96 J0
G1 X20
G2 X20.96 Y20 I0 J-0.96
G1 Y0
G2 X20 Y-0.96 I-0.96 J0
G1 X0
G2 X-0.329 Y-0.902 I0 J0.96
G1 X-0.365 Y-0.882
X-0.393 Y-0.852
X-0.411 Y-0.816
X-0.417 Y-0.775
X-0.421 Y-0.736
X-0.434 Y-0.698
X-0.456 Y-0.664
X-0.484 Y-0.637
G2 X-0.8 Y0 I0.484 J0.637
G1 Y20
G2 X0 Y20.8 I0.8 J0
G1 X20
G2 X20.8 Y20 I0 J-0.8
G1 Y0
G2 X20 Y-0.8 I-0.8 J0
G1 X0
G2 X-0.484 Y-0.637 I0 J0.8
G1 X-0.329 Y-0.902
Z-5 F333.3
G2 X-0.96 Y0 I0.329 J0.902 F1000
G1 Y20
G2 X0 Y20.96 I0.96 J0
G1 X20
G2 X20.96 Y20 I0 J-0.96
G1 Y0
G2 X20 Y-0.96 I-0.96 J0
G1 X0
G2 X-0.329 Y-0.902 I0 J0.96
G1 X-0.365 Y-0.882
X-0.393 Y-0.852
X-0.411 Y-0.816
X-0.417 Y-0.775
X-0.421 Y-0.736
X-0.434 Y-0.698
X-0.456 Y-0.664
X-0.484 Y-0.637
G2 X-0.8 Y0 I0.484 J0.637
G1 Y20
G2 X0 Y20.8 I0.8 J0
G1 X20
G2 X20.8 Y20 I0 J-0.8
G1 Y0
G2 X20 Y-0.8 I-0.8 J0
G1 X0
G2 X-0.484 Y-0.637 I0 J0.8
G1 X-0.329 Y-0.902
Z-6 F333.3
G2 X-0.96 Y0 I0.329 J0.902 F1000
G1 Y8.7
Z-5
Y11.3
Z-6 F333.3
Y20 F1000
G2 X0 Y20.96 I0.96 J0
G1 X8.7
Z-5
X11.3
Z-6 F333.3
X20 F1000
G2 X20.96 Y20 I0 J-0.96
G1 Y11.3
Z-5
Y8.7
Z-6 F333.3
Y0 F1000
G2 X20 Y-0.96 I-0.96 J0
G1 X11.3
Z-5
X8.7
Z-6 F333.3
X0 F1000
G2 X-0.329 Y-0.902 I0 J0.96
G1 X-0.365 Y-0.882
X-0.393 Y-0.852
X-0.411 Y-0.816
X-0.417 Y-0.775
X-0.421 Y-0.736
X-0.434 Y-0.698
X-0.456 Y-0.664
X-0.484 Y-0.637
G2 X-0.8 Y0 I0.484 J0.637
G1 Y8.7
Z-5
Y11.3
Z-6 F333.3
Y20 F1000
G2 X0 Y20.8 I0.8 J0
G1 X8.7
Z-5
X11.3
Z-6 F333.3
X20 F1000
G2 X20.8 Y20 I0 J-0.8
G1 Y11.3
Z-5
Y8.7
Z-6 F333.3
Y0 F1000
G2 X20 Y-0.8 I-0.8 J0
G1 X11.3
Z-5
X8.7
Z-6 F333.3
X0 F1000
G2 X-0.484 Y-0.637 I0 J0.8
G1 X-0.329 Y-0.902
Z-7 F333.3
G2 X-0.96 Y0 I0.329 J0.902 F1000
G1 Y8.7
Z-5
Y11.3
Z-7 F333.3
Y20 F1000
G2 X0 Y20.96 I0.96 J0
G1 X8.7
Z-5
X11.3
Z-7 F333.3
X20 F1000
G2 X20.96 Y20 I0 J-0.96
G1 Y11.3
Z-5
Y8.7
Z-7 F333.3
Y0 F1000
G2 X20 Y-0.96 I-0.96 J0
G1 X11.3
Z-5
X8.7
Z-7 F333.3
X0 F1000
G2 X-0.329 Y-0.902 I0 J0.96
G1 X-0.365 Y-0.882
X-0.393 Y-0.852
X-0.411 Y-0.816
X-0.417 Y-0.775
X-0.421 Y-0.736
X-0.434 Y-0.698
X-0.456 Y-0.664
X-0.484 Y-0.637
G2 X-0.8 Y0 I0.484 J0.637
G1 Y8.7
Z-5
Y11.3
Z-7 F333.3
Y20 F1000
G2 X0 Y20.8 I0.8 J0
G1 X8.7
Z-5
X11.3
Z-7 F333.3
X20 F1000
G2 X20.8 Y20 I0 J-0.8
G1 Y11.3
Z-5
Y8.7
Z-7 F333.3
Y0 F1000
G2 X20 Y-0.8 I-0.8 J0
G1 X11.3
Z-5
X8.7
Z-7 F333.3
X0 F1000
G2 X-0.484 Y-0.637 I0 J0.8
G1 Z10
M5
M30
