(1029_sq_rough_16bit)
(T1  D=1.6 CR=0 - ZMIN=-6.5 - flat end mill)
G90 G94
G17
G21
(When using Fusion 360 for Personal Use, the feedrate of)
(rapid moves is reduced to match the feedrate of cutting)
(moves, which can increase machining time. Unrestricted rapid)
(moves are available with a Fusion 360 Subscription.)

(2D Contour5)
T1
S5000 M3
G54
G0 X-0.64 Y-0.716
Z10
G1 Z5 F1000
Z2 F333.3
Z-1
G2 X-0.96 Y0 I0.64 J0.716 F1000
G1 Y50
G2 X0 Y50.96 I0.96 J0
G1 X25
G2 X25.96 Y50 I0 J-0.96
G1 Y35
G2 X25 Y34.04 I-0.96 J0
G1 X13.96
Y15.96
X25
G2 X25.96 Y15 I0 J-0.96
G1 Y0
G2 X25 Y-0.96 I-0.96 J0
G1 X0
G2 X-0.64 Y-0.716 I0 J0.96
G1 X-0.666 Y-0.684
X-0.681 Y-0.646
X-0.684 Y-0.606
X-0.674 Y-0.566
X-0.663 Y-0.528
X-0.662 Y-0.488
X-0.669 Y-0.449
X-0.686 Y-0.412
G2 X-0.8 Y0 I0.686 J0.412
G1 Y50
G2 X0 Y50.8 I0.8 J0
G1 X25
G2 X25.8 Y50 I0 J-0.8
G1 Y35
G2 X25 Y34.2 I-0.8 J0
G1 X13.8
Y15.8
X25
G2 X25.8 Y15 I0 J-0.8
G1 Y0
G2 X25 Y-0.8 I-0.8 J0
G1 X0
G2 X-0.686 Y-0.412 I0 J0.8
G1 X-0.64 Y-0.716
Z-2 F333.3
G2 X-0.96 Y0 I0.64 J0.716 F1000
G1 Y50
G2 X0 Y50.96 I0.96 J0
G1 X25
G2 X25.96 Y50 I0 J-0.96
G1 Y35
G2 X25 Y34.04 I-0.96 J0
G1 X13.96
Y15.96
X25
G2 X25.96 Y15 I0 J-0.96
G1 Y0
G2 X25 Y-0.96 I-0.96 J0
G1 X0
G2 X-0.64 Y-0.716 I0 J0.96
G1 X-0.666 Y-0.684
X-0.681 Y-0.646
X-0.684 Y-0.606
X-0.674 Y-0.566
X-0.663 Y-0.528
X-0.662 Y-0.488
X-0.669 Y-0.449
X-0.686 Y-0.412
G2 X-0.8 Y0 I0.686 J0.412
G1 Y50
G2 X0 Y50.8 I0.8 J0
G1 X25
G2 X25.8 Y50 I0 J-0.8
G1 Y35
G2 X25 Y34.2 I-0.8 J0
G1 X13.8
Y15.8
X25
G2 X25.8 Y15 I0 J-0.8
G1 Y0
G2 X25 Y-0.8 I-0.8 J0
G1 X0
G2 X-0.686 Y-0.412 I0 J0.8
G1 X-0.64 Y-0.716
Z-3 F333.3
G2 X-0.96 Y0 I0.64 J0.716 F1000
G1 Y50
G2 X0 Y50.96 I0.96 J0
G1 X25
G2 X25.96 Y50 I0 J-0.96
G1 Y35
G2 X25 Y34.04 I-0.96 J0
G1 X13.96
Y15.96
X25
G2 X25.96 Y15 I0 J-0.96
G1 Y0
G2 X25 Y-0.96 I-0.96 J0
G1 X0
G2 X-0.64 Y-0.716 I0 J0.96
G1 X-0.666 Y-0.684
X-0.681 Y-0.646
X-0.684 Y-0.606
X-0.674 Y-0.566
X-0.663 Y-0.528
X-0.662 Y-0.488
X-0.669 Y-0.449
X-0.686 Y-0.412
G2 X-0.8 Y0 I0.686 J0.412
G1 Y50
G2 X0 Y50.8 I0.8 J0
G1 X25
G2 X25.8 Y50 I0 J-0.8
G1 Y35
G2 X25 Y34.2 I-0.8 J0
G1 X13.8
Y15.8
X25
G2 X25.8 Y15 I0 J-0.8
G1 Y0
G2 X25 Y-0.8 I-0.8 J0
G1 X0
G2 X-0.686 Y-0.412 I0 J0.8
G1 X-0.64 Y-0.716
Z-4 F333.3
G2 X-0.96 Y0 I0.64 J0.716 F1000
G1 Y50
G2 X0 Y50.96 I0.96 J0
G1 X25
G2 X25.96 Y50 I0 J-0.96
G1 Y35
G2 X25 Y34.04 I-0.96 J0
G1 X13.96
Y15.96
X25
G2 X25.96 Y15 I0 J-0.96
G1 Y0
G2 X25 Y-0.96 I-0.96 J0
G1 X0
G2 X-0.64 Y-0.716 I0 J0.96
G1 X-0.666 Y-0.684
X-0.681 Y-0.646
X-0.684 Y-0.606
X-0.674 Y-0.566
X-0.663 Y-0.528
X-0.662 Y-0.488
X-0.669 Y-0.449
X-0.686 Y-0.412
G2 X-0.8 Y0 I0.686 J0.412
G1 Y50
G2 X0 Y50.8 I0.8 J0
G1 X25
G2 X25.8 Y50 I0 J-0.8
G1 Y35
G2 X25 Y34.2 I-0.8 J0
G1 X13.8
Y15.8
X25
G2 X25.8 Y15 I0 J-0.8
G1 Y0
G2 X25 Y-0.8 I-0.8 J0
G1 X0
G2 X-0.686 Y-0.412 I0 J0.8
G1 X-0.64 Y-0.716
Z-5 F333.3
G2 X-0.96 Y0 I0.64 J0.716 F1000
G1 Y50
G2 X0 Y50.96 I0.96 J0
G1 X25
G2 X25.96 Y50 I0 J-0.96
G1 Y35
G2 X25 Y34.04 I-0.96 J0
G1 X13.96
Y15.96
X25
G2 X25.96 Y15 I0 J-0.96
G1 Y0
G2 X25 Y-0.96 I-0.96 J0
G1 X0
G2 X-0.64 Y-0.716 I0 J0.96
G1 X-0.666 Y-0.684
X-0.681 Y-0.646
X-0.684 Y-0.606
X-0.674 Y-0.566
X-0.663 Y-0.528
X-0.662 Y-0.488
X-0.669 Y-0.449
X-0.686 Y-0.412
G2 X-0.8 Y0 I0.686 J0.412
G1 Y50
G2 X0 Y50.8 I0.8 J0
G1 X25
G2 X25.8 Y50 I0 J-0.8
G1 Y35
G2 X25 Y34.2 I-0.8 J0
G1 X13.8
Y15.8
X25
G2 X25.8 Y15 I0 J-0.8
G1 Y0
G2 X25 Y-0.8 I-0.8 J0
G1 X0
G2 X-0.686 Y-0.412 I0 J0.8
G1 X-0.64 Y-0.716
Z-6 F333.3
G2 X-0.96 Y0 I0.64 J0.716 F1000
G1 Y11.2
Z-5
Y13.8
Z-6 F333.3
Y36.2 F1000
Z-5
Y38.8
Z-6 F333.3
Y50 F1000
G2 X0 Y50.96 I0.96 J0
G1 X11.2
Z-5
X13.8
Z-6 F333.3
X25 F1000
G2 X25.96 Y50 I0 J-0.96
G1 Y35
G2 X25 Y34.04 I-0.96 J0
G1 X13.96
Y15.96
X25
G2 X25.96 Y15 I0 J-0.96
G1 Y0
G2 X25 Y-0.96 I-0.96 J0
G1 X13.8
Z-5
X11.2
Z-6 F333.3
X0 F1000
G2 X-0.64 Y-0.716 I0 J0.96
G1 X-0.666 Y-0.684
X-0.681 Y-0.646
X-0.684 Y-0.606
X-0.674 Y-0.566
X-0.663 Y-0.528
X-0.662 Y-0.488
X-0.669 Y-0.449
X-0.686 Y-0.412
G2 X-0.8 Y0 I0.686 J0.412
G1 Y11.2
Z-5
Y13.8
Z-6 F333.3
Y36.2 F1000
Z-5
Y38.8
Z-6 F333.3
Y50 F1000
G2 X0 Y50.8 I0.8 J0
G1 X11.2
Z-5
X13.8
Z-6 F333.3
X25 F1000
G2 X25.8 Y50 I0 J-0.8
G1 Y35
G2 X25 Y34.2 I-0.8 J0
G1 X13.8
Y15.8
X25
G2 X25.8 Y15 I0 J-0.8
G1 Y0
G2 X25 Y-0.8 I-0.8 J0
G1 X13.8
Z-5
X11.2
Z-6 F333.3
X0 F1000
G2 X-0.686 Y-0.412 I0 J0.8
G1 X-0.64 Y-0.716
Z-6.5 F333.3
G2 X-0.96 Y0 I0.64 J0.716 F1000
G1 Y11.2
Z-5
Y13.8
Z-6.5 F333.3
Y36.2 F1000
Z-5
Y38.8
Z-6.5 F333.3
Y50 F1000
G2 X0 Y50.96 I0.96 J0
G1 X11.2
Z-5
X13.8
Z-6.5 F333.3
X25 F1000
G2 X25.96 Y50 I0 J-0.96
G1 Y35
G2 X25 Y34.04 I-0.96 J0
G1 X13.96
Y15.96
X25
G2 X25.96 Y15 I0 J-0.96
G1 Y0
G2 X25 Y-0.96 I-0.96 J0
G1 X13.8
Z-5
X11.2
Z-6.5 F333.3
X0 F1000
G2 X-0.64 Y-0.716 I0 J0.96
G1 X-0.666 Y-0.684
X-0.681 Y-0.646
X-0.684 Y-0.606
X-0.674 Y-0.566
X-0.663 Y-0.528
X-0.662 Y-0.488
X-0.669 Y-0.449
X-0.686 Y-0.412
G2 X-0.8 Y0 I0.686 J0.412
G1 Y11.2
Z-5
Y13.8
Z-6.5 F333.3
Y36.2 F1000
Z-5
Y38.8
Z-6.5 F333.3
Y50 F1000
G2 X0 Y50.8 I0.8 J0
G1 X11.2
Z-5
X13.8
Z-6.5 F333.3
X25 F1000
G2 X25.8 Y50 I0 J-0.8
G1 Y35
G2 X25 Y34.2 I-0.8 J0
G1 X13.8
Y15.8
X25
G2 X25.8 Y15 I0 J-0.8
G1 Y0
G2 X25 Y-0.8 I-0.8 J0
G1 X13.8
Z-5
X11.2
Z-6.5 F333.3
X0 F1000
G2 X-0.686 Y-0.412 I0 J0.8
G1 Z5
X44.421 Y-0.766
Z2 F333.3
Z-1
G2 X44.04 Y0 I0.579 J0.766 F1000
G1 Y14.04
X33
G2 X32.04 Y15 I0 J0.96
G1 Y35
G2 X33 Y35.96 I0.96 J0
G1 X44.04
Y50
G2 X45 Y50.96 I0.96 J0
G1 X60
G2 X60.96 Y50 I0 J-0.96
G1 Y0
G2 X60 Y-0.96 I-0.96 J0
G1 X45
G2 X44.421 Y-0.766 I0 J0.96
G1 X44.392 Y-0.736
X44.374 Y-0.7
X44.368 Y-0.659
X44.374 Y-0.619
X44.382 Y-0.58
X44.38 Y-0.54
X44.37 Y-0.502
X44.35 Y-0.467
G2 X44.2 Y0 I0.65 J0.467
G1 Y14.2
X33
G2 X32.2 Y15 I0 J0.8
G1 Y35
G2 X33 Y35.8 I0.8 J0
G1 X44.2
Y50
G2 X45 Y50.8 I0.8 J0
G1 X60
G2 X60.8 Y50 I0 J-0.8
G1 Y0
G2 X60 Y-0.8 I-0.8 J0
G1 X45
G2 X44.35 Y-0.467 I0 J0.8
G1 X44.421 Y-0.766
Z-2 F333.3
G2 X44.04 Y0 I0.579 J0.766 F1000
G1 Y14.04
X33
G2 X32.04 Y15 I0 J0.96
G1 Y35
G2 X33 Y35.96 I0.96 J0
G1 X44.04
Y50
G2 X45 Y50.96 I0.96 J0
G1 X60
G2 X60.96 Y50 I0 J-0.96
G1 Y0
G2 X60 Y-0.96 I-0.96 J0
G1 X45
G2 X44.421 Y-0.766 I0 J0.96
G1 X44.392 Y-0.736
X44.374 Y-0.7
X44.368 Y-0.659
X44.374 Y-0.619
X44.382 Y-0.58
X44.38 Y-0.54
X44.37 Y-0.502
X44.35 Y-0.467
G2 X44.2 Y0 I0.65 J0.467
G1 Y14.2
X33
G2 X32.2 Y15 I0 J0.8
G1 Y35
G2 X33 Y35.8 I0.8 J0
G1 X44.2
Y50
G2 X45 Y50.8 I0.8 J0
G1 X60
G2 X60.8 Y50 I0 J-0.8
G1 Y0
G2 X60 Y-0.8 I-0.8 J0
G1 X45
G2 X44.35 Y-0.467 I0 J0.8
G1 X44.421 Y-0.766
Z-3 F333.3
G2 X44.04 Y0 I0.579 J0.766 F1000
G1 Y14.04
X33
G2 X32.04 Y15 I0 J0.96
G1 Y35
G2 X33 Y35.96 I0.96 J0
G1 X44.04
Y50
G2 X45 Y50.96 I0.96 J0
G1 X60
G2 X60.96 Y50 I0 J-0.96
G1 Y0
G2 X60 Y-0.96 I-0.96 J0
G1 X45
G2 X44.421 Y-0.766 I0 J0.96
G1 X44.392 Y-0.736
X44.374 Y-0.7
X44.368 Y-0.659
X44.374 Y-0.619
X44.382 Y-0.58
X44.38 Y-0.54
X44.37 Y-0.502
X44.35 Y-0.467
G2 X44.2 Y0 I0.65 J0.467
G1 Y14.2
X33
G2 X32.2 Y15 I0 J0.8
G1 Y35
G2 X33 Y35.8 I0.8 J0
G1 X44.2
Y50
G2 X45 Y50.8 I0.8 J0
G1 X60
G2 X60.8 Y50 I0 J-0.8
G1 Y0
G2 X60 Y-0.8 I-0.8 J0
G1 X45
G2 X44.35 Y-0.467 I0 J0.8
G1 X44.421 Y-0.766
Z-4 F333.3
G2 X44.04 Y0 I0.579 J0.766 F1000
G1 Y14.04
X33
G2 X32.04 Y15 I0 J0.96
G1 Y35
G2 X33 Y35.96 I0.96 J0
G1 X44.04
Y50
G2 X45 Y50.96 I0.96 J0
G1 X60
G2 X60.96 Y50 I0 J-0.96
G1 Y0
G2 X60 Y-0.96 I-0.96 J0
G1 X45
G2 X44.421 Y-0.766 I0 J0.96
G1 X44.392 Y-0.736
X44.374 Y-0.7
X44.368 Y-0.659
X44.374 Y-0.619
X44.382 Y-0.58
X44.38 Y-0.54
X44.37 Y-0.502
X44.35 Y-0.467
G2 X44.2 Y0 I0.65 J0.467
G1 Y14.2
X33
G2 X32.2 Y15 I0 J0.8
G1 Y35
G2 X33 Y35.8 I0.8 J0
G1 X44.2
Y50
G2 X45 Y50.8 I0.8 J0
G1 X60
G2 X60.8 Y50 I0 J-0.8
G1 Y0
G2 X60 Y-0.8 I-0.8 J0
G1 X45
G2 X44.35 Y-0.467 I0 J0.8
G1 X44.421 Y-0.766
Z-5 F333.3
G2 X44.04 Y0 I0.579 J0.766 F1000
G1 Y14.04
X33
G2 X32.04 Y15 I0 J0.96
G1 Y35
G2 X33 Y35.96 I0.96 J0
G1 X44.04
Y50
G2 X45 Y50.96 I0.96 J0
G1 X60
G2 X60.96 Y50 I0 J-0.96
G1 Y0
G2 X60 Y-0.96 I-0.96 J0
G1 X45
G2 X44.421 Y-0.766 I0 J0.96
G1 X44.392 Y-0.736
X44.374 Y-0.7
X44.368 Y-0.659
X44.374 Y-0.619
X44.382 Y-0.58
X44.38 Y-0.54
X44.37 Y-0.502
X44.35 Y-0.467
G2 X44.2 Y0 I0.65 J0.467
G1 Y14.2
X33
G2 X32.2 Y15 I0 J0.8
G1 Y35
G2 X33 Y35.8 I0.8 J0
G1 X44.2
Y50
G2 X45 Y50.8 I0.8 J0
G1 X60
G2 X60.8 Y50 I0 J-0.8
G1 Y0
G2 X60 Y-0.8 I-0.8 J0
G1 X45
G2 X44.35 Y-0.467 I0 J0.8
G1 X44.421 Y-0.766
Z-6 F333.3
G2 X44.04 Y0 I0.579 J0.766 F1000
G1 Y14.04
X33
G2 X32.04 Y15 I0 J0.96
G1 Y35
G2 X33 Y35.96 I0.96 J0
G1 X44.04
Y50
G2 X45 Y50.96 I0.96 J0
G1 X60
G2 X60.96 Y50 I0 J-0.96
G1 Y38.8
Z-5
Y36.2
Z-6 F333.3
Y13.8 F1000
Z-5
Y11.2
Z-6 F333.3
Y0 F1000
G2 X60 Y-0.96 I-0.96 J0
G1 X45
G2 X44.421 Y-0.766 I0 J0.96
G1 X44.392 Y-0.736
X44.374 Y-0.7
X44.368 Y-0.659
X44.374 Y-0.619
X44.382 Y-0.58
X44.38 Y-0.54
X44.37 Y-0.502
X44.35 Y-0.467
G2 X44.2 Y0 I0.65 J0.467
G1 Y14.2
X33
G2 X32.2 Y15 I0 J0.8
G1 Y35
G2 X33 Y35.8 I0.8 J0
G1 X44.2
Y50
G2 X45 Y50.8 I0.8 J0
G1 X60
G2 X60.8 Y50 I0 J-0.8
G1 Y38.8
Z-5
Y36.2
Z-6 F333.3
Y13.8 F1000
Z-5
Y11.2
Z-6 F333.3
Y0 F1000
G2 X60 Y-0.8 I-0.8 J0
G1 X45
G2 X44.35 Y-0.467 I0 J0.8
G1 X44.421 Y-0.766
Z-6.5 F333.3
G2 X44.04 Y0 I0.579 J0.766 F1000
G1 Y14.04
X33
G2 X32.04 Y15 I0 J0.96
G1 Y35
G2 X33 Y35.96 I0.96 J0
G1 X44.04
Y50
G2 X45 Y50.96 I0.96 J0
G1 X60
G2 X60.96 Y50 I0 J-0.96
G1 Y38.8
Z-5
Y36.2
Z-6.5 F333.3
Y13.8 F1000
Z-5
Y11.2
Z-6.5 F333.3
Y0 F1000
G2 X60 Y-0.96 I-0.96 J0
G1 X45
G2 X44.421 Y-0.766 I0 J0.96
G1 X44.392 Y-0.736
X44.374 Y-0.7
X44.368 Y-0.659
X44.374 Y-0.619
X44.382 Y-0.58
X44.38 Y-0.54
X44.37 Y-0.502
X44.35 Y-0.467
G2 X44.2 Y0 I0.65 J0.467
G1 Y14.2
X33
G2 X32.2 Y15 I0 J0.8
G1 Y35
G2 X33 Y35.8 I0.8 J0
G1 X44.2
Y50
G2 X45 Y50.8 I0.8 J0
G1 X60
G2 X60.8 Y50 I0 J-0.8
G1 Y38.8
Z-5
Y36.2
Z-6.5 F333.3
Y13.8 F1000
Z-5
Y11.2
Z-6.5 F333.3
Y0 F1000
G2 X60 Y-0.8 I-0.8 J0
G1 X45
G2 X44.35 Y-0.467 I0 J0.8
G1 Z10
M5
M30
