(1030_sq_18bit)
(T1  D=1.8 CR=0 - ZMIN=-6.5 - flat end mill)
G90 G94
G17
G21
(When using Fusion 360 for Personal Use, the feedrate of)
(rapid moves is reduced to match the feedrate of cutting)
(moves, which can increase machining time. Unrestricted rapid)
(moves are available with a Fusion 360 Subscription.)

(2D Contour5)
T1
S5000 M3
G54
G0 X32.096 Y35.59
Z10
G1 Z5 F1000
Z2 F333.3
Z-1
G2 X33 Y36.08 I0.904 J-0.59 F1000
G1 X43.92
Y50
G2 X45 Y51.08 I1.08 J0
G1 X60
G2 X61.08 Y50 I0 J-1.08
G1 Y0
G2 X60 Y-1.08 I-1.08 J0
G1 X45
G2 X43.92 Y0 I0 J1.08
G1 Y13.92
X33
G2 X31.92 Y15 I0 J1.08
G1 Y35
G2 X32.096 Y35.59 I1.08 J0
G1 X32.126 Y35.624
X32.166 Y35.648
X32.211 Y35.658
X32.257 Y35.654
X32.301 Y35.648
X32.346 Y35.653
X32.388 Y35.668
X32.425 Y35.693
G2 X33 Y35.9 I0.575 J-0.693
G1 X44.1
Y50
G2 X45 Y50.9 I0.9 J0
G1 X60
G2 X60.9 Y50 I0 J-0.9
G1 Y0
G2 X60 Y-0.9 I-0.9 J0
G1 X45
G2 X44.1 Y0 I0 J0.9
G1 Y14.1
X33
G2 X32.1 Y15 I0 J0.9
G1 Y35
G2 X32.425 Y35.693 I0.9 J0
G1 X32.096 Y35.59
Z-2 F333.3
G2 X33 Y36.08 I0.904 J-0.59 F1000
G1 X43.92
Y50
G2 X45 Y51.08 I1.08 J0
G1 X60
G2 X61.08 Y50 I0 J-1.08
G1 Y0
G2 X60 Y-1.08 I-1.08 J0
G1 X45
G2 X43.92 Y0 I0 J1.08
G1 Y13.92
X33
G2 X31.92 Y15 I0 J1.08
G1 Y35
G2 X32.096 Y35.59 I1.08 J0
G1 X32.126 Y35.624
X32.166 Y35.648
X32.211 Y35.658
X32.257 Y35.654
X32.301 Y35.648
X32.346 Y35.653
X32.388 Y35.668
X32.425 Y35.693
G2 X33 Y35.9 I0.575 J-0.693
G1 X44.1
Y50
G2 X45 Y50.9 I0.9 J0
G1 X60
G2 X60.9 Y50 I0 J-0.9
G1 Y0
G2 X60 Y-0.9 I-0.9 J0
G1 X45
G2 X44.1 Y0 I0 J0.9
G1 Y14.1
X33
G2 X32.1 Y15 I0 J0.9
G1 Y35
G2 X32.425 Y35.693 I0.9 J0
G1 X32.096 Y35.59
Z-3 F333.3
G2 X33 Y36.08 I0.904 J-0.59 F1000
G1 X43.92
Y50
G2 X45 Y51.08 I1.08 J0
G1 X60
G2 X61.08 Y50 I0 J-1.08
G1 Y0
G2 X60 Y-1.08 I-1.08 J0
G1 X45
G2 X43.92 Y0 I0 J1.08
G1 Y13.92
X33
G2 X31.92 Y15 I0 J1.08
G1 Y35
G2 X32.096 Y35.59 I1.08 J0
G1 X32.126 Y35.624
X32.166 Y35.648
X32.211 Y35.658
X32.257 Y35.654
X32.301 Y35.648
X32.346 Y35.653
X32.388 Y35.668
X32.425 Y35.693
G2 X33 Y35.9 I0.575 J-0.693
G1 X44.1
Y50
G2 X45 Y50.9 I0.9 J0
G1 X60
G2 X60.9 Y50 I0 J-0.9
G1 Y0
G2 X60 Y-0.9 I-0.9 J0
G1 X45
G2 X44.1 Y0 I0 J0.9
G1 Y14.1
X33
G2 X32.1 Y15 I0 J0.9
G1 Y35
G2 X32.425 Y35.693 I0.9 J0
G1 X32.096 Y35.59
Z-4 F333.3
G2 X33 Y36.08 I0.904 J-0.59 F1000
G1 X43.92
Y50
G2 X45 Y51.08 I1.08 J0
G1 X60
G2 X61.08 Y50 I0 J-1.08
G1 Y0
G2 X60 Y-1.08 I-1.08 J0
G1 X45
G2 X43.92 Y0 I0 J1.08
G1 Y13.92
X33
G2 X31.92 Y15 I0 J1.08
G1 Y35
G2 X32.096 Y35.59 I1.08 J0
G1 X32.126 Y35.624
X32.166 Y35.648
X32.211 Y35.658
X32.257 Y35.654
X32.301 Y35.648
X32.346 Y35.653
X32.388 Y35.668
X32.425 Y35.693
G2 X33 Y35.9 I0.575 J-0.693
G1 X44.1
Y50
G2 X45 Y50.9 I0.9 J0
G1 X60
G2 X60.9 Y50 I0 J-0.9
G1 Y0
G2 X60 Y-0.9 I-0.9 J0
G1 X45
G2 X44.1 Y0 I0 J0.9
G1 Y14.1
X33
G2 X32.1 Y15 I0 J0.9
G1 Y35
G2 X32.425 Y35.693 I0.9 J0
G1 X32.096 Y35.59
Z-5 F333.3
G2 X33 Y36.08 I0.904 J-0.59 F1000
G1 X43.92
Y50
G2 X45 Y51.08 I1.08 J0
G1 X60
G2 X61.08 Y50 I0 J-1.08
G1 Y38.9
Z-4.5
Y36.1
Z-5 F333.3
Y13.9 F1000
Z-4.5
Y11.1
Z-5 F333.3
Y0 F1000
G2 X60 Y-1.08 I-1.08 J0
G1 X45
G2 X43.92 Y0 I0 J1.08
G1 Y13.92
X33
G2 X31.92 Y15 I0 J1.08
G1 Y35
G2 X32.096 Y35.59 I1.08 J0
G1 X32.126 Y35.624
X32.166 Y35.648
X32.211 Y35.658
X32.257 Y35.654
X32.301 Y35.648
X32.346 Y35.653
X32.388 Y35.668
X32.425 Y35.693
G2 X33 Y35.9 I0.575 J-0.693
G1 X44.1
Y50
G2 X45 Y50.9 I0.9 J0
G1 X60
G2 X60.9 Y50 I0 J-0.9
G1 Y38.9
Z-4.5
Y36.1
Z-5 F333.3
Y13.9 F1000
Z-4.5
Y11.1
Z-5 F333.3
Y0 F1000
G2 X60 Y-0.9 I-0.9 J0
G1 X45
G2 X44.1 Y0 I0 J0.9
G1 Y14.1
X33
G2 X32.1 Y15 I0 J0.9
G1 Y35
G2 X32.425 Y35.693 I0.9 J0
G1 X32.096 Y35.59
Z-6 F333.3
G2 X33 Y36.08 I0.904 J-0.59 F1000
G1 X43.92
Y50
G2 X45 Y51.08 I1.08 J0
G1 X60
G2 X61.08 Y50 I0 J-1.08
G1 Y38.9
Z-4.5
Y36.1
Z-6 F333.3
Y13.9 F1000
Z-4.5
Y11.1
Z-6 F333.3
Y0 F1000
G2 X60 Y-1.08 I-1.08 J0
G1 X45
G2 X43.92 Y0 I0 J1.08
G1 Y13.92
X33
G2 X31.92 Y15 I0 J1.08
G1 Y35
G2 X32.096 Y35.59 I1.08 J0
G1 X32.126 Y35.624
X32.166 Y35.648
X32.211 Y35.658
X32.257 Y35.654
X32.301 Y35.648
X32.346 Y35.653
X32.388 Y35.668
X32.425 Y35.693
G2 X33 Y35.9 I0.575 J-0.693
G1 X44.1
Y50
G2 X45 Y50.9 I0.9 J0
G1 X60
G2 X60.9 Y50 I0 J-0.9
G1 Y38.9
Z-4.5
Y36.1
Z-6 F333.3
Y13.9 F1000
Z-4.5
Y11.1
Z-6 F333.3
Y0 F1000
G2 X60 Y-0.9 I-0.9 J0
G1 X45
G2 X44.1 Y0 I0 J0.9
G1 Y14.1
X33
G2 X32.1 Y15 I0 J0.9
G1 Y35
G2 X32.425 Y35.693 I0.9 J0
G1 X32.096 Y35.59
Z-6.5 F333.3
G2 X33 Y36.08 I0.904 J-0.59 F1000
G1 X43.92
Y50
G2 X45 Y51.08 I1.08 J0
G1 X60
G2 X61.08 Y50 I0 J-1.08
G1 Y38.9
Z-4.5
Y36.1
Z-6.5 F333.3
Y13.9 F1000
Z-4.5
Y11.1
Z-6.5 F333.3
Y0 F1000
G2 X60 Y-1.08 I-1.08 J0
G1 X45
G2 X43.92 Y0 I0 J1.08
G1 Y13.92
X33
G2 X31.92 Y15 I0 J1.08
G1 Y35
G2 X32.096 Y35.59 I1.08 J0
G1 X32.126 Y35.624
X32.166 Y35.648
X32.211 Y35.658
X32.257 Y35.654
X32.301 Y35.648
X32.346 Y35.653
X32.388 Y35.668
X32.425 Y35.693
G2 X33 Y35.9 I0.575 J-0.693
G1 X44.1
Y50
G2 X45 Y50.9 I0.9 J0
G1 X60
G2 X60.9 Y50 I0 J-0.9
G1 Y38.9
Z-4.5
Y36.1
Z-6.5 F333.3
Y13.9 F1000
Z-4.5
Y11.1
Z-6.5 F333.3
Y0 F1000
G2 X60 Y-0.9 I-0.9 J0
G1 X45
G2 X44.1 Y0 I0 J0.9
G1 Y14.1
X33
G2 X32.1 Y15 I0 J0.9
G1 Y35
G2 X32.425 Y35.693 I0.9 J0
G1 Z5
X25.256 Y16.049
Z2 F333.3
Z-1
G2 X26.08 Y15 I-0.256 J-1.049 F1000
G1 Y0
G2 X25 Y-1.08 I-1.08 J0
G1 X0
G2 X-1.08 Y0 I0 J1.08
G1 Y50
G2 X0 Y51.08 I1.08 J0
G1 X25
G2 X26.08 Y50 I0 J-1.08
G1 Y35
G2 X25 Y33.92 I-1.08 J0
G1 X14.08
Y16.08
X25
G2 X25.256 Y16.049 I0 J-1.08
G1 X25.299 Y16.031
X25.334 Y16.002
X25.358 Y15.963
X25.37 Y15.918
X25.379 Y15.875
X25.399 Y15.834
X25.427 Y15.799
X25.463 Y15.772
G2 X25.9 Y15 I-0.463 J-0.772
G1 Y0
G2 X25 Y-0.9 I-0.9 J0
G1 X0
G2 X-0.9 Y0 I0 J0.9
G1 Y50
G2 X0 Y50.9 I0.9 J0
G1 X25
G2 X25.9 Y50 I0 J-0.9
G1 Y35
G2 X25 Y34.1 I-0.9 J0
G1 X13.9
Y15.9
X25
G2 X25.463 Y15.772 I0 J-0.9
G1 X25.256 Y16.049
Z-2 F333.3
G2 X26.08 Y15 I-0.256 J-1.049 F1000
G1 Y0
G2 X25 Y-1.08 I-1.08 J0
G1 X0
G2 X-1.08 Y0 I0 J1.08
G1 Y50
G2 X0 Y51.08 I1.08 J0
G1 X25
G2 X26.08 Y50 I0 J-1.08
G1 Y35
G2 X25 Y33.92 I-1.08 J0
G1 X14.08
Y16.08
X25
G2 X25.256 Y16.049 I0 J-1.08
G1 X25.299 Y16.031
X25.334 Y16.002
X25.358 Y15.963
X25.37 Y15.918
X25.379 Y15.875
X25.399 Y15.834
X25.427 Y15.799
X25.463 Y15.772
G2 X25.9 Y15 I-0.463 J-0.772
G1 Y0
G2 X25 Y-0.9 I-0.9 J0
G1 X0
G2 X-0.9 Y0 I0 J0.9
G1 Y50
G2 X0 Y50.9 I0.9 J0
G1 X25
G2 X25.9 Y50 I0 J-0.9
G1 Y35
G2 X25 Y34.1 I-0.9 J0
G1 X13.9
Y15.9
X25
G2 X25.463 Y15.772 I0 J-0.9
G1 X25.256 Y16.049
Z-3 F333.3
G2 X26.08 Y15 I-0.256 J-1.049 F1000
G1 Y0
G2 X25 Y-1.08 I-1.08 J0
G1 X0
G2 X-1.08 Y0 I0 J1.08
G1 Y50
G2 X0 Y51.08 I1.08 J0
G1 X25
G2 X26.08 Y50 I0 J-1.08
G1 Y35
G2 X25 Y33.92 I-1.08 J0
G1 X14.08
Y16.08
X25
G2 X25.256 Y16.049 I0 J-1.08
G1 X25.299 Y16.031
X25.334 Y16.002
X25.358 Y15.963
X25.37 Y15.918
X25.379 Y15.875
X25.399 Y15.834
X25.427 Y15.799
X25.463 Y15.772
G2 X25.9 Y15 I-0.463 J-0.772
G1 Y0
G2 X25 Y-0.9 I-0.9 J0
G1 X0
G2 X-0.9 Y0 I0 J0.9
G1 Y50
G2 X0 Y50.9 I0.9 J0
G1 X25
G2 X25.9 Y50 I0 J-0.9
G1 Y35
G2 X25 Y34.1 I-0.9 J0
G1 X13.9
Y15.9
X25
G2 X25.463 Y15.772 I0 J-0.9
G1 X25.256 Y16.049
Z-4 F333.3
G2 X26.08 Y15 I-0.256 J-1.049 F1000
G1 Y0
G2 X25 Y-1.08 I-1.08 J0
G1 X0
G2 X-1.08 Y0 I0 J1.08
G1 Y50
G2 X0 Y51.08 I1.08 J0
G1 X25
G2 X26.08 Y50 I0 J-1.08
G1 Y35
G2 X25 Y33.92 I-1.08 J0
G1 X14.08
Y16.08
X25
G2 X25.256 Y16.049 I0 J-1.08
G1 X25.299 Y16.031
X25.334 Y16.002
X25.358 Y15.963
X25.37 Y15.918
X25.379 Y15.875
X25.399 Y15.834
X25.427 Y15.799
X25.463 Y15.772
G2 X25.9 Y15 I-0.463 J-0.772
G1 Y0
G2 X25 Y-0.9 I-0.9 J0
G1 X0
G2 X-0.9 Y0 I0 J0.9
G1 Y50
G2 X0 Y50.9 I0.9 J0
G1 X25
G2 X25.9 Y50 I0 J-0.9
G1 Y35
G2 X25 Y34.1 I-0.9 J0
G1 X13.9
Y15.9
X25
G2 X25.463 Y15.772 I0 J-0.9
G1 X25.256 Y16.049
Z-5 F333.3
G2 X26.08 Y15 I-0.256 J-1.049 F1000
G1 Y0
G2 X25 Y-1.08 I-1.08 J0
G1 X13.9
Z-4.5
X11.1
Z-5 F333.3
X0 F1000
G2 X-1.08 Y0 I0 J1.08
G1 Y11.1
Z-4.5
Y13.9
Z-5 F333.3
Y36.1 F1000
Z-4.5
Y38.9
Z-5 F333.3
Y50 F1000
G2 X0 Y51.08 I1.08 J0
G1 X11.1
Z-4.5
X13.9
Z-5 F333.3
X25 F1000
G2 X26.08 Y50 I0 J-1.08
G1 Y35
G2 X25 Y33.92 I-1.08 J0
G1 X14.08
Y16.08
X25
G2 X25.256 Y16.049 I0 J-1.08
G1 X25.299 Y16.031
X25.334 Y16.002
X25.358 Y15.963
X25.37 Y15.918
X25.379 Y15.875
X25.399 Y15.834
X25.427 Y15.799
X25.463 Y15.772
G2 X25.9 Y15 I-0.463 J-0.772
G1 Y0
G2 X25 Y-0.9 I-0.9 J0
G1 X13.9
Z-4.5
X11.1
Z-5 F333.3
X0 F1000
G2 X-0.9 Y0 I0 J0.9
G1 Y11.1
Z-4.5
Y13.9
Z-5 F333.3
Y36.1 F1000
Z-4.5
Y38.9
Z-5 F333.3
Y50 F1000
G2 X0 Y50.9 I0.9 J0
G1 X11.1
Z-4.5
X13.9
Z-5 F333.3
X25 F1000
G2 X25.9 Y50 I0 J-0.9
G1 Y35
G2 X25 Y34.1 I-0.9 J0
G1 X13.9
Y15.9
X25
G2 X25.463 Y15.772 I0 J-0.9
G1 X25.256 Y16.049
Z-6 F333.3
G2 X26.08 Y15 I-0.256 J-1.049 F1000
G1 Y0
G2 X25 Y-1.08 I-1.08 J0
G1 X13.9
Z-4.5
X11.1
Z-6 F333.3
X0 F1000
G2 X-1.08 Y0 I0 J1.08
G1 Y11.1
Z-4.5
Y13.9
Z-6 F333.3
Y36.1 F1000
Z-4.5
Y38.9
Z-6 F333.3
Y50 F1000
G2 X0 Y51.08 I1.08 J0
G1 X11.1
Z-4.5
X13.9
Z-6 F333.3
X25 F1000
G2 X26.08 Y50 I0 J-1.08
G1 Y35
G2 X25 Y33.92 I-1.08 J0
G1 X14.08
Y16.08
X25
G2 X25.256 Y16.049 I0 J-1.08
G1 X25.299 Y16.031
X25.334 Y16.002
X25.358 Y15.963
X25.37 Y15.918
X25.379 Y15.875
X25.399 Y15.834
X25.427 Y15.799
X25.463 Y15.772
G2 X25.9 Y15 I-0.463 J-0.772
G1 Y0
G2 X25 Y-0.9 I-0.9 J0
G1 X13.9
Z-4.5
X11.1
Z-6 F333.3
X0 F1000
G2 X-0.9 Y0 I0 J0.9
G1 Y11.1
Z-4.5
Y13.9
Z-6 F333.3
Y36.1 F1000
Z-4.5
Y38.9
Z-6 F333.3
Y50 F1000
G2 X0 Y50.9 I0.9 J0
G1 X11.1
Z-4.5
X13.9
Z-6 F333.3
X25 F1000
G2 X25.9 Y50 I0 J-0.9
G1 Y35
G2 X25 Y34.1 I-0.9 J0
G1 X13.9
Y15.9
X25
G2 X25.463 Y15.772 I0 J-0.9
G1 X25.256 Y16.049
Z-6.5 F333.3
G2 X26.08 Y15 I-0.256 J-1.049 F1000
G1 Y0
G2 X25 Y-1.08 I-1.08 J0
G1 X13.9
Z-4.5
X11.1
Z-6.5 F333.3
X0 F1000
G2 X-1.08 Y0 I0 J1.08
G1 Y11.1
Z-4.5
Y13.9
Z-6.5 F333.3
Y36.1 F1000
Z-4.5
Y38.9
Z-6.5 F333.3
Y50 F1000
G2 X0 Y51.08 I1.08 J0
G1 X11.1
Z-4.5
X13.9
Z-6.5 F333.3
X25 F1000
G2 X26.08 Y50 I0 J-1.08
G1 Y35
G2 X25 Y33.92 I-1.08 J0
G1 X14.08
Y16.08
X25
G2 X25.256 Y16.049 I0 J-1.08
G1 X25.299 Y16.031
X25.334 Y16.002
X25.358 Y15.963
X25.37 Y15.918
X25.379 Y15.875
X25.399 Y15.834
X25.427 Y15.799
X25.463 Y15.772
G2 X25.9 Y15 I-0.463 J-0.772
G1 Y0
G2 X25 Y-0.9 I-0.9 J0
G1 X13.9
Z-4.5
X11.1
Z-6.5 F333.3
X0 F1000
G2 X-0.9 Y0 I0 J0.9
G1 Y11.1
Z-4.5
Y13.9
Z-6.5 F333.3
Y36.1 F1000
Z-4.5
Y38.9
Z-6.5 F333.3
Y50 F1000
G2 X0 Y50.9 I0.9 J0
G1 X11.1
Z-4.5
X13.9
Z-6.5 F333.3
X25 F1000
G2 X25.9 Y50 I0 J-0.9
G1 Y35
G2 X25 Y34.1 I-0.9 J0
G1 X13.9
Y15.9
X25
G2 X25.463 Y15.772 I0 J-0.9
G1 Z10
M5
M30
