(1031_sq_17bit)
(T1  D=1.7 CR=0 - ZMIN=-6.5 - flat end mill)
G90 G94
G17
G21
(When using Fusion 360 for Personal Use, the feedrate of)
(rapid moves is reduced to match the feedrate of cutting)
(moves, which can increase machining time. Unrestricted rapid)
(moves are available with a Fusion 360 Subscription.)

(2D Contour5)
T1
S5000 M3
G54
G0 X32.148 Y35.561
Z10
G1 Z5 F1000
Z2 F333.3
Z-1
G2 X33 Y36.02 I0.852 J-0.561 F1000
G1 X43.98
Y50
G2 X45 Y51.02 I1.02 J0
G1 X60
G2 X61.02 Y50 I0 J-1.02
G1 Y0
G2 X60 Y-1.02 I-1.02 J0
G1 X45
G2 X43.98 Y0 I0 J1.02
G1 Y13.98
X33
G2 X31.98 Y15 I0 J1.02
G1 Y35
G2 X32.148 Y35.561 I1.02 J0
G1 X32.177 Y35.593
X32.215 Y35.615
X32.257 Y35.624
X32.3 Y35.62
X32.342 Y35.615
X32.384 Y35.619
X32.424 Y35.634
X32.46 Y35.656
G2 X33 Y35.85 I0.54 J-0.656
G1 X44.15
Y50
G2 X45 Y50.85 I0.85 J0
G1 X60
G2 X60.85 Y50 I0 J-0.85
G1 Y0
G2 X60 Y-0.85 I-0.85 J0
G1 X45
G2 X44.15 Y0 I0 J0.85
G1 Y14.15
X33
G2 X32.15 Y15 I0 J0.85
G1 Y35
G2 X32.46 Y35.656 I0.85 J0
G1 X32.148 Y35.561
Z-2 F333.3
G2 X33 Y36.02 I0.852 J-0.561 F1000
G1 X43.98
Y50
G2 X45 Y51.02 I1.02 J0
G1 X60
G2 X61.02 Y50 I0 J-1.02
G1 Y0
G2 X60 Y-1.02 I-1.02 J0
G1 X45
G2 X43.98 Y0 I0 J1.02
G1 Y13.98
X33
G2 X31.98 Y15 I0 J1.02
G1 Y35
G2 X32.148 Y35.561 I1.02 J0
G1 X32.177 Y35.593
X32.215 Y35.615
X32.257 Y35.624
X32.3 Y35.62
X32.342 Y35.615
X32.384 Y35.619
X32.424 Y35.634
X32.46 Y35.656
G2 X33 Y35.85 I0.54 J-0.656
G1 X44.15
Y50
G2 X45 Y50.85 I0.85 J0
G1 X60
G2 X60.85 Y50 I0 J-0.85
G1 Y0
G2 X60 Y-0.85 I-0.85 J0
G1 X45
G2 X44.15 Y0 I0 J0.85
G1 Y14.15
X33
G2 X32.15 Y15 I0 J0.85
G1 Y35
G2 X32.46 Y35.656 I0.85 J0
G1 X32.148 Y35.561
Z-3 F333.3
G2 X33 Y36.02 I0.852 J-0.561 F1000
G1 X43.98
Y50
G2 X45 Y51.02 I1.02 J0
G1 X60
G2 X61.02 Y50 I0 J-1.02
G1 Y0
G2 X60 Y-1.02 I-1.02 J0
G1 X45
G2 X43.98 Y0 I0 J1.02
G1 Y13.98
X33
G2 X31.98 Y15 I0 J1.02
G1 Y35
G2 X32.148 Y35.561 I1.02 J0
G1 X32.177 Y35.593
X32.215 Y35.615
X32.257 Y35.624
X32.3 Y35.62
X32.342 Y35.615
X32.384 Y35.619
X32.424 Y35.634
X32.46 Y35.656
G2 X33 Y35.85 I0.54 J-0.656
G1 X44.15
Y50
G2 X45 Y50.85 I0.85 J0
G1 X60
G2 X60.85 Y50 I0 J-0.85
G1 Y0
G2 X60 Y-0.85 I-0.85 J0
G1 X45
G2 X44.15 Y0 I0 J0.85
G1 Y14.15
X33
G2 X32.15 Y15 I0 J0.85
G1 Y35
G2 X32.46 Y35.656 I0.85 J0
G1 X32.148 Y35.561
Z-4 F333.3
G2 X33 Y36.02 I0.852 J-0.561 F1000
G1 X43.98
Y50
G2 X45 Y51.02 I1.02 J0
G1 X60
G2 X61.02 Y50 I0 J-1.02
G1 Y0
G2 X60 Y-1.02 I-1.02 J0
G1 X45
G2 X43.98 Y0 I0 J1.02
G1 Y13.98
X33
G2 X31.98 Y15 I0 J1.02
G1 Y35
G2 X32.148 Y35.561 I1.02 J0
G1 X32.177 Y35.593
X32.215 Y35.615
X32.257 Y35.624
X32.3 Y35.62
X32.342 Y35.615
X32.384 Y35.619
X32.424 Y35.634
X32.46 Y35.656
G2 X33 Y35.85 I0.54 J-0.656
G1 X44.15
Y50
G2 X45 Y50.85 I0.85 J0
G1 X60
G2 X60.85 Y50 I0 J-0.85
G1 Y0
G2 X60 Y-0.85 I-0.85 J0
G1 X45
G2 X44.15 Y0 I0 J0.85
G1 Y14.15
X33
G2 X32.15 Y15 I0 J0.85
G1 Y35
G2 X32.46 Y35.656 I0.85 J0
G1 X32.148 Y35.561
Z-5 F333.3
G2 X33 Y36.02 I0.852 J-0.561 F1000
G1 X43.98
Y50
G2 X45 Y51.02 I1.02 J0
G1 X60
G2 X61.02 Y50 I0 J-1.02
G1 Y38.85
Z-4.5
Y36.15
Z-5 F333.3
Y13.85 F1000
Z-4.5
Y11.15
Z-5 F333.3
Y0 F1000
G2 X60 Y-1.02 I-1.02 J0
G1 X45
G2 X43.98 Y0 I0 J1.02
G1 Y13.98
X33
G2 X31.98 Y15 I0 J1.02
G1 Y35
G2 X32.148 Y35.561 I1.02 J0
G1 X32.177 Y35.593
X32.215 Y35.615
X32.257 Y35.624
X32.3 Y35.62
X32.342 Y35.615
X32.384 Y35.619
X32.424 Y35.634
X32.46 Y35.656
G2 X33 Y35.85 I0.54 J-0.656
G1 X44.15
Y50
G2 X45 Y50.85 I0.85 J0
G1 X60
G2 X60.85 Y50 I0 J-0.85
G1 Y38.85
Z-4.5
Y36.15
Z-5 F333.3
Y13.85 F1000
Z-4.5
Y11.15
Z-5 F333.3
Y0 F1000
G2 X60 Y-0.85 I-0.85 J0
G1 X45
G2 X44.15 Y0 I0 J0.85
G1 Y14.15
X33
G2 X32.15 Y15 I0 J0.85
G1 Y35
G2 X32.46 Y35.656 I0.85 J0
G1 X32.148 Y35.561
Z-6 F333.3
G2 X33 Y36.02 I0.852 J-0.561 F1000
G1 X43.98
Y50
G2 X45 Y51.02 I1.02 J0
G1 X60
G2 X61.02 Y50 I0 J-1.02
G1 Y38.85
Z-4.5
Y36.15
Z-6 F333.3
Y13.85 F1000
Z-4.5
Y11.15
Z-6 F333.3
Y0 F1000
G2 X60 Y-1.02 I-1.02 J0
G1 X45
G2 X43.98 Y0 I0 J1.02
G1 Y13.98
X33
G2 X31.98 Y15 I0 J1.02
G1 Y35
G2 X32.148 Y35.561 I1.02 J0
G1 X32.177 Y35.593
X32.215 Y35.615
X32.257 Y35.624
X32.3 Y35.62
X32.342 Y35.615
X32.384 Y35.619
X32.424 Y35.634
X32.46 Y35.656
G2 X33 Y35.85 I0.54 J-0.656
G1 X44.15
Y50
G2 X45 Y50.85 I0.85 J0
G1 X60
G2 X60.85 Y50 I0 J-0.85
G1 Y38.85
Z-4.5
Y36.15
Z-6 F333.3
Y13.85 F1000
Z-4.5
Y11.15
Z-6 F333.3
Y0 F1000
G2 X60 Y-0.85 I-0.85 J0
G1 X45
G2 X44.15 Y0 I0 J0.85
G1 Y14.15
X33
G2 X32.15 Y15 I0 J0.85
G1 Y35
G2 X32.46 Y35.656 I0.85 J0
G1 X32.148 Y35.561
Z-6.5 F333.3
G2 X33 Y36.02 I0.852 J-0.561 F1000
G1 X43.98
Y50
G2 X45 Y51.02 I1.02 J0
G1 X60
G2 X61.02 Y50 I0 J-1.02
G1 Y38.85
Z-4.5
Y36.15
Z-6.5 F333.3
Y13.85 F1000
Z-4.5
Y11.15
Z-6.5 F333.3
Y0 F1000
G2 X60 Y-1.02 I-1.02 J0
G1 X45
G2 X43.98 Y0 I0 J1.02
G1 Y13.98
X33
G2 X31.98 Y15 I0 J1.02
G1 Y35
G2 X32.148 Y35.561 I1.02 J0
G1 X32.177 Y35.593
X32.215 Y35.615
X32.257 Y35.624
X32.3 Y35.62
X32.342 Y35.615
X32.384 Y35.619
X32.424 Y35.634
X32.46 Y35.656
G2 X33 Y35.85 I0.54 J-0.656
G1 X44.15
Y50
G2 X45 Y50.85 I0.85 J0
G1 X60
G2 X60.85 Y50 I0 J-0.85
G1 Y38.85
Z-4.5
Y36.15
Z-6.5 F333.3
Y13.85 F1000
Z-4.5
Y11.15
Z-6.5 F333.3
Y0 F1000
G2 X60 Y-0.85 I-0.85 J0
G1 X45
G2 X44.15 Y0 I0 J0.85
G1 Y14.15
X33
G2 X32.15 Y15 I0 J0.85
G1 Y35
G2 X32.46 Y35.656 I0.85 J0
G1 Z5
X25.608 Y15.819
Z2 F333.3
Z-1
G2 X26.02 Y15 I-0.608 J-0.819 F1000
G1 Y0
G2 X25 Y-1.02 I-1.02 J0
G1 X0
G2 X-1.02 Y0 I0 J1.02
G1 Y50
G2 X0 Y51.02 I1.02 J0
G1 X25
G2 X26.02 Y50 I0 J-1.02
G1 Y35
G2 X25 Y33.98 I-1.02 J0
G1 X14.02
Y16.02
X25
G2 X25.608 Y15.819 I0 J-1.02
G1 X25.639 Y15.788
X25.658 Y15.749
X25.665 Y15.706
X25.659 Y15.663
X25.651 Y15.622
X25.653 Y15.58
X25.665 Y15.539
X25.686 Y15.502
G2 X25.85 Y15 I-0.686 J-0.502
G1 Y0
G2 X25 Y-0.85 I-0.85 J0
G1 X0
G2 X-0.85 Y0 I0 J0.85
G1 Y50
G2 X0 Y50.85 I0.85 J0
G1 X25
G2 X25.85 Y50 I0 J-0.85
G1 Y35
G2 X25 Y34.15 I-0.85 J0
G1 X13.85
Y15.85
X25
G2 X25.686 Y15.502 I0 J-0.85
G1 X25.608 Y15.819
Z-2 F333.3
G2 X26.02 Y15 I-0.608 J-0.819 F1000
G1 Y0
G2 X25 Y-1.02 I-1.02 J0
G1 X0
G2 X-1.02 Y0 I0 J1.02
G1 Y50
G2 X0 Y51.02 I1.02 J0
G1 X25
G2 X26.02 Y50 I0 J-1.02
G1 Y35
G2 X25 Y33.98 I-1.02 J0
G1 X14.02
Y16.02
X25
G2 X25.608 Y15.819 I0 J-1.02
G1 X25.639 Y15.788
X25.658 Y15.749
X25.665 Y15.706
X25.659 Y15.663
X25.651 Y15.622
X25.653 Y15.58
X25.665 Y15.539
X25.686 Y15.502
G2 X25.85 Y15 I-0.686 J-0.502
G1 Y0
G2 X25 Y-0.85 I-0.85 J0
G1 X0
G2 X-0.85 Y0 I0 J0.85
G1 Y50
G2 X0 Y50.85 I0.85 J0
G1 X25
G2 X25.85 Y50 I0 J-0.85
G1 Y35
G2 X25 Y34.15 I-0.85 J0
G1 X13.85
Y15.85
X25
G2 X25.686 Y15.502 I0 J-0.85
G1 X25.608 Y15.819
Z-3 F333.3
G2 X26.02 Y15 I-0.608 J-0.819 F1000
G1 Y0
G2 X25 Y-1.02 I-1.02 J0
G1 X0
G2 X-1.02 Y0 I0 J1.02
G1 Y50
G2 X0 Y51.02 I1.02 J0
G1 X25
G2 X26.02 Y50 I0 J-1.02
G1 Y35
G2 X25 Y33.98 I-1.02 J0
G1 X14.02
Y16.02
X25
G2 X25.608 Y15.819 I0 J-1.02
G1 X25.639 Y15.788
X25.658 Y15.749
X25.665 Y15.706
X25.659 Y15.663
X25.651 Y15.622
X25.653 Y15.58
X25.665 Y15.539
X25.686 Y15.502
G2 X25.85 Y15 I-0.686 J-0.502
G1 Y0
G2 X25 Y-0.85 I-0.85 J0
G1 X0
G2 X-0.85 Y0 I0 J0.85
G1 Y50
G2 X0 Y50.85 I0.85 J0
G1 X25
G2 X25.85 Y50 I0 J-0.85
G1 Y35
G2 X25 Y34.15 I-0.85 J0
G1 X13.85
Y15.85
X25
G2 X25.686 Y15.502 I0 J-0.85
G1 X25.608 Y15.819
Z-4 F333.3
G2 X26.02 Y15 I-0.608 J-0.819 F1000
G1 Y0
G2 X25 Y-1.02 I-1.02 J0
G1 X0
G2 X-1.02 Y0 I0 J1.02
G1 Y50
G2 X0 Y51.02 I1.02 J0
G1 X25
G2 X26.02 Y50 I0 J-1.02
G1 Y35
G2 X25 Y33.98 I-1.02 J0
G1 X14.02
Y16.02
X25
G2 X25.608 Y15.819 I0 J-1.02
G1 X25.639 Y15.788
X25.658 Y15.749
X25.665 Y15.706
X25.659 Y15.663
X25.651 Y15.622
X25.653 Y15.58
X25.665 Y15.539
X25.686 Y15.502
G2 X25.85 Y15 I-0.686 J-0.502
G1 Y0
G2 X25 Y-0.85 I-0.85 J0
G1 X0
G2 X-0.85 Y0 I0 J0.85
G1 Y50
G2 X0 Y50.85 I0.85 J0
G1 X25
G2 X25.85 Y50 I0 J-0.85
G1 Y35
G2 X25 Y34.15 I-0.85 J0
G1 X13.85
Y15.85
X25
G2 X25.686 Y15.502 I0 J-0.85
G1 X25.608 Y15.819
Z-5 F333.3
G2 X26.02 Y15 I-0.608 J-0.819 F1000
G1 Y0
G2 X25 Y-1.02 I-1.02 J0
G1 X13.85
Z-4.5
X11.15
Z-5 F333.3
X0 F1000
G2 X-1.02 Y0 I0 J1.02
G1 Y11.15
Z-4.5
Y13.85
Z-5 F333.3
Y36.15 F1000
Z-4.5
Y38.85
Z-5 F333.3
Y50 F1000
G2 X0 Y51.02 I1.02 J0
G1 X11.15
Z-4.5
X13.85
Z-5 F333.3
X25 F1000
G2 X26.02 Y50 I0 J-1.02
G1 Y35
G2 X25 Y33.98 I-1.02 J0
G1 X14.02
Y16.02
X25
G2 X25.608 Y15.819 I0 J-1.02
G1 X25.639 Y15.788
X25.658 Y15.749
X25.665 Y15.706
X25.659 Y15.663
X25.651 Y15.622
X25.653 Y15.58
X25.665 Y15.539
X25.686 Y15.502
G2 X25.85 Y15 I-0.686 J-0.502
G1 Y0
G2 X25 Y-0.85 I-0.85 J0
G1 X13.85
Z-4.5
X11.15
Z-5 F333.3
X0 F1000
G2 X-0.85 Y0 I0 J0.85
G1 Y11.15
Z-4.5
Y13.85
Z-5 F333.3
Y36.15 F1000
Z-4.5
Y38.85
Z-5 F333.3
Y50 F1000
G2 X0 Y50.85 I0.85 J0
G1 X11.15
Z-4.5
X13.85
Z-5 F333.3
X25 F1000
G2 X25.85 Y50 I0 J-0.85
G1 Y35
G2 X25 Y34.15 I-0.85 J0
G1 X13.85
Y15.85
X25
G2 X25.686 Y15.502 I0 J-0.85
G1 X25.608 Y15.819
Z-6 F333.3
G2 X26.02 Y15 I-0.608 J-0.819 F1000
G1 Y0
G2 X25 Y-1.02 I-1.02 J0
G1 X13.85
Z-4.5
X11.15
Z-6 F333.3
X0 F1000
G2 X-1.02 Y0 I0 J1.02
G1 Y11.15
Z-4.5
Y13.85
Z-6 F333.3
Y36.15 F1000
Z-4.5
Y38.85
Z-6 F333.3
Y50 F1000
G2 X0 Y51.02 I1.02 J0
G1 X11.15
Z-4.5
X13.85
Z-6 F333.3
X25 F1000
G2 X26.02 Y50 I0 J-1.02
G1 Y35
G2 X25 Y33.98 I-1.02 J0
G1 X14.02
Y16.02
X25
G2 X25.608 Y15.819 I0 J-1.02
G1 X25.639 Y15.788
X25.658 Y15.749
X25.665 Y15.706
X25.659 Y15.663
X25.651 Y15.622
X25.653 Y15.58
X25.665 Y15.539
X25.686 Y15.502
G2 X25.85 Y15 I-0.686 J-0.502
G1 Y0
G2 X25 Y-0.85 I-0.85 J0
G1 X13.85
Z-4.5
X11.15
Z-6 F333.3
X0 F1000
G2 X-0.85 Y0 I0 J0.85
G1 Y11.15
Z-4.5
Y13.85
Z-6 F333.3
Y36.15 F1000
Z-4.5
Y38.85
Z-6 F333.3
Y50 F1000
G2 X0 Y50.85 I0.85 J0
G1 X11.15
Z-4.5
X13.85
Z-6 F333.3
X25 F1000
G2 X25.85 Y50 I0 J-0.85
G1 Y35
G2 X25 Y34.15 I-0.85 J0
G1 X13.85
Y15.85
X25
G2 X25.686 Y15.502 I0 J-0.85
G1 X25.608 Y15.819
Z-6.5 F333.3
G2 X26.02 Y15 I-0.608 J-0.819 F1000
G1 Y0
G2 X25 Y-1.02 I-1.02 J0
G1 X13.85
Z-4.5
X11.15
Z-6.5 F333.3
X0 F1000
G2 X-1.02 Y0 I0 J1.02
G1 Y11.15
Z-4.5
Y13.85
Z-6.5 F333.3
Y36.15 F1000
Z-4.5
Y38.85
Z-6.5 F333.3
Y50 F1000
G2 X0 Y51.02 I1.02 J0
G1 X11.15
Z-4.5
X13.85
Z-6.5 F333.3
X25 F1000
G2 X26.02 Y50 I0 J-1.02
G1 Y35
G2 X25 Y33.98 I-1.02 J0
G1 X14.02
Y16.02
X25
G2 X25.608 Y15.819 I0 J-1.02
G1 X25.639 Y15.788
X25.658 Y15.749
X25.665 Y15.706
X25.659 Y15.663
X25.651 Y15.622
X25.653 Y15.58
X25.665 Y15.539
X25.686 Y15.502
G2 X25.85 Y15 I-0.686 J-0.502
G1 Y0
G2 X25 Y-0.85 I-0.85 J0
G1 X13.85
Z-4.5
X11.15
Z-6.5 F333.3
X0 F1000
G2 X-0.85 Y0 I0 J0.85
G1 Y11.15
Z-4.5
Y13.85
Z-6.5 F333.3
Y36.15 F1000
Z-4.5
Y38.85
Z-6.5 F333.3
Y50 F1000
G2 X0 Y50.85 I0.85 J0
G1 X11.15
Z-4.5
X13.85
Z-6.5 F333.3
X25 F1000
G2 X25.85 Y50 I0 J-0.85
G1 Y35
G2 X25 Y34.15 I-0.85 J0
G1 X13.85
Y15.85
X25
G2 X25.686 Y15.502 I0 J-0.85
G1 Z10
M5
M30
