(1032_sq_18bit_right)
(T1  D=1.8 CR=0 - ZMIN=-6.5 - flat end mill)
G90 G94
G17
G21
(When using Fusion 360 for Personal Use, the feedrate of)
(rapid moves is reduced to match the feedrate of cutting)
(moves, which can increase machining time. Unrestricted rapid)
(moves are available with a Fusion 360 Subscription.)

(2D Contour5)
T1
S5000 M3
G54
G0 X32.096 Y14.41
Z10
G1 Z5 F1000
Z3 F333.3
Z-2
G3 X33 Y13.92 I0.904 J0.59 F1000
G1 X43.92
Y0
G3 X45 Y-1.08 I1.08 J0
G1 X60
G3 X61.08 Y0 I0 J1.08
G1 Y50
G3 X60 Y51.08 I-1.08 J0
G1 X45
G3 X43.92 Y50 I0 J-1.08
G1 Y36.08
X33
G3 X31.92 Y35 I0 J-1.08
G1 Y15
G3 X32.096 Y14.41 I1.08 J0
G1 X32.126 Y14.376
X32.166 Y14.352
X32.211 Y14.342
X32.257 Y14.346
X32.301 Y14.352
X32.346 Y14.347
X32.388 Y14.332
X32.425 Y14.307
G3 X33 Y14.1 I0.575 J0.693
G1 X44.1
Y0
G3 X45 Y-0.9 I0.9 J0
G1 X60
G3 X60.9 Y0 I0 J0.9
G1 Y50
G3 X60 Y50.9 I-0.9 J0
G1 X45
G3 X44.1 Y50 I0 J-0.9
G1 Y35.9
X33
G3 X32.1 Y35 I0 J-0.9
G1 Y15
G3 X32.425 Y14.307 I0.9 J0
G1 X32.096 Y14.41
Z-4 F333.3
G3 X33 Y13.92 I0.904 J0.59 F1000
G1 X43.92
Y0
G3 X45 Y-1.08 I1.08 J0
G1 X60
G3 X61.08 Y0 I0 J1.08
G1 Y50
G3 X60 Y51.08 I-1.08 J0
G1 X45
G3 X43.92 Y50 I0 J-1.08
G1 Y36.08
X33
G3 X31.92 Y35 I0 J-1.08
G1 Y15
G3 X32.096 Y14.41 I1.08 J0
G1 X32.126 Y14.376
X32.166 Y14.352
X32.211 Y14.342
X32.257 Y14.346
X32.301 Y14.352
X32.346 Y14.347
X32.388 Y14.332
X32.425 Y14.307
G3 X33 Y14.1 I0.575 J0.693
G1 X44.1
Y0
G3 X45 Y-0.9 I0.9 J0
G1 X60
G3 X60.9 Y0 I0 J0.9
G1 Y50
G3 X60 Y50.9 I-0.9 J0
G1 X45
G3 X44.1 Y50 I0 J-0.9
G1 Y35.9
X33
G3 X32.1 Y35 I0 J-0.9
G1 Y15
G3 X32.425 Y14.307 I0.9 J0
G1 X32.096 Y14.41
Z-6 F333.3
G3 X33 Y13.92 I0.904 J0.59 F1000
G1 X43.92
Y0
G3 X45 Y-1.08 I1.08 J0
G1 X60
G3 X61.08 Y0 I0 J1.08
G1 Y11.1
Z-4.5
Y13.9
Z-6 F333.3
Y36.1 F1000
Z-4.5
Y38.9
Z-6 F333.3
Y50 F1000
G3 X60 Y51.08 I-1.08 J0
G1 X45
G3 X43.92 Y50 I0 J-1.08
G1 Y36.08
X33
G3 X31.92 Y35 I0 J-1.08
G1 Y15
G3 X32.096 Y14.41 I1.08 J0
G1 X32.126 Y14.376
X32.166 Y14.352
X32.211 Y14.342
X32.257 Y14.346
X32.301 Y14.352
X32.346 Y14.347
X32.388 Y14.332
X32.425 Y14.307
G3 X33 Y14.1 I0.575 J0.693
G1 X44.1
Y0
G3 X45 Y-0.9 I0.9 J0
G1 X60
G3 X60.9 Y0 I0 J0.9
G1 Y11.1
Z-4.5
Y13.9
Z-6 F333.3
Y36.1 F1000
Z-4.5
Y38.9
Z-6 F333.3
Y50 F1000
G3 X60 Y50.9 I-0.9 J0
G1 X45
G3 X44.1 Y50 I0 J-0.9
G1 Y35.9
X33
G3 X32.1 Y35 I0 J-0.9
G1 Y15
G3 X32.425 Y14.307 I0.9 J0
G1 X32.096 Y14.41
Z-6.5 F333.3
G3 X33 Y13.92 I0.904 J0.59 F1000
G1 X43.92
Y0
G3 X45 Y-1.08 I1.08 J0
G1 X60
G3 X61.08 Y0 I0 J1.08
G1 Y11.1
Z-4.5
Y13.9
Z-6.5 F333.3
Y36.1 F1000
Z-4.5
Y38.9
Z-6.5 F333.3
Y50 F1000
G3 X60 Y51.08 I-1.08 J0
G1 X45
G3 X43.92 Y50 I0 J-1.08
G1 Y36.08
X33
G3 X31.92 Y35 I0 J-1.08
G1 Y15
G3 X32.096 Y14.41 I1.08 J0
G1 X32.126 Y14.376
X32.166 Y14.352
X32.211 Y14.342
X32.257 Y14.346
X32.301 Y14.352
X32.346 Y14.347
X32.388 Y14.332
X32.425 Y14.307
G3 X33 Y14.1 I0.575 J0.693
G1 X44.1
Y0
G3 X45 Y-0.9 I0.9 J0
G1 X60
G3 X60.9 Y0 I0 J0.9
G1 Y11.1
Z-4.5
Y13.9
Z-6.5 F333.3
Y36.1 F1000
Z-4.5
Y38.9
Z-6.5 F333.3
Y50 F1000
G3 X60 Y50.9 I-0.9 J0
G1 X45
G3 X44.1 Y50 I0 J-0.9
G1 Y35.9
X33
G3 X32.1 Y35 I0 J-0.9
G1 Y15
G3 X32.425 Y14.307 I0.9 J0
G1 Z5
X25.256 Y33.951
Z3 F333.3
Z-2
G3 X26.08 Y35 I-0.256 J1.049 F1000
G1 Y50
G3 X25 Y51.08 I-1.08 J0
G1 X0
G3 X-1.08 Y50 I0 J-1.08
G1 Y0
G3 X0 Y-1.08 I1.08 J0
G1 X25
G3 X26.08 Y0 I0 J1.08
G1 Y15
G3 X25 Y16.08 I-1.08 J0
G1 X14.08
Y33.92
X25
G3 X25.256 Y33.951 I0 J1.08
G1 X25.299 Y33.969
X25.334 Y33.998
X25.358 Y34.037
X25.37 Y34.082
X25.379 Y34.125
X25.399 Y34.166
X25.427 Y34.201
X25.463 Y34.228
G3 X25.9 Y35 I-0.463 J0.772
G1 Y50
G3 X25 Y50.9 I-0.9 J0
G1 X0
G3 X-0.9 Y50 I0 J-0.9
G1 Y0
G3 X0 Y-0.9 I0.9 J0
G1 X25
G3 X25.9 Y0 I0 J0.9
G1 Y15
G3 X25 Y15.9 I-0.9 J0
G1 X13.9
Y34.1
X25
G3 X25.463 Y34.228 I0 J0.9
G1 X25.256 Y33.951
Z-4 F333.3
G3 X26.08 Y35 I-0.256 J1.049 F1000
G1 Y50
G3 X25 Y51.08 I-1.08 J0
G1 X0
G3 X-1.08 Y50 I0 J-1.08
G1 Y0
G3 X0 Y-1.08 I1.08 J0
G1 X25
G3 X26.08 Y0 I0 J1.08
G1 Y15
G3 X25 Y16.08 I-1.08 J0
G1 X14.08
Y33.92
X25
G3 X25.256 Y33.951 I0 J1.08
G1 X25.299 Y33.969
X25.334 Y33.998
X25.358 Y34.037
X25.37 Y34.082
X25.379 Y34.125
X25.399 Y34.166
X25.427 Y34.201
X25.463 Y34.228
G3 X25.9 Y35 I-0.463 J0.772
G1 Y50
G3 X25 Y50.9 I-0.9 J0
G1 X0
G3 X-0.9 Y50 I0 J-0.9
G1 Y0
G3 X0 Y-0.9 I0.9 J0
G1 X25
G3 X25.9 Y0 I0 J0.9
G1 Y15
G3 X25 Y15.9 I-0.9 J0
G1 X13.9
Y34.1
X25
G3 X25.463 Y34.228 I0 J0.9
G1 X25.256 Y33.951
Z-6 F333.3
G3 X26.08 Y35 I-0.256 J1.049 F1000
G1 Y50
G3 X25 Y51.08 I-1.08 J0
G1 X13.9
Z-4.5
X11.1
Z-6 F333.3
X0 F1000
G3 X-1.08 Y50 I0 J-1.08
G1 Y38.9
Z-4.5
Y36.1
Z-6 F333.3
Y13.9 F1000
Z-4.5
Y11.1
Z-6 F333.3
Y0 F1000
G3 X0 Y-1.08 I1.08 J0
G1 X11.1
Z-4.5
X13.9
Z-6 F333.3
X25 F1000
G3 X26.08 Y0 I0 J1.08
G1 Y15
G3 X25 Y16.08 I-1.08 J0
G1 X14.08
Y33.92
X25
G3 X25.256 Y33.951 I0 J1.08
G1 X25.299 Y33.969
X25.334 Y33.998
X25.358 Y34.037
X25.37 Y34.082
X25.379 Y34.125
X25.399 Y34.166
X25.427 Y34.201
X25.463 Y34.228
G3 X25.9 Y35 I-0.463 J0.772
G1 Y50
G3 X25 Y50.9 I-0.9 J0
G1 X13.9
Z-4.5
X11.1
Z-6 F333.3
X0 F1000
G3 X-0.9 Y50 I0 J-0.9
G1 Y38.9
Z-4.5
Y36.1
Z-6 F333.3
Y13.9 F1000
Z-4.5
Y11.1
Z-6 F333.3
Y0 F1000
G3 X0 Y-0.9 I0.9 J0
G1 X11.1
Z-4.5
X13.9
Z-6 F333.3
X25 F1000
G3 X25.9 Y0 I0 J0.9
G1 Y15
G3 X25 Y15.9 I-0.9 J0
G1 X13.9
Y34.1
X25
G3 X25.463 Y34.228 I0 J0.9
G1 X25.256 Y33.951
Z-6.5 F333.3
G3 X26.08 Y35 I-0.256 J1.049 F1000
G1 Y50
G3 X25 Y51.08 I-1.08 J0
G1 X13.9
Z-4.5
X11.1
Z-6.5 F333.3
X0 F1000
G3 X-1.08 Y50 I0 J-1.08
G1 Y38.9
Z-4.5
Y36.1
Z-6.5 F333.3
Y13.9 F1000
Z-4.5
Y11.1
Z-6.5 F333.3
Y0 F1000
G3 X0 Y-1.08 I1.08 J0
G1 X11.1
Z-4.5
X13.9
Z-6.5 F333.3
X25 F1000
G3 X26.08 Y0 I0 J1.08
G1 Y15
G3 X25 Y16.08 I-1.08 J0
G1 X14.08
Y33.92
X25
G3 X25.256 Y33.951 I0 J1.08
G1 X25.299 Y33.969
X25.334 Y33.998
X25.358 Y34.037
X25.37 Y34.082
X25.379 Y34.125
X25.399 Y34.166
X25.427 Y34.201
X25.463 Y34.228
G3 X25.9 Y35 I-0.463 J0.772
G1 Y50
G3 X25 Y50.9 I-0.9 J0
G1 X13.9
Z-4.5
X11.1
Z-6.5 F333.3
X0 F1000
G3 X-0.9 Y50 I0 J-0.9
G1 Y38.9
Z-4.5
Y36.1
Z-6.5 F333.3
Y13.9 F1000
Z-4.5
Y11.1
Z-6.5 F333.3
Y0 F1000
G3 X0 Y-0.9 I0.9 J0
G1 X11.1
Z-4.5
X13.9
Z-6.5 F333.3
X25 F1000
G3 X25.9 Y0 I0 J0.9
G1 Y15
G3 X25 Y15.9 I-0.9 J0
G1 X13.9
Y34.1
X25
G3 X25.463 Y34.228 I0 J0.9
G1 Z10
M5
M30
