(1033_sq_1dw_18bit)
(T1  D=1.8 CR=0 - ZMIN=-6.5 - flat end mill)
G90 G94
G17
G21
(When using Fusion 360 for Personal Use, the feedrate of)
(rapid moves is reduced to match the feedrate of cutting)
(moves, which can increase machining time. Unrestricted rapid)
(moves are available with a Fusion 360 Subscription.)

(2D Contour5)
T1
S5000 M3
G54
G0 X27.051 Y35.515
Z10
G1 Z5 F1000
Z2 F333.3
Z-1
G2 X28 Y36.08 I0.949 J-0.515 F1000
G1 X38.92
Y50
G2 X40 Y51.08 I1.08 J0
G1 X50
G2 X51.08 Y50 I0 J-1.08
G1 Y0
G2 X50 Y-1.08 I-1.08 J0
G1 X40
G2 X38.92 Y0 I0 J1.08
G1 Y13.92
X28
G2 X26.92 Y15 I0 J1.08
G1 Y35
G2 X27.051 Y35.515 I1.08 J0
G1 X27.079 Y35.552
X27.116 Y35.578
X27.16 Y35.592
X27.206
X27.251 Y35.59
X27.295 Y35.598
X27.336 Y35.616
X27.371 Y35.644
G2 X28 Y35.9 I0.629 J-0.644
G1 X39.1
Y50
G2 X40 Y50.9 I0.9 J0
G1 X50
G2 X50.9 Y50 I0 J-0.9
G1 Y0
G2 X50 Y-0.9 I-0.9 J0
G1 X40
G2 X39.1 Y0 I0 J0.9
G1 Y14.1
X28
G2 X27.1 Y15 I0 J0.9
G1 Y35
G2 X27.371 Y35.644 I0.9 J0
G1 X27.051 Y35.515
Z-2 F333.3
G2 X28 Y36.08 I0.949 J-0.515 F1000
G1 X38.92
Y50
G2 X40 Y51.08 I1.08 J0
G1 X50
G2 X51.08 Y50 I0 J-1.08
G1 Y0
G2 X50 Y-1.08 I-1.08 J0
G1 X40
G2 X38.92 Y0 I0 J1.08
G1 Y13.92
X28
G2 X26.92 Y15 I0 J1.08
G1 Y35
G2 X27.051 Y35.515 I1.08 J0
G1 X27.079 Y35.552
X27.116 Y35.578
X27.16 Y35.592
X27.206
X27.251 Y35.59
X27.295 Y35.598
X27.336 Y35.616
X27.371 Y35.644
G2 X28 Y35.9 I0.629 J-0.644
G1 X39.1
Y50
G2 X40 Y50.9 I0.9 J0
G1 X50
G2 X50.9 Y50 I0 J-0.9
G1 Y0
G2 X50 Y-0.9 I-0.9 J0
G1 X40
G2 X39.1 Y0 I0 J0.9
G1 Y14.1
X28
G2 X27.1 Y15 I0 J0.9
G1 Y35
G2 X27.371 Y35.644 I0.9 J0
G1 X27.051 Y35.515
Z-3 F333.3
G2 X28 Y36.08 I0.949 J-0.515 F1000
G1 X38.92
Y50
G2 X40 Y51.08 I1.08 J0
G1 X50
G2 X51.08 Y50 I0 J-1.08
G1 Y0
G2 X50 Y-1.08 I-1.08 J0
G1 X40
G2 X38.92 Y0 I0 J1.08
G1 Y13.92
X28
G2 X26.92 Y15 I0 J1.08
G1 Y35
G2 X27.051 Y35.515 I1.08 J0
G1 X27.079 Y35.552
X27.116 Y35.578
X27.16 Y35.592
X27.206
X27.251 Y35.59
X27.295 Y35.598
X27.336 Y35.616
X27.371 Y35.644
G2 X28 Y35.9 I0.629 J-0.644
G1 X39.1
Y50
G2 X40 Y50.9 I0.9 J0
G1 X50
G2 X50.9 Y50 I0 J-0.9
G1 Y0
G2 X50 Y-0.9 I-0.9 J0
G1 X40
G2 X39.1 Y0 I0 J0.9
G1 Y14.1
X28
G2 X27.1 Y15 I0 J0.9
G1 Y35
G2 X27.371 Y35.644 I0.9 J0
G1 X27.051 Y35.515
Z-4 F333.3
G2 X28 Y36.08 I0.949 J-0.515 F1000
G1 X38.92
Y50
G2 X40 Y51.08 I1.08 J0
G1 X50
G2 X51.08 Y50 I0 J-1.08
G1 Y0
G2 X50 Y-1.08 I-1.08 J0
G1 X40
G2 X38.92 Y0 I0 J1.08
G1 Y13.92
X28
G2 X26.92 Y15 I0 J1.08
G1 Y35
G2 X27.051 Y35.515 I1.08 J0
G1 X27.079 Y35.552
X27.116 Y35.578
X27.16 Y35.592
X27.206
X27.251 Y35.59
X27.295 Y35.598
X27.336 Y35.616
X27.371 Y35.644
G2 X28 Y35.9 I0.629 J-0.644
G1 X39.1
Y50
G2 X40 Y50.9 I0.9 J0
G1 X50
G2 X50.9 Y50 I0 J-0.9
G1 Y0
G2 X50 Y-0.9 I-0.9 J0
G1 X40
G2 X39.1 Y0 I0 J0.9
G1 Y14.1
X28
G2 X27.1 Y15 I0 J0.9
G1 Y35
G2 X27.371 Y35.644 I0.9 J0
G1 X27.051 Y35.515
Z-5 F333.3
G2 X28 Y36.08 I0.949 J-0.515 F1000
G1 X38.92
Y50
G2 X40 Y51.08 I1.08 J0
G1 X50
G2 X51.08 Y50 I0 J-1.08
G1 Y38.9
Z-4.5
Y36.1
Z-5 F333.3
Y13.9 F1000
Z-4.5
Y11.1
Z-5 F333.3
Y0 F1000
G2 X50 Y-1.08 I-1.08 J0
G1 X40
G2 X38.92 Y0 I0 J1.08
G1 Y13.92
X28
G2 X26.92 Y15 I0 J1.08
G1 Y35
G2 X27.051 Y35.515 I1.08 J0
G1 X27.079 Y35.552
X27.116 Y35.578
X27.16 Y35.592
X27.206
X27.251 Y35.59
X27.295 Y35.598
X27.336 Y35.616
X27.371 Y35.644
G2 X28 Y35.9 I0.629 J-0.644
G1 X39.1
Y50
G2 X40 Y50.9 I0.9 J0
G1 X50
G2 X50.9 Y50 I0 J-0.9
G1 Y38.9
Z-4.5
Y36.1
Z-5 F333.3
Y13.9 F1000
Z-4.5
Y11.1
Z-5 F333.3
Y0 F1000
G2 X50 Y-0.9 I-0.9 J0
G1 X40
G2 X39.1 Y0 I0 J0.9
G1 Y14.1
X28
G2 X27.1 Y15 I0 J0.9
G1 Y35
G2 X27.371 Y35.644 I0.9 J0
G1 X27.051 Y35.515
Z-6 F333.3
G2 X28 Y36.08 I0.949 J-0.515 F1000
G1 X38.92
Y50
G2 X40 Y51.08 I1.08 J0
G1 X50
G2 X51.08 Y50 I0 J-1.08
G1 Y38.9
Z-4.5
Y36.1
Z-6 F333.3
Y13.9 F1000
Z-4.5
Y11.1
Z-6 F333.3
Y0 F1000
G2 X50 Y-1.08 I-1.08 J0
G1 X40
G2 X38.92 Y0 I0 J1.08
G1 Y13.92
X28
G2 X26.92 Y15 I0 J1.08
G1 Y35
G2 X27.051 Y35.515 I1.08 J0
G1 X27.079 Y35.552
X27.116 Y35.578
X27.16 Y35.592
X27.206
X27.251 Y35.59
X27.295 Y35.598
X27.336 Y35.616
X27.371 Y35.644
G2 X28 Y35.9 I0.629 J-0.644
G1 X39.1
Y50
G2 X40 Y50.9 I0.9 J0
G1 X50
G2 X50.9 Y50 I0 J-0.9
G1 Y38.9
Z-4.5
Y36.1
Z-6 F333.3
Y13.9 F1000
Z-4.5
Y11.1
Z-6 F333.3
Y0 F1000
G2 X50 Y-0.9 I-0.9 J0
G1 X40
G2 X39.1 Y0 I0 J0.9
G1 Y14.1
X28
G2 X27.1 Y15 I0 J0.9
G1 Y35
G2 X27.371 Y35.644 I0.9 J0
G1 X27.051 Y35.515
Z-6.5 F333.3
G2 X28 Y36.08 I0.949 J-0.515 F1000
G1 X38.92
Y50
G2 X40 Y51.08 I1.08 J0
G1 X50
G2 X51.08 Y50 I0 J-1.08
G1 Y38.9
Z-4.5
Y36.1
Z-6.5 F333.3
Y13.9 F1000
Z-4.5
Y11.1
Z-6.5 F333.3
Y0 F1000
G2 X50 Y-1.08 I-1.08 J0
G1 X40
G2 X38.92 Y0 I0 J1.08
G1 Y13.92
X28
G2 X26.92 Y15 I0 J1.08
G1 Y35
G2 X27.051 Y35.515 I1.08 J0
G1 X27.079 Y35.552
X27.116 Y35.578
X27.16 Y35.592
X27.206
X27.251 Y35.59
X27.295 Y35.598
X27.336 Y35.616
X27.371 Y35.644
G2 X28 Y35.9 I0.629 J-0.644
G1 X39.1
Y50
G2 X40 Y50.9 I0.9 J0
G1 X50
G2 X50.9 Y50 I0 J-0.9
G1 Y38.9
Z-4.5
Y36.1
Z-6.5 F333.3
Y13.9 F1000
Z-4.5
Y11.1
Z-6.5 F333.3
Y0 F1000
G2 X50 Y-0.9 I-0.9 J0
G1 X40
G2 X39.1 Y0 I0 J0.9
G1 Y14.1
X28
G2 X27.1 Y15 I0 J0.9
G1 Y35
G2 X27.371 Y35.644 I0.9 J0
G1 Z5
X20.14 Y16.071
Z2 F333.3
Z-1
G2 X21.08 Y15 I-0.14 J-1.071 F1000
G1 Y0
G2 X20 Y-1.08 I-1.08 J0
G1 X0
G2 X-1.08 Y0 I0 J1.08
G1 Y50
G2 X0 Y51.08 I1.08 J0
G1 X20
G2 X21.08 Y50 I0 J-1.08
G1 Y35
G2 X20 Y33.92 I-1.08 J0
G1 X9.08
Y16.08
X20
X20.07 Y16.078
X20.14 Y16.071
X20.184 Y16.058
X20.222 Y16.032
X20.251 Y15.996
X20.267 Y15.953
X20.281 Y15.911
X20.305 Y15.873
X20.337 Y15.841
X20.375 Y15.818
G2 X20.9 Y15 I-0.375 J-0.818
G1 Y0
G2 X20 Y-0.9 I-0.9 J0
G1 X0
G2 X-0.9 Y0 I0 J0.9
G1 Y50
G2 X0 Y50.9 I0.9 J0
G1 X20
G2 X20.9 Y50 I0 J-0.9
G1 Y35
G2 X20 Y34.1 I-0.9 J0
G1 X8.9
Y15.9
X20
G2 X20.375 Y15.818 I0 J-0.9
G1 X20.14 Y16.071
Z-2 F333.3
G2 X21.08 Y15 I-0.14 J-1.071 F1000
G1 Y0
G2 X20 Y-1.08 I-1.08 J0
G1 X0
G2 X-1.08 Y0 I0 J1.08
G1 Y50
G2 X0 Y51.08 I1.08 J0
G1 X20
G2 X21.08 Y50 I0 J-1.08
G1 Y35
G2 X20 Y33.92 I-1.08 J0
G1 X9.08
Y16.08
X20
X20.07 Y16.078
X20.14 Y16.071
X20.184 Y16.058
X20.222 Y16.032
X20.251 Y15.996
X20.267 Y15.953
X20.281 Y15.911
X20.305 Y15.873
X20.337 Y15.841
X20.375 Y15.818
G2 X20.9 Y15 I-0.375 J-0.818
G1 Y0
G2 X20 Y-0.9 I-0.9 J0
G1 X0
G2 X-0.9 Y0 I0 J0.9
G1 Y50
G2 X0 Y50.9 I0.9 J0
G1 X20
G2 X20.9 Y50 I0 J-0.9
G1 Y35
G2 X20 Y34.1 I-0.9 J0
G1 X8.9
Y15.9
X20
G2 X20.375 Y15.818 I0 J-0.9
G1 X20.14 Y16.071
Z-3 F333.3
G2 X21.08 Y15 I-0.14 J-1.071 F1000
G1 Y0
G2 X20 Y-1.08 I-1.08 J0
G1 X0
G2 X-1.08 Y0 I0 J1.08
G1 Y50
G2 X0 Y51.08 I1.08 J0
G1 X20
G2 X21.08 Y50 I0 J-1.08
G1 Y35
G2 X20 Y33.92 I-1.08 J0
G1 X9.08
Y16.08
X20
X20.07 Y16.078
X20.14 Y16.071
X20.184 Y16.058
X20.222 Y16.032
X20.251 Y15.996
X20.267 Y15.953
X20.281 Y15.911
X20.305 Y15.873
X20.337 Y15.841
X20.375 Y15.818
G2 X20.9 Y15 I-0.375 J-0.818
G1 Y0
G2 X20 Y-0.9 I-0.9 J0
G1 X0
G2 X-0.9 Y0 I0 J0.9
G1 Y50
G2 X0 Y50.9 I0.9 J0
G1 X20
G2 X20.9 Y50 I0 J-0.9
G1 Y35
G2 X20 Y34.1 I-0.9 J0
G1 X8.9
Y15.9
X20
G2 X20.375 Y15.818 I0 J-0.9
G1 X20.14 Y16.071
Z-4 F333.3
G2 X21.08 Y15 I-0.14 J-1.071 F1000
G1 Y0
G2 X20 Y-1.08 I-1.08 J0
G1 X0
G2 X-1.08 Y0 I0 J1.08
G1 Y50
G2 X0 Y51.08 I1.08 J0
G1 X20
G2 X21.08 Y50 I0 J-1.08
G1 Y35
G2 X20 Y33.92 I-1.08 J0
G1 X9.08
Y16.08
X20
X20.07 Y16.078
X20.14 Y16.071
X20.184 Y16.058
X20.222 Y16.032
X20.251 Y15.996
X20.267 Y15.953
X20.281 Y15.911
X20.305 Y15.873
X20.337 Y15.841
X20.375 Y15.818
G2 X20.9 Y15 I-0.375 J-0.818
G1 Y0
G2 X20 Y-0.9 I-0.9 J0
G1 X0
G2 X-0.9 Y0 I0 J0.9
G1 Y50
G2 X0 Y50.9 I0.9 J0
G1 X20
G2 X20.9 Y50 I0 J-0.9
G1 Y35
G2 X20 Y34.1 I-0.9 J0
G1 X8.9
Y15.9
X20
G2 X20.375 Y15.818 I0 J-0.9
G1 X20.14 Y16.071
Z-5 F333.3
G2 X21.08 Y15 I-0.14 J-1.071 F1000
G1 Y0
G2 X20 Y-1.08 I-1.08 J0
G1 X0
G2 X-1.08 Y0 I0 J1.08
G1 Y11.1
Z-4.5
Y13.9
Z-5 F333.3
Y36.1 F1000
Z-4.5
Y38.9
Z-5 F333.3
Y50 F1000
G2 X0 Y51.08 I1.08 J0
G1 X20
G2 X21.08 Y50 I0 J-1.08
G1 Y35
G2 X20 Y33.92 I-1.08 J0
G1 X9.08
Y16.08
X20
X20.07 Y16.078
X20.14 Y16.071
X20.184 Y16.058
X20.222 Y16.032
X20.251 Y15.996
X20.267 Y15.953
X20.281 Y15.911
X20.305 Y15.873
X20.337 Y15.841
X20.375 Y15.818
G2 X20.9 Y15 I-0.375 J-0.818
G1 Y0
G2 X20 Y-0.9 I-0.9 J0
G1 X0
G2 X-0.9 Y0 I0 J0.9
G1 Y11.1
Z-4.5
Y13.9
Z-5 F333.3
Y36.1 F1000
Z-4.5
Y38.9
Z-5 F333.3
Y50 F1000
G2 X0 Y50.9 I0.9 J0
G1 X20
G2 X20.9 Y50 I0 J-0.9
G1 Y35
G2 X20 Y34.1 I-0.9 J0
G1 X8.9
Y15.9
X20
G2 X20.375 Y15.818 I0 J-0.9
G1 X20.14 Y16.071
Z-6 F333.3
G2 X21.08 Y15 I-0.14 J-1.071 F1000
G1 Y0
G2 X20 Y-1.08 I-1.08 J0
G1 X0
G2 X-1.08 Y0 I0 J1.08
G1 Y11.1
Z-4.5
Y13.9
Z-6 F333.3
Y36.1 F1000
Z-4.5
Y38.9
Z-6 F333.3
Y50 F1000
G2 X0 Y51.08 I1.08 J0
G1 X20
G2 X21.08 Y50 I0 J-1.08
G1 Y35
G2 X20 Y33.92 I-1.08 J0
G1 X9.08
Y16.08
X20
X20.07 Y16.078
X20.14 Y16.071
X20.184 Y16.058
X20.222 Y16.032
X20.251 Y15.996
X20.267 Y15.953
X20.281 Y15.911
X20.305 Y15.873
X20.337 Y15.841
X20.375 Y15.818
G2 X20.9 Y15 I-0.375 J-0.818
G1 Y0
G2 X20 Y-0.9 I-0.9 J0
G1 X0
G2 X-0.9 Y0 I0 J0.9
G1 Y11.1
Z-4.5
Y13.9
Z-6 F333.3
Y36.1 F1000
Z-4.5
Y38.9
Z-6 F333.3
Y50 F1000
G2 X0 Y50.9 I0.9 J0
G1 X20
G2 X20.9 Y50 I0 J-0.9
G1 Y35
G2 X20 Y34.1 I-0.9 J0
G1 X8.9
Y15.9
X20
G2 X20.375 Y15.818 I0 J-0.9
G1 X20.14 Y16.071
Z-6.5 F333.3
G2 X21.08 Y15 I-0.14 J-1.071 F1000
G1 Y0
G2 X20 Y-1.08 I-1.08 J0
G1 X0
G2 X-1.08 Y0 I0 J1.08
G1 Y11.1
Z-4.5
Y13.9
Z-6.5 F333.3
Y36.1 F1000
Z-4.5
Y38.9
Z-6.5 F333.3
Y50 F1000
G2 X0 Y51.08 I1.08 J0
G1 X20
G2 X21.08 Y50 I0 J-1.08
G1 Y35
G2 X20 Y33.92 I-1.08 J0
G1 X9.08
Y16.08
X20
X20.07 Y16.078
X20.14 Y16.071
X20.184 Y16.058
X20.222 Y16.032
X20.251 Y15.996
X20.267 Y15.953
X20.281 Y15.911
X20.305 Y15.873
X20.337 Y15.841
X20.375 Y15.818
G2 X20.9 Y15 I-0.375 J-0.818
G1 Y0
G2 X20 Y-0.9 I-0.9 J0
G1 X0
G2 X-0.9 Y0 I0 J0.9
G1 Y11.1
Z-4.5
Y13.9
Z-6.5 F333.3
Y36.1 F1000
Z-4.5
Y38.9
Z-6.5 F333.3
Y50 F1000
G2 X0 Y50.9 I0.9 J0
G1 X20
G2 X20.9 Y50 I0 J-0.9
G1 Y35
G2 X20 Y34.1 I-0.9 J0
G1 X8.9
Y15.9
X20
G2 X20.375 Y15.818 I0 J-0.9
G1 Z10
M5
M30
