(1034_tab_18bit)
(T1  D=1.8 CR=0 - ZMIN=-6.4 - flat end mill)
G90 G94
G17
G21
(When using Fusion 360 for Personal Use, the feedrate of)
(rapid moves is reduced to match the feedrate of cutting)
(moves, which can increase machining time. Unrestricted rapid)
(moves are available with a Fusion 360 Subscription.)

(2D Contour5)
T1
S5000 M3
G54
G0 X-0.645 Y-0.866
Z10
G1 Z5 F1000
Z2 F333.3
Z-1
G2 X-1.08 Y0 I0.645 J0.866 F1000
G1 Y50
G2 X0 Y51.08 I1.08 J0
G1 X20
G2 X21.08 Y50 I0 J-1.08
G1 Y36.5
G2 X18.222 Y34.498 I-2.13 J0
G1 X9.08 Y37.825
Y12.175
X18.222 Y15.502
G2 X21.08 Y13.5 I0.728 J-2.002
G1 Y0
G2 X20 Y-1.08 I-1.08 J0
G1 X0
G2 X-0.645 Y-0.866 I0 J1.08
G1 X-0.678 Y-0.833
X-0.698 Y-0.792
X-0.706 Y-0.747
X-0.699 Y-0.701
X-0.691 Y-0.657
X-0.693 Y-0.613
X-0.705 Y-0.569
X-0.727 Y-0.53
G2 X-0.9 Y0 I0.727 J0.53
G1 Y50
G2 X0 Y50.9 I0.9 J0
G1 X20
G2 X20.9 Y50 I0 J-0.9
G1 Y36.5
G2 X18.283 Y34.667 I-1.95 J0
G1 X8.9 Y38.082
Y11.918
X18.283 Y15.333
G2 X20.9 Y13.5 I0.667 J-1.832
G1 Y0
G2 X20 Y-0.9 I-0.9 J0
G1 X0
G2 X-0.727 Y-0.53 I0 J0.9
G1 X-0.645 Y-0.866
Z-2 F333.3
G2 X-1.08 Y0 I0.645 J0.866 F1000
G1 Y50
G2 X0 Y51.08 I1.08 J0
G1 X20
G2 X21.08 Y50 I0 J-1.08
G1 Y36.5
G2 X18.222 Y34.498 I-2.13 J0
G1 X9.08 Y37.825
Y12.175
X18.222 Y15.502
G2 X21.08 Y13.5 I0.728 J-2.002
G1 Y0
G2 X20 Y-1.08 I-1.08 J0
G1 X0
G2 X-0.645 Y-0.866 I0 J1.08
G1 X-0.678 Y-0.833
X-0.698 Y-0.792
X-0.706 Y-0.747
X-0.699 Y-0.701
X-0.691 Y-0.657
X-0.693 Y-0.613
X-0.705 Y-0.569
X-0.727 Y-0.53
G2 X-0.9 Y0 I0.727 J0.53
G1 Y50
G2 X0 Y50.9 I0.9 J0
G1 X20
G2 X20.9 Y50 I0 J-0.9
G1 Y36.5
G2 X18.283 Y34.667 I-1.95 J0
G1 X8.9 Y38.082
Y11.918
X18.283 Y15.333
G2 X20.9 Y13.5 I0.667 J-1.832
G1 Y0
G2 X20 Y-0.9 I-0.9 J0
G1 X0
G2 X-0.727 Y-0.53 I0 J0.9
G1 X-0.645 Y-0.866
Z-3 F333.3
G2 X-1.08 Y0 I0.645 J0.866 F1000
G1 Y50
G2 X0 Y51.08 I1.08 J0
G1 X20
G2 X21.08 Y50 I0 J-1.08
G1 Y36.5
G2 X18.222 Y34.498 I-2.13 J0
G1 X9.08 Y37.825
Y12.175
X18.222 Y15.502
G2 X21.08 Y13.5 I0.728 J-2.002
G1 Y0
G2 X20 Y-1.08 I-1.08 J0
G1 X0
G2 X-0.645 Y-0.866 I0 J1.08
G1 X-0.678 Y-0.833
X-0.698 Y-0.792
X-0.706 Y-0.747
X-0.699 Y-0.701
X-0.691 Y-0.657
X-0.693 Y-0.613
X-0.705 Y-0.569
X-0.727 Y-0.53
G2 X-0.9 Y0 I0.727 J0.53
G1 Y50
G2 X0 Y50.9 I0.9 J0
G1 X20
G2 X20.9 Y50 I0 J-0.9
G1 Y36.5
G2 X18.283 Y34.667 I-1.95 J0
G1 X8.9 Y38.082
Y11.918
X18.283 Y15.333
G2 X20.9 Y13.5 I0.667 J-1.832
G1 Y0
G2 X20 Y-0.9 I-0.9 J0
G1 X0
G2 X-0.727 Y-0.53 I0 J0.9
G1 X-0.645 Y-0.866
Z-4 F333.3
G2 X-1.08 Y0 I0.645 J0.866 F1000
G1 Y50
G2 X0 Y51.08 I1.08 J0
G1 X20
G2 X21.08 Y50 I0 J-1.08
G1 Y36.5
G2 X18.222 Y34.498 I-2.13 J0
G1 X9.08 Y37.825
Y12.175
X18.222 Y15.502
G2 X21.08 Y13.5 I0.728 J-2.002
G1 Y0
G2 X20 Y-1.08 I-1.08 J0
G1 X0
G2 X-0.645 Y-0.866 I0 J1.08
G1 X-0.678 Y-0.833
X-0.698 Y-0.792
X-0.706 Y-0.747
X-0.699 Y-0.701
X-0.691 Y-0.657
X-0.693 Y-0.613
X-0.705 Y-0.569
X-0.727 Y-0.53
G2 X-0.9 Y0 I0.727 J0.53
G1 Y50
G2 X0 Y50.9 I0.9 J0
G1 X20
G2 X20.9 Y50 I0 J-0.9
G1 Y36.5
G2 X18.283 Y34.667 I-1.95 J0
G1 X8.9 Y38.082
Y11.918
X18.283 Y15.333
G2 X20.9 Y13.5 I0.667 J-1.832
G1 Y0
G2 X20 Y-0.9 I-0.9 J0
G1 X0
G2 X-0.727 Y-0.53 I0 J0.9
G1 X-0.645 Y-0.866
Z-5 F333.3
G2 X-1.08 Y0 I0.645 J0.866 F1000
G1 Y11.1
Z-4.4
Y13.9
Z-5 F333.3
Y36.1 F1000
Z-4.4
Y38.9
Z-5 F333.3
Y50 F1000
G2 X0 Y51.08 I1.08 J0
G1 X8.6
Z-4.4
X11.4
Z-5 F333.3
X20 F1000
G2 X21.08 Y50 I0 J-1.08
G1 Y36.5
G2 X18.222 Y34.498 I-2.13 J0
G1 X9.08 Y37.825
Y26.4
Z-4.4
Y23.6
Z-5 F333.3
Y12.175 F1000
X18.222 Y15.502
G2 X21.08 Y13.5 I0.728 J-2.002
G1 Y0
G2 X20 Y-1.08 I-1.08 J0
G1 X11.4
Z-4.4
X8.6
Z-5 F333.3
X0 F1000
G2 X-0.645 Y-0.866 I0 J1.08
G1 X-0.678 Y-0.833
X-0.698 Y-0.792
X-0.706 Y-0.747
X-0.699 Y-0.701
X-0.691 Y-0.657
X-0.693 Y-0.613
X-0.705 Y-0.569
X-0.727 Y-0.53
G2 X-0.9 Y0 I0.727 J0.53
G1 Y11.1
Z-4.4
Y13.9
Z-5 F333.3
Y36.1 F1000
Z-4.4
Y38.9
Z-5 F333.3
Y50 F1000
G2 X0 Y50.9 I0.9 J0
G1 X8.6
Z-4.4
X11.4
Z-5 F333.3
X20 F1000
G2 X20.9 Y50 I0 J-0.9
G1 Y36.5
G2 X18.283 Y34.667 I-1.95 J0
G1 X8.9 Y38.082
Y26.4
Z-4.4
Y23.6
Z-5 F333.3
Y11.918 F1000
X18.283 Y15.333
G2 X20.9 Y13.5 I0.667 J-1.832
G1 Y0
G2 X20 Y-0.9 I-0.9 J0
G1 X11.4
Z-4.4
X8.6
Z-5 F333.3
X0 F1000
G2 X-0.727 Y-0.53 I0 J0.9
G1 X-0.645 Y-0.866
Z-6 F333.3
G2 X-1.08 Y0 I0.645 J0.866 F1000
G1 Y11.1
Z-4.4
Y13.9
Z-6 F333.3
Y36.1 F1000
Z-4.4
Y38.9
Z-6 F333.3
Y50 F1000
G2 X0 Y51.08 I1.08 J0
G1 X8.6
Z-4.4
X11.4
Z-6 F333.3
X20 F1000
G2 X21.08 Y50 I0 J-1.08
G1 Y36.5
G2 X18.222 Y34.498 I-2.13 J0
G1 X9.08 Y37.825
Y26.4
Z-4.4
Y23.6
Z-6 F333.3
Y12.175 F1000
X18.222 Y15.502
G2 X21.08 Y13.5 I0.728 J-2.002
G1 Y0
G2 X20 Y-1.08 I-1.08 J0
G1 X11.4
Z-4.4
X8.6
Z-6 F333.3
X0 F1000
G2 X-0.645 Y-0.866 I0 J1.08
G1 X-0.678 Y-0.833
X-0.698 Y-0.792
X-0.706 Y-0.747
X-0.699 Y-0.701
X-0.691 Y-0.657
X-0.693 Y-0.613
X-0.705 Y-0.569
X-0.727 Y-0.53
G2 X-0.9 Y0 I0.727 J0.53
G1 Y11.1
Z-4.4
Y13.9
Z-6 F333.3
Y36.1 F1000
Z-4.4
Y38.9
Z-6 F333.3
Y50 F1000
G2 X0 Y50.9 I0.9 J0
G1 X8.6
Z-4.4
X11.4
Z-6 F333.3
X20 F1000
G2 X20.9 Y50 I0 J-0.9
G1 Y36.5
G2 X18.283 Y34.667 I-1.95 J0
G1 X8.9 Y38.082
Y26.4
Z-4.4
Y23.6
Z-6 F333.3
Y11.918 F1000
X18.283 Y15.333
G2 X20.9 Y13.5 I0.667 J-1.832
G1 Y0
G2 X20 Y-0.9 I-0.9 J0
G1 X11.4
Z-4.4
X8.6
Z-6 F333.3
X0 F1000
G2 X-0.727 Y-0.53 I0 J0.9
G1 X-0.645 Y-0.866
Z-6.4 F333.3
G2 X-1.08 Y0 I0.645 J0.866 F1000
G1 Y11.1
Z-4.4
Y13.9
Z-6.4 F333.3
Y36.1 F1000
Z-4.4
Y38.9
Z-6.4 F333.3
Y50 F1000
G2 X0 Y51.08 I1.08 J0
G1 X8.6
Z-4.4
X11.4
Z-6.4 F333.3
X20 F1000
G2 X21.08 Y50 I0 J-1.08
G1 Y36.5
G2 X18.222 Y34.498 I-2.13 J0
G1 X9.08 Y37.825
Y26.4
Z-4.4
Y23.6
Z-6.4 F333.3
Y12.175 F1000
X18.222 Y15.502
G2 X21.08 Y13.5 I0.728 J-2.002
G1 Y0
G2 X20 Y-1.08 I-1.08 J0
G1 X11.4
Z-4.4
X8.6
Z-6.4 F333.3
X0 F1000
G2 X-0.645 Y-0.866 I0 J1.08
G1 X-0.678 Y-0.833
X-0.698 Y-0.792
X-0.706 Y-0.747
X-0.699 Y-0.701
X-0.691 Y-0.657
X-0.693 Y-0.613
X-0.705 Y-0.569
X-0.727 Y-0.53
G2 X-0.9 Y0 I0.727 J0.53
G1 Y11.1
Z-4.4
Y13.9
Z-6.4 F333.3
Y36.1 F1000
Z-4.4
Y38.9
Z-6.4 F333.3
Y50 F1000
G2 X0 Y50.9 I0.9 J0
G1 X8.6
Z-4.4
X11.4
Z-6.4 F333.3
X20 F1000
G2 X20.9 Y50 I0 J-0.9
G1 Y36.5
G2 X18.283 Y34.667 I-1.95 J0
G1 X8.9 Y38.082
Y26.4
Z-4.4
Y23.6
Z-6.4 F333.3
Y11.918 F1000
X18.283 Y15.333
G2 X20.9 Y13.5 I0.667 J-1.832
G1 Y0
G2 X20 Y-0.9 I-0.9 J0
G1 X11.4
Z-4.4
X8.6
Z-6.4 F333.3
X0 F1000
G2 X-0.727 Y-0.53 I0 J0.9
G1 Z5
X25.107 Y11.26
Z2 F333.3
Z-1
G2 X24.92 Y12.132 I1.943 J0.872 F1000
G1 Y37.868
G2 X27.778 Y39.87 I2.13 J0
G1 X36.92 Y36.542
Y50
G2 X38 Y51.08 I1.08 J0
G1 X48
G2 X49.08 Y50 I0 J-1.08
G1 Y0
G2 X48 Y-1.08 I-1.08 J0
G1 X38
G2 X36.92 Y0 I0 J1.08
G1 Y13.458
X27.778 Y10.13
G2 X25.107 Y11.26 I-0.728 J2.002
G1 X25.095 Y11.303
X25.096 Y11.347
X25.11 Y11.389
X25.136 Y11.425
X25.163 Y11.46
X25.179 Y11.5
X25.184 Y11.544
X25.178 Y11.587
G2 X25.1 Y12.132 I1.872 J0.545
G1 Y37.868
G2 X27.717 Y39.701 I1.95 J0
G1 X37.1 Y36.285
Y50
G2 X38 Y50.9 I0.9 J0
G1 X48
G2 X48.9 Y50 I0 J-0.9
G1 Y0
G2 X48 Y-0.9 I-0.9 J0
G1 X38
G2 X37.1 Y0 I0 J0.9
G1 Y13.715
X27.717 Y10.299
G2 X25.178 Y11.587 I-0.667 J1.832
G1 X25.107 Y11.26
Z-2 F333.3
G2 X24.92 Y12.132 I1.943 J0.872 F1000
G1 Y37.868
G2 X27.778 Y39.87 I2.13 J0
G1 X36.92 Y36.542
Y50
G2 X38 Y51.08 I1.08 J0
G1 X48
G2 X49.08 Y50 I0 J-1.08
G1 Y0
G2 X48 Y-1.08 I-1.08 J0
G1 X38
G2 X36.92 Y0 I0 J1.08
G1 Y13.458
X27.778 Y10.13
G2 X25.107 Y11.26 I-0.728 J2.002
G1 X25.095 Y11.303
X25.096 Y11.347
X25.11 Y11.389
X25.136 Y11.425
X25.163 Y11.46
X25.179 Y11.5
X25.184 Y11.544
X25.178 Y11.587
G2 X25.1 Y12.132 I1.872 J0.545
G1 Y37.868
G2 X27.717 Y39.701 I1.95 J0
G1 X37.1 Y36.285
Y50
G2 X38 Y50.9 I0.9 J0
G1 X48
G2 X48.9 Y50 I0 J-0.9
G1 Y0
G2 X48 Y-0.9 I-0.9 J0
G1 X38
G2 X37.1 Y0 I0 J0.9
G1 Y13.715
X27.717 Y10.299
G2 X25.178 Y11.587 I-0.667 J1.832
G1 X25.107 Y11.26
Z-3 F333.3
G2 X24.92 Y12.132 I1.943 J0.872 F1000
G1 Y37.868
G2 X27.778 Y39.87 I2.13 J0
G1 X36.92 Y36.542
Y50
G2 X38 Y51.08 I1.08 J0
G1 X48
G2 X49.08 Y50 I0 J-1.08
G1 Y0
G2 X48 Y-1.08 I-1.08 J0
G1 X38
G2 X36.92 Y0 I0 J1.08
G1 Y13.458
X27.778 Y10.13
G2 X25.107 Y11.26 I-0.728 J2.002
G1 X25.095 Y11.303
X25.096 Y11.347
X25.11 Y11.389
X25.136 Y11.425
X25.163 Y11.46
X25.179 Y11.5
X25.184 Y11.544
X25.178 Y11.587
G2 X25.1 Y12.132 I1.872 J0.545
G1 Y37.868
G2 X27.717 Y39.701 I1.95 J0
G1 X37.1 Y36.285
Y50
G2 X38 Y50.9 I0.9 J0
G1 X48
G2 X48.9 Y50 I0 J-0.9
G1 Y0
G2 X48 Y-0.9 I-0.9 J0
G1 X38
G2 X37.1 Y0 I0 J0.9
G1 Y13.715
X27.717 Y10.299
G2 X25.178 Y11.587 I-0.667 J1.832
G1 X25.107 Y11.26
Z-4 F333.3
G2 X24.92 Y12.132 I1.943 J0.872 F1000
G1 Y37.868
G2 X27.778 Y39.87 I2.13 J0
G1 X36.92 Y36.542
Y50
G2 X38 Y51.08 I1.08 J0
G1 X48
G2 X49.08 Y50 I0 J-1.08
G1 Y0
G2 X48 Y-1.08 I-1.08 J0
G1 X38
G2 X36.92 Y0 I0 J1.08
G1 Y13.458
X27.778 Y10.13
G2 X25.107 Y11.26 I-0.728 J2.002
G1 X25.095 Y11.303
X25.096 Y11.347
X25.11 Y11.389
X25.136 Y11.425
X25.163 Y11.46
X25.179 Y11.5
X25.184 Y11.544
X25.178 Y11.587
G2 X25.1 Y12.132 I1.872 J0.545
G1 Y37.868
G2 X27.717 Y39.701 I1.95 J0
G1 X37.1 Y36.285
Y50
G2 X38 Y50.9 I0.9 J0
G1 X48
G2 X48.9 Y50 I0 J-0.9
G1 Y0
G2 X48 Y-0.9 I-0.9 J0
G1 X38
G2 X37.1 Y0 I0 J0.9
G1 Y13.715
X27.717 Y10.299
G2 X25.178 Y11.587 I-0.667 J1.832
G1 X25.107 Y11.26
Z-5 F333.3
G2 X24.92 Y12.132 I1.943 J0.872 F1000
G1 Y23.6
Z-4.4
Y26.4
Z-5 F333.3
Y37.868 F1000
G2 X27.778 Y39.87 I2.13 J0
G1 X36.92 Y36.542
Y50
G2 X38 Y51.08 I1.08 J0
G1 X48
G2 X49.08 Y50 I0 J-1.08
G1 Y38.9
Z-4.4
Y36.1
Z-5 F333.3
Y13.9 F1000
Z-4.4
Y11.1
Z-5 F333.3
Y0 F1000
G2 X48 Y-1.08 I-1.08 J0
G1 X38
G2 X36.92 Y0 I0 J1.08
G1 Y13.458
X27.778 Y10.13
G2 X25.107 Y11.26 I-0.728 J2.002
G1 X25.095 Y11.303
X25.096 Y11.347
X25.11 Y11.389
X25.136 Y11.425
X25.163 Y11.46
X25.179 Y11.5
X25.184 Y11.544
X25.178 Y11.587
G2 X25.1 Y12.132 I1.872 J0.545
G1 Y23.6
Z-4.4
Y26.4
Z-5 F333.3
Y37.868 F1000
G2 X27.717 Y39.701 I1.95 J0
G1 X37.1 Y36.285
Y50
G2 X38 Y50.9 I0.9 J0
G1 X48
G2 X48.9 Y50 I0 J-0.9
G1 Y38.9
Z-4.4
Y36.1
Z-5 F333.3
Y13.9 F1000
Z-4.4
Y11.1
Z-5 F333.3
Y0 F1000
G2 X48 Y-0.9 I-0.9 J0
G1 X38
G2 X37.1 Y0 I0 J0.9
G1 Y13.715
X27.717 Y10.299
G2 X25.178 Y11.587 I-0.667 J1.832
G1 X25.107 Y11.26
Z-6 F333.3
G2 X24.92 Y12.132 I1.943 J0.872 F1000
G1 Y23.6
Z-4.4
Y26.4
Z-6 F333.3
Y37.868 F1000
G2 X27.778 Y39.87 I2.13 J0
G1 X36.92 Y36.542
Y50
G2 X38 Y51.08 I1.08 J0
G1 X48
G2 X49.08 Y50 I0 J-1.08
G1 Y38.9
Z-4.4
Y36.1
Z-6 F333.3
Y13.9 F1000
Z-4.4
Y11.1
Z-6 F333.3
Y0 F1000
G2 X48 Y-1.08 I-1.08 J0
G1 X38
G2 X36.92 Y0 I0 J1.08
G1 Y13.458
X27.778 Y10.13
G2 X25.107 Y11.26 I-0.728 J2.002
G1 X25.095 Y11.303
X25.096 Y11.347
X25.11 Y11.389
X25.136 Y11.425
X25.163 Y11.46
X25.179 Y11.5
X25.184 Y11.544
X25.178 Y11.587
G2 X25.1 Y12.132 I1.872 J0.545
G1 Y23.6
Z-4.4
Y26.4
Z-6 F333.3
Y37.868 F1000
G2 X27.717 Y39.701 I1.95 J0
G1 X37.1 Y36.285
Y50
G2 X38 Y50.9 I0.9 J0
G1 X48
G2 X48.9 Y50 I0 J-0.9
G1 Y38.9
Z-4.4
Y36.1
Z-6 F333.3
Y13.9 F1000
Z-4.4
Y11.1
Z-6 F333.3
Y0 F1000
G2 X48 Y-0.9 I-0.9 J0
G1 X38
G2 X37.1 Y0 I0 J0.9
G1 Y13.715
X27.717 Y10.299
G2 X25.178 Y11.587 I-0.667 J1.832
G1 X25.107 Y11.26
Z-6.4 F333.3
G2 X24.92 Y12.132 I1.943 J0.872 F1000
G1 Y23.6
Z-4.4
Y26.4
Z-6.4 F333.3
Y37.868 F1000
G2 X27.778 Y39.87 I2.13 J0
G1 X36.92 Y36.542
Y50
G2 X38 Y51.08 I1.08 J0
G1 X48
G2 X49.08 Y50 I0 J-1.08
G1 Y38.9
Z-4.4
Y36.1
Z-6.4 F333.3
Y13.9 F1000
Z-4.4
Y11.1
Z-6.4 F333.3
Y0 F1000
G2 X48 Y-1.08 I-1.08 J0
G1 X38
G2 X36.92 Y0 I0 J1.08
G1 Y13.458
X27.778 Y10.13
G2 X25.107 Y11.26 I-0.728 J2.002
G1 X25.095 Y11.303
X25.096 Y11.347
X25.11 Y11.389
X25.136 Y11.425
X25.163 Y11.46
X25.179 Y11.5
X25.184 Y11.544
X25.178 Y11.587
G2 X25.1 Y12.132 I1.872 J0.545
G1 Y23.6
Z-4.4
Y26.4
Z-6.4 F333.3
Y37.868 F1000
G2 X27.717 Y39.701 I1.95 J0
G1 X37.1 Y36.285
Y50
G2 X38 Y50.9 I0.9 J0
G1 X48
G2 X48.9 Y50 I0 J-0.9
G1 Y38.9
Z-4.4
Y36.1
Z-6.4 F333.3
Y13.9 F1000
Z-4.4
Y11.1
Z-6.4 F333.3
Y0 F1000
G2 X48 Y-0.9 I-0.9 J0
G1 X38
G2 X37.1 Y0 I0 J0.9
G1 Y13.715
X27.717 Y10.299
G2 X25.178 Y11.587 I-0.667 J1.832
G1 Z10
M5
M30
