(1036_w_fin_only_rep)
(T1  D=1.8 CR=0 - ZMIN=-6.25 - flat end mill)
G90 G94
G17
G21
(When using Fusion 360 for Personal Use, the feedrate of)
(rapid moves is reduced to match the feedrate of cutting)
(moves, which can increase machining time. Unrestricted rapid)
(moves are available with a Fusion 360 Subscription.)

(2D Contour5)
T1
S5000 M3
G54
G0 X0 Y-1.08
Z10
G1 Z5 F1000
Z2 F333.3
Z-1
G2 X-1.08 Y0 I0 J1.08 F1000
G1 Y60
G2 X0 Y61.08 I1.08 J0
G1 X16.875
G2 X17.955 Y60 I0 J-1.08
G1 Y32.1
G2 X17.23 Y31.08 I-1.08 J0
G1 X22.77
G2 X22.045 Y32.1 I0.355 J1.02
G1 Y60
G2 X23.125 Y61.08 I1.08 J0
G1 X40
G2 X41.08 Y60 I0 J-1.08
G1 Y0
G2 X40 Y-1.08 I-1.08 J0
G1 X0
Z-2 F333.3
G2 X-1.08 Y0 I0 J1.08 F1000
G1 Y60
G2 X0 Y61.08 I1.08 J0
G1 X16.875
G2 X17.955 Y60 I0 J-1.08
G1 Y32.1
G2 X17.23 Y31.08 I-1.08 J0
G1 X22.77
G2 X22.045 Y32.1 I0.355 J1.02
G1 Y60
G2 X23.125 Y61.08 I1.08 J0
G1 X40
G2 X41.08 Y60 I0 J-1.08
G1 Y0
G2 X40 Y-1.08 I-1.08 J0
G1 X0
Z-3 F333.3
G2 X-1.08 Y0 I0 J1.08 F1000
G1 Y60
G2 X0 Y61.08 I1.08 J0
G1 X16.875
G2 X17.955 Y60 I0 J-1.08
G1 Y32.1
G2 X17.23 Y31.08 I-1.08 J0
G1 X22.77
G2 X22.045 Y32.1 I0.355 J1.02
G1 Y60
G2 X23.125 Y61.08 I1.08 J0
G1 X40
G2 X41.08 Y60 I0 J-1.08
G1 Y0
G2 X40 Y-1.08 I-1.08 J0
G1 X0
Z-4 F333.3
G2 X-1.08 Y0 I0 J1.08 F1000
G1 Y60
G2 X0 Y61.08 I1.08 J0
G1 X16.875
G2 X17.955 Y60 I0 J-1.08
G1 Y32.1
G2 X17.23 Y31.08 I-1.08 J0
G1 X22.77
G2 X22.045 Y32.1 I0.355 J1.02
G1 Y60
G2 X23.125 Y61.08 I1.08 J0
G1 X40
G2 X41.08 Y60 I0 J-1.08
G1 Y0
G2 X40 Y-1.08 I-1.08 J0
G1 X0
Z-5 F333.3
G2 X-1.08 Y0 I0 J1.08 F1000
G1 Y28.6
Z-4.25
Y31.4
Z-5 F333.3
Y60 F1000
G2 X0 Y61.08 I1.08 J0
G1 X16.875
G2 X17.955 Y60 I0 J-1.08
G1 Y32.1
G2 X17.23 Y31.08 I-1.08 J0
G1 X22.77
G2 X22.045 Y32.1 I0.355 J1.02
G1 Y60
G2 X23.125 Y61.08 I1.08 J0
G1 X40
G2 X41.08 Y60 I0 J-1.08
G1 Y31.4
Z-4.25
Y28.6
Z-5 F333.3
Y0 F1000
G2 X40 Y-1.08 I-1.08 J0
G1 X21.4
Z-4.25
X18.6
Z-5 F333.3
X0 F1000
Z-6 F333.3
G2 X-1.08 Y0 I0 J1.08 F1000
G1 Y28.6
Z-4.25
Y31.4
Z-6 F333.3
Y60 F1000
G2 X0 Y61.08 I1.08 J0
G1 X16.875
G2 X17.955 Y60 I0 J-1.08
G1 Y32.1
G2 X17.23 Y31.08 I-1.08 J0
G1 X22.77
G2 X22.045 Y32.1 I0.355 J1.02
G1 Y60
G2 X23.125 Y61.08 I1.08 J0
G1 X40
G2 X41.08 Y60 I0 J-1.08
G1 Y31.4
Z-4.25
Y28.6
Z-6 F333.3
Y0 F1000
G2 X40 Y-1.08 I-1.08 J0
G1 X21.4
Z-4.25
X18.6
Z-6 F333.3
X0 F1000
Z-6.25 F333.3
G2 X-1.08 Y0 I0 J1.08 F1000
G1 Y28.6
Z-4.25
Y31.4
Z-6.25 F333.3
Y60 F1000
G2 X0 Y61.08 I1.08 J0
G1 X16.875
G2 X17.955 Y60 I0 J-1.08
G1 Y32.1
G2 X17.23 Y31.08 I-1.08 J0
G1 X22.77
G2 X22.045 Y32.1 I0.355 J1.02
G1 Y60
G2 X23.125 Y61.08 I1.08 J0
G1 X40
G2 X41.08 Y60 I0 J-1.08
G1 Y31.4
Z-4.25
Y28.6
Z-6.25 F333.3
Y0 F1000
G2 X40 Y-1.08 I-1.08 J0
G1 X21.4
Z-4.25
X18.6
Z-6.25 F333.3
X0 F1000
X-0.045 Y-1.073
X-0.087 Y-1.052
X-0.12 Y-1.02
X-0.141 Y-0.98
X-0.161 Y-0.94
X-0.189 Y-0.905
X-0.225 Y-0.878
X-0.266 Y-0.86
G2 X-0.9 Y0 I0.266 J0.86
G1 Y28.6
Z-4.25
Y31.4
Z-6.25 F333.3
Y60 F1000
G2 X0 Y60.9 I0.9 J0
G1 X16.875
G2 X17.775 Y60 I0 J-0.9
G1 Y32.1
G2 X16.875 Y31.2 I-0.9 J0
G1 X16.675
Y30.9
X23.325
Y31.2
X23.125
G2 X22.225 Y32.1 I0 J0.9
G1 Y60
G2 X23.125 Y60.9 I0.9 J0
G1 X40
G2 X40.9 Y60 I0 J-0.9
G1 Y31.4
Z-4.25
Y28.6
Z-6.25 F333.3
Y0 F1000
G2 X40 Y-0.9 I-0.9 J0
G1 X21.4
Z-4.25
X18.6
Z-6.25 F333.3
X0 F1000
G2 X-0.9 Y0 I0 J0.9
G1 Y28.6
Z-4.25
Y31.4
Z-6.25 F333.3
Y60 F1000
G2 X0 Y60.9 I0.9 J0
G1 X16.875
G2 X17.775 Y60 I0 J-0.9
G1 Y32.1
G2 X16.875 Y31.2 I-0.9 J0
G1 X16.675
Y30.9
X23.325
Y31.2
X23.125
G2 X22.225 Y32.1 I0 J0.9
G1 Y60
G2 X23.125 Y60.9 I0.9 J0
G1 X40
G2 X40.9 Y60 I0 J-0.9
G1 Y31.4
Z-4.25
Y28.6
Z-6.25 F333.3
Y0 F1000
G2 X40 Y-0.9 I-0.9 J0
G1 X21.4
Z-4.25
X18.6
Z-6.25 F333.3
X0 F1000
G2 X-0.266 Y-0.86 I0 J0.9
G1 Z10
M5
M30
